; generated by Slic3r 1.2.9 on 2017-02-21 at 16:45:13

; external perimeters extrusion width = 0.40mm
; perimeters extrusion width = 0.40mm
; infill extrusion width = 0.40mm
; solid infill extrusion width = 0.40mm
; top infill extrusion width = 0.40mm

M107
M83
T0
M116
G21 ; set units to millimeters
G90 ; use absolute coordinates
M83 ; use relative distances for extrusion
G1 E-3.20000 F3000.00000
G1 Z0.400 F15000.000
G1 X9.390 Y0.000 F15000.000
G1 Z0.300 F15000.000
G1 E3.20000 F3000.00000
G1 X9.390 Y24.604 E1.89614 F960.000
G1 X9.065 Y26.108 E0.11855
G1 X9.035 Y26.173 E0.00552
G1 X7.995 Y27.509 E0.13052
G1 X7.002 Y28.074 E0.08800
G1 X5.649 Y28.336 E0.10623
G1 X-2.056 Y28.336 E0.59379
G1 X-2.779 Y28.296 E0.05575
G1 X-3.250 Y28.234 E0.03665
G1 X-3.725 Y28.140 E0.03730
G1 X-4.184 Y28.016 E0.03665
G1 X-4.642 Y27.861 E0.03730
G1 X-5.082 Y27.679 E0.03665
G1 X-5.516 Y27.465 E0.03730
G1 X-5.928 Y27.227 E0.03665
G1 X-6.330 Y26.958 E0.03730
G1 X-6.707 Y26.669 E0.03665
G1 X-7.071 Y26.350 E0.03730
G1 X-7.408 Y26.013 E0.03665
G1 X-7.727 Y25.649 E0.03730
G1 X-8.016 Y25.272 E0.03665
G1 X-8.285 Y24.870 E0.03730
G1 X-8.523 Y24.458 E0.03665
G1 X-8.737 Y24.024 E0.03730
G1 X-8.919 Y23.585 E0.03665
G1 X-9.074 Y23.126 E0.03730
G1 X-9.198 Y22.667 E0.03665
G1 X-9.292 Y22.192 E0.03730
G1 X-9.354 Y21.721 E0.03665
G1 X-9.394 Y20.998 E0.05575
G1 X-9.394 Y-20.998 E3.23650
G1 X-9.354 Y-21.721 E0.05575
G1 X-9.292 Y-22.192 E0.03665
G1 X-9.198 Y-22.667 E0.03730
G1 X-9.074 Y-23.126 E0.03665
G1 X-8.919 Y-23.585 E0.03730
G1 X-8.737 Y-24.024 E0.03665
G1 X-8.523 Y-24.458 E0.03730
G1 X-8.285 Y-24.870 E0.03665
G1 X-8.016 Y-25.272 E0.03730
G1 X-7.727 Y-25.649 E0.03665
G1 X-7.408 Y-26.013 E0.03730
G1 X-7.071 Y-26.350 E0.03665
G1 X-6.707 Y-26.669 E0.03730
G1 X-6.330 Y-26.958 E0.03665
G1 X-5.928 Y-27.227 E0.03730
G1 X-5.516 Y-27.465 E0.03665
G1 X-5.082 Y-27.679 E0.03730
G1 X-4.642 Y-27.861 E0.03665
G1 X-4.184 Y-28.016 E0.03730
G1 X-3.725 Y-28.140 E0.03665
G1 X-3.250 Y-28.234 E0.03730
G1 X-2.779 Y-28.296 E0.03665
G1 X-2.056 Y-28.336 E0.05575
G1 X5.649 Y-28.336 E0.59379
G1 X7.002 Y-28.074 E0.10624
G1 X7.078 Y-28.044 E0.00632 F960.000
G1 X8.460 Y-27.064 E0.13052
G1 X9.065 Y-26.108 E0.08720
G1 X9.390 Y-24.604 E0.11855
G1 X9.390 Y-0.060 E1.89152
G1 E-3.20000 F3000.00000
G1 Z0.700 F15000.000
G1 X-0.869 Y18.940 F15000.000
G1 Z0.300 F15000.000
G1 E3.20000 F3000.00000
G1 X-0.376 Y19.318 E0.04785 F600.000
G1 X-0.241 Y19.494 E0.01707
G1 X0.002 Y19.811 E0.03078
G1 X0.239 Y20.384 E0.04785
G1 X0.320 Y21.000 E0.04785
G1 X0.239 Y21.616 E0.04785
G1 X0.002 Y22.189 E0.04785
G1 X-0.376 Y22.682 E0.04785
G1 X-0.869 Y23.060 E0.04785
G1 X-1.442 Y23.297 E0.04785
G1 X-2.058 Y23.378 E0.04785
G1 X-2.674 Y23.297 E0.04785
G1 X-3.247 Y23.060 E0.04785
G1 X-3.740 Y22.682 E0.04785
G1 X-4.118 Y22.189 E0.04785
G1 X-4.355 Y21.616 E0.04785
G1 X-4.436 Y21.000 E0.04785
G1 X-4.355 Y20.384 E0.04785
G1 X-4.118 Y19.811 E0.04785
G1 X-3.740 Y19.318 E0.04785
G1 X-3.247 Y18.940 E0.04785
G1 X-2.674 Y18.703 E0.04785
G1 X-2.454 Y18.674 E0.01707
G1 X-2.058 Y18.622 E0.03078 F600.000
G1 X-1.442 Y18.703 E0.04785
G1 X-0.924 Y18.917 E0.04323
G1 X-0.514 Y18.756 F15000.000
G1 E-3.20000 F3000.00000
G1 Z0.700 F15000.000
G1 X1.086 Y23.714 F15000.000
G1 Z0.300 F15000.000
G1 E3.20000 F3000.00000
G1 X-0.253 Y23.714 E0.10319 F600.000
G1 X-0.340 Y23.456 E0.02106
G1 X0.077 Y23.135 E0.04057
G1 X0.557 Y22.510 E0.06075
G1 X0.859 Y21.782 E0.06075
G1 X0.962 Y21.000 E0.06075
G1 X0.859 Y20.218 E0.06075
G1 X0.739 Y19.928 E0.02421
G1 X1.054 Y19.769 E0.02723
G1 X1.591 Y20.655 E0.07986
G1 X2.650 Y22.219 E0.14558 F600.000
G1 X3.772 Y23.714 E0.14407
G1 X1.146 Y23.714 E0.20234
G1 E-3.20000 F3000.00000
G1 Z0.700 F15000.000
G1 X-4.772 Y1.524 F15000.000
G1 Z0.300 F15000.000
G1 E3.20000 F3000.00000
G1 X-4.772 Y-19.195 E1.59666 F720.000
G1 X-4.514 Y-19.282 E0.02106
G1 X-4.193 Y-18.865 E0.04057
G1 X-3.568 Y-18.385 E0.06075 F720.000
G1 X-2.839 Y-18.083 E0.06075
G1 X-2.058 Y-17.980 E0.06075
G1 X-1.276 Y-18.083 E0.06075
G1 X-0.548 Y-18.385 E0.06075
G1 X0.077 Y-18.865 E0.06075
G1 X0.212 Y-19.040 E0.01701
G1 X0.507 Y-18.848 E0.02717
G1 X-0.288 Y-17.377 E0.12889
G1 X-0.811 Y-16.286 E0.09322
G1 X-2.344 Y-16.286 E0.11813
G1 X-2.344 Y16.286 E2.51012
G1 X-0.811 Y16.286 E0.11813
G1 X-0.288 Y17.377 E0.09322
G1 X0.507 Y18.848 E0.12890
G1 X0.212 Y19.040 E0.02717
G1 X0.077 Y18.865 E0.01701
G1 X-0.548 Y18.385 E0.06075
G1 X-1.276 Y18.083 E0.06075
G1 X-2.058 Y17.980 E0.06075
G1 X-2.839 Y18.083 E0.06075
G1 X-3.568 Y18.385 E0.06075
G1 X-4.193 Y18.865 E0.06075
G1 X-4.514 Y19.282 E0.04057
G1 X-4.772 Y19.195 E0.02106
G1 X-4.772 Y1.584 E1.35720
G1 X-2.111 Y-18.629 F15000.000
G1 X-2.674 Y-18.703 E0.04370 F600.000
G1 X-3.247 Y-18.940 E0.04785
G1 X-3.740 Y-19.318 E0.04785
G1 X-4.118 Y-19.811 E0.04785
G1 X-4.355 Y-20.384 E0.04785
G1 X-4.436 Y-21.000 E0.04785
G1 X-4.355 Y-21.616 E0.04785
G1 X-4.118 Y-22.189 E0.04785
G1 X-3.740 Y-22.682 E0.04785
G1 X-3.247 Y-23.060 E0.04785
G1 X-2.674 Y-23.297 E0.04785
G1 X-2.454 Y-23.326 E0.01707
G1 X-2.058 Y-23.378 E0.03078 F600.000
G1 X-1.442 Y-23.297 E0.04785
G1 X-0.869 Y-23.060 E0.04785
G1 X-0.376 Y-22.682 E0.04785
G1 X0.002 Y-22.189 E0.04785
G1 X0.239 Y-21.616 E0.04785
G1 X0.320 Y-21.000 E0.04785
G1 X0.239 Y-20.384 E0.04785
G1 X0.002 Y-19.811 E0.04785
G1 X-0.376 Y-19.318 E0.04785
G1 X-0.869 Y-18.940 E0.04785
G1 X-1.442 Y-18.703 E0.04785
G1 X-2.052 Y-18.622 E0.04737
G1 X-2.329 Y-18.293 F15000.000
G1 E-3.20000 F3000.00000
G1 Z0.700 F15000.000
G1 X-0.159 Y-23.317 F15000.000
G1 Z0.300 F15000.000
G1 E3.20000 F3000.00000
G1 X-0.340 Y-23.456 E0.01758 F600.000
G1 X-0.253 Y-23.714 E0.02106
G1 X3.772 Y-23.714 E0.31016
G1 X3.081 Y-22.796 E0.08858
G1 X2.649 Y-22.219 E0.05553 F600.000
G1 X1.591 Y-20.655 E0.14554
G1 X1.054 Y-19.769 E0.07986
G1 X0.738 Y-19.928 E0.02723
G1 X0.859 Y-20.218 E0.02421
G1 X0.962 Y-21.000 E0.06075
G1 X0.859 Y-21.782 E0.06075
G1 X0.557 Y-22.510 E0.06075
G1 X0.077 Y-23.135 E0.06075
G1 X-0.112 Y-23.280 E0.01836
G1 X-0.112 Y-24.350 F15000.000
G1 X5.125 Y-24.350 E0.40362 F720.000
G1 X4.283 Y-23.336 E0.10161
G1 X3.167 Y-21.850 E0.14319 F720.000
G1 X2.126 Y-20.312 E0.14315
G1 X1.163 Y-18.724 E0.14314
G1 X0.279 Y-17.089 E0.14323
G1 X-0.410 Y-15.650 E0.12294
G1 X-1.708 Y-15.650 E0.10000
G1 X-1.708 Y15.650 E2.41215
G1 X-0.410 Y15.650 E0.10000
G1 X0.279 Y17.089 E0.12294
G1 X1.163 Y18.724 E0.14323
G1 X2.126 Y20.312 E0.14314
G1 X3.167 Y21.850 E0.14316
G1 X4.283 Y23.336 E0.14316
G1 X5.125 Y24.350 E0.10162
G1 X-2.045 Y24.350 E0.55259
G1 X-2.495 Y24.320 E0.03477
G1 X-2.925 Y24.235 E0.03376
G1 X-3.340 Y24.094 E0.03376
G1 X-3.733 Y23.900 E0.03376
G1 X-4.097 Y23.657 E0.03376
G1 X-4.426 Y23.368 E0.03376
G1 X-4.715 Y23.039 E0.03376
G1 X-4.958 Y22.675 E0.03376
G1 X-5.077 Y22.434 E0.02066
G1 X-5.152 Y22.282 E0.01310
G1 X-5.293 Y21.867 E0.03376
G1 X-5.378 Y21.437 E0.03376
G1 X-5.408 Y20.987 E0.03477
G1 X-5.408 Y-20.987 E3.23473
G1 X-5.378 Y-21.437 E0.03477
G1 X-5.293 Y-21.867 E0.03376
G1 X-5.152 Y-22.282 E0.03376
G1 X-4.958 Y-22.675 E0.03376
G1 X-4.715 Y-23.039 E0.03376
G1 X-4.426 Y-23.368 E0.03376
G1 X-4.097 Y-23.657 E0.03376
G1 X-3.733 Y-23.900 E0.03376
G1 X-3.340 Y-24.094 E0.03376
G1 X-2.925 Y-24.235 E0.03376
G1 X-2.495 Y-24.320 E0.03376
G1 X-2.045 Y-24.350 E0.03477
G1 X-0.172 Y-24.350 E0.14435
G1 X0.088 Y-24.004 F15000.000
G1 X-0.601 Y-23.677 F15000.000
G1 X-1.332 Y-23.819 E0.05736 F960.000
G1 X-2.029 Y-23.864 E0.05386
G1 X-2.430 Y-23.829 E0.03106
G1 X-2.778 Y-23.771 E0.02716
G1 X-3.150 Y-23.636 E0.03048
G1 X-3.490 Y-23.481 E0.02883
G1 X-3.795 Y-23.264 E0.02883
G1 X-4.084 Y-23.026 E0.02883
G1 X-4.321 Y-22.737 E0.02883
G1 X-4.539 Y-22.432 E0.02883
G1 X-4.694 Y-22.092 E0.02883
G1 X-4.829 Y-21.720 E0.03048
G1 X-4.887 Y-21.372 E0.02716
G1 X-4.922 Y-20.971 E0.03106
G1 X-4.877 Y-20.274 E0.05386
G1 X-4.735 Y-19.543 E0.05736
G1 X-0.560 Y-17.584 F15000.000
G1 X-0.860 Y-17.884 E0.03336 F960.000
G1 X-1.567 Y-17.673 E0.05807
G1 X-0.862 Y-16.968 E0.07850
G1 X-1.483 Y-16.671 E0.05418
G1 X-2.434 Y-17.622 E0.10587
G1 X-2.401 Y-16.671 E0.07491
G1 X-3.675 Y-17.945 E0.14182
G1 X-4.387 Y-17.739 E0.05832
G1 X-2.729 Y-16.081 E0.18451
G1 X-2.729 Y-15.163 E0.07223
G1 X-4.387 Y-16.821 E0.18451
G1 X-4.387 Y-15.903 E0.07223
G1 X-2.729 Y-14.246 E0.18451
G1 X-2.729 Y-13.328 E0.07223
G1 X-4.387 Y-14.986 E0.18451
G1 X-4.387 Y-14.068 E0.07223
G1 X-2.729 Y-12.410 E0.18451
G1 X-2.729 Y-11.492 E0.07223
G1 X-4.387 Y-13.150 E0.18451
G1 X-4.387 Y-12.232 E0.07223
G1 X-2.729 Y-10.574 E0.18451
G1 X-2.729 Y-9.656 E0.07223
G1 X-4.387 Y-11.314 E0.18451
G1 X-4.387 Y-10.396 E0.07223
G1 X-2.729 Y-8.738 E0.18451
G1 X-2.729 Y-7.820 E0.07223
G1 X-4.387 Y-9.478 E0.18451
G1 X-4.387 Y-8.560 E0.07223
G1 X-2.729 Y-6.902 E0.18451
G1 X-2.729 Y-5.984 E0.07223
G1 X-4.387 Y-7.642 E0.18451
G1 X-4.387 Y-6.724 E0.07223
G1 X-2.729 Y-5.066 E0.18451
G1 X-2.729 Y-4.149 E0.07223
G1 X-4.387 Y-5.806 E0.18451
G1 X-4.387 Y-4.889 E0.07223
G1 X-2.729 Y-3.231 E0.18451
G1 X-2.729 Y-2.313 E0.07223
G1 X-4.387 Y-3.971 E0.18451
G1 X-4.387 Y-3.053 E0.07223
G1 X-2.729 Y-1.395 E0.18451
G1 X-2.729 Y-0.477 E0.07223
G1 X-4.387 Y-2.135 E0.18451
G1 X-4.387 Y-1.217 E0.07223
G1 X-2.729 Y0.441 E0.18451
G1 X-2.729 Y1.359 E0.07223
G1 X-4.387 Y-0.299 E0.18451
G1 X-4.387 Y0.619 E0.07223
G1 X-2.729 Y2.277 E0.18451
G1 X-2.729 Y3.195 E0.07223
G1 X-4.387 Y1.537 E0.18451
G1 X-4.387 Y2.455 E0.07223
G1 X-2.729 Y4.113 E0.18451
G1 X-2.729 Y5.030 E0.07223
G1 X-4.387 Y3.373 E0.18451
G1 X-4.387 Y4.290 E0.07223
G1 X-2.729 Y5.948 E0.18451
G1 X-2.729 Y6.866 E0.07223
G1 X-4.387 Y5.208 E0.18451
G1 X-4.387 Y6.126 E0.07223
G1 X-2.729 Y7.784 E0.18451
G1 X-2.729 Y8.702 E0.07223
G1 X-4.387 Y7.044 E0.18451
G1 X-4.387 Y7.962 E0.07223
G1 X-2.729 Y9.620 E0.18451
G1 X-2.729 Y10.538 E0.07223
G1 X-4.387 Y8.880 E0.18451
G1 X-4.387 Y9.798 E0.07223
G1 X-2.729 Y11.456 E0.18451
G1 X-2.729 Y12.374 E0.07223
G1 X-4.387 Y10.716 E0.18451
G1 X-4.387 Y11.634 E0.07223
G1 X-2.729 Y13.292 E0.18451
G1 X-2.729 Y14.209 E0.07223
G1 X-4.387 Y12.552 E0.18451
G1 X-4.387 Y13.469 E0.07223
G1 X-2.729 Y15.127 E0.18451
G1 X-2.729 Y16.045 E0.07223
G1 X-4.387 Y14.387 E0.18451
G1 X-4.387 Y15.305 E0.07223
G1 X-2.081 Y17.611 E0.25664
G1 X-2.882 Y17.728 E0.06369
G1 X-4.387 Y16.223 E0.16752
G1 X-4.387 Y17.141 E0.07223
G1 X-3.531 Y17.997 E0.09528
G1 X-4.083 Y18.363 E0.05212
G1 X-4.387 Y18.059 E0.03382
G1 X-2.103 Y16.671 F15000.000
G1 X-1.072 Y17.703 E0.11481 F960.000
G1 X-4.735 Y19.543 F15000.000
G1 X-4.877 Y20.274 E0.05736 F960.000
G1 X-4.922 Y20.971 E0.05386
G1 X-4.887 Y21.372 E0.03106
G1 X-4.829 Y21.720 E0.02716
G1 X-4.694 Y22.092 E0.03048
G1 X-4.539 Y22.432 E0.02883
G1 X-4.321 Y22.737 E0.02883
G1 X-4.084 Y23.026 E0.02883
G1 X-3.795 Y23.264 E0.02883
G1 X-3.490 Y23.481 E0.02883
G1 X-3.150 Y23.636 E0.02883
G1 X-2.778 Y23.771 E0.03048
G1 X-2.430 Y23.829 E0.02716
G1 X-2.029 Y23.864 E0.03106
G1 X-1.332 Y23.819 E0.05386
G1 X-0.601 Y23.677 E0.05736
G1 X0.579 Y23.025 F15000.000
G1 X0.883 Y23.329 E0.04578 F960.000
G1 X2.125 Y23.329 E0.13232
G1 X1.040 Y22.243 E0.16352
G1 X1.317 Y21.278 E0.10694
G1 X1.662 Y21.623 E0.05186
G1 E-3.20000 F3000.00000
G1 Z0.700 F15000.000
G1 X1.294 Y-21.571 F15000.000
G1 Z0.300 F15000.000
G1 E3.20000 F3000.00000
G1 X1.587 Y-21.278 E0.03550 F960.000
G1 X2.005 Y-21.860 E0.06138
G1 X0.609 Y-23.256 E0.16918
G1 X1.536 Y-23.329 E0.07968
G1 X2.411 Y-22.454 E0.10608
G1 X2.535 Y-23.329 E0.07576
G1 X2.839 Y-23.025 E0.03684
G1 E-3.20000 F3000.00000
G1 Z0.700 F15000.000
G1 X-2.058 Y18.663 F15000.000
G1 Z0.500 F15000.000
G1 E3.20000 F3000.00000
G1 X-1.453 Y18.742 E0.01761 F2400.000
G1 X-0.889 Y18.976 E0.01761
G1 X-0.405 Y19.347 E0.01761
G1 X-0.034 Y19.831 E0.01761
G1 X0.200 Y20.395 E0.01761
G1 X0.279 Y21.000 E0.01761
G1 X0.200 Y21.605 E0.01761
G1 X-0.034 Y22.169 E0.01761
G1 X-0.405 Y22.653 E0.01761
G1 X-0.889 Y23.024 E0.01761
G1 X-1.453 Y23.258 E0.01761
G1 X-2.058 Y23.337 E0.01761
G1 X-2.663 Y23.258 E0.01761
G1 X-3.227 Y23.024 E0.01761
G1 X-3.711 Y22.653 E0.01761
G1 X-4.082 Y22.169 E0.01761
G1 X-4.316 Y21.605 E0.01761
G1 X-4.395 Y21.000 E0.01761
G1 X-4.316 Y20.395 E0.01761
G1 X-4.082 Y19.831 E0.01761
G1 X-3.711 Y19.347 E0.01761
G1 X-3.227 Y18.976 E0.01761
G1 X-2.663 Y18.742 E0.01761
G1 X-2.117 Y18.671 E0.01588 F2400.000
G1 X-2.071 Y19.025 F15000.000
G1 X-1.546 Y19.090 E0.01526 F2400.000
G1 X-1.069 Y19.288 E0.01490
G1 X-0.660 Y19.602 E0.01490
G1 X-0.346 Y20.011 E0.01490
G1 X-0.148 Y20.488 E0.01490
G1 X-0.081 Y21.000 E0.01490
G1 X-0.148 Y21.512 E0.01490
G1 X-0.346 Y21.989 E0.01490
G1 X-0.660 Y22.398 E0.01490
G1 X-1.069 Y22.712 E0.01490
G1 X-1.546 Y22.910 E0.01490
G1 X-2.058 Y22.977 E0.01490
G1 X-2.570 Y22.910 E0.01490
G1 X-3.047 Y22.712 E0.01490
G1 X-3.456 Y22.398 E0.01490
G1 X-3.770 Y21.989 E0.01490
G1 X-3.968 Y21.512 E0.01490
G1 X-4.035 Y21.000 E0.01490
G1 X-3.968 Y20.488 E0.01490
G1 X-3.770 Y20.011 E0.01490
G1 X-3.456 Y19.602 E0.01490
G1 X-3.047 Y19.288 E0.01490
G1 X-2.570 Y19.090 E0.01490
G1 X-2.130 Y19.032 E0.01279 F2400.000
G1 X-1.857 Y18.686 F15000.000
G1 E-3.20000 F3000.00000
G1 Z0.900 F15000.000
G1 X-2.058 Y-18.663 F15000.000
G1 Z0.500 F15000.000
G1 E3.20000 F3000.00000
G1 X-2.663 Y-18.742 E0.01761 F2400.000
G1 X-3.227 Y-18.976 E0.01761
G1 X-3.711 Y-19.347 E0.01761
G1 X-4.082 Y-19.831 E0.01761
G1 X-4.316 Y-20.395 E0.01761
G1 X-4.395 Y-21.000 E0.01761
G1 X-4.316 Y-21.605 E0.01761
G1 X-4.082 Y-22.169 E0.01761
G1 X-3.711 Y-22.653 E0.01761
G1 X-3.227 Y-23.024 E0.01761
G1 X-2.663 Y-23.258 E0.01761
G1 X-2.058 Y-23.337 E0.01761 F2400.000
G1 X-1.453 Y-23.258 E0.01761
G1 X-0.889 Y-23.024 E0.01761
G1 X-0.405 Y-22.653 E0.01761
G1 X-0.034 Y-22.169 E0.01761
G1 X0.200 Y-21.605 E0.01761
G1 X0.279 Y-21.000 E0.01761
G1 X0.200 Y-20.395 E0.01761
G1 X-0.034 Y-19.831 E0.01761
G1 X-0.405 Y-19.347 E0.01761
G1 X-0.889 Y-18.976 E0.01761
G1 X-1.453 Y-18.742 E0.01761
G1 X-1.998 Y-18.671 E0.01588
G1 X-2.045 Y-19.025 F15000.000
G1 X-2.570 Y-19.090 E0.01526 F2400.000
G1 X-3.047 Y-19.288 E0.01490
G1 X-3.456 Y-19.602 E0.01490
G1 X-3.770 Y-20.011 E0.01490
G1 X-3.968 Y-20.488 E0.01490
G1 X-4.035 Y-21.000 E0.01490
G1 X-3.968 Y-21.512 E0.01490
G1 X-3.770 Y-21.989 E0.01490
G1 X-3.456 Y-22.398 E0.01490
G1 X-3.047 Y-22.712 E0.01490
G1 X-2.570 Y-22.910 E0.01490
G1 X-2.058 Y-22.977 E0.01490 F2400.000
G1 X-1.546 Y-22.910 E0.01490
G1 X-1.069 Y-22.712 E0.01490
G1 X-0.660 Y-22.398 E0.01490
G1 X-0.346 Y-21.989 E0.01490
G1 X-0.148 Y-21.512 E0.01490
G1 X-0.081 Y-21.000 E0.01490
G1 X-0.148 Y-20.488 E0.01490
G1 X-0.346 Y-20.011 E0.01490
G1 X-0.660 Y-19.602 E0.01490
G1 X-1.069 Y-19.288 E0.01490
G1 X-1.546 Y-19.090 E0.01490
G1 X-1.986 Y-19.032 E0.01279
G1 X-2.259 Y-18.686 F15000.000
G1 E-3.20000 F3000.00000
G1 Z0.900 F15000.000
G1 X-1.665 Y7.521 F15000.000
G1 Z0.500 F15000.000
G1 E3.20000 F3000.00000
G1 X-1.665 Y15.607 E0.23338 F2400.000
G1 X-0.380 Y15.607 E0.03708
G1 X0.255 Y16.948 E0.04282
G1 X1.146 Y18.607 E0.05435
G1 X2.118 Y20.219 E0.05435
G1 X3.170 Y21.781 E0.05435
G1 X4.299 Y23.288 E0.05435
G1 X5.217 Y24.393 E0.04146
G1 X-2.038 Y24.393 E0.20940
G1 X-2.501 Y24.363 E0.01338
G1 X-2.936 Y24.276 E0.01281
G1 X-3.356 Y24.133 E0.01280
G1 X-3.754 Y23.937 E0.01280
G1 X-4.123 Y23.691 E0.01280
G1 X-4.456 Y23.398 E0.01280
G1 X-4.749 Y23.065 E0.01280
G1 X-4.995 Y22.696 E0.01280
G1 X-5.191 Y22.298 E0.01280
G1 X-5.334 Y21.878 E0.01280
G1 X-5.421 Y21.443 E0.01280
G1 X-5.451 Y20.980 E0.01338
G1 X-5.451 Y-20.980 E1.21109
G1 X-5.421 Y-21.443 E0.01338
G1 X-5.334 Y-21.878 E0.01280
G1 X-5.191 Y-22.298 E0.01280
G1 X-4.995 Y-22.696 E0.01280
G1 X-4.749 Y-23.065 E0.01280
G1 X-4.456 Y-23.398 E0.01280
G1 X-4.123 Y-23.691 E0.01280
G1 X-3.754 Y-23.937 E0.01280
G1 X-3.356 Y-24.133 E0.01280
G1 X-2.936 Y-24.276 E0.01280
G1 X-2.501 Y-24.363 E0.01280
G1 X-2.038 Y-24.393 E0.01337
G1 X5.199 Y-24.382 E0.20890
G1 X4.298 Y-23.287 E0.04093 F2400.000
G1 X3.170 Y-21.781 E0.05431
G1 X2.118 Y-20.219 E0.05435
G1 X1.146 Y-18.607 E0.05435
G1 X0.255 Y-16.948 E0.05435
G1 X-0.380 Y-15.607 E0.04282
G1 X-1.665 Y-15.607 E0.03708
G1 X-1.665 Y7.461 E0.66582
G1 X-1.308 Y7.461 F15000.000
G1 X-1.308 Y15.250 E0.22480 F2400.000
G1 X-0.154 Y15.250 E0.03329
G1 X0.574 Y16.787 E0.04909
G1 X1.456 Y18.430 E0.05383
G1 X2.419 Y20.027 E0.05383
G1 X3.461 Y21.574 E0.05383
