; generated by Slic3r 1.2.9 on 2017-03-17 at 11:21:47

; external perimeters extrusion width = 0.40mm
; perimeters extrusion width = 0.40mm
; infill extrusion width = 0.40mm
; solid infill extrusion width = 0.40mm
; top infill extrusion width = 0.40mm

M107
M83
T0
M116
G21 ; set units to millimeters
G90 ; use absolute coordinates
M83 ; use relative distances for extrusion
G1 E-3.20000 F3000.00000
G1 Z0.400 F15000.000
G1 X-0.000 Y13.586 F15000.000
G1 Z0.300 F15000.000
G1 E3.20000 F3000.00000
G1 X-15.213 Y13.586 E1.17236 F960.000
G1 X-16.860 Y13.191 E0.13052
G1 X-18.149 Y12.093 E0.13052
G1 X-18.848 Y9.950 E0.17373
G1 X-18.848 Y-9.950 E1.53360
G1 X-18.454 Y-11.597 E0.13052
G1 X-17.356 Y-12.887 E0.13052
G1 X-15.213 Y-13.586 E0.17373
G1 X15.703 Y-13.586 E2.38251
G1 X17.350 Y-13.191 E0.13052 F960.000
G1 X18.640 Y-12.093 E0.13052
G1 X19.338 Y-9.950 E0.17373
G1 X19.338 Y9.950 E1.53360
G1 X18.944 Y11.597 E0.13052
G1 X17.846 Y12.887 E0.13052
G1 X15.703 Y13.586 E0.17373
G1 X0.060 Y13.586 E1.20552
G1 E-3.20000 F3000.00000
G1 Z0.700 F15000.000
G1 X0.058 Y8.318 F15000.000
G1 Z0.300 F15000.000
G1 E3.20000 F3000.00000
G1 X-10.274 Y8.322 E0.79623 F720.000
G1 X-10.274 Y-7.712 E1.23572
G1 X-10.274 Y-8.323 E0.04703 F720.000
G1 X9.128 Y-8.314 E1.49524
G1 X9.128 Y8.314 E1.28152
G1 X0.118 Y8.318 E0.69438
G1 X-0.142 Y8.665 F15000.000
G1 E-3.20000 F3000.00000
G1 Z0.700 F15000.000
G1 X-10.910 Y0.753 F15000.000
G1 Z0.300 F15000.000
G1 E3.20000 F3000.00000
G1 X-10.910 Y8.964 E0.63283 F720.000
G1 X-14.227 Y8.964 E0.25564
G1 X-14.227 Y-8.964 E1.38169
G1 X-10.910 Y-8.964 E0.25564
G1 X-10.910 Y0.693 E0.74424 F720.000
G1 E-3.20000 F3000.00000
G1 Z0.700 F15000.000
G1 X9.764 Y-0.647 F15000.000
G1 Z0.300 F15000.000
G1 E3.20000 F3000.00000
G1 X9.764 Y-8.964 E0.64099 F720.000
G1 X14.717 Y-8.964 E0.38174
G1 X14.717 Y8.964 E1.38169 F720.000
G1 X9.764 Y8.964 E0.38175
G1 X9.764 Y-0.587 E0.73608
G1 X15.353 Y-0.587 F15000.000
G1 X15.353 Y9.600 E0.78506 F720.000
G1 X-14.863 Y9.600 E2.32856
G1 X-14.863 Y-9.600 E1.47966
G1 X15.353 Y-9.600 E2.32856
G1 X15.353 Y-0.647 E0.68997 F720.000
G1 X15.006 Y-0.387 F15000.000
G1 X14.332 Y-8.269 F15000.000
G1 X14.022 Y-8.579 E0.03383 F960.000
G1 X13.121 Y-8.579 E0.06959
G1 X14.332 Y-7.368 E0.13224
G1 X14.332 Y-6.467 E0.06959
G1 X12.220 Y-8.579 E0.23065
G1 X11.319 Y-8.579 E0.06959
G1 X14.332 Y-5.567 E0.32906
G1 X14.332 Y-4.666 E0.06959
G1 X10.418 Y-8.579 E0.42747
G1 X10.149 Y-7.947 E0.05304
G1 X14.332 Y-3.765 E0.45688
G1 X14.332 Y-2.864 E0.06959
G1 X10.149 Y-7.046 E0.45688
G1 X10.149 Y-6.145 E0.06959
G1 X14.332 Y-1.963 E0.45688
G1 X14.332 Y-1.062 E0.06959
G1 X10.149 Y-5.245 E0.45688
G1 X10.149 Y-4.344 E0.06959
G1 X14.332 Y-0.161 E0.45688
G1 X14.332 Y0.740 E0.06959
G1 X10.149 Y-3.443 E0.45688
G1 X10.149 Y-2.542 E0.06959
G1 X14.332 Y1.641 E0.45688
G1 X14.332 Y2.542 E0.06959
G1 X10.149 Y-1.641 E0.45688
G1 X10.149 Y-0.740 E0.06959
G1 X14.332 Y3.443 E0.45688
G1 X14.332 Y4.344 E0.06959
G1 X10.149 Y0.161 E0.45688
G1 X10.149 Y1.062 E0.06959
G1 X14.332 Y5.245 E0.45689
G1 X14.332 Y6.146 E0.06959
G1 X10.149 Y1.963 E0.45689
G1 X10.149 Y2.864 E0.06959
G1 X14.332 Y7.046 E0.45689
G1 X14.332 Y7.947 E0.06959
G1 X10.149 Y3.765 E0.45689
G1 X10.149 Y4.666 E0.06959
G1 X14.062 Y8.579 E0.42747
G1 X13.162 Y8.579 E0.06959
G1 X10.149 Y5.567 E0.32905
G1 X10.149 Y6.467 E0.06959
G1 X12.261 Y8.579 E0.23064
G1 X11.360 Y8.579 E0.06959
G1 X10.149 Y7.368 E0.13223
G1 X10.149 Y8.269 E0.06959
G1 X10.459 Y8.579 E0.03382
G1 X9.446 Y8.957 F15000.000
G1 X-10.592 Y8.961 E3.24484 F960.000
G1 X-13.532 Y8.579 F15000.000
G1 X-13.842 Y8.269 E0.03412 F960.000
G1 X-13.842 Y7.360 E0.07081
G1 X-12.623 Y8.579 E0.13426
G1 X-11.714 Y8.579 E0.07081
G1 X-13.842 Y6.452 E0.23440
G1 X-13.842 Y5.543 E0.07081
G1 X-11.295 Y8.089 E0.28058
G1 X-11.295 Y7.180 E0.07081
G1 X-13.842 Y4.634 E0.28058
G1 X-13.842 Y3.725 E0.07081
G1 X-11.295 Y6.272 E0.28058
G1 X-11.295 Y5.363 E0.07081
G1 X-13.842 Y2.816 E0.28058
G1 X-13.842 Y1.908 E0.07081
G1 X-11.295 Y4.454 E0.28058
G1 X-11.295 Y3.545 E0.07081
G1 X-13.842 Y0.999 E0.28058
G1 X-13.842 Y0.090 E0.07081
G1 X-11.295 Y2.636 E0.28058
G1 X-11.295 Y1.728 E0.07081
G1 X-13.842 Y-0.819 E0.28058
G1 X-13.842 Y-1.728 E0.07081
G1 X-11.295 Y0.819 E0.28058
G1 X-11.295 Y-0.090 E0.07081
G1 X-13.842 Y-2.636 E0.28058
G1 X-13.842 Y-3.545 E0.07081
G1 X-11.295 Y-0.999 E0.28058
G1 X-11.295 Y-1.908 E0.07081
G1 X-13.842 Y-4.454 E0.28058
G1 X-13.842 Y-5.363 E0.07081
G1 X-11.295 Y-2.816 E0.28058
G1 X-11.295 Y-3.725 E0.07081
G1 X-13.842 Y-6.272 E0.28058
G1 X-13.842 Y-7.180 E0.07081
G1 X-11.295 Y-4.634 E0.28058
G1 X-11.295 Y-5.543 E0.07081
G1 X-13.842 Y-8.089 E0.28058
G1 X-13.422 Y-8.579 E0.05022
G1 X-11.295 Y-6.452 E0.23440
G1 X-11.295 Y-7.360 E0.07081
G1 X-12.514 Y-8.579 E0.13426
G1 X-11.605 Y-8.579 E0.07081
G1 X-11.295 Y-8.269 E0.03412
G1 X-10.592 Y-8.961 F15000.000
G1 X9.446 Y-8.957 E3.24485 F960.000
G1 E-3.20000 F3000.00000
G1 Z0.700 F15000.000
G1 X9.023 Y-8.375 F15000.000
G1 Z0.500 F15000.000
G1 E3.20000 F3000.00000
G1 X9.023 Y8.375 E0.48342 F2400.000
G1 X-10.281 Y8.383 E0.55716
G1 X-10.281 Y-7.167 E0.44880
G1 X-10.281 Y-8.383 E0.03509 F2400.000
G1 X8.963 Y-8.375 E0.55543
G1 X8.666 Y-8.018 F15000.000
G1 X8.666 Y8.018 E0.46282 F2400.000
G1 X-9.924 Y8.025 E0.53655
G1 X-9.924 Y-7.167 E0.43849
G1 X-9.924 Y-8.025 E0.02477 F2400.000
G1 X8.606 Y-8.018 E0.53482
G1 X9.066 Y-8.018 F15000.000
G1 X12.257 Y-9.393 F15000.000
G1 X15.150 Y-9.393 E0.08348 F2400.000
G1 X15.266 Y-9.393 E0.00336 F2400.000
G1 X15.266 Y9.393 E0.54221
G1 X-14.968 Y9.393 E0.87262
G1 X-14.968 Y-9.393 E0.54221
G1 X12.197 Y-9.393 E0.78406
G1 X12.197 Y-9.750 F15000.000
G1 X15.150 Y-9.750 E0.08521 F2400.000
G1 X15.623 Y-9.750 E0.01366 F2400.000
G1 X15.623 Y9.750 E0.56282
G1 X-15.325 Y9.750 E0.89323
G1 X-15.325 Y-9.750 E0.56282
G1 X12.137 Y-9.750 E0.79263
G1 X12.397 Y-9.404 F15000.000
G1 X15.058 Y1.874 F15000.000
G1 X9.231 Y7.701 E0.23955 F2400.000
G1 X9.231 Y7.193 E0.01478
G1 X15.058 Y1.365 E0.23955
G1 X15.058 Y0.857 E0.01478
G1 X9.231 Y6.684 E0.23955
G1 X9.231 Y6.175 E0.01478
G1 X15.058 Y0.348 E0.23955
G1 X15.058 Y-0.161 E0.01478
G1 X9.231 Y5.667 E0.23955
G1 X9.231 Y5.158 E0.01478
G1 X15.058 Y-0.669 E0.23955
G1 X15.058 Y-1.178 E0.01478
G1 X9.231 Y4.650 E0.23955
G1 X9.231 Y4.141 E0.01478
G1 X15.058 Y-1.686 E0.23955
G1 X15.058 Y-2.195 E0.01478
G1 X9.231 Y3.633 E0.23955
G1 X9.231 Y3.124 E0.01478
G1 X15.058 Y-2.703 E0.23955
G1 X15.058 Y-3.212 E0.01478
G1 X9.231 Y2.615 E0.23955
G1 X9.231 Y2.107 E0.01478
G1 X15.058 Y-3.721 E0.23955
G1 X15.058 Y-4.229 E0.01478
G1 X9.231 Y1.598 E0.23955
G1 X9.231 Y1.090 E0.01478
G1 X15.058 Y-4.738 E0.23955
G1 X15.058 Y-5.246 E0.01478
G1 X9.231 Y0.581 E0.23955
G1 X9.231 Y0.073 E0.01478
G1 X15.058 Y-5.755 E0.23955
G1 X15.058 Y-6.263 E0.01478
G1 X9.231 Y-0.436 E0.23955
G1 X9.231 Y-0.945 E0.01478
G1 X15.058 Y-6.772 E0.23955
G1 X15.058 Y-7.281 E0.01478
G1 X9.231 Y-1.453 E0.23955
G1 X9.231 Y-1.962 E0.01478
G1 X15.058 Y-7.789 E0.23955
G1 X15.058 Y-8.298 E0.01478
G1 X9.231 Y-2.470 E0.23955
G1 X9.231 Y-2.979 E0.01478
G1 X15.058 Y-8.806 E0.23955
G1 X14.929 Y-9.185 E0.01164
G1 X9.231 Y-3.487 E0.23422
G1 X9.231 Y-3.996 E0.01478
G1 X14.420 Y-9.185 E0.21331
G1 X13.911 Y-9.185 E0.01478
G1 X9.231 Y-4.505 E0.19241
G1 X9.231 Y-5.013 E0.01478
G1 X13.403 Y-9.185 E0.17150
G1 X12.894 Y-9.185 E0.01478
G1 X9.231 Y-5.522 E0.15060
G1 X9.231 Y-6.030 E0.01478
G1 X12.386 Y-9.185 E0.12969
G1 X11.877 Y-9.185 E0.01478
G1 X9.231 Y-6.539 E0.10878
G1 X9.231 Y-7.047 E0.01478
G1 X11.369 Y-9.185 E0.08788
G1 X10.860 Y-9.185 E0.01478
G1 X9.231 Y-7.556 E0.06697
G1 X9.231 Y-8.065 E0.01478
G1 X10.351 Y-9.185 E0.04607
G1 X9.843 Y-9.185 E0.01478
G1 X9.231 Y-8.573 E0.02516
G1 X8.732 Y-8.582 E0.01452
G1 X9.334 Y-9.185 E0.02478
G1 X8.826 Y-9.185 E0.01478
G1 X8.223 Y-8.583 E0.02477
G1 X7.715 Y-8.583 E0.01478
G1 X8.317 Y-9.185 E0.02476
G1 X7.809 Y-9.185 E0.01478
G1 X7.206 Y-8.583 E0.02475
G1 X6.698 Y-8.583 E0.01478
G1 X7.300 Y-9.185 E0.02475
G1 X6.792 Y-9.185 E0.01478
G1 X6.190 Y-8.583 E0.02474
G1 X5.681 Y-8.584 E0.01478
G1 X6.283 Y-9.185 E0.02473
G1 X5.774 Y-9.185 E0.01478
G1 X5.173 Y-8.584 E0.02472
G1 X4.665 Y-8.584 E0.01478
G1 X5.266 Y-9.185 E0.02471
G1 X4.757 Y-9.185 E0.01478
G1 X4.156 Y-8.584 E0.02470
G1 X3.648 Y-8.584 E0.01478
G1 X4.249 Y-9.185 E0.02469
G1 X3.740 Y-9.185 E0.01478
G1 X3.140 Y-8.585 E0.02468
G1 X2.631 Y-8.585 E0.01478
G1 X3.232 Y-9.185 E0.02468
G1 X2.723 Y-9.185 E0.01478
G1 X2.123 Y-8.585 E0.02467
G1 X1.615 Y-8.585 E0.01478
G1 X2.214 Y-9.185 E0.02466
G1 X1.706 Y-9.185 E0.01478
G1 X1.106 Y-8.586 E0.02465
G1 X0.598 Y-8.586 E0.01478
G1 X1.197 Y-9.185 E0.02464
G1 X0.689 Y-9.185 E0.01478
G1 X0.089 Y-8.586 E0.02463
G1 X-0.419 Y-8.586 E0.01478
G1 X0.180 Y-9.185 E0.02462
G1 X-0.328 Y-9.185 E0.01478
G1 X-0.927 Y-8.586 E0.02462
G1 X-1.436 Y-8.587 E0.01478
G1 X-0.837 Y-9.185 E0.02461
G1 X-1.346 Y-9.185 E0.01478
G1 X-1.944 Y-8.587 E0.02460
G1 X-2.452 Y-8.587 E0.01478
G1 X-1.854 Y-9.185 E0.02459
G1 X-2.363 Y-9.185 E0.01478
G1 X-2.961 Y-8.587 E0.02458
G1 X-3.469 Y-8.587 E0.01478
G1 X-2.871 Y-9.185 E0.02457
G1 X-3.380 Y-9.185 E0.01478
G1 X-3.977 Y-8.588 E0.02456
G1 X-4.486 Y-8.588 E0.01478
G1 X-3.888 Y-9.185 E0.02455
G1 X-4.397 Y-9.185 E0.01478
G1 X-4.994 Y-8.588 E0.02455
G1 X-5.502 Y-8.588 E0.01478
G1 X-4.906 Y-9.185 E0.02454
G1 X-5.414 Y-9.185 E0.01478
G1 X-6.011 Y-8.588 E0.02453
G1 X-6.519 Y-8.589 E0.01478
G1 X-5.923 Y-9.185 E0.02452
G1 X-6.431 Y-9.185 E0.01478
G1 X-7.028 Y-8.589 E0.02451
G1 X-7.536 Y-8.589 E0.01478
G1 X-6.940 Y-9.185 E0.02450
G1 X-7.448 Y-9.185 E0.01478
G1 X-8.044 Y-8.589 E0.02449
G1 X-8.553 Y-8.590 E0.01478
G1 X-7.957 Y-9.185 E0.02449
G1 X-8.466 Y-9.185 E0.01478
G1 X-9.061 Y-8.590 E0.02448
G1 X-9.569 Y-8.590 E0.01478
G1 X-8.974 Y-9.185 E0.02447
G1 X-9.483 Y-9.185 E0.01478
G1 X-10.078 Y-8.590 E0.02446
G1 X-14.760 Y-8.994 F15000.000
G1 X-14.568 Y-9.185 E0.00787 F2400.000
G1 X-14.060 Y-9.185 E0.01478
G1 X-14.760 Y-8.485 E0.02877
G1 X-14.760 Y-7.977 E0.01478
G1 X-13.551 Y-9.185 E0.04968
G1 X-13.043 Y-9.185 E0.01478
G1 X-14.760 Y-7.468 E0.07059
G1 X-14.760 Y-6.959 E0.01478
G1 X-12.534 Y-9.185 E0.09149
G1 X-12.026 Y-9.185 E0.01478
G1 X-14.760 Y-6.451 E0.11240
G1 X-14.760 Y-5.942 E0.01478
G1 X-11.517 Y-9.185 E0.13330
G1 X-11.008 Y-9.185 E0.01478
G1 X-14.760 Y-5.434 E0.15421
G1 X-14.760 Y-4.925 E0.01478
G1 X-10.500 Y-9.185 E0.17512
G1 X-9.991 Y-9.185 E0.01478
G1 X-14.760 Y-4.417 E0.19602
G1 X-14.760 Y-3.908 E0.01478
G1 X-10.489 Y-8.179 E0.17558
G1 X-10.489 Y-7.671 E0.01478
G1 X-14.760 Y-3.400 E0.17558
G1 X-14.760 Y-2.891 E0.01478
G1 X-10.489 Y-7.162 E0.17558
G1 X-10.489 Y-6.654 E0.01478
G1 X-14.760 Y-2.382 E0.17558
G1 X-14.760 Y-1.874 E0.01478
G1 X-10.489 Y-6.145 E0.17558
G1 X-10.489 Y-5.636 E0.01478
G1 X-14.760 Y-1.365 E0.17558
G1 X-14.760 Y-0.857 E0.01478
G1 X-10.489 Y-5.128 E0.17558
G1 X-10.489 Y-4.619 E0.01478
G1 X-14.760 Y-0.348 E0.17558
G1 X-14.760 Y0.160 E0.01478
G1 X-10.489 Y-4.111 E0.17558
G1 X-10.489 Y-3.602 E0.01478
G1 X-14.760 Y0.669 E0.17558
G1 X-14.760 Y1.178 E0.01478
G1 X-10.489 Y-3.094 E0.17558
G1 X-10.489 Y-2.585 E0.01478
G1 X-14.760 Y1.686 E0.17558
G1 X-14.760 Y2.195 E0.01478
G1 X-10.489 Y-2.076 E0.17558
G1 X-10.489 Y-1.568 E0.01478
G1 X-14.760 Y2.703 E0.17558
G1 X-14.760 Y3.212 E0.01478
G1 X-10.489 Y-1.059 E0.17558
G1 X-10.489 Y-0.551 E0.01478
G1 X-14.760 Y3.720 E0.17558
G1 X-14.760 Y4.229 E0.01478
G1 X-10.489 Y-0.042 E0.17558
G1 X-10.489 Y0.466 E0.01478
G1 X-14.760 Y4.738 E0.17558
G1 X-14.760 Y5.246 E0.01478
G1 X-10.489 Y0.975 E0.17558
G1 X-10.489 Y1.484 E0.01478
G1 X-14.760 Y5.755 E0.17558
G1 X-14.760 Y6.263 E0.01478
G1 X-10.489 Y1.992 E0.17558
G1 X-10.489 Y2.501 E0.01478
G1 X-14.760 Y6.772 E0.17558
G1 X-14.760 Y7.280 E0.01478
G1 X-10.489 Y3.009 E0.17558
G1 X-10.489 Y3.518 E0.01478
G1 X-14.760 Y7.789 E0.17558
G1 X-14.760 Y8.298 E0.01478
G1 X-10.489 Y4.026 E0.17558
G1 X-10.489 Y4.535 E0.01478
G1 X-14.760 Y8.806 E0.17558
G1 X-14.630 Y9.185 E0.01164
G1 X-10.489 Y5.044 E0.17025
G1 X-10.489 Y5.552 E0.01478
G1 X-14.122 Y9.185 E0.14934
G1 X-13.613 Y9.185 E0.01478
G1 X-10.489 Y6.061 E0.12844
G1 X-10.489 Y6.569 E0.01478
G1 X-13.105 Y9.185 E0.10753
G1 X-12.596 Y9.185 E0.01478
G1 X-10.489 Y7.078 E0.08663
G1 X-10.489 Y7.586 E0.01478
G1 X-12.087 Y9.185 E0.06572
G1 X-11.579 Y9.185 E0.01478
G1 X-10.489 Y8.095 E0.04481
G1 X-10.475 Y8.590 E0.01440
G1 X-11.070 Y9.185 E0.02445
G1 X-10.562 Y9.185 E0.01478
G1 X-9.967 Y8.590 E0.02446
G1 X-9.458 Y8.590 E0.01479
G1 X-10.053 Y9.185 E0.02447
G1 X-9.545 Y9.185 E0.01478
G1 X-8.949 Y8.590 E0.02448
G1 X-8.440 Y8.590 E0.01479
G1 X-9.036 Y9.185 E0.02449
G1 X-8.527 Y9.185 E0.01478
G1 X-7.932 Y8.589 E0.02449
G1 X-7.423 Y8.589 E0.01479
G1 X-8.019 Y9.185 E0.02450
G1 X-7.510 Y9.185 E0.01478
G1 X-6.914 Y8.589 E0.02451
G1 X-6.405 Y8.589 E0.01479
G1 X-7.002 Y9.185 E0.02452
G1 X-6.493 Y9.185 E0.01478
G1 X-5.896 Y8.588 E0.02453
G1 X-5.388 Y8.588 E0.01479
G1 X-5.985 Y9.185 E0.02454
G1 X-5.476 Y9.185 E0.01478
G1 X-4.879 Y8.588 E0.02455
G1 X-4.370 Y8.588 E0.01479
G1 X-4.967 Y9.185 E0.02455
G1 X-4.459 Y9.185 E0.01478
G1 X-3.861 Y8.588 E0.02456
G1 X-3.353 Y8.587 E0.01479
G1 X-3.950 Y9.185 E0.02457
G1 X-3.442 Y9.185 E0.01478
G1 X-2.844 Y8.587 E0.02458
G1 X-2.335 Y8.587 E0.01479
G1 X-2.933 Y9.185 E0.02459
G1 X-2.425 Y9.185 E0.01478
G1 X-1.826 Y8.587 E0.02460
G1 X-1.317 Y8.587 E0.01479
G1 X-1.916 Y9.185 E0.02461
G1 X-1.407 Y9.185 E0.01478
G1 X-0.809 Y8.586 E0.02462
G1 X-0.300 Y8.586 E0.01479
G1 X-0.899 Y9.185 E0.02462
G1 X-0.390 Y9.185 E0.01478
G1 X0.209 Y8.586 E0.02463
G1 X0.718 Y8.586 E0.01479
G1 X0.118 Y9.185 E0.02464
G1 X0.627 Y9.185 E0.01478
G1 X1.226 Y8.586 E0.02465
G1 X1.735 Y8.585 E0.01479
G1 X1.135 Y9.185 E0.02466
G1 X1.644 Y9.185 E0.01478
G1 X2.244 Y8.585 E0.02467
G1 X2.753 Y8.585 E0.01479
G1 X2.153 Y9.185 E0.02468
G1 X2.661 Y9.185 E0.01478
G1 X3.262 Y8.585 E0.02468
G1 X3.770 Y8.584 E0.01479
G1 X3.170 Y9.185 E0.02469
G1 X3.678 Y9.185 E0.01478
G1 X4.279 Y8.584 E0.02470
G1 X4.788 Y8.584 E0.01479
G1 X4.187 Y9.185 E0.02471
G1 X4.695 Y9.185 E0.01478
G1 X5.297 Y8.584 E0.02472
G1 X5.805 Y8.584 E0.01479
G1 X5.204 Y9.185 E0.02473
G1 X5.713 Y9.185 E0.01478
G1 X6.314 Y8.583 E0.02474
G1 X6.823 Y8.583 E0.01479
G1 X6.221 Y9.185 E0.02474
G1 X6.730 Y9.185 E0.01478
G1 X7.332 Y8.583 E0.02475
G1 X7.841 Y8.583 E0.01479
G1 X7.238 Y9.185 E0.02476
G1 X7.747 Y9.185 E0.01478
G1 X8.349 Y8.583 E0.02477
G1 X8.858 Y8.582 E0.01479
G1 X8.255 Y9.185 E0.02478
G1 X8.764 Y9.185 E0.01478
G1 X9.367 Y8.582 E0.02479
G1 X9.231 Y8.210 E0.01153
G1 X15.058 Y2.382 E0.23955
G1 X15.058 Y2.891 E0.01478
G1 X9.231 Y8.718 E0.23955
G1 X9.272 Y9.185 E0.01363
G1 X15.058 Y3.399 E0.23784
G1 X15.058 Y3.908 E0.01478
G1 X9.781 Y9.185 E0.21693
G1 X10.290 Y9.185 E0.01478
G1 X15.058 Y4.417 E0.19603
G1 X15.058 Y4.925 E0.01478
G1 X10.798 Y9.185 E0.17512
G1 X11.307 Y9.185 E0.01478
G1 X15.058 Y5.434 E0.15421
G1 X15.058 Y5.942 E0.01478
G1 X11.815 Y9.185 E0.13331
G1 X12.324 Y9.185 E0.01478
G1 X15.058 Y6.451 E0.11240
G1 X15.058 Y6.959 E0.01478
G1 X12.832 Y9.185 E0.09150
G1 X13.341 Y9.185 E0.01478
G1 X15.058 Y7.468 E0.07059
G1 X15.058 Y7.977 E0.01478
G1 X13.850 Y9.185 E0.04968
G1 X14.358 Y9.185 E0.01478
G1 X15.058 Y8.485 E0.02878
G1 X15.058 Y8.994 E0.01478
G1 X14.867 Y9.185 E0.00787
G1 E-3.20000 F3000.00000
G1 Z0.900 F15000.000
G1 X8.773 Y8.257 F15000.000
G1 Z0.700 F15000.000
G1 E3.20000 F3000.00000
G1 X-10.121 Y8.265 E0.54533 F2400.000
G1 X-10.121 Y-6.731 E0.43281
G1 X-10.121 Y-8.265 E0.04428 F2400.000
G1 X8.773 Y-8.257 E0.54534
G1 X8.773 Y8.197 E0.47491
G1 X8.416 Y7.900 F15000.000
G1 X-9.764 Y7.908 E0.52472 F2400.000
G1 X-9.764 Y-6.731 E0.42250
G1 X-9.764 Y-7.908 E0.03397 F2400.000
G1 X8.416 Y-7.900 E0.52472
G1 X8.416 Y7.840 E0.45430
G1 X8.416 Y8.300 F15000.000
G1 X15.244 Y6.791 F15000.000
G1 X15.244 Y9.393 E0.07510 F2400.000
G1 X-15.217 Y9.393 E0.87919
G1 X-15.217 Y-9.393 E0.54221
G1 X14.908 Y-9.393 E0.86950
G1 X15.244 Y-9.393 E0.00969 F2400.000
G1 X15.244 Y6.731 E0.46538
G1 X15.601 Y6.731 F15000.000
G1 X15.601 Y9.657 E0.08444 F2400.000
G1 X15.452 Y9.750 E0.00508
G1 X-15.322 Y9.750 E0.88821
G1 X-15.574 Y9.553 E0.00924
G1 X-15.574 Y-9.553 E0.55145
G1 X-15.322 Y-9.750 E0.00924
G1 X14.908 Y-9.750 E0.87252
