; generated by Slic3r 1.2.9 on 2017-02-16 at 16:57:00

; external perimeters extrusion width = 0.40mm
; perimeters extrusion width = 0.40mm
; infill extrusion width = 0.40mm
; solid infill extrusion width = 0.40mm
; top infill extrusion width = 0.40mm

M107
M83
T0
M116
G21 ; set units to millimeters
G90 ; use absolute coordinates
M83 ; use relative distances for extrusion
G1 E-3.20000 F3000.00000
G1 Z0.400 F15000.000
G1 X-0.744 Y-23.526 F15000.000
G1 Z0.300 F15000.000
G1 E3.20000 F3000.00000
G1 X4.483 Y-23.689 E0.40299 F960.000
G1 X20.278 Y-23.689 E1.21724
G1 X21.925 Y-23.294 E0.13052 F960.000
G1 X23.215 Y-22.197 E0.13052
G1 X23.913 Y-20.053 E0.17373
G1 X23.913 Y19.347 E3.03638
G1 X23.519 Y20.994 E0.13052
G1 X22.421 Y22.283 E0.13052
G1 X20.393 Y22.980 E0.16529
G1 X-2.078 Y23.689 E1.73256
G1 X-17.942 Y23.689 E1.22254
G1 X-19.589 Y23.295 E0.13052
G1 X-20.512 Y22.624 E0.08796
G1 X-24.299 Y18.838 E0.41266
G1 X-25.184 Y17.394 E0.13052
G1 X-25.363 Y16.267 E0.08796
G1 X-25.363 Y-15.591 E2.45520
G1 X-24.969 Y-17.239 E0.13052
G1 X-24.265 Y-18.196 E0.09159
G1 X-20.409 Y-21.951 E0.41474
G1 X-18.954 Y-22.818 E0.13052
G1 X-17.988 Y-22.980 E0.07555
G1 X-0.804 Y-23.524 E1.32494
G1 E-3.20000 F3000.00000
G1 Z0.700 F15000.000
G1 X9.090 Y6.520 F15000.000
G1 Z0.300 F15000.000
G1 E3.20000 F3000.00000
G1 X9.923 Y6.249 E0.06750 F600.000
G1 X10.211 Y6.231 E0.02225
G1 X10.797 Y6.194 E0.04524 F600.000
G1 X11.657 Y6.358 E0.06749
G1 X12.450 Y6.731 E0.06749
G1 X13.125 Y7.289 E0.06749
G1 X13.639 Y7.998 E0.06749
G1 X13.962 Y8.812 E0.06749
G1 X14.072 Y9.681 E0.06749
G1 X13.962 Y10.550 E0.06749
G1 X13.639 Y11.364 E0.06749
G1 X13.125 Y12.073 E0.06749
G1 X12.450 Y12.631 E0.06749
G1 X11.657 Y13.004 E0.06749
G1 X10.797 Y13.168 E0.06749
G1 X9.923 Y13.113 E0.06749
G1 X9.090 Y12.842 E0.06749
G1 X8.351 Y12.373 E0.06749
G1 X7.751 Y11.735 E0.06749
G1 X7.329 Y10.967 E0.06749
G1 X7.111 Y10.119 E0.06749
G1 X7.111 Y9.243 E0.06749
G1 X7.329 Y8.395 E0.06750
G1 X7.751 Y7.627 E0.06749
G1 X8.351 Y6.989 E0.06749
G1 X9.040 Y6.552 E0.06287
G1 X9.363 Y7.099 F15000.000
G1 X10.043 Y6.878 E0.05512 F600.000
G1 X10.251 Y6.865 E0.01606
G1 X10.757 Y6.833 E0.03905 F600.000
G1 X11.459 Y6.967 E0.05512
G1 X12.107 Y7.272 E0.05512
G1 X12.658 Y7.728 E0.05512
G1 X13.078 Y8.307 E0.05512
G1 X13.341 Y8.971 E0.05512
G1 X13.431 Y9.681 E0.05512
G1 X13.341 Y10.391 E0.05512
G1 X13.078 Y11.056 E0.05512
G1 X12.658 Y11.634 E0.05512
G1 X12.107 Y12.090 E0.05512
G1 X11.459 Y12.395 E0.05512
G1 X10.757 Y12.529 E0.05512
G1 X10.043 Y12.484 E0.05512
G1 X9.363 Y12.263 E0.05512
G1 X8.759 Y11.879 E0.05512
G1 X8.270 Y11.358 E0.05512
G1 X7.925 Y10.731 E0.05512
G1 X7.747 Y10.039 E0.05512
G1 X7.747 Y9.323 E0.05512
G1 X7.925 Y8.631 E0.05512
G1 X8.270 Y8.004 E0.05512
G1 X8.759 Y7.483 E0.05512
G1 X9.312 Y7.132 E0.05049
G1 X9.413 Y6.703 F15000.000
G1 X10.193 Y-6.870 F15000.000
G1 X9.923 Y-6.887 E0.02085 F600.000
G1 X9.090 Y-7.158 E0.06749
G1 X8.351 Y-7.627 E0.06749
G1 X7.751 Y-8.265 E0.06749
G1 X7.329 Y-9.033 E0.06750
G1 X7.111 Y-9.881 E0.06749
G1 X7.111 Y-10.757 E0.06749
G1 X7.329 Y-11.605 E0.06749
G1 X7.751 Y-12.373 E0.06749
G1 X8.351 Y-13.011 E0.06749
G1 X9.090 Y-13.480 E0.06749
G1 X9.923 Y-13.751 E0.06749
G1 X10.211 Y-13.769 E0.02225
G1 X10.797 Y-13.806 E0.04524 F600.000
G1 X11.657 Y-13.642 E0.06749
G1 X12.450 Y-13.269 E0.06749
G1 X13.125 Y-12.711 E0.06749
G1 X13.639 Y-12.002 E0.06749
G1 X13.962 Y-11.188 E0.06749
G1 X14.072 Y-10.319 E0.06749
G1 X13.962 Y-9.450 E0.06749
G1 X13.639 Y-8.636 E0.06749
G1 X13.125 Y-7.927 E0.06749
G1 X12.450 Y-7.369 E0.06749
G1 X11.657 Y-6.996 E0.06749
G1 X10.797 Y-6.832 E0.06749
G1 X10.253 Y-6.866 E0.04202
G1 X10.293 Y-7.501 F15000.000
G1 X10.043 Y-7.516 E0.01929 F600.000
G1 X9.363 Y-7.737 E0.05512
G1 X8.759 Y-8.121 E0.05512
G1 X8.270 Y-8.642 E0.05512
G1 X8.025 Y-9.086 E0.03905
G1 X7.925 Y-9.269 E0.01606
G1 X7.747 Y-9.961 E0.05512
G1 X7.747 Y-10.677 E0.05512
G1 X7.873 Y-11.167 E0.03905
G1 X7.925 Y-11.369 E0.01606
G1 X8.270 Y-11.996 E0.05512
G1 X8.759 Y-12.517 E0.05512
G1 X9.363 Y-12.901 E0.05512
G1 X10.043 Y-13.122 E0.05512
G1 X10.251 Y-13.135 E0.01606
G1 X10.757 Y-13.167 E0.03905 F600.000
G1 X11.459 Y-13.033 E0.05512
G1 X12.107 Y-12.728 E0.05512
G1 X12.658 Y-12.272 E0.05512
G1 X13.078 Y-11.693 E0.05512
G1 X13.341 Y-11.029 E0.05512
G1 X13.431 Y-10.319 E0.05512
G1 X13.341 Y-9.609 E0.05512
G1 X13.078 Y-8.944 E0.05512
G1 X12.658 Y-8.366 E0.05512
G1 X12.107 Y-7.910 E0.05512
G1 X11.459 Y-7.605 E0.05512
G1 X10.757 Y-7.471 E0.05512
G1 X10.353 Y-7.497 E0.03120
G1 X10.154 Y-7.292 F15000.000
G1 X1.613 Y8.300 F15000.000
G1 X1.613 Y-15.790 E1.85652 F720.000
G1 X4.891 Y-19.068 E0.35723
G1 X19.292 Y-19.068 E1.10982
G1 X19.292 Y18.361 E2.88447 F720.000
G1 X4.822 Y18.361 E1.11512
G1 X1.613 Y15.152 E0.34973
G1 X1.613 Y8.360 E0.52342
G1 X0.978 Y8.360 F15000.000
G1 X0.978 Y-16.053 E1.88144 F720.000
G1 X4.628 Y-19.703 E0.39781
G1 X19.928 Y-19.703 E1.17909
G1 X19.928 Y18.997 E2.98243 F720.000
G1 X4.559 Y18.997 E1.18440
G1 X0.978 Y15.415 E0.39031
G1 X0.978 Y8.420 E0.53909
G1 X1.324 Y8.160 F15000.000
G1 X6.754 Y10.428 F15000.000
G1 X1.999 Y5.673 E0.52468 F960.000
G1 X1.999 Y4.763 E0.07101
G1 X6.726 Y9.490 E0.52161
G1 X6.876 Y8.729 E0.06047
G1 X1.999 Y3.853 E0.53812
G1 X1.999 Y2.943 E0.07101
G1 X7.124 Y8.068 E0.56555
G1 X7.447 Y7.481 E0.05229
G1 X1.999 Y2.032 E0.60117
G1 X1.999 Y1.122 E0.07101
G1 X7.882 Y7.006 E0.64921
G1 X8.368 Y6.582 E0.05033
G1 X1.999 Y0.212 E0.70284
G1 X1.999 Y-0.698 E0.07101
G1 X8.925 Y6.229 E0.76427
G1 X9.594 Y5.988 E0.05548
G1 X1.999 Y-1.608 E0.83809
G1 X1.999 Y-2.518 E0.07101
G1 X10.360 Y5.844 E0.92262
G1 X11.295 Y5.869 E0.07298
G1 X1.999 Y-3.428 E1.02580
G1 X1.999 Y-4.338 E0.07101
G1 X12.666 Y6.329 E1.17705
G1 E-3.20000 F3000.00000
G1 Z0.700 F15000.000
G1 X7.301 Y11.885 F15000.000
G1 Z0.300 F15000.000
G1 E3.20000 F3000.00000
G1 X1.999 Y6.583 E0.58502 F960.000
G1 X1.999 Y7.493 E0.07101
G1 X12.482 Y17.976 E1.15668
G1 X11.571 Y17.976 E0.07101
G1 X1.999 Y8.403 E1.05626
G1 X1.999 Y9.313 E0.07101
G1 X10.661 Y17.976 E0.95584
G1 X9.751 Y17.976 E0.07101
G1 X1.999 Y10.223 E0.85542
G1 X1.999 Y11.133 E0.07101
G1 X8.841 Y17.976 E0.75500
G1 X7.931 Y17.976 E0.07101
G1 X1.999 Y12.043 E0.65458
G1 X1.999 Y12.953 E0.07101
G1 X7.021 Y17.976 E0.55416
G1 X6.111 Y17.976 E0.07101
G1 X1.999 Y13.863 E0.45374
G1 X1.999 Y14.773 E0.07101
G1 X5.201 Y17.976 E0.35332
G1 X8.365 Y12.949 F15000.000
G1 X13.392 Y17.976 E0.55462 F960.000
G1 X14.302 Y17.976 E0.07101
G1 X9.828 Y13.502 E0.49363
G1 X10.777 Y13.541 E0.07411
G1 X15.212 Y17.976 E0.48933
G1 X16.122 Y17.976 E0.07101
G1 X11.541 Y13.395 E0.50542
G1 X12.187 Y13.131 E0.05446
G1 X17.032 Y17.976 E0.53454
G1 X17.942 Y17.976 E0.07101
G1 X12.765 Y12.799 E0.57120
G1 X13.263 Y12.387 E0.05043
G1 X18.852 Y17.976 E0.61667
G1 X18.907 Y17.120 E0.06687
G1 X13.671 Y11.885 E0.57767
G1 X14.025 Y11.328 E0.05144
G1 X18.907 Y16.210 E0.53866
G1 X18.907 Y15.300 E0.07101
G1 X14.283 Y10.676 E0.51018
G1 X14.417 Y9.900 E0.06148
G1 X18.907 Y14.390 E0.49546
G1 X18.907 Y13.480 E0.07101
G1 X14.387 Y8.960 E0.49870
G1 X13.975 Y7.638 E0.10804
G1 X18.907 Y12.570 E0.54415
G1 X18.907 Y11.660 E0.07101
G1 X1.999 Y-5.248 E1.86565
G1 X1.999 Y-6.158 E0.07101
G1 X18.907 Y10.750 E1.86565
G1 X18.907 Y9.840 E0.07101
G1 X1.999 Y-7.068 E1.86565
G1 X1.999 Y-7.978 E0.07101
G1 X18.907 Y8.930 E1.86565
G1 X18.907 Y8.019 E0.07101
G1 X1.999 Y-8.888 E1.86565
G1 X1.999 Y-9.799 E0.07101
G1 X18.907 Y7.109 E1.86565
G1 X18.907 Y6.199 E0.07101
G1 X1.999 Y-10.709 E1.86565
G1 X1.999 Y-11.619 E0.07101
G1 X18.907 Y5.289 E1.86565
G1 X18.907 Y4.379 E0.07101
G1 X1.999 Y-12.529 E1.86565
G1 X1.999 Y-13.439 E0.07101
G1 X7.274 Y-8.163 E0.58210
G1 X6.746 Y-9.601 F15000.000
G1 X1.999 Y-14.349 E0.52386 F960.000
G1 X1.999 Y-15.259 E0.07101
G1 X6.726 Y-10.532 E0.52161
G1 X6.880 Y-11.288 E0.06020
G1 X2.243 Y-15.925 E0.51169
G1 X2.698 Y-16.380 E0.05021
G1 X7.132 Y-11.946 E0.48926
G1 X7.455 Y-12.533 E0.05229
G1 X3.153 Y-16.835 E0.47468
G1 X3.608 Y-17.290 E0.05021
G1 X7.893 Y-13.005 E0.47282
G1 X8.382 Y-13.426 E0.05035
G1 X4.063 Y-17.745 E0.47654
G1 X4.518 Y-18.200 E0.05021
G1 X8.938 Y-13.780 E0.48776
G1 X9.611 Y-14.018 E0.05563
G1 X4.973 Y-18.655 E0.51171
G1 X5.856 Y-18.682 E0.06893
G1 X10.381 Y-14.158 E0.49926
G1 X11.322 Y-14.126 E0.07350
G1 X6.766 Y-18.682 E0.50272
G1 X7.676 Y-18.682 E0.07101
G1 X12.707 Y-13.652 E0.55511
G1 X18.907 Y-18.373 F15000.000
G1 X18.597 Y-18.682 E0.03417 F960.000
G1 X17.687 Y-18.682 E0.07101
G1 X18.907 Y-17.463 E0.13459
G1 X18.907 Y-16.553 E0.07101
G1 X16.777 Y-18.682 E0.23501
G1 X15.867 Y-18.682 E0.07101
G1 X18.907 Y-15.642 E0.33543
G1 X18.907 Y-14.732 E0.07101
G1 X14.957 Y-18.682 E0.43585
G1 X14.047 Y-18.682 E0.07101
G1 X18.907 Y-13.822 E0.53627
G1 X18.907 Y-12.912 E0.07101
G1 X13.137 Y-18.682 E0.63668
G1 X12.227 Y-18.682 E0.07101
G1 X18.907 Y-12.002 E0.73710
G1 X18.907 Y-11.092 E0.07101
G1 X11.316 Y-18.682 E0.83752
G1 X10.406 Y-18.682 E0.07101
G1 X18.907 Y-10.182 E0.93794
G1 X18.907 Y-9.272 E0.07101
G1 X9.496 Y-18.682 E1.03836
G1 X8.586 Y-18.682 E0.07101
G1 X18.907 Y-8.362 E1.13878
G1 X18.907 Y-7.452 E0.07101
G1 X13.952 Y-12.407 E0.54676
G1 X14.384 Y-11.064 E0.11005
G1 X18.907 Y-6.542 E0.49904
G1 X18.907 Y-5.632 E0.07101
G1 X14.419 Y-10.119 E0.49519
G1 X14.289 Y-9.339 E0.06172
G1 X18.907 Y-4.722 E0.50950
G1 X18.907 Y-3.811 E0.07101
G1 X14.031 Y-8.687 E0.53798
G1 X13.681 Y-8.128 E0.05152
G1 X18.907 Y-2.901 E0.57667
G1 X18.907 Y-1.991 E0.07101
G1 X13.275 Y-7.623 E0.62140
G1 X12.777 Y-7.211 E0.05043
G1 X18.907 Y-1.081 E0.67635
G1 X18.907 Y-0.171 E0.07101
G1 X12.202 Y-6.876 E0.73979
G1 X11.560 Y-6.608 E0.05431
G1 X18.907 Y0.739 E0.81071
G1 X18.907 Y1.649 E0.07101
G1 X10.795 Y-6.463 E0.89504
G1 X9.851 Y-6.497 E0.07371
G1 X18.907 Y2.559 E0.99921
G1 X18.907 Y3.469 E0.07101
G1 X8.424 Y-7.013 E1.15664
G1 E-3.20000 F3000.00000
G1 Z0.700 F15000.000
G1 X-9.231 Y7.996 F15000.000
G1 Z0.300 F15000.000
G1 E3.20000 F3000.00000
G1 X-8.716 Y8.705 E0.06749 F600.000
G1 X-8.394 Y9.519 E0.06749
G1 X-8.284 Y10.388 E0.06749
G1 X-8.394 Y11.257 E0.06749
G1 X-8.716 Y12.071 E0.06749
G1 X-9.231 Y12.780 E0.06749
G1 X-9.906 Y13.338 E0.06749
G1 X-10.698 Y13.711 E0.06749
G1 X-11.558 Y13.875 E0.06749
G1 X-12.432 Y13.820 E0.06749
G1 X-13.265 Y13.549 E0.06749
G1 X-14.005 Y13.080 E0.06749
G1 X-14.604 Y12.441 E0.06749
G1 X-14.887 Y11.927 E0.04524
G1 X-15.026 Y11.674 E0.02225
G1 X-15.244 Y10.826 E0.06749
G1 X-15.244 Y9.950 E0.06749
G1 X-15.026 Y9.102 E0.06750
G1 X-14.604 Y8.334 E0.06749
G1 X-14.005 Y7.696 E0.06749
G1 X-13.265 Y7.226 E0.06749
G1 X-12.432 Y6.956 E0.06750
G1 X-12.144 Y6.938 E0.02225
G1 X-11.558 Y6.901 E0.04524 F600.000
G1 X-10.698 Y7.065 E0.06749
G1 X-9.906 Y7.438 E0.06749
G1 X-9.277 Y7.958 E0.06287
G1 X-9.698 Y8.435 F15000.000
G1 X-9.278 Y9.013 E0.05512 F600.000
G1 X-9.014 Y9.678 E0.05512
G1 X-8.925 Y10.388 E0.05512
G1 X-9.014 Y11.097 E0.05512
G1 X-9.278 Y11.762 E0.05512
G1 X-9.698 Y12.341 E0.05512
G1 X-10.249 Y12.797 E0.05512
G1 X-10.896 Y13.101 E0.05512
G1 X-11.599 Y13.235 E0.05512
G1 X-12.312 Y13.190 E0.05512
G1 X-12.993 Y12.969 E0.05512
G1 X-13.596 Y12.586 E0.05512
G1 X-14.086 Y12.065 E0.05512
G1 X-14.330 Y11.621 E0.03905
G1 X-14.431 Y11.438 E0.01606
G1 X-14.608 Y10.745 E0.05512
G1 X-14.608 Y10.030 E0.05512
G1 X-14.431 Y9.337 E0.05512
G1 X-14.086 Y8.711 E0.05512
G1 X-13.596 Y8.189 E0.05512
G1 X-12.993 Y7.806 E0.05512
G1 X-12.312 Y7.585 E0.05512
G1 X-12.104 Y7.572 E0.01606
G1 X-11.599 Y7.540 E0.03905 F600.000
G1 X-10.896 Y7.674 E0.05512
G1 X-10.249 Y7.979 E0.05512
G1 X-9.744 Y8.396 E0.05049
G1 X-9.305 Y8.360 F15000.000
G1 X-11.558 Y-6.125 F15000.000
G1 X-12.432 Y-6.180 E0.06749 F600.000
G1 X-13.265 Y-6.451 E0.06749
G1 X-14.005 Y-6.920 E0.06749
G1 X-14.604 Y-7.559 E0.06749
G1 X-14.887 Y-8.073 E0.04524
G1 X-15.026 Y-8.326 E0.02225
G1 X-15.244 Y-9.174 E0.06749
G1 X-15.244 Y-10.050 E0.06749
G1 X-15.098 Y-10.619 E0.04524
G1 X-15.026 Y-10.898 E0.02225
G1 X-14.604 Y-11.666 E0.06749
G1 X-14.005 Y-12.304 E0.06749
G1 X-13.265 Y-12.774 E0.06749
G1 X-12.432 Y-13.044 E0.06749
G1 X-12.144 Y-13.062 E0.02225
G1 X-11.558 Y-13.099 E0.04524 F600.000
G1 X-10.698 Y-12.935 E0.06749
G1 X-9.906 Y-12.562 E0.06749
G1 X-9.231 Y-12.004 E0.06749
G1 X-8.716 Y-11.295 E0.06749
G1 X-8.394 Y-10.481 E0.06749
G1 X-8.284 Y-9.612 E0.06749
G1 X-8.394 Y-8.743 E0.06749
G1 X-8.716 Y-7.929 E0.06749
G1 X-9.231 Y-7.220 E0.06749
G1 X-9.906 Y-6.662 E0.06749
G1 X-10.698 Y-6.289 E0.06749
G1 X-11.499 Y-6.136 E0.06287
G1 X-11.599 Y-6.765 F15000.000
G1 X-12.312 Y-6.810 E0.05512 F600.000
G1 X-12.993 Y-7.031 E0.05512
G1 X-13.596 Y-7.414 E0.05512
G1 X-14.086 Y-7.935 E0.05512
G1 X-14.330 Y-8.379 E0.03905
G1 X-14.431 Y-8.562 E0.01606
G1 X-14.608 Y-9.255 E0.05512
G1 X-14.608 Y-9.970 E0.05512
G1 X-14.482 Y-10.461 E0.03905
G1 X-14.431 Y-10.663 E0.01606
G1 X-14.086 Y-11.289 E0.05512
G1 X-13.596 Y-11.811 E0.05512
G1 X-12.993 Y-12.194 E0.05512
G1 X-12.312 Y-12.415 E0.05512
G1 X-12.104 Y-12.428 E0.01606
G1 X-11.599 Y-12.460 E0.03905 F600.000
G1 X-10.896 Y-12.326 E0.05512
G1 X-10.249 Y-12.021 E0.05512
G1 X-9.698 Y-11.565 E0.05512
G1 X-9.278 Y-10.987 E0.05512
G1 X-9.014 Y-10.322 E0.05512
G1 X-8.925 Y-9.612 E0.05512
G1 X-9.014 Y-8.903 E0.05512
G1 X-9.278 Y-8.238 E0.05512
G1 X-9.698 Y-7.659 E0.05512
G1 X-10.249 Y-7.203 E0.05512
G1 X-10.896 Y-6.899 E0.05512
G1 X-11.540 Y-6.776 E0.05049
G1 X-11.791 Y-6.414 F15000.000
G1 X-20.742 Y-0.362 F15000.000
G1 X-20.742 Y-15.083 E1.13447 F720.000
G1 X-17.464 Y-18.361 E0.35723
G1 X-3.063 Y-18.361 E1.10982
G1 X-3.063 Y19.068 E2.88447 F720.000
G1 X-17.533 Y19.068 E1.11512
G1 X-20.742 Y15.859 E0.34973
G1 X-20.742 Y-0.302 E1.24547
G1 X-21.378 Y-0.302 F15000.000
G1 X-21.378 Y-15.346 E1.15939 F720.000
G1 X-17.728 Y-18.997 E0.39781
G1 X-2.428 Y-18.997 E1.17909
G1 X-2.428 Y19.703 E2.98243 F720.000
G1 X-17.797 Y19.703 E1.18440
G1 X-21.378 Y16.122 E0.39031
G1 X-21.378 Y-0.242 E1.26113
G1 X-21.031 Y-0.502 F15000.000
G1 X-15.081 Y-7.457 F15000.000
G1 X-20.357 Y-12.732 E0.58210 F960.000
G1 X-20.357 Y-11.822 E0.07101
G1 X-3.449 Y5.086 E1.86565
G1 X-3.449 Y5.996 E0.07101
G1 X-20.357 Y-10.912 E1.86565
G1 X-20.357 Y-10.002 E0.07101
G1 X-3.449 Y6.906 E1.86565
G1 X-3.449 Y7.816 E0.07101
G1 X-20.357 Y-9.092 E1.86565
G1 X-20.357 Y-8.182 E0.07101
G1 X-3.449 Y8.726 E1.86565
G1 X-3.449 Y9.636 E0.07101
G1 X-20.357 Y-7.272 E1.86565
G1 X-20.357 Y-6.362 E0.07101
G1 X-3.449 Y10.546 E1.86565
G1 X-3.449 Y11.456 E0.07101
G1 X-20.357 Y-5.451 E1.86565
G1 X-20.357 Y-4.541 E0.07101
G1 X-3.449 Y12.367 E1.86565
G1 X-3.449 Y13.277 E0.07101
G1 X-8.380 Y8.345 E0.54415
G1 X-7.968 Y9.667 E0.10804
G1 X-3.449 Y14.187 E0.49870
G1 X-3.449 Y15.097 E0.07101
G1 X-7.939 Y10.607 E0.49546
G1 X-8.072 Y11.383 E0.06148
G1 X-3.449 Y16.007 E0.51018
G1 X-3.449 Y16.917 E0.07101
G1 X-8.331 Y12.035 E0.53866
G1 X-8.684 Y12.592 E0.05144
G1 X-3.449 Y17.827 E0.57767
G1 X-3.504 Y18.682 E0.06687
G1 X-9.092 Y13.094 E0.61667
G1 X-9.590 Y13.506 E0.05043
G1 X-4.414 Y18.682 E0.57120
G1 X-5.324 Y18.682 E0.07101
G1 X-10.168 Y13.838 E0.53454
G1 X-10.814 Y14.102 E0.05446
G1 X-6.234 Y18.682 E0.50542
G1 X-7.144 Y18.682 E0.07101
G1 X-11.579 Y14.248 E0.48933
G1 X-12.528 Y14.209 E0.07411
G1 X-8.054 Y18.682 E0.49363
G1 X-8.964 Y18.682 E0.07101
G1 X-13.990 Y13.656 E0.55462
G1 X-15.055 Y12.591 F15000.000
G1 X-20.357 Y7.290 E0.58502 F960.000
G1 X-20.357 Y8.200 E0.07101
G1 X-9.874 Y18.682 E1.15668
G1 X-10.784 Y18.682 E0.07101
G1 X-20.357 Y9.110 E1.05626
G1 X-20.357 Y10.020 E0.07101
G1 X-11.694 Y18.682 E0.95584
G1 X-12.604 Y18.682 E0.07101
G1 X-20.357 Y10.930 E0.85542
G1 X-20.357 Y11.840 E0.07101
G1 X-13.514 Y18.682 E0.75500
G1 X-14.424 Y18.682 E0.07101
G1 X-20.357 Y12.750 E0.65458
G1 X-20.357 Y13.660 E0.07101
G1 X-15.335 Y18.682 E0.55416
G1 X-16.245 Y18.682 E0.07101
G1 X-20.357 Y14.570 E0.45374
G1 X-20.357 Y15.480 E0.07101
G1 X-17.155 Y18.682 E0.35332
G1 X-15.602 Y11.135 F15000.000
G1 X-20.357 Y6.380 E0.52468 F960.000
G1 X-20.357 Y5.469 E0.07101
G1 X-15.630 Y10.197 E0.52161
G1 X-15.480 Y9.436 E0.06047
G1 X-20.357 Y4.559 E0.53812
G1 X-20.357 Y3.649 E0.07101
G1 X-15.231 Y8.775 E0.56555
G1 X-14.908 Y8.188 E0.05229
G1 X-20.357 Y2.739 E0.60117
G1 X-20.357 Y1.829 E0.07101
G1 X-14.473 Y7.713 E0.64921
G1 X-13.987 Y7.289 E0.05033
