; generated by Slic3r 1.2.9 on 2017-02-21 at 11:12:41

; external perimeters extrusion width = 0.40mm
; perimeters extrusion width = 0.40mm
; infill extrusion width = 0.40mm
; solid infill extrusion width = 0.40mm
; top infill extrusion width = 0.40mm

M107
M83
T0
M116
G21 ; set units to millimeters
G90 ; use absolute coordinates
M83 ; use relative distances for extrusion
G1 E-3.20000 F3000.00000
G1 Z0.400 F15000.000
G1 X0.000 Y14.802 F15000.000
G1 Z0.300 F15000.000
G1 E3.20000 F3000.00000
G1 X-19.950 Y14.802 E1.53746 F960.000
G1 X-21.597 Y14.407 E0.13052
G1 X-22.887 Y13.309 E0.13052
G1 X-23.586 Y11.166 E0.17373
G1 X-23.586 Y-12.934 E1.85729
G1 X-23.191 Y-14.581 E0.13052
G1 X-22.093 Y-15.871 E0.13052
G1 X-19.950 Y-16.570 E0.17373
G1 X19.950 Y-16.570 E3.07491
G1 X21.597 Y-16.175 E0.13052
G1 X22.887 Y-15.077 E0.13052 F960.000
G1 X23.586 Y-12.934 E0.17373
G1 X23.586 Y11.166 E1.85729
G1 X23.191 Y12.813 E0.13052
G1 X22.093 Y14.103 E0.13052
G1 X19.950 Y14.802 E0.17373
G1 X0.060 Y14.802 E1.53283
G1 E-3.20000 F3000.00000
G1 Z0.700 F15000.000
G1 X0.060 Y8.629 F15000.000
G1 Z0.300 F15000.000
G1 E3.20000 F3000.00000
G1 X-18.306 Y8.629 E1.41540 F720.000
G1 X-18.306 Y-7.427 E1.23739
G1 X18.306 Y-7.427 E2.82156 F720.000
G1 X18.306 Y8.629 E1.23739
G1 X0.120 Y8.629 E1.40153
G1 X-0.140 Y8.976 F15000.000
G1 E-3.20000 F3000.00000
G1 Z0.700 F15000.000
G1 X-18.964 Y-9.425 F15000.000
G1 Z0.300 F15000.000
G1 E3.20000 F3000.00000
G1 X-18.964 Y-11.948 E0.19446 F720.000
G1 X18.964 Y-11.948 E2.92300
G1 X18.964 Y-8.063 E0.29945
G1 X-18.964 Y-8.063 E2.92300 F720.000
G1 X-18.964 Y-9.365 E0.10037
G1 E-3.20000 F3000.00000
G1 Z0.700 F15000.000
G1 X-15.236 Y9.265 F15000.000
G1 Z0.300 F15000.000
G1 E3.20000 F3000.00000
G1 X18.964 Y9.265 E2.63567 F720.000
G1 X18.964 Y10.181 E0.07057
G1 X-18.964 Y10.181 E2.92300 F720.000
G1 X-18.964 Y9.265 E0.07057
G1 X-15.296 Y9.265 E0.28270
G1 X-15.296 Y10.816 F15000.000
G1 X-19.600 Y10.816 E0.33169 F720.000
G1 X-19.600 Y-12.584 E1.80335
G1 X19.600 Y-12.584 E3.02097
G1 X19.600 Y10.816 E1.80335
G1 X-15.236 Y10.816 E2.68466 F720.000
G1 X-15.496 Y10.470 F15000.000
G1 X-18.647 Y9.723 F15000.000
G1 X18.647 Y9.723 E2.87401 F960.000
G1 X18.953 Y8.947 F15000.000
G1 X18.953 Y-7.745 E2.70304 F960.000
G1 X18.579 Y-11.253 F15000.000
G1 X18.269 Y-11.563 E0.03384 F960.000
G1 X17.368 Y-11.563 E0.06963
G1 X18.579 Y-10.352 E0.13231
G1 X18.579 Y-9.451 E0.06963
G1 X16.467 Y-11.563 E0.23078
G1 X15.566 Y-11.563 E0.06963
G1 X18.579 Y-8.550 E0.32926
G1 X17.779 Y-8.448 E0.06229
G1 X14.664 Y-11.563 E0.34034
G1 X13.763 Y-11.563 E0.06963
G1 X16.878 Y-8.448 E0.34034
G1 X15.977 Y-8.448 E0.06963
G1 X12.862 Y-11.563 E0.34034
G1 X11.961 Y-11.563 E0.06963
G1 X15.076 Y-8.448 E0.34034
G1 X14.174 Y-8.448 E0.06963
G1 X11.060 Y-11.563 E0.34034
G1 X10.158 Y-11.563 E0.06963
G1 X13.273 Y-8.448 E0.34034
G1 X12.372 Y-8.448 E0.06963
G1 X9.257 Y-11.563 E0.34034
G1 X8.356 Y-11.563 E0.06963
G1 X11.471 Y-8.448 E0.34034
G1 X10.570 Y-8.448 E0.06963
G1 X7.455 Y-11.563 E0.34034
G1 X6.554 Y-11.563 E0.06963
G1 X9.668 Y-8.448 E0.34034
G1 X8.767 Y-8.448 E0.06963
G1 X5.652 Y-11.563 E0.34034
G1 X4.751 Y-11.563 E0.06963
G1 X7.866 Y-8.448 E0.34034
G1 X6.965 Y-8.448 E0.06963
G1 X3.850 Y-11.563 E0.34034
G1 X2.949 Y-11.563 E0.06963
G1 X6.063 Y-8.448 E0.34034
G1 X5.162 Y-8.448 E0.06963
G1 X2.047 Y-11.563 E0.34034
G1 X1.146 Y-11.563 E0.06963
G1 X4.261 Y-8.448 E0.34034
G1 X3.360 Y-8.448 E0.06963
G1 X0.245 Y-11.563 E0.34034
G1 X-0.656 Y-11.563 E0.06963
G1 X2.459 Y-8.448 E0.34034
G1 X1.557 Y-8.448 E0.06963
G1 X-1.557 Y-11.563 E0.34034
G1 X-2.459 Y-11.563 E0.06963
G1 X0.656 Y-8.448 E0.34034
G1 X-0.245 Y-8.448 E0.06963
G1 X-3.360 Y-11.563 E0.34034
G1 X-4.261 Y-11.563 E0.06963
G1 X-1.146 Y-8.448 E0.34034
G1 X-2.047 Y-8.448 E0.06963
G1 X-5.162 Y-11.563 E0.34034
G1 X-6.063 Y-11.563 E0.06963
G1 X-2.949 Y-8.448 E0.34034
G1 X-3.850 Y-8.448 E0.06963
G1 X-6.965 Y-11.563 E0.34034
G1 X-7.866 Y-11.563 E0.06963
G1 X-4.751 Y-8.448 E0.34034
G1 X-5.652 Y-8.448 E0.06963
G1 X-8.767 Y-11.563 E0.34034
G1 X-9.668 Y-11.563 E0.06963
G1 X-6.554 Y-8.448 E0.34034
G1 X-7.455 Y-8.448 E0.06963
G1 X-10.570 Y-11.563 E0.34034
G1 X-11.471 Y-11.563 E0.06963
G1 X-8.356 Y-8.448 E0.34034
G1 X-9.257 Y-8.448 E0.06963
G1 X-12.372 Y-11.563 E0.34034
G1 X-13.273 Y-11.563 E0.06963
G1 X-10.158 Y-8.448 E0.34034
G1 X-11.060 Y-8.448 E0.06963
G1 X-14.174 Y-11.563 E0.34034
G1 X-15.076 Y-11.563 E0.06963
G1 X-11.961 Y-8.448 E0.34034
G1 X-12.862 Y-8.448 E0.06963
G1 X-15.977 Y-11.563 E0.34034
G1 X-16.878 Y-11.563 E0.06963
G1 X-13.763 Y-8.448 E0.34034
G1 X-14.664 Y-8.448 E0.06963
G1 X-17.779 Y-11.563 E0.34034
G1 X-18.579 Y-11.461 E0.06228
G1 X-15.566 Y-8.448 E0.32925
G1 X-16.467 Y-8.448 E0.06963
G1 X-18.579 Y-10.560 E0.23078
G1 X-18.579 Y-9.659 E0.06963
G1 X-17.368 Y-8.448 E0.13231
G1 X-18.269 Y-8.448 E0.06963
G1 X-18.579 Y-8.758 E0.03383
G1 X-18.953 Y-7.745 F15000.000
G1 X-18.953 Y8.947 E2.70304 F960.000
G1 E-3.20000 F3000.00000
G1 Z0.700 F15000.000
G1 X-18.357 Y8.586 F15000.000
G1 Z0.500 F15000.000
G1 E3.20000 F3000.00000
G1 X-18.357 Y-7.384 E0.46095 F2400.000
G1 X18.357 Y-7.384 E1.05967 F2400.000
G1 X18.357 Y8.586 E0.46095
G1 X-18.297 Y8.586 E1.05794
G1 X-18.000 Y8.229 F15000.000
G1 X-18.000 Y-7.027 E0.44034 F2400.000
G1 X18.000 Y-7.027 E1.03906 F2400.000
G1 X18.000 Y8.229 E0.44034
G1 X-17.940 Y8.229 E1.03732
G1 X-18.400 Y8.229 F15000.000
G1 E-3.20000 F3000.00000
G1 Z0.900 F15000.000
G1 X-15.768 Y10.859 F15000.000
G1 Z0.500 F15000.000
G1 E3.20000 F3000.00000
G1 X-19.393 Y10.859 E0.10464 F2400.000
G1 X-19.393 Y-12.627 E0.67787
G1 X19.393 Y-12.627 E1.11946
G1 X19.393 Y10.859 E0.67787
G1 X-15.708 Y10.859 E1.01309 F2400.000
G1 X-15.708 Y11.216 F15000.000
G1 X-19.750 Y11.216 E0.11668 F2400.000
G1 X-19.750 Y-12.984 E0.69848
G1 X19.750 Y-12.984 E1.14008
G1 X19.750 Y11.216 E0.69848
G1 X-15.648 Y11.216 E1.02167 F2400.000
G1 X-15.908 Y10.870 F15000.000
G1 E-3.20000 F3000.00000
G1 Z0.900 F15000.000
G1 X-18.224 Y-7.592 F15000.000
G1 Z0.500 F15000.000
G1 E3.20000 F3000.00000
G1 X-13.397 Y-12.419 E0.19853 F2991.387
G1 X-12.888 Y-12.419 E0.01480
G1 X-17.715 Y-7.592 E0.19853
G1 X-17.206 Y-7.592 E0.01480
G1 X-12.379 Y-12.419 E0.19853
G1 X-11.870 Y-12.419 E0.01480
G1 X-16.698 Y-7.592 E0.19853
G1 X-16.189 Y-7.592 E0.01480
G1 X-11.362 Y-12.419 E0.19853
G1 X-10.853 Y-12.419 E0.01480
G1 X-15.680 Y-7.592 E0.19853
G1 X-15.171 Y-7.592 E0.01480
G1 X-10.344 Y-12.419 E0.19853
G1 X-9.835 Y-12.419 E0.01480
G1 X-14.662 Y-7.592 E0.19853
G1 X-14.153 Y-7.592 E0.01480
G1 X-9.326 Y-12.419 E0.19853
G1 X-8.817 Y-12.419 E0.01480
G1 X-13.645 Y-7.592 E0.19853
G1 X-13.136 Y-7.592 E0.01480
G1 X-8.309 Y-12.419 E0.19853
G1 X-7.800 Y-12.419 E0.01480
G1 X-12.627 Y-7.592 E0.19853
G1 X-12.118 Y-7.592 E0.01480
G1 X-7.291 Y-12.419 E0.19853
G1 X-6.782 Y-12.419 E0.01480
G1 X-11.609 Y-7.592 E0.19853
G1 X-11.101 Y-7.592 E0.01480
G1 X-6.273 Y-12.419 E0.19853
G1 X-5.765 Y-12.419 E0.01480
G1 X-10.592 Y-7.592 E0.19853
G1 X-10.083 Y-7.592 E0.01480
G1 X-5.256 Y-12.419 E0.19853
G1 X-4.747 Y-12.419 E0.01480
G1 X-9.574 Y-7.592 E0.19853
G1 X-9.065 Y-7.592 E0.01480
G1 X-4.238 Y-12.419 E0.19853
G1 X-3.729 Y-12.419 E0.01480
G1 X-8.556 Y-7.592 E0.19853
G1 X-8.048 Y-7.592 E0.01480
G1 X-3.220 Y-12.419 E0.19853
G1 X-2.712 Y-12.419 E0.01480
G1 X-7.539 Y-7.592 E0.19853
G1 X-7.030 Y-7.592 E0.01480
G1 X-2.203 Y-12.419 E0.19853
G1 X-1.694 Y-12.419 E0.01480
G1 X-6.521 Y-7.592 E0.19853
G1 X-6.012 Y-7.592 E0.01480
G1 X-1.185 Y-12.419 E0.19853
G1 X-0.676 Y-12.419 E0.01480
G1 X-5.504 Y-7.592 E0.19853
G1 X-4.995 Y-7.592 E0.01480
G1 X-0.168 Y-12.419 E0.19853
G1 X0.341 Y-12.419 E0.01480
G1 X-4.486 Y-7.592 E0.19853
G1 X-3.977 Y-7.592 E0.01480
G1 X0.850 Y-12.419 E0.19853
G1 X1.359 Y-12.419 E0.01480
G1 X-3.468 Y-7.592 E0.19853
G1 X-2.959 Y-7.592 E0.01480
G1 X1.868 Y-12.419 E0.19853
G1 X2.377 Y-12.419 E0.01480
G1 X-2.451 Y-7.592 E0.19853
G1 X-1.942 Y-7.592 E0.01480
G1 X2.885 Y-12.419 E0.19853
G1 X3.394 Y-12.419 E0.01480
G1 X-1.433 Y-7.592 E0.19853
G1 X-0.924 Y-7.592 E0.01480
G1 X3.903 Y-12.419 E0.19853
G1 X4.412 Y-12.419 E0.01480
G1 X-0.415 Y-7.592 E0.19853
G1 X0.093 Y-7.592 E0.01480
G1 X4.921 Y-12.419 E0.19853
G1 X5.429 Y-12.419 E0.01480
G1 X0.602 Y-7.592 E0.19853
G1 X1.111 Y-7.592 E0.01480
G1 X5.938 Y-12.419 E0.19853
G1 X6.447 Y-12.419 E0.01480
G1 X1.620 Y-7.592 E0.19853
G1 X2.129 Y-7.592 E0.01480
G1 X6.956 Y-12.419 E0.19853
G1 X7.465 Y-12.419 E0.01480
G1 X2.637 Y-7.592 E0.19853
G1 X3.146 Y-7.592 E0.01480
G1 X7.973 Y-12.419 E0.19853
G1 X8.482 Y-12.419 E0.01480
G1 X3.655 Y-7.592 E0.19853
G1 X4.164 Y-7.592 E0.01480
G1 X8.991 Y-12.419 E0.19853
G1 X9.500 Y-12.419 E0.01480
G1 X4.673 Y-7.592 E0.19853
G1 X5.182 Y-7.592 E0.01480
G1 X10.009 Y-12.419 E0.19853
G1 X10.518 Y-12.419 E0.01480
G1 X5.690 Y-7.592 E0.19853
G1 X6.199 Y-7.592 E0.01480
G1 X11.026 Y-12.419 E0.19853
G1 X11.535 Y-12.419 E0.01480
G1 X6.708 Y-7.592 E0.19853
G1 X7.217 Y-7.592 E0.01480
G1 X12.044 Y-12.419 E0.19853
G1 X12.553 Y-12.419 E0.01480
G1 X7.726 Y-7.592 E0.19853
G1 X8.234 Y-7.592 E0.01480
G1 X13.062 Y-12.419 E0.19853
G1 X13.570 Y-12.419 E0.01480
G1 X8.743 Y-7.592 E0.19853
G1 X9.252 Y-7.592 E0.01480
G1 X14.079 Y-12.419 E0.19853
G1 X14.588 Y-12.419 E0.01480
G1 X9.761 Y-7.592 E0.19853
G1 X10.270 Y-7.592 E0.01480
G1 X15.097 Y-12.419 E0.19853
G1 X15.606 Y-12.419 E0.01480
G1 X10.779 Y-7.592 E0.19853
G1 X11.287 Y-7.592 E0.01480
G1 X16.115 Y-12.419 E0.19853
G1 X16.623 Y-12.419 E0.01480
G1 X11.796 Y-7.592 E0.19853
G1 X12.305 Y-7.592 E0.01480
G1 X17.132 Y-12.419 E0.19853
G1 X17.641 Y-12.419 E0.01480
G1 X12.814 Y-7.592 E0.19853
G1 X13.323 Y-7.592 E0.01480
G1 X18.150 Y-12.419 E0.19853
G1 X18.659 Y-12.419 E0.01480
G1 X13.831 Y-7.592 E0.19853
G1 X14.340 Y-7.592 E0.01480
G1 X19.156 Y-12.408 E0.19807
G1 X19.185 Y-11.928 E0.01398
G1 X14.849 Y-7.592 E0.17833
G1 X15.358 Y-7.592 E0.01480
G1 X19.185 Y-11.419 E0.15741
G1 X19.185 Y-10.910 E0.01480
G1 X15.867 Y-7.592 E0.13648
G1 X16.376 Y-7.592 E0.01480
G1 X19.185 Y-10.402 E0.11555
G1 X19.185 Y-9.893 E0.01480
G1 X16.884 Y-7.592 E0.09463
G1 X17.393 Y-7.592 E0.01480
G1 X19.185 Y-9.384 E0.07370
G1 X19.185 Y-8.875 E0.01480
G1 X17.902 Y-7.592 E0.05277
G1 X18.411 Y-7.592 E0.01480
G1 X19.185 Y-8.366 E0.03185
G1 X19.185 Y-7.858 E0.01480
G1 X18.565 Y-7.237 E0.02551
G1 X18.565 Y-6.728 E0.01480
G1 X19.185 Y-7.349 E0.02551
G1 X19.185 Y-6.840 E0.01480
G1 X18.565 Y-6.220 E0.02551
G1 X18.565 Y-5.711 E0.01480
G1 X19.185 Y-6.331 E0.02551
G1 X19.185 Y-5.822 E0.01480
G1 X18.565 Y-5.202 E0.02551
G1 X18.565 Y-4.693 E0.01480
G1 X19.185 Y-5.313 E0.02551
G1 X19.185 Y-4.805 E0.01480
G1 X18.565 Y-4.184 E0.02551
G1 X18.565 Y-3.675 E0.01480
G1 X19.185 Y-4.296 E0.02551
G1 X19.185 Y-3.787 E0.01480
G1 X18.565 Y-3.167 E0.02551
G1 X18.565 Y-2.658 E0.01480
G1 X19.185 Y-3.278 E0.02551
G1 X19.185 Y-2.769 E0.01480
G1 X18.565 Y-2.149 E0.02551
G1 X18.565 Y-1.640 E0.01480
G1 X19.185 Y-2.261 E0.02551
G1 X19.185 Y-1.752 E0.01480
G1 X18.565 Y-1.131 E0.02551
G1 X18.565 Y-0.623 E0.01480
G1 X19.185 Y-1.243 E0.02551
G1 X19.185 Y-0.734 E0.01480
G1 X18.565 Y-0.114 E0.02551
G1 X18.565 Y0.395 E0.01480
G1 X19.185 Y-0.225 E0.02551
G1 X19.185 Y0.284 E0.01480
G1 X18.565 Y0.904 E0.02551
G1 X18.565 Y1.413 E0.01480
G1 X19.185 Y0.792 E0.02551
G1 X19.185 Y1.301 E0.01480
G1 X18.565 Y1.922 E0.02551
G1 X18.565 Y2.430 E0.01480
G1 X19.185 Y1.810 E0.02551
G1 X19.185 Y2.319 E0.01480
G1 X18.565 Y2.939 E0.02551
G1 X18.565 Y3.448 E0.01480
G1 X19.185 Y2.828 E0.02551
G1 X19.185 Y3.336 E0.01480
G1 X18.565 Y3.957 E0.02551
G1 X18.565 Y4.466 E0.01480
G1 X19.185 Y3.845 E0.02551
G1 X19.185 Y4.354 E0.01480
G1 X18.565 Y4.974 E0.02551
G1 X18.565 Y5.483 E0.01480
G1 X19.185 Y4.863 E0.02551
G1 X19.185 Y5.372 E0.01480
G1 X18.565 Y5.992 E0.02551
G1 X18.565 Y6.501 E0.01480
G1 X19.185 Y5.881 E0.02551
G1 X19.185 Y6.389 E0.01480
G1 X18.565 Y7.010 E0.02551
G1 X18.565 Y7.519 E0.01480
G1 X19.185 Y6.898 E0.02551
G1 X19.185 Y7.407 E0.01480
G1 X18.565 Y8.027 E0.02551
G1 X18.565 Y8.536 F15000.000
G1 X19.185 Y7.916 E0.02551 F2991.387
G1 X19.185 Y8.425 E0.01480
G1 X16.958 Y10.651 E0.09158
G1 X17.467 Y10.651 E0.01480
G1 X19.185 Y8.933 E0.07065
G1 X19.185 Y9.442 E0.01480
G1 X17.976 Y10.651 E0.04973
G1 X18.485 Y10.651 E0.01480
G1 X19.185 Y9.951 E0.02880
G1 X19.185 Y10.460 E0.01480
G1 X18.994 Y10.651 E0.00788
G1 X18.307 Y8.794 F15000.000
G1 X16.450 Y10.651 E0.07639 F2991.387
G1 X15.941 Y10.651 E0.01480
G1 X17.798 Y8.794 E0.07639
G1 X17.289 Y8.794 E0.01480
G1 X15.432 Y10.651 E0.07639
G1 X14.923 Y10.651 E0.01480
G1 X16.780 Y8.794 E0.07639
G1 X16.272 Y8.794 E0.01480
G1 X14.414 Y10.651 E0.07639
G1 X13.906 Y10.651 E0.01480
G1 X15.763 Y8.794 E0.07639
G1 X15.254 Y8.794 E0.01480
G1 X13.397 Y10.651 E0.07639
G1 X12.888 Y10.651 E0.01480
G1 X14.745 Y8.794 E0.07639
G1 X14.236 Y8.794 E0.01480
G1 X12.379 Y10.651 E0.07639
G1 X11.870 Y10.651 E0.01480
G1 X13.728 Y8.794 E0.07639
G1 X13.219 Y8.794 E0.01480
G1 X11.361 Y10.651 E0.07639
G1 X10.853 Y10.651 E0.01480
G1 X12.710 Y8.794 E0.07639
G1 X12.201 Y8.794 E0.01480
G1 X10.344 Y10.651 E0.07639
G1 X9.835 Y10.651 E0.01480
G1 X11.692 Y8.794 E0.07639
G1 X11.183 Y8.794 E0.01480
G1 X9.326 Y10.651 E0.07639
G1 X8.817 Y10.651 E0.01480
G1 X10.675 Y8.794 E0.07639
G1 X10.166 Y8.794 E0.01480
G1 X8.309 Y10.651 E0.07639
G1 X7.800 Y10.651 E0.01480
G1 X9.657 Y8.794 E0.07639
G1 X9.148 Y8.794 E0.01480
G1 X7.291 Y10.651 E0.07639
G1 X6.782 Y10.651 E0.01480
G1 X8.639 Y8.794 E0.07639
G1 X8.131 Y8.794 E0.01480
G1 X6.273 Y10.651 E0.07639
G1 X5.764 Y10.651 E0.01480
G1 X7.622 Y8.794 E0.07639
G1 X7.113 Y8.794 E0.01480
G1 X5.256 Y10.651 E0.07639
G1 X4.747 Y10.651 E0.01480
G1 X6.604 Y8.794 E0.07639
G1 X6.095 Y8.794 E0.01480
G1 X4.238 Y10.651 E0.07639
G1 X3.729 Y10.651 E0.01480
G1 X5.587 Y8.794 E0.07639
G1 X5.078 Y8.794 E0.01480
G1 X3.220 Y10.651 E0.07639
G1 X2.712 Y10.651 E0.01480
G1 X4.569 Y8.794 E0.07639
G1 X4.060 Y8.794 E0.01480
G1 X2.203 Y10.651 E0.07639
G1 X1.694 Y10.651 E0.01480
G1 X3.551 Y8.794 E0.07639
G1 X3.042 Y8.794 E0.01480
G1 X1.185 Y10.651 E0.07639
G1 X0.676 Y10.651 E0.01480
G1 X2.534 Y8.794 E0.07639
G1 X2.025 Y8.794 E0.01480
G1 X0.167 Y10.651 E0.07639
G1 X-0.341 Y10.651 E0.01480
G1 X1.516 Y8.794 E0.07639
G1 X1.007 Y8.794 E0.01480
G1 X-0.850 Y10.651 E0.07639
G1 X-1.359 Y10.651 E0.01480
G1 X0.498 Y8.794 E0.07639
G1 X-0.010 Y8.794 E0.01480
G1 X-1.868 Y10.651 E0.07639
G1 X-2.377 Y10.651 E0.01480
G1 X-0.519 Y8.794 E0.07639
G1 X-1.028 Y8.794 E0.01480
G1 X-2.885 Y10.651 E0.07639
G1 X-3.394 Y10.651 E0.01480
G1 X-1.537 Y8.794 E0.07639
G1 X-2.046 Y8.794 E0.01480
G1 X-3.903 Y10.651 E0.07639
G1 X-4.412 Y10.651 E0.01480
G1 X-2.555 Y8.794 E0.07639
G1 X-3.063 Y8.794 E0.01480
G1 X-4.921 Y10.651 E0.07639
G1 X-5.430 Y10.651 E0.01480
G1 X-3.572 Y8.794 E0.07639
G1 X-4.081 Y8.794 E0.01480
G1 X-5.938 Y10.651 E0.07639
G1 X-6.447 Y10.651 E0.01480
G1 X-4.590 Y8.794 E0.07639
G1 X-5.099 Y8.794 E0.01480
G1 X-6.956 Y10.651 E0.07639
G1 X-7.465 Y10.651 E0.01480
G1 X-5.607 Y8.794 E0.07639
G1 X-6.116 Y8.794 E0.01480
G1 X-7.974 Y10.651 E0.07639
G1 X-8.482 Y10.651 E0.01480
G1 X-6.625 Y8.794 E0.07639
G1 X-7.134 Y8.794 E0.01480
G1 X-8.991 Y10.651 E0.07639
G1 X-9.500 Y10.651 E0.01480
G1 X-7.643 Y8.794 E0.07639
G1 X-8.152 Y8.794 E0.01480
G1 X-10.009 Y10.651 E0.07639
G1 X-10.518 Y10.651 E0.01480
G1 X-8.660 Y8.794 E0.07639
G1 X-9.169 Y8.794 E0.01480
G1 X-11.027 Y10.651 E0.07639
G1 X-11.535 Y10.651 E0.01480
G1 X-9.678 Y8.794 E0.07639
G1 X-10.187 Y8.794 E0.01480
G1 X-12.044 Y10.651 E0.07639
G1 X-12.553 Y10.651 E0.01480
G1 X-10.696 Y8.794 E0.07639
G1 X-11.204 Y8.794 E0.01480
G1 X-13.062 Y10.651 E0.07639
G1 X-13.571 Y10.651 E0.01480
G1 X-11.713 Y8.794 E0.07639
G1 X-12.222 Y8.794 E0.01480
G1 X-14.079 Y10.651 E0.07639
G1 X-14.588 Y10.651 E0.01480
G1 X-12.731 Y8.794 E0.07639
G1 X-13.240 Y8.794 E0.01480
G1 X-15.097 Y10.651 E0.07639
G1 X-15.606 Y10.651 E0.01480
G1 X-13.749 Y8.794 E0.07639
G1 X-14.257 Y8.794 E0.01480
G1 X-16.115 Y10.651 E0.07639
G1 X-16.623 Y10.651 E0.01480
G1 X-14.766 Y8.794 E0.07639
G1 X-15.275 Y8.794 E0.01480
G1 X-17.132 Y10.651 E0.07639
G1 X-17.641 Y10.651 E0.01480
G1 X-15.784 Y8.794 E0.07639
G1 X-16.293 Y8.794 E0.01480
G1 X-18.150 Y10.651 E0.07639
G1 X-18.659 Y10.651 E0.01480
G1 X-16.801 Y8.794 E0.07639
