; generated by Slic3r 1.2.9 on 2017-02-10 at 16:33:37

; external perimeters extrusion width = 0.40mm
; perimeters extrusion width = 0.40mm
; infill extrusion width = 0.40mm
; solid infill extrusion width = 0.40mm
; top infill extrusion width = 0.40mm

M107
M83
T0
M116
G21 ; set units to millimeters
G90 ; use absolute coordinates
M83 ; use relative distances for extrusion
G1 E-3.20000 F3000.00000
G1 Z0.400 F15000.000
G1 X0.000 Y16.994 F15000.000
G1 Z0.300 F15000.000
G1 E3.20000 F3000.00000
G1 X-15.909 Y16.994 E1.22600 F960.000
G1 X-17.556 Y16.599 E0.13052
G1 X-18.877 Y15.457 E0.13460
G1 X-22.918 Y9.742 E0.53946
G1 X-23.586 Y7.643 E0.16974
G1 X-23.586 Y-8.138 E1.21613
G1 X-22.918 Y-10.237 E0.16974
G1 X-18.977 Y-15.811 E0.52611
G1 X-17.704 Y-16.928 E0.13052
G1 X-16.009 Y-17.347 E0.13460
G1 X15.940 Y-17.347 E2.46211
G1 X17.587 Y-16.953 E0.13052
G1 X18.908 Y-15.811 E0.13460 F960.000
G1 X22.918 Y-10.139 E0.53530
G1 X23.586 Y-8.040 E0.16974
G1 X23.586 Y7.545 E1.20113
G1 X22.950 Y9.600 E0.16573
G1 X18.969 Y15.413 E0.54296
G1 X17.712 Y16.549 E0.13052
G1 X15.969 Y16.994 E0.13867
G1 X0.060 Y16.994 E1.22603
G1 E-3.20000 F3000.00000
G1 Z0.700 F15000.000
G1 X0.060 Y7.851 F15000.000
G1 Z0.300 F15000.000
G1 E3.20000 F3000.00000
G1 X-18.306 Y7.851 E1.41540 F720.000
G1 X-18.306 Y-8.205 E1.23739
G1 X18.306 Y-8.205 E2.82156 F720.000
G1 X18.306 Y7.851 E1.23739
G1 X0.120 Y7.851 E1.40153
G1 X-0.140 Y8.198 F15000.000
G1 E-3.20000 F3000.00000
G1 Z0.700 F15000.000
G1 X12.975 Y-8.841 F15000.000
G1 Z0.300 F15000.000
G1 E3.20000 F3000.00000
G1 X-18.246 Y-8.841 E2.40607 F720.000
G1 X-15.498 Y-12.726 E0.36675
G1 X15.430 Y-12.726 E2.38347
G1 X18.177 Y-8.841 E0.36675
G1 X13.035 Y-8.841 E0.39626 F720.000
G1 E-3.20000 F3000.00000
G1 Z0.700 F15000.000
G1 X-15.398 Y12.373 F15000.000
G1 Z0.300 F15000.000
G1 E3.20000 F3000.00000
G1 X-18.146 Y8.487 E0.36675 F720.000
G1 X18.077 Y8.487 E2.79154
G1 X15.329 Y12.373 E0.36675
G1 X-15.338 Y12.373 E2.36343 F720.000
G1 X-15.338 Y13.008 F15000.000
G1 X-15.727 Y13.008 E0.02998 F720.000
G1 X-19.600 Y7.532 E0.51692
G1 X-19.600 Y-8.027 E1.19899
G1 X-15.827 Y-13.362 E0.50358
G1 X15.759 Y-13.362 E2.43418
G1 X19.600 Y-7.929 E0.51277
G1 X19.600 Y7.434 E1.18398 F720.000
G1 X15.659 Y13.008 E0.52611
G1 X-15.278 Y13.008 E2.38416
G1 X-15.533 Y12.671 F15000.000
G1 X-14.964 Y11.987 F15000.000
G1 X-15.337 Y11.614 E0.04163 F960.000
G1 X-17.159 Y8.872 F15000.000
G1 X-14.044 Y11.987 E0.34741 F960.000
G1 X-13.124 Y11.987 E0.07255
G1 X-16.239 Y8.872 E0.34741
G1 X-15.319 Y8.872 E0.07255
G1 X-12.204 Y11.987 E0.34741
G1 X-11.284 Y11.987 E0.07255
G1 X-14.399 Y8.872 E0.34741
G1 X-13.479 Y8.872 E0.07255
G1 X-10.364 Y11.987 E0.34741
G1 X-9.444 Y11.987 E0.07255
G1 X-12.559 Y8.872 E0.34741
G1 X-11.639 Y8.872 E0.07255
G1 X-8.524 Y11.987 E0.34741
G1 X-7.604 Y11.987 E0.07255
G1 X-10.719 Y8.872 E0.34741
G1 X-9.799 Y8.872 E0.07255
G1 X-6.685 Y11.987 E0.34741
G1 X-5.765 Y11.987 E0.07255
G1 X-8.879 Y8.872 E0.34741
G1 X-7.959 Y8.872 E0.07255
G1 X-4.845 Y11.987 E0.34741
G1 X-3.925 Y11.987 E0.07255
G1 X-7.040 Y8.872 E0.34741
G1 X-6.120 Y8.872 E0.07255
G1 X-3.005 Y11.987 E0.34741
G1 X-2.085 Y11.987 E0.07255
G1 X-5.200 Y8.872 E0.34741
G1 X-4.280 Y8.872 E0.07255
G1 X-1.165 Y11.987 E0.34741
G1 X-0.245 Y11.987 E0.07255
G1 X-3.360 Y8.872 E0.34741
G1 X-2.440 Y8.872 E0.07255
G1 X0.675 Y11.987 E0.34741
G1 X1.595 Y11.987 E0.07255
G1 X-1.520 Y8.872 E0.34741
G1 X-0.600 Y8.872 E0.07255
G1 X2.515 Y11.987 E0.34741
G1 X3.435 Y11.987 E0.07255
G1 X0.320 Y8.872 E0.34741
G1 X1.240 Y8.872 E0.07255
G1 X4.355 Y11.987 E0.34741
G1 X5.274 Y11.987 E0.07255
G1 X2.160 Y8.872 E0.34741
G1 X3.080 Y8.872 E0.07255
G1 X6.194 Y11.987 E0.34741
G1 X7.114 Y11.987 E0.07255
G1 X4.000 Y8.872 E0.34741
G1 X4.919 Y8.872 E0.07255
G1 X8.034 Y11.987 E0.34741
G1 X8.954 Y11.987 E0.07255
G1 X5.839 Y8.872 E0.34741
G1 X6.759 Y8.872 E0.07255
G1 X9.874 Y11.987 E0.34741
G1 X10.794 Y11.987 E0.07255
G1 X7.679 Y8.872 E0.34741
G1 X8.599 Y8.872 E0.07255
G1 X11.714 Y11.987 E0.34741
G1 X12.634 Y11.987 E0.07255
G1 X9.519 Y8.872 E0.34741
G1 X10.439 Y8.872 E0.07255
G1 X13.554 Y11.987 E0.34741
G1 X14.474 Y11.987 E0.07255
G1 X11.359 Y8.872 E0.34741
G1 X12.279 Y8.872 E0.07255
G1 X15.277 Y11.871 E0.33443
G1 X15.658 Y11.332 E0.05205
G1 X13.199 Y8.872 E0.27433
G1 X14.119 Y8.872 E0.07255
G1 X16.039 Y10.793 E0.21422
G1 X16.420 Y10.254 E0.05205
G1 X15.039 Y8.872 E0.15412
G1 X15.959 Y8.872 E0.07255
G1 X16.801 Y9.715 E0.09401
G1 X16.879 Y8.872 E0.06675
G1 X17.183 Y9.176 E0.03391
G1 X18.770 Y7.803 F15000.000
G1 X18.953 Y7.229 E0.09766 F960.000
G1 X18.953 Y-7.724 E2.42129
G1 X18.770 Y-8.298 E0.09766
G1 X15.368 Y-11.967 F15000.000
G1 X14.995 Y-12.341 E0.04080 F960.000
G1 X14.094 Y-12.341 E0.06967
G1 X17.208 Y-9.226 E0.34044
G1 X16.307 Y-9.226 E0.06967
G1 X13.192 Y-12.341 E0.34044
G1 X12.291 Y-12.341 E0.06967
G1 X15.405 Y-9.226 E0.34044
G1 X14.504 Y-9.226 E0.06967
G1 X11.389 Y-12.341 E0.34044
G1 X10.488 Y-12.341 E0.06967
G1 X13.602 Y-9.226 E0.34044
G1 X12.701 Y-9.226 E0.06967
G1 X9.586 Y-12.341 E0.34044
G1 X8.685 Y-12.341 E0.06967
G1 X11.800 Y-9.226 E0.34044
G1 X10.898 Y-9.226 E0.06967
G1 X7.783 Y-12.341 E0.34044
G1 X6.882 Y-12.341 E0.06967
G1 X9.997 Y-9.226 E0.34044
G1 X9.095 Y-9.226 E0.06967
G1 X5.980 Y-12.341 E0.34044
G1 X5.079 Y-12.341 E0.06967
G1 X8.194 Y-9.226 E0.34044
G1 X7.292 Y-9.226 E0.06967
G1 X4.177 Y-12.341 E0.34044
G1 X3.276 Y-12.341 E0.06967
G1 X6.391 Y-9.226 E0.34044
G1 X5.489 Y-9.226 E0.06967
G1 X2.374 Y-12.341 E0.34044
G1 X1.473 Y-12.341 E0.06967
G1 X4.588 Y-9.226 E0.34044
G1 X3.686 Y-9.226 E0.06967
G1 X0.572 Y-12.341 E0.34044
G1 X-0.330 Y-12.341 E0.06967
G1 X2.785 Y-9.226 E0.34044
G1 X1.883 Y-9.226 E0.06967
G1 X-1.231 Y-12.341 E0.34044
G1 X-2.133 Y-12.341 E0.06967
G1 X0.982 Y-9.226 E0.34044
G1 X0.080 Y-9.226 E0.06967
G1 X-3.034 Y-12.341 E0.34044
G1 X-3.936 Y-12.341 E0.06967
G1 X-0.821 Y-9.226 E0.34044
G1 X-1.722 Y-9.226 E0.06967
G1 X-4.837 Y-12.341 E0.34044
G1 X-5.739 Y-12.341 E0.06967
G1 X-2.624 Y-9.226 E0.34044
G1 X-3.525 Y-9.226 E0.06967
G1 X-6.640 Y-12.341 E0.34044
G1 X-7.542 Y-12.341 E0.06967
G1 X-4.427 Y-9.226 E0.34044
G1 X-5.328 Y-9.226 E0.06967
G1 X-8.443 Y-12.341 E0.34044
G1 X-9.345 Y-12.341 E0.06967
G1 X-6.230 Y-9.226 E0.34044
G1 X-7.131 Y-9.226 E0.06967
G1 X-10.246 Y-12.341 E0.34044
G1 X-11.148 Y-12.341 E0.06967
G1 X-8.033 Y-9.226 E0.34044
G1 X-8.934 Y-9.226 E0.06967
G1 X-12.049 Y-12.341 E0.34044
G1 X-12.950 Y-12.341 E0.06967
G1 X-9.836 Y-9.226 E0.34044
G1 X-10.737 Y-9.226 E0.06967
G1 X-13.852 Y-12.341 E0.34044
G1 X-14.753 Y-12.341 E0.06967
G1 X-11.639 Y-9.226 E0.34044
G1 X-12.540 Y-9.226 E0.06967
G1 X-15.484 Y-12.170 E0.32181
G1 X-15.858 Y-11.642 E0.04998
G1 X-13.442 Y-9.226 E0.26409
G1 X-14.343 Y-9.226 E0.06967
G1 X-16.231 Y-11.114 E0.20638
G1 X-16.605 Y-10.586 E0.04998
G1 X-15.244 Y-9.226 E0.14866
G1 X-16.146 Y-9.226 E0.06967
G1 X-16.978 Y-10.058 E0.09094
G1 X-17.351 Y-9.530 E0.04998
G1 X-17.047 Y-9.226 E0.03323
G1 X-18.770 Y-8.396 F15000.000
G1 X-18.953 Y-7.821 E0.09766 F960.000
G1 X-18.953 Y7.326 E2.45282
G1 X-18.770 Y7.901 E0.09766
G1 E-3.20000 F3000.00000
G1 Z0.700 F15000.000
G1 X-18.357 Y7.808 F15000.000
G1 Z0.500 F15000.000
G1 E3.20000 F3000.00000
G1 X-18.357 Y-8.162 E0.46095 F2531.715
G1 X18.357 Y-8.162 E1.05967 F2531.715
G1 X18.357 Y7.808 E0.46095
G1 X-18.297 Y7.808 E1.05794
G1 X-18.000 Y7.451 F15000.000
G1 X-18.000 Y-7.805 E0.44034 F2531.715
G1 X18.000 Y-7.805 E1.03906 F2531.715
G1 X18.000 Y7.451 E0.44034
G1 X-17.940 Y7.451 E1.03732
G1 X-18.400 Y7.451 F15000.000
G1 E-3.20000 F3000.00000
G1 Z0.900 F15000.000
G1 X19.393 Y-0.660 F15000.000
G1 Z0.500 F15000.000
G1 E3.20000 F3000.00000
G1 X19.393 Y7.618 E0.23894 F2531.715
G1 X15.551 Y13.051 E0.19205
G1 X-15.620 Y13.051 E0.89969
G1 X-19.393 Y7.716 E0.18861
G1 X-19.393 Y-8.211 E0.45968
G1 X-15.720 Y-13.405 E0.18361
G1 X15.651 Y-13.405 E0.90547
G1 X19.393 Y-8.113 E0.18705
G1 X19.393 Y-0.720 E0.21339 F2531.715
G1 X19.750 Y-0.720 F15000.000
G1 X19.750 Y7.732 E0.24394 F2531.715
G1 X15.736 Y13.408 E0.20066
G1 X-15.805 Y13.408 E0.91036
G1 X-19.750 Y7.829 E0.19722
G1 X-19.750 Y-8.324 E0.46623
G1 X-15.905 Y-13.762 E0.19222
G1 X15.836 Y-13.762 E0.91614
G1 X15.923 Y-13.639 E0.00434
G1 X19.750 Y-8.227 E0.19131 F2531.715
G1 X19.750 Y-0.780 E0.21493
G1 X19.404 Y-0.520 F15000.000
G1 X18.003 Y9.125 F15000.000
G1 X14.284 Y12.843 E0.15245 F3375.620
G1 X13.777 Y12.843 E0.01470
G1 X19.185 Y7.435 E0.22172
G1 X19.185 Y6.928 E0.01470
G1 X18.565 Y7.548 E0.02543
G1 X18.565 Y7.041 E0.01470
G1 X19.185 Y6.421 E0.02543
G1 X19.185 Y5.914 E0.01470
G1 X18.565 Y6.534 E0.02543
G1 X18.565 Y6.027 E0.01470
G1 X19.185 Y5.406 E0.02543
G1 X19.185 Y4.899 E0.01470
G1 X18.565 Y5.519 E0.02543
G1 X18.565 Y5.012 E0.01470
G1 X19.185 Y4.392 E0.02543
G1 X19.185 Y3.885 E0.01470
G1 X18.565 Y4.505 E0.02543
G1 X18.565 Y3.998 E0.01470
G1 X19.185 Y3.378 E0.02543
G1 X19.185 Y2.870 E0.01470
G1 X18.565 Y3.491 E0.02543
G1 X18.565 Y2.983 E0.01470
G1 X19.185 Y2.363 E0.02543
G1 X19.185 Y1.856 E0.01470
G1 X18.565 Y2.476 E0.02543
G1 X18.565 Y1.969 E0.01470
G1 X19.185 Y1.349 E0.02543
G1 X19.185 Y0.842 E0.01470
G1 X18.565 Y1.462 E0.02543
G1 X18.565 Y0.955 E0.01470
G1 X19.185 Y0.334 E0.02543
G1 X19.185 Y-0.173 E0.01470
G1 X18.565 Y0.447 E0.02543
G1 X18.565 Y-0.060 E0.01470
G1 X19.185 Y-0.680 E0.02543
G1 X19.185 Y-1.187 E0.01470
G1 X18.565 Y-0.567 E0.02543
G1 X18.565 Y-1.074 E0.01470
G1 X19.185 Y-1.694 E0.02543
G1 X19.185 Y-2.202 E0.01470
G1 X18.565 Y-1.581 E0.02543
G1 X18.565 Y-2.089 E0.01470
G1 X19.185 Y-2.709 E0.02543
G1 X19.185 Y-3.216 E0.01470
G1 X18.565 Y-2.596 E0.02543
G1 X18.565 Y-3.103 E0.01470
G1 X19.185 Y-3.723 E0.02543
G1 X19.185 Y-4.230 E0.01470
G1 X18.565 Y-3.610 E0.02543
G1 X18.565 Y-4.117 E0.01470
G1 X19.185 Y-4.738 E0.02543
G1 X19.185 Y-5.245 E0.01470
G1 X18.565 Y-4.625 E0.02543
G1 X18.565 Y-5.132 E0.01470
G1 X19.185 Y-5.752 E0.02543
G1 X19.185 Y-6.259 E0.01470
G1 X18.565 Y-5.639 E0.02543
G1 X18.565 Y-6.146 E0.01470
G1 X19.185 Y-6.766 E0.02543
G1 X19.185 Y-7.274 E0.01470
G1 X18.565 Y-6.653 E0.02543
G1 X18.565 Y-7.161 E0.01470
G1 X19.185 Y-7.781 E0.02543
G1 X19.107 Y-8.210 E0.01264
G1 X18.565 Y-7.668 E0.02222
G1 X18.565 Y-8.175 E0.01470
G1 X18.897 Y-8.507 E0.01361
G1 X18.687 Y-8.804 E0.01055
G1 X18.253 Y-8.370 E0.01780
G1 X17.745 Y-8.370 E0.01470
G1 X18.477 Y-9.101 E0.02998
G1 X18.266 Y-9.398 E0.01055
G1 X17.238 Y-8.370 E0.04216
G1 X16.731 Y-8.370 E0.01470
G1 X18.056 Y-9.695 E0.05434
G1 X17.846 Y-9.992 E0.01055
G1 X16.224 Y-8.370 E0.06652
G1 X15.717 Y-8.370 E0.01470
G1 X17.636 Y-10.289 E0.07870
G1 X17.426 Y-10.587 E0.01055
G1 X15.209 Y-8.370 E0.09088
G1 X14.702 Y-8.370 E0.01470
G1 X17.216 Y-10.884 E0.10306
G1 X17.006 Y-11.181 E0.01055
G1 X14.195 Y-8.370 E0.11524
G1 X13.688 Y-8.370 E0.01470
G1 X16.796 Y-11.478 E0.12742
G1 X16.586 Y-11.775 E0.01055
G1 X13.181 Y-8.370 E0.13961
G1 X12.673 Y-8.370 E0.01470
G1 X16.376 Y-12.072 E0.15179
G1 X16.166 Y-12.369 E0.01055
G1 X12.166 Y-8.370 E0.16397
G1 X11.659 Y-8.370 E0.01470
G1 X15.956 Y-12.666 E0.17615
G1 X15.745 Y-12.963 E0.01055
G1 X11.152 Y-8.370 E0.18833
G1 X10.645 Y-8.370 E0.01470
G1 X15.472 Y-13.197 E0.19790
G1 X14.965 Y-13.197 E0.01470
G1 X10.137 Y-8.370 E0.19790
G1 X9.630 Y-8.370 E0.01470
G1 X14.457 Y-13.197 E0.19790
G1 X13.950 Y-13.197 E0.01470
G1 X9.123 Y-8.370 E0.19790
G1 X8.616 Y-8.370 E0.01470
G1 X13.443 Y-13.197 E0.19790
G1 X12.936 Y-13.197 E0.01470
G1 X8.109 Y-8.370 E0.19790
G1 X7.601 Y-8.370 E0.01470
G1 X12.429 Y-13.197 E0.19790
G1 X11.921 Y-13.197 E0.01470
G1 X7.094 Y-8.370 E0.19790
G1 X6.587 Y-8.370 E0.01470
G1 X11.414 Y-13.197 E0.19790
G1 X10.907 Y-13.197 E0.01470
G1 X6.080 Y-8.370 E0.19790
G1 X5.573 Y-8.370 E0.01470
G1 X10.400 Y-13.197 E0.19790
G1 X9.893 Y-13.197 E0.01470
G1 X5.065 Y-8.370 E0.19790
G1 X4.558 Y-8.370 E0.01470
G1 X9.385 Y-13.197 E0.19790
G1 X8.878 Y-13.197 E0.01470
G1 X4.051 Y-8.370 E0.19790
G1 X3.544 Y-8.370 E0.01470
G1 X8.371 Y-13.197 E0.19790
G1 X7.864 Y-13.197 E0.01470
G1 X3.037 Y-8.370 E0.19790
G1 X2.529 Y-8.370 E0.01470
G1 X7.357 Y-13.197 E0.19790
G1 X6.849 Y-13.197 E0.01470
G1 X2.022 Y-8.370 E0.19790
G1 X1.515 Y-8.370 E0.01470
G1 X6.342 Y-13.197 E0.19790
G1 X5.835 Y-13.197 E0.01470
G1 X1.008 Y-8.370 E0.19790
G1 X0.501 Y-8.370 E0.01470
G1 X5.328 Y-13.197 E0.19790
G1 X4.821 Y-13.197 E0.01470
G1 X-0.007 Y-8.370 E0.19790
G1 X-0.514 Y-8.370 E0.01470
G1 X4.313 Y-13.197 E0.19790
G1 X3.806 Y-13.197 E0.01470
G1 X-1.021 Y-8.370 E0.19790
G1 X-1.528 Y-8.370 E0.01470
G1 X3.299 Y-13.197 E0.19790
G1 X2.792 Y-13.197 E0.01470
G1 X-2.035 Y-8.370 E0.19790
G1 X-2.543 Y-8.370 E0.01470
G1 X2.285 Y-13.197 E0.19790
G1 X1.777 Y-13.197 E0.01470
G1 X-3.050 Y-8.370 E0.19790
G1 X-3.557 Y-8.370 E0.01470
G1 X1.270 Y-13.197 E0.19790
G1 X0.763 Y-13.197 E0.01470
G1 X-4.064 Y-8.370 E0.19790
G1 X-4.571 Y-8.370 E0.01470
G1 X0.256 Y-13.197 E0.19790
G1 X-0.251 Y-13.197 E0.01470
G1 X-5.079 Y-8.370 E0.19790
G1 X-5.586 Y-8.370 E0.01470
G1 X-0.759 Y-13.197 E0.19790
G1 X-1.266 Y-13.197 E0.01470
G1 X-6.093 Y-8.370 E0.19790
G1 X-6.600 Y-8.370 E0.01470
G1 X-1.773 Y-13.197 E0.19790
G1 X-2.280 Y-13.197 E0.01470
G1 X-7.107 Y-8.370 E0.19790
G1 X-7.615 Y-8.370 E0.01470
G1 X-2.787 Y-13.197 E0.19790
G1 X-3.295 Y-13.197 E0.01470
G1 X-8.122 Y-8.370 E0.19790
G1 X-8.629 Y-8.370 E0.01470
G1 X-3.802 Y-13.197 E0.19790
G1 X-4.309 Y-13.197 E0.01470
G1 X-9.136 Y-8.370 E0.19790
G1 X-9.643 Y-8.370 E0.01470
G1 X-4.816 Y-13.197 E0.19790
G1 X-5.323 Y-13.197 E0.01470
G1 X-10.151 Y-8.370 E0.19790
G1 X-10.658 Y-8.370 E0.01470
G1 X-5.831 Y-13.197 E0.19790
G1 X-6.338 Y-13.197 E0.01470
G1 X-11.165 Y-8.370 E0.19790
G1 X-11.672 Y-8.370 E0.01470
G1 X-6.845 Y-13.197 E0.19790
G1 X-7.352 Y-13.197 E0.01470
G1 X-12.179 Y-8.370 E0.19790
G1 X-12.687 Y-8.370 E0.01470
G1 X-7.859 Y-13.197 E0.19790
G1 X-8.367 Y-13.197 E0.01470
G1 X-13.194 Y-8.370 E0.19790
G1 X-13.701 Y-8.370 E0.01470
G1 X-8.874 Y-13.197 E0.19790
G1 X-9.381 Y-13.197 E0.01470
G1 X-14.208 Y-8.370 E0.19790
G1 X-14.715 Y-8.370 E0.01470
G1 X-9.888 Y-13.197 E0.19790
G1 X-10.395 Y-13.197 E0.01470
G1 X-15.223 Y-8.370 E0.19790
G1 X-15.730 Y-8.370 E0.01470
G1 X-10.903 Y-13.197 E0.19790
G1 X-11.410 Y-13.197 E0.01470
G1 X-16.237 Y-8.370 E0.19790
G1 X-16.744 Y-8.370 E0.01470
G1 X-11.917 Y-13.197 E0.19790
G1 X-12.424 Y-13.197 E0.01470
G1 X-17.251 Y-8.370 E0.19790
G1 X-17.759 Y-8.370 E0.01470
G1 X-12.931 Y-13.197 E0.19790
G1 X-13.439 Y-13.197 E0.01470
G1 X-18.266 Y-8.370 E0.19790
G1 X-18.565 Y-8.071 F15000.000
G1 X-19.185 Y-7.450 E0.02543 F3375.620
G1 X-19.185 Y-6.943 E0.01470
G1 X-18.565 Y-7.564 E0.02543
G1 X-18.565 Y-7.056 E0.01470
G1 X-19.185 Y-6.436 E0.02543
G1 X-19.185 Y-5.929 E0.01470
G1 X-18.565 Y-6.549 E0.02543
G1 X-18.565 Y-6.042 E0.01470
G1 X-19.185 Y-5.422 E0.02543
G1 X-19.185 Y-4.914 E0.01470
G1 X-18.565 Y-5.535 E0.02543
G1 X-18.565 Y-5.028 E0.01470
G1 X-19.185 Y-4.407 E0.02543
G1 X-19.185 Y-3.900 E0.01470
G1 X-18.565 Y-4.520 E0.02543
G1 X-18.565 Y-4.013 E0.01470
G1 X-19.185 Y-3.393 E0.02543
G1 X-19.185 Y-2.886 E0.01470
G1 X-18.565 Y-3.506 E0.02543
G1 X-18.565 Y-2.999 E0.01470
G1 X-19.185 Y-2.378 E0.02543
G1 X-19.185 Y-1.871 E0.01470
G1 X-18.565 Y-2.492 E0.02543
G1 X-18.565 Y-1.984 E0.01470
G1 X-19.185 Y-1.364 E0.02543
G1 X-19.185 Y-0.857 E0.01470
G1 X-18.565 Y-1.477 E0.02543
G1 X-18.565 Y-0.970 E0.01470
G1 X-19.185 Y-0.350 E0.02543
G1 X-19.185 Y0.158 E0.01470
G1 X-18.565 Y-0.463 E0.02543
G1 X-18.565 Y0.044 E0.01470
G1 X-19.185 Y0.665 E0.02543
G1 X-19.185 Y1.172 E0.01470
G1 X-18.565 Y0.552 E0.02543
G1 X-18.565 Y1.059 E0.01470
G1 X-19.185 Y1.679 E0.02543
G1 X-19.185 Y2.186 E0.01470
G1 X-18.565 Y1.566 E0.02543
G1 X-18.565 Y2.073 E0.01470
G1 X-19.185 Y2.694 E0.02543
G1 X-19.185 Y3.201 E0.01470
G1 X-18.565 Y2.580 E0.02543
G1 X-18.565 Y3.088 E0.01470
G1 X-19.185 Y3.708 E0.02543
G1 X-19.185 Y4.215 E0.01470
G1 X-18.565 Y3.595 E0.02543
G1 X-18.565 Y4.102 E0.01470
G1 X-19.185 Y4.722 E0.02543
G1 X-19.185 Y5.230 E0.01470
G1 X-18.565 Y4.609 E0.02543
G1 X-18.565 Y5.116 E0.01470
G1 X-19.185 Y5.737 E0.02543
G1 X-19.185 Y6.244 E0.01470
G1 X-18.565 Y5.624 E0.02543
G1 X-18.565 Y6.131 E0.01470
G1 X-19.185 Y6.751 E0.02543
G1 X-19.185 Y7.258 E0.01470
G1 X-18.565 Y6.638 E0.02543
G1 X-18.565 Y7.145 E0.01470
G1 X-19.159 Y7.739 E0.02434
