; generated by Slic3r 1.2.9 on 2017-03-21 at 12:06:01

; external perimeters extrusion width = 0.40mm
; perimeters extrusion width = 0.40mm
; infill extrusion width = 0.40mm
; solid infill extrusion width = 0.40mm
; top infill extrusion width = 0.40mm

M107
M83
T0
M116
G21 ; set units to millimeters
G90 ; use absolute coordinates
M83 ; use relative distances for extrusion
G1 E-3.20000 F3000.00000
G1 Z0.400 F15000.000
G1 X-10.050 Y11.614 F15000.000
G1 Z0.300 F15000.000
G1 E3.20000 F3000.00000
G1 X-14.190 Y8.026 E0.42216 F960.000
G1 X-14.526 Y7.690 E0.03665
G1 X-14.867 Y7.302 E0.03982
G1 X-15.157 Y6.924 E0.03665
G1 X-15.444 Y6.495 E0.03982
G1 X-15.681 Y6.083 E0.03665
G1 X-15.910 Y5.620 E0.03982
G1 X-16.092 Y5.180 E0.03665
G1 X-16.258 Y4.691 E0.03982
G1 X-16.381 Y4.232 E0.03665
G1 X-16.482 Y3.725 E0.03982
G1 X-16.544 Y3.253 E0.03665
G1 X-16.586 Y2.498 E0.05827
G1 X-16.586 Y-2.498 E0.38508
G1 X-16.544 Y-3.253 E0.05827
G1 X-16.482 Y-3.725 E0.03665
G1 X-16.381 Y-4.232 E0.03982
G1 X-16.258 Y-4.691 E0.03665
G1 X-16.092 Y-5.180 E0.03982
G1 X-15.910 Y-5.620 E0.03665
G1 X-15.681 Y-6.083 E0.03982
G1 X-15.444 Y-6.495 E0.03665
G1 X-15.157 Y-6.924 E0.03982
G1 X-14.867 Y-7.302 E0.03665
G1 X-14.526 Y-7.690 E0.03982
G1 X-14.190 Y-8.026 E0.03665
G1 X-13.784 Y-8.383 E0.04166
G1 X-5.329 Y-15.699 E0.86165
G1 X-3.825 Y-16.479 E0.13052
G1 X-2.950 Y-16.586 E0.06797
G1 X12.950 Y-16.586 E1.22534
G1 X14.597 Y-16.191 E0.13052
G1 X15.887 Y-15.093 E0.13052 F960.000
G1 X16.586 Y-12.950 E0.17373
G1 X16.586 Y12.950 E1.99600
G1 X16.191 Y14.597 E0.13052
G1 X15.093 Y15.887 E0.13052
G1 X12.950 Y16.586 E0.17373
G1 X-2.950 Y16.586 E1.22534
G1 X-4.597 Y16.191 E0.13052
G1 X-5.329 Y15.699 E0.06797
G1 X-10.005 Y11.653 E0.47653
G1 E-3.20000 F3000.00000
G1 Z0.700 F15000.000
G1 X6.122 Y11.688 F15000.000
G1 Z0.300 F15000.000
G1 E3.20000 F3000.00000
G1 X6.354 Y11.964 E0.02785 F600.000
G1 X3.669 Y11.964 E0.20691
G1 X4.444 Y10.924 E0.09992
G1 X4.817 Y10.001 E0.07675
G1 X4.837 Y9.847 E0.01196
G1 X5.155 Y9.831 E0.02453
G1 X5.226 Y10.135 E0.02406
G1 X5.478 Y10.770 E0.05266 F600.000
G1 X5.838 Y11.351 E0.05267
G1 X6.083 Y11.642 E0.02932
G1 E-3.20000 F3000.00000
G1 Z0.700 F15000.000
G1 X9.696 Y5.121 F15000.000
G1 Z0.300 F15000.000
G1 E3.20000 F3000.00000
G1 X9.233 Y5.067 E0.03592 F720.000
G1 X8.767 Y5.067 E0.03590
G1 X8.090 Y5.164 E0.05267
G1 X7.442 Y5.381 E0.05267
G1 X7.026 Y5.590 E0.03590
G1 X6.636 Y5.847 E0.03600
G1 X6.138 Y6.292 E0.05143
G1 X5.839 Y6.649 E0.03592
G1 X5.582 Y7.039 E0.03599
G1 X5.300 Y7.644 E0.05143
G1 X5.136 Y8.193 E0.04418
G1 X4.846 Y8.187 E0.02237
G1 X4.727 Y7.717 E0.03735
G1 X4.475 Y7.140 E0.04853
G1 X4.134 Y6.611 E0.04853
G1 X3.694 Y6.123 E0.05064
G1 X3.189 Y5.723 E0.04959
G1 X2.553 Y5.365 E0.05628
G1 X3.098 Y4.850 E0.05779
G1 X3.594 Y4.269 E0.05889
G1 X4.028 Y3.631 E0.05944
G1 X4.423 Y2.863 E0.06659
G1 X4.667 Y2.253 E0.05060
G1 X4.872 Y1.517 E0.05889
G1 X4.996 Y0.763 E0.05889
G1 X5.037 Y-0.000 E0.05889
G1 X4.996 Y-0.763 E0.05889
G1 X4.872 Y-1.517 E0.05889
G1 X4.667 Y-2.253 E0.05889
G1 X4.423 Y-2.863 E0.05060
G1 X4.028 Y-3.631 E0.06659
G1 X3.594 Y-4.269 E0.05944
G1 X3.098 Y-4.851 E0.05889
G1 X2.553 Y-5.365 E0.05779
G1 X3.189 Y-5.723 E0.05628
G1 X3.694 Y-6.123 E0.04959
G1 X4.134 Y-6.611 E0.05064
G1 X4.475 Y-7.140 E0.04853
G1 X4.727 Y-7.717 E0.04853
G1 X4.849 Y-8.200 E0.03836
G1 X5.148 Y-8.197 E0.02306
G1 X5.226 Y-7.865 E0.02628 F720.000
G1 X5.478 Y-7.230 E0.05266
G1 X5.838 Y-6.649 E0.05267
G1 X6.138 Y-6.293 E0.03590
G1 X6.478 Y-5.972 E0.03600
G1 X7.025 Y-5.590 E0.05144
G1 X7.442 Y-5.381 E0.03591
G1 X7.881 Y-5.222 E0.03599
G1 X8.549 Y-5.084 E0.05257
G1 X9.218 Y-5.065 E0.05162
G1 X9.681 Y-5.120 E0.03592
G1 X10.135 Y-5.226 E0.03591
G1 X10.770 Y-5.478 E0.05266
G1 X11.351 Y-5.838 E0.05267
G1 X11.964 Y-6.354 E0.06179
G1 X11.964 Y6.352 E0.97923
G1 X11.351 Y5.839 E0.06164
G1 X10.961 Y5.582 E0.03599
G1 X10.343 Y5.294 E0.05257
G1 X9.753 Y5.137 E0.04700
G1 X4.273 Y-11.154 F15000.000
G1 X3.669 Y-11.964 E0.07783 F600.000
G1 X6.352 Y-11.964 E0.20675
G1 X5.839 Y-11.351 E0.06164
G1 X5.582 Y-10.961 E0.03599 F600.000
G1 X5.300 Y-10.356 E0.05143
G1 X5.144 Y-9.832 E0.04214
G1 X4.836 Y-9.857 E0.02380
G1 X4.817 Y-10.001 E0.01119
G1 X4.444 Y-10.924 E0.07675
G1 X4.308 Y-11.106 E0.01747
G1 X3.799 Y-10.727 F15000.000
G1 X3.364 Y-11.311 E0.05614 F720.000
G1 X2.699 Y-11.835 E0.06525
G1 X1.936 Y-12.169 E0.06418
G1 X1.426 Y-12.248 E0.03979
G1 X1.453 Y-12.600 E0.02723
G1 X8.428 Y-12.600 E0.53757
G1 X8.454 Y-12.246 E0.02735
G1 X8.238 Y-12.215 E0.01682 F720.000
G1 X7.687 Y-12.031 E0.04473
G1 X7.345 Y-11.858 E0.02952
G1 X7.024 Y-11.647 E0.02959
G1 X6.596 Y-11.265 E0.04428
G1 X6.350 Y-10.971 E0.02953
G1 X6.139 Y-10.650 E0.02958
G1 X5.896 Y-10.130 E0.04428
G1 X5.786 Y-9.762 E0.02956
G1 X5.719 Y-9.385 E0.02955
G1 X5.702 Y-8.810 E0.04428
G1 X5.747 Y-8.429 E0.02958
G1 X5.835 Y-8.056 E0.02953
G1 X6.048 Y-7.516 E0.04472
G1 X6.354 Y-7.023 E0.04474
G1 X6.601 Y-6.730 E0.02952
G1 X6.880 Y-6.467 E0.02959
G1 X7.351 Y-6.138 E0.04428
G1 X7.694 Y-5.966 E0.02953
G1 X8.054 Y-5.835 E0.02958
G1 X8.622 Y-5.718 E0.04468
G1 X9.190 Y-5.702 E0.04378
G1 X9.571 Y-5.747 E0.02956
G1 X9.944 Y-5.835 E0.02953
G1 X10.484 Y-6.048 E0.04472
G1 X10.977 Y-6.354 E0.04474
G1 X11.270 Y-6.601 E0.02952
G1 X11.533 Y-6.880 E0.02959
G1 X11.862 Y-7.351 E0.04428
G1 X12.034 Y-7.694 E0.02953
G1 X12.165 Y-8.054 E0.02958
G1 X12.257 Y-8.502 E0.03521
G1 X12.600 Y-8.467 E0.02655
G1 X12.600 Y8.429 E1.30212
G1 X12.263 Y8.469 E0.02617
G1 X12.165 Y8.056 E0.03266
G1 X11.952 Y7.517 E0.04469
G1 X11.651 Y7.028 E0.04425
G1 X11.265 Y6.596 E0.04468
G1 X10.971 Y6.350 E0.02953
G1 X10.650 Y6.139 E0.02958
G1 X10.125 Y5.894 E0.04468
G1 X9.576 Y5.747 E0.04378
G1 X9.195 Y5.703 E0.02956
G1 X8.812 Y5.702 E0.02953
G1 X8.238 Y5.785 E0.04472
G1 X7.687 Y5.969 E0.04473
G1 X7.345 Y6.142 E0.02952
G1 X7.024 Y6.353 E0.02959
G1 X6.596 Y6.735 E0.04428
G1 X6.350 Y7.029 E0.02953
G1 X6.139 Y7.350 E0.02958
G1 X5.896 Y7.870 E0.04428
G1 X5.786 Y8.238 E0.02956
G1 X5.719 Y8.615 E0.02955
G1 X5.702 Y9.190 E0.04428
G1 X5.747 Y9.571 E0.02958
G1 X5.835 Y9.944 E0.02953
G1 X6.048 Y10.484 E0.04472
G1 X6.354 Y10.977 E0.04474
G1 X6.601 Y11.270 E0.02952
G1 X6.880 Y11.533 E0.02959
G1 X7.351 Y11.862 E0.04428
G1 X7.694 Y12.034 E0.02953
G1 X8.054 Y12.165 E0.02958
G1 X8.502 Y12.257 E0.03521
G1 X8.467 Y12.600 E0.02655
G1 X1.459 Y12.600 E0.54005
G1 X1.432 Y12.248 E0.02718
G1 X1.936 Y12.169 E0.03938
G1 X2.699 Y11.835 E0.06413
G1 X3.364 Y11.311 E0.06525
G1 X3.885 Y10.610 E0.06731
G1 X4.197 Y9.839 E0.06415
G1 X4.304 Y9.008 E0.06454
G1 X4.259 Y8.461 E0.04232
G1 X4.123 Y7.924 E0.04270
G1 X3.913 Y7.441 E0.04057
G1 X3.627 Y6.998 E0.04062
G1 X3.257 Y6.588 E0.04259
G1 X2.834 Y6.252 E0.04161
G1 X2.398 Y6.007 E0.03859
G1 X1.957 Y5.838 E0.03631
G1 X1.036 Y5.631 E0.07278
G1 X1.577 Y5.308 E0.04857
G1 X2.132 Y4.889 E0.05356
G1 X2.637 Y4.412 E0.05356
G1 X3.088 Y3.883 E0.05356
G1 X3.481 Y3.306 E0.05376
G1 X3.844 Y2.599 E0.06126
G1 X4.064 Y2.049 E0.04563
G1 X4.250 Y1.380 E0.05356
G1 X4.363 Y0.694 E0.05356
G1 X4.401 Y-0.000 E0.05356
G1 X4.363 Y-0.694 E0.05356
G1 X4.250 Y-1.380 E0.05356
G1 X4.064 Y-2.049 E0.05356
G1 X3.844 Y-2.599 E0.04563
G1 X3.481 Y-3.306 E0.06126
G1 X3.088 Y-3.883 E0.05376
G1 X2.637 Y-4.412 E0.05356
G1 X2.132 Y-4.889 E0.05356
G1 X1.577 Y-5.308 E0.05356
G1 X1.036 Y-5.631 E0.04857
G1 X1.957 Y-5.838 E0.07278
G1 X2.398 Y-6.007 E0.03631
G1 X2.834 Y-6.252 E0.03859
G1 X3.257 Y-6.588 E0.04161
G1 X3.627 Y-6.998 E0.04259
G1 X3.913 Y-7.441 E0.04062
G1 X4.123 Y-7.924 E0.04057
G1 X4.259 Y-8.461 E0.04270
G1 X4.304 Y-9.008 E0.04232
G1 X4.197 Y-9.839 E0.06454
G1 X3.885 Y-10.610 E0.06415
G1 X3.834 Y-10.679 E0.00654
G1 X3.957 Y-11.094 F15000.000
G1 E-3.20000 F3000.00000
G1 Z0.700 F15000.000
G1 X11.276 Y-12.600 F15000.000
G1 Z0.300 F15000.000
G1 E3.20000 F3000.00000
G1 X12.600 Y-12.600 E0.10207 F600.000
G1 X12.600 Y-9.571 E0.23346
G1 X12.263 Y-9.531 E0.02617 F600.000
G1 X12.165 Y-9.944 E0.03266
G1 X11.952 Y-10.483 E0.04469
G1 X11.651 Y-10.972 E0.04425
G1 X11.265 Y-11.404 E0.04468
G1 X10.971 Y-11.650 E0.02953
G1 X10.650 Y-11.861 E0.02958
G1 X10.125 Y-12.106 E0.04468
G1 X9.518 Y-12.268 E0.04840
G1 X9.562 Y-12.600 E0.02579
G1 X11.216 Y-12.600 E0.12746
G1 X11.476 Y-12.254 F15000.000
G1 E-3.20000 F3000.00000
G1 Z0.700 F15000.000
G1 X-2.600 Y-9.756 F15000.000
G1 Z0.300 F15000.000
G1 E3.20000 F3000.00000
G1 X-2.600 Y-12.600 E0.21921 F600.000
G1 X0.438 Y-12.600 E0.23409
G1 X0.457 Y-12.239 E0.02785
G1 X0.231 Y-12.215 E0.01749 F600.000
G1 X-0.547 Y-11.920 E0.06410
G1 X-1.259 Y-11.413 E0.06736
G1 X-1.797 Y-10.761 E0.06523
G1 X-2.148 Y-10.006 E0.06410
G1 X-2.252 Y-9.423 E0.04565
G1 X-2.600 Y-9.454 E0.02689
G1 X-2.600 Y-9.696 E0.01861
G1 X-2.254 Y-9.956 F15000.000
G1 X-2.600 Y-7.242 F15000.000
G1 X-2.600 Y-8.396 E0.08892 F600.000
G1 X-2.283 Y-8.450 E0.02479
G1 X-1.958 Y-7.530 E0.07518
G1 X-1.463 Y-6.796 E0.06828 F600.000
G1 X-1.256 Y-6.616 E0.02107
G1 X-1.368 Y-6.360 E0.02156
G1 X-1.681 Y-6.393 E0.02430
G1 X-2.273 Y-6.390 E0.04563
G1 X-2.600 Y-6.358 E0.02531
G1 X-2.600 Y-7.182 E0.06352
G1 X-2.254 Y-7.442 F15000.000
G1 X-0.998 Y-6.333 F15000.000
G1 X-0.046 Y-5.980 E0.07827 F720.000
G1 X0.378 Y-5.982 E0.03264
G1 X-2.950 Y-6.217 F15000.000
G1 X-3.667 Y-6.139 E0.05562 F720.000
G1 X-4.385 Y-6.024 E0.05599
G1 E-3.20000 F3000.00000
G1 Z0.700 F15000.000
G1 X-8.723 Y2.079 F15000.000
G1 Z0.300 F15000.000
G1 E3.20000 F3000.00000
G1 X-8.479 Y2.747 E0.05480 F600.000
G1 X-8.171 Y3.381 E0.05434
G1 X-7.802 Y3.982 E0.05434
G1 X-7.375 Y4.542 E0.05434
G1 X-6.893 Y5.057 E0.05434
G1 X-6.428 Y5.464 E0.04764
G1 X-8.966 Y5.464 E0.19562
G1 X-9.387 Y5.437 E0.03248
G1 X-9.767 Y5.361 E0.02986
G1 X-10.134 Y5.237 E0.02986
G1 X-10.481 Y5.065 E0.02986
G1 X-10.803 Y4.850 E0.02986
G1 X-11.095 Y4.595 E0.02986
G1 X-11.350 Y4.303 E0.02986
G1 X-11.565 Y3.981 E0.02986
G1 X-11.737 Y3.634 E0.02986
G1 X-11.861 Y3.267 E0.02986
G1 X-11.937 Y2.887 E0.02986
G1 X-11.964 Y2.466 E0.03248
G1 X-11.964 Y1.450 E0.07830
G1 X-11.558 Y1.883 E0.04578
G1 X-11.041 Y2.211 E0.04721 F600.000
G1 X-10.458 Y2.401 E0.04721
G1 X-9.847 Y2.439 E0.04721
G1 X-9.245 Y2.324 E0.04721
G1 X-8.777 Y2.104 E0.03980
G1 E-3.20000 F3000.00000
G1 Z0.700 F15000.000
G1 X-8.208 Y-5.464 F15000.000
G1 Z0.300 F15000.000
G1 E3.20000 F3000.00000
G1 X-6.428 Y-5.464 E0.13723 F600.000
G1 X-6.893 Y-5.057 E0.04764
G1 X-7.375 Y-4.542 E0.05434 F600.000
G1 X-7.802 Y-3.982 E0.05434
G1 X-8.171 Y-3.381 E0.05434
G1 X-8.479 Y-2.747 E0.05434
G1 X-8.723 Y-2.079 E0.05480
G1 X-9.250 Y-2.327 E0.04485
G1 X-9.869 Y-2.438 E0.04847
G1 X-10.458 Y-2.401 E0.04549
G1 X-11.041 Y-2.211 E0.04721
G1 X-11.558 Y-1.883 E0.04721
G1 X-11.964 Y-1.450 E0.04578
G1 X-11.964 Y-2.466 E0.07830
G1 X-11.937 Y-2.887 E0.03248
G1 X-11.861 Y-3.267 E0.02986
G1 X-11.737 Y-3.634 E0.02986
G1 X-11.565 Y-3.981 E0.02986
G1 X-11.350 Y-4.303 E0.02986
G1 X-11.095 Y-4.595 E0.02986
G1 X-10.803 Y-4.850 E0.02986
G1 X-10.481 Y-5.065 E0.02986
G1 X-10.134 Y-5.237 E0.02986
G1 X-9.777 Y-5.358 E0.02902
G1 X-9.385 Y-5.437 E0.03081
G1 X-8.966 Y-5.464 E0.03236
G1 X-8.268 Y-5.464 E0.05377
G1 X-8.268 Y-6.100 F15000.000
G1 X-4.759 Y-6.100 E0.27047 F720.000
G1 X-4.695 Y-5.798 E0.02381
G1 X-4.888 Y-5.712 E0.01632 F720.000
G1 X-5.445 Y-5.394 E0.04942
G1 X-5.968 Y-5.022 E0.04942
G1 X-6.450 Y-4.600 E0.04942
G1 X-6.888 Y-4.132 E0.04942
G1 X-7.277 Y-3.622 E0.04942
G1 X-7.613 Y-3.075 E0.04942
G1 X-7.893 Y-2.498 E0.04942
G1 X-8.113 Y-1.896 E0.04942
G1 X-8.272 Y-1.275 E0.04942
G1 X-8.349 Y-0.771 E0.03928
G1 X-8.686 Y-1.234 E0.04417
G1 X-9.034 Y-1.522 E0.03483
G1 X-9.445 Y-1.716 E0.03498
G1 X-9.906 Y-1.798 E0.03609
G1 X-10.338 Y-1.771 E0.03338
G1 X-10.768 Y-1.632 E0.03483
G1 X-11.149 Y-1.389 E0.03483
G1 X-11.459 Y-1.060 E0.03483
G1 X-11.677 Y-0.664 E0.03483
G1 X-11.789 Y-0.226 E0.03483
G1 X-11.789 Y0.226 E0.03483
G1 X-11.677 Y0.664 E0.03483
G1 X-11.459 Y1.060 E0.03483
G1 X-11.149 Y1.389 E0.03483
G1 X-10.768 Y1.632 E0.03483
G1 X-10.338 Y1.771 E0.03483
G1 X-9.887 Y1.800 E0.03483
G1 X-9.443 Y1.715 E0.03483
G1 X-9.051 Y1.530 E0.03338
G1 X-8.687 Y1.236 E0.03609
G1 X-8.349 Y0.771 E0.04432
G1 X-8.272 Y1.275 E0.03928
G1 X-8.113 Y1.896 E0.04942
G1 X-7.893 Y2.498 E0.04942
G1 X-7.613 Y3.075 E0.04942
G1 X-7.277 Y3.622 E0.04942
G1 X-6.888 Y4.132 E0.04942
G1 X-6.450 Y4.600 E0.04942
G1 X-5.968 Y5.022 E0.04942
G1 X-5.445 Y5.394 E0.04942
G1 X-4.888 Y5.712 E0.04942
G1 X-4.695 Y5.798 E0.01632
G1 X-4.759 Y6.100 E0.02381
G1 X-8.987 Y6.100 E0.32584
G1 X-9.470 Y6.068 E0.03729
G1 X-9.932 Y5.977 E0.03628
G1 X-10.377 Y5.825 E0.03628
G1 X-10.800 Y5.617 E0.03628
G1 X-11.191 Y5.355 E0.03628
G1 X-11.545 Y5.045 E0.03628
G1 X-11.855 Y4.691 E0.03628
G1 X-12.117 Y4.300 E0.03628
G1 X-12.325 Y3.877 E0.03628
G1 X-12.477 Y3.432 E0.03628
G1 X-12.568 Y2.970 E0.03628
G1 X-12.600 Y2.487 E0.03729
G1 X-12.600 Y-2.487 E0.38331
G1 X-12.568 Y-2.970 E0.03729
G1 X-12.477 Y-3.432 E0.03628
G1 X-12.325 Y-3.877 E0.03628
G1 X-12.117 Y-4.300 E0.03628
G1 X-11.855 Y-4.691 E0.03628
G1 X-11.545 Y-5.045 E0.03628
G1 X-11.191 Y-5.355 E0.03628
G1 X-10.800 Y-5.617 E0.03628
G1 X-10.377 Y-5.825 E0.03628
G1 X-9.943 Y-5.973 E0.03537
G1 X-9.469 Y-6.068 E0.03723
G1 X-8.987 Y-6.100 E0.03725
G1 X-8.328 Y-6.100 E0.05075
G1 X-8.068 Y-5.754 F15000.000
G1 E-3.20000 F3000.00000
G1 Z0.700 F15000.000
G1 X-4.385 Y6.024 F15000.000
G1 Z0.300 F15000.000
G1 E3.20000 F3000.00000
G1 X-3.667 Y6.139 E0.05599 F720.000
G1 X-2.950 Y6.217 E0.05562
G1 X-2.155 Y8.088 F15000.000
G1 X-2.283 Y8.450 E0.02960 F600.000
G1 X-2.600 Y8.396 E0.02479
G1 X-2.600 Y6.364 E0.15657
G1 X-2.376 Y6.390 E0.01736
G1 X-1.681 Y6.393 E0.05356
G1 X-1.368 Y6.360 E0.02430
G1 X-1.256 Y6.616 E0.02156
G1 X-1.463 Y6.796 E0.02107 F600.000
G1 X-1.958 Y7.530 E0.06828
G1 X-2.135 Y8.031 E0.04096
G1 X-2.533 Y8.158 F15000.000
G1 X-0.998 Y6.333 F15000.000
G1 X-0.046 Y5.980 E0.07825 F720.000
G1 X0.377 Y5.982 E0.03256
G1 E-3.20000 F3000.00000
G1 Z0.700 F15000.000
G1 X-2.600 Y12.600 F15000.000
G1 Z0.300 F15000.000
G1 E3.20000 F3000.00000
G1 X-2.600 Y9.454 E0.24244 F600.000
G1 X-2.252 Y9.423 E0.02689
G1 X-2.148 Y10.006 E0.04565
G1 X-1.797 Y10.761 E0.06410 F600.000
G1 X-1.259 Y11.413 E0.06523
G1 X-0.547 Y11.920 E0.06736
G1 X0.232 Y12.215 E0.06412
G1 X0.457 Y12.239 E0.01746
G1 X0.438 Y12.600 E0.02787
G1 X-2.540 Y12.600 E0.22947
G1 X-2.400 Y12.254 F15000.000
G1 E-3.20000 F3000.00000
G1 Z0.700 F15000.000
G1 X12.600 Y11.358 F15000.000
G1 Z0.300 F15000.000
G1 E3.20000 F3000.00000
G1 X12.600 Y12.600 E0.09573 F600.000
G1 X9.571 Y12.600 E0.23346
G1 X9.531 Y12.263 E0.02617
G1 X9.944 Y12.165 E0.03266
G1 X10.484 Y11.952 E0.04472
G1 X10.977 Y11.646 E0.04474
G1 X11.270 Y11.399 E0.02952
G1 X11.533 Y11.120 E0.02959
G1 X11.862 Y10.649 E0.04428
G1 X12.034 Y10.306 E0.02953
G1 X12.165 Y9.946 E0.02958
G1 X12.257 Y9.498 E0.03521
G1 X12.600 Y9.533 E0.02655
G1 X12.600 Y11.298 E0.13600 F600.000
G1 X12.254 Y11.558 F15000.000
G1 X12.266 Y10.588 F15000.000
G1 X12.224 Y10.766 E0.01406 F960.000
G1 X11.781 Y11.321 E0.05475
G1 E-3.20000 F3000.00000
G1 Z0.700 F15000.000
G1 X5.193 Y10.913 F15000.000
G1 Z0.300 F15000.000
G1 E3.20000 F3000.00000
G1 X5.059 Y10.647 E0.02297 F960.000
G1 X4.993 Y10.604 E0.00604
G1 X4.723 Y11.081 E0.04229
G1 X4.830 Y6.828 F15000.000
G1 X5.154 Y7.151 E0.03660 F960.000
G1 X5.497 Y6.561 E0.05463
G1 X3.649 Y4.713 E0.20913
G1 X4.054 Y4.185 E0.05328
G1 X5.916 Y6.047 E0.21075
G1 X6.410 Y5.607 E0.05291
G1 X4.418 Y3.615 E0.22547
G1 X4.734 Y2.998 E0.05548
G1 X6.974 Y5.237 E0.25342
G1 X7.622 Y4.952 E0.05668
G1 X5.005 Y2.335 E0.29614
G1 X5.213 Y1.610 E0.06039
G1 X8.358 Y4.754 E0.35585
G1 X9.218 Y4.682 E0.06912
G1 X5.357 Y0.820 E0.43705
G1 X5.419 Y-0.051 E0.06990
G1 X10.318 Y4.848 E0.55447
G1 X11.579 Y5.175 E0.10427
G1 X5.365 Y-1.039 E0.70328
G1 X5.119 Y-2.218 E0.09638
G1 X11.579 Y4.242 E0.73108
G1 X11.579 Y3.308 E0.07470
G1 X4.451 Y-3.820 E0.80674
G1 X3.588 Y-5.616 F15000.000
G1 X11.579 Y2.375 E0.90443 F960.000
G1 X11.579 Y1.441 E0.07470
G1 X4.079 Y-6.058 E0.84876
G1 X4.503 Y-6.568 E0.05305
G1 X11.579 Y0.508 E0.80082
G1 X11.579 Y-0.425 E0.07470
G1 X6.832 Y-5.172 E0.53723
G1 X8.208 Y-4.730 F15000.000
G1 X11.579 Y-1.359 E0.38155 F960.000
G1 X11.579 Y-2.292 E0.07470
G1 X9.183 Y-4.688 E0.27115
G1 X9.982 Y-4.823 E0.06484
