; generated by Slic3r 1.2.9 on 2017-02-27 at 15:21:42

; external perimeters extrusion width = 0.40mm
; perimeters extrusion width = 0.40mm
; infill extrusion width = 0.40mm
; solid infill extrusion width = 0.40mm
; top infill extrusion width = 0.40mm

M107
M83
T0
M116
G21 ; set units to millimeters
G90 ; use absolute coordinates
M83 ; use relative distances for extrusion
G1 E-3.20000 F3000.00000
G1 Z0.400 F15000.000
G1 X16.336 Y0.000 F15000.000
G1 Z0.300 F15000.000
G1 E3.20000 F3000.00000
G1 X16.336 Y29.950 E2.30811 F960.000
G1 X15.941 Y31.597 E0.13052
G1 X14.843 Y32.887 E0.13052
G1 X12.700 Y33.586 E0.17373
G1 X2.800 Y33.586 E0.76295
G1 X1.153 Y33.191 E0.13052
G1 X0.363 Y32.648 E0.07387
G1 X-15.137 Y18.648 E1.60964
G1 X-16.095 Y17.251 E0.13052
G1 X-16.336 Y15.950 E0.10198
G1 X-16.336 Y-15.950 E2.45839
G1 X-15.941 Y-17.597 E0.13052
G1 X-15.137 Y-18.648 E0.10198
G1 X0.363 Y-32.648 E1.60964
G1 X1.850 Y-33.459 E0.13052
G1 X2.800 Y-33.586 E0.07387
G1 X12.700 Y-33.586 E0.76295
G1 X14.347 Y-33.191 E0.13052
G1 X15.637 Y-32.093 E0.13052 F960.000
G1 X16.336 Y-29.950 E0.17373
G1 X16.336 Y-0.060 E2.30349
G1 E-3.20000 F3000.00000
G1 Z0.700 F15000.000
G1 X11.714 Y27.445 F15000.000
G1 Z0.300 F15000.000
G1 E3.20000 F3000.00000
G1 X11.714 Y28.964 E0.11708 F600.000
G1 X3.786 Y28.964 E0.61103 F600.000
G1 X3.786 Y23.036 E0.45690
G1 X11.714 Y23.036 E0.61103
G1 X11.714 Y27.385 E0.33520
G1 X12.350 Y27.385 F15000.000
G1 X12.350 Y29.600 E0.17069 F600.000
G1 X3.150 Y29.600 E0.70900 F600.000
G1 X3.150 Y22.400 E0.55487
G1 X12.350 Y22.400 E0.70900
G1 X12.350 Y27.325 E0.37956
G1 X12.004 Y27.585 F15000.000
G1 X12.250 Y22.050 F15000.000
G1 X12.250 Y-22.050 E3.39859 F720.000
G1 X9.375 Y-28.964 F15000.000
G1 X11.714 Y-28.964 E0.18025 F600.000
G1 X11.714 Y-23.036 E0.45690
G1 X3.786 Y-23.036 E0.61103 F600.000
G1 X3.786 Y-28.964 E0.45690
G1 X9.315 Y-28.964 E0.42616
G1 X9.315 Y-29.600 F15000.000
G1 X12.350 Y-29.600 E0.23386 F600.000
G1 X12.350 Y-22.400 E0.55487
G1 X3.150 Y-22.400 E0.70900 F600.000
G1 X3.150 Y-29.600 E0.55487
G1 X9.255 Y-29.600 E0.47052
G1 X9.515 Y-29.254 F15000.000
G1 X2.800 Y-28.798 F15000.000
G1 X2.033 Y-28.013 E0.08456 F720.000
G1 X1.489 Y-27.406 E0.06284
G1 X1.070 Y-26.902 E0.05052
G1 X0.603 Y-26.287 E0.05952
G1 X0.195 Y-25.703 E0.05494
G1 X-0.144 Y-25.172 E0.04848
G1 X-0.563 Y-24.458 E0.06382
G1 X-0.835 Y-23.942 E0.04497
G1 X-1.220 Y-23.142 E0.06841
G1 X-1.764 Y-21.775 E0.11336
G1 X-1.889 Y-21.401 E0.03043
G1 X-2.263 Y-20.076 E0.10610
G1 X-2.527 Y-18.760 E0.10340
G1 X-2.686 Y-17.470 E0.10020
G1 X-2.752 Y-15.950 E0.11725
G1 E-3.20000 F3000.00000
G1 Z0.700 F15000.000
G1 X-2.752 Y15.950 F15000.000
G1 Z0.300 F15000.000
G1 E3.20000 F3000.00000
G1 X-2.686 Y17.470 E0.11725 F720.000
G1 X-2.527 Y18.760 E0.10020
G1 X-2.263 Y20.076 E0.10340
G1 X-1.889 Y21.401 E0.10610
G1 X-1.764 Y21.775 E0.03043
G1 X-1.220 Y23.142 E0.11336
G1 X-0.835 Y23.942 E0.06841
G1 X-0.563 Y24.458 E0.04497
G1 X-0.144 Y25.172 E0.06382
G1 X0.202 Y25.714 E0.04956
G1 X0.603 Y26.287 E0.05387
G1 X1.069 Y26.902 E0.05951
G1 X1.478 Y27.394 E0.04928
G1 X2.033 Y28.013 E0.06410
G1 X2.800 Y28.798 E0.08456
G1 E-3.20000 F3000.00000
G1 Z0.700 F15000.000
G1 X1.383 Y11.846 F15000.000
G1 Z0.300 F15000.000
G1 E3.20000 F3000.00000
G1 X0.244 Y11.900 E0.08783 F720.000
G1 X-0.853 Y11.849 E0.08463
G1 X-1.941 Y11.696 E0.08473
G1 X-3.054 Y11.433 E0.08813
G1 X-4.112 Y11.072 E0.08611
G1 X-5.131 Y10.614 E0.08609
G1 X-6.102 Y10.063 E0.08609
G1 X-7.018 Y9.423 E0.08609
G1 X-7.869 Y8.700 E0.08609
G1 X-8.750 Y7.798 E0.09718
G1 X-8.750 Y-7.798 E1.20185
G1 X-7.869 Y-8.700 E0.09718
G1 X-7.018 Y-9.423 E0.08609
G1 X-6.102 Y-10.063 E0.08609
G1 X-5.131 Y-10.614 E0.08609
G1 X-4.112 Y-11.072 E0.08609
G1 X-3.054 Y-11.433 E0.08611
G1 X-1.942 Y-11.696 E0.08808
G1 X-0.848 Y-11.849 E0.08512
G1 X0.191 Y-11.898 E0.08020 F720.000
G1 X1.351 Y-11.849 E0.08941
G1 X2.471 Y-11.691 E0.08722
G1 X3.554 Y-11.433 E0.08578
G1 X4.621 Y-11.068 E0.08689
G1 X5.632 Y-10.614 E0.08546
G1 X6.597 Y-10.066 E0.08547
G1 X7.514 Y-9.426 E0.08618
G1 X8.374 Y-8.696 E0.08692
G1 X9.250 Y-7.798 E0.09672
G1 X9.250 Y7.798 E1.20187
G1 X8.374 Y8.696 E0.09672
G1 X7.522 Y9.420 E0.08614
G1 X6.605 Y10.062 E0.08627
G1 X5.632 Y10.614 E0.08617
G1 X4.613 Y11.072 E0.08616
G1 X3.554 Y11.433 E0.08621
G1 X2.472 Y11.691 E0.08575
G1 X1.442 Y11.838 E0.08012
G1 X1.211 Y12.207 F15000.000
G1 X-11.714 Y11.387 F15000.000
G1 X-11.714 Y-14.964 E2.03080 F720.000
G1 X9.214 Y-14.964 E1.61289
G1 X9.214 Y-8.745 E0.47934
G1 X8.808 Y-9.161 E0.04487 F720.000
G1 X7.902 Y-9.930 E0.09153
G1 X6.937 Y-10.604 E0.09078
G1 X5.920 Y-11.181 E0.09006
G1 X4.854 Y-11.660 E0.09005
G1 X3.731 Y-12.044 E0.09149
G1 X2.590 Y-12.316 E0.09041
G1 X1.409 Y-12.483 E0.09193
G1 X0.190 Y-12.535 E0.09400
G1 X-0.907 Y-12.483 E0.08465
G1 X-2.060 Y-12.322 E0.08968
G1 X-3.230 Y-12.044 E0.09272
G1 X-4.345 Y-11.664 E0.09075
G1 X-5.418 Y-11.182 E0.09069
G1 X-6.442 Y-10.601 E0.09069
G1 X-7.407 Y-9.927 E0.09069
G1 X-8.304 Y-9.165 E0.09069
G1 X-9.386 Y-8.056 E0.11942
G1 X-9.386 Y8.056 E1.24171
G1 X-8.304 Y9.165 E0.11942
G1 X-7.407 Y9.927 E0.09069
G1 X-6.442 Y10.601 E0.09069
G1 X-5.419 Y11.182 E0.09069
G1 X-4.345 Y11.664 E0.09069
G1 X-3.230 Y12.044 E0.09076
G1 X-2.059 Y12.322 E0.09276
G1 X-0.912 Y12.483 E0.08929
G1 X0.245 Y12.537 E0.08921
G1 X1.443 Y12.480 E0.09244
G1 X2.590 Y12.316 E0.08933
G1 X3.731 Y12.044 E0.09033
G1 X4.846 Y11.664 E0.09081
G1 X5.920 Y11.181 E0.09077
G1 X6.945 Y10.600 E0.09078
G1 X7.911 Y9.924 E0.09088
G1 X8.808 Y9.161 E0.09073
G1 X9.214 Y8.745 E0.04485
G1 X9.214 Y14.964 E0.47934
G1 X-11.714 Y14.964 E1.61289
G1 X-11.714 Y11.447 E0.27105
G1 X-12.350 Y11.447 F15000.000
G1 X-12.350 Y-15.600 E2.08441 F720.000
G1 X9.850 Y-15.600 E1.71085
G1 X9.850 Y15.600 E2.40444
G1 X-12.350 Y15.600 E1.71085 F720.000
G1 X-12.350 Y11.507 E0.31541
G1 X-12.004 Y11.247 F15000.000
G1 X-11.329 Y14.269 F15000.000
G1 X-11.019 Y14.579 E0.03385 F960.000
G1 X-10.118 Y14.579 E0.06972
G1 X-11.329 Y13.368 E0.13245
G1 X-11.329 Y12.466 E0.06972
G1 X-9.216 Y14.579 E0.23105
G1 X-8.314 Y14.579 E0.06972
G1 X-11.329 Y11.564 E0.32965
G1 X-11.329 Y10.662 E0.06972
G1 X-7.412 Y14.579 E0.42825
G1 X-6.510 Y14.579 E0.06972
G1 X-11.329 Y9.760 E0.52685
G1 X-11.329 Y8.859 E0.06972
G1 X-5.609 Y14.579 E0.62545
G1 X-4.707 Y14.579 E0.06972
G1 X-11.329 Y7.957 E0.72405
G1 X-11.329 Y7.055 F15000.000
G1 X-3.805 Y14.579 E0.82264 F960.000
G1 X-6.209 Y11.274 F15000.000
G1 X-2.903 Y14.579 E0.36141 F960.000
G1 X-2.001 Y14.579 E0.06972
G1 X-4.512 Y12.068 E0.27455
G1 X-3.194 Y12.484 E0.10688
G1 X-1.100 Y14.579 E0.22902
G1 X-0.198 Y14.579 E0.06972
G1 X-2.044 Y12.733 E0.20180
G1 X-1.004 Y12.871 E0.08104
G1 X0.704 Y14.579 E0.18678
G1 X1.606 Y14.579 E0.06972
G1 X-0.058 Y12.915 E0.18195
G1 X0.818 Y12.889 E0.06775
G1 X2.507 Y14.579 E0.18477
G1 X3.409 Y14.579 E0.06972
G1 X1.652 Y12.821 E0.19217
G1 X2.441 Y12.709 E0.06165
G1 X4.311 Y14.579 E0.20445
G1 X5.213 Y14.579 E0.06972
G1 X3.178 Y12.544 E0.22252
G1 X3.893 Y12.357 E0.05715
G1 X6.115 Y14.579 E0.24290
G1 X7.016 Y14.579 E0.06972
G1 X4.566 Y12.128 E0.26796
G1 X5.213 Y11.874 E0.05378
G1 X7.918 Y14.579 E0.29577
G1 X8.804 Y14.563 E0.06853
G1 X5.835 Y11.594 E0.32464
G1 X6.425 Y11.282 E0.05157
G1 X8.829 Y13.686 E0.26289
G1 X8.829 Y12.784 E0.06972
G1 X7.000 Y10.955 E0.20000
G1 X7.537 Y10.591 E0.05020
G1 X8.829 Y11.883 E0.14123
G1 X8.829 Y10.981 E0.06972
G1 X8.068 Y10.220 E0.08322
G1 X8.557 Y9.807 E0.04948
G1 X8.829 Y10.079 E0.02969
G1 E-3.20000 F3000.00000
G1 Z0.700 F15000.000
G1 X-9.771 Y7.711 F15000.000
G1 Z0.300 F15000.000
G1 E3.20000 F3000.00000
G1 X-11.329 Y6.153 E0.17034 F960.000
G1 X-11.329 Y5.251 E0.06972
G1 X-9.771 Y6.809 E0.17034
G1 X-9.771 Y5.908 E0.06972
G1 X-11.329 Y4.350 E0.17034
G1 X-11.329 Y3.448 E0.06972
G1 X-9.771 Y5.006 E0.17034
G1 X-9.771 Y4.104 E0.06972
G1 X-11.329 Y2.546 E0.17034
G1 X-11.329 Y1.644 E0.06972
G1 X-9.771 Y3.202 E0.17034
G1 X-9.771 Y2.300 E0.06972
G1 X-11.329 Y0.743 E0.17034
G1 X-11.329 Y-0.159 E0.06972
G1 X-9.771 Y1.399 E0.17034
G1 X-9.771 Y0.497 E0.06972
G1 X-11.329 Y-1.061 E0.17034
G1 X-11.329 Y-1.963 E0.06972
G1 X-9.771 Y-0.405 E0.17034
G1 X-9.771 Y-1.307 E0.06972
G1 X-11.329 Y-2.865 E0.17034
G1 X-11.329 Y-3.766 E0.06972
G1 X-9.771 Y-2.209 E0.17034
G1 X-9.771 Y-3.110 E0.06972
G1 X-11.329 Y-4.668 E0.17034
G1 X-11.329 Y-5.570 E0.06972
G1 X-9.771 Y-4.012 E0.17034
G1 X-9.771 Y-4.914 E0.06972
G1 X-11.329 Y-6.472 E0.17034
G1 X-11.329 Y-7.374 E0.06972
G1 X-9.771 Y-5.816 E0.17034
G1 X-9.771 Y-6.717 E0.06972
G1 X-11.329 Y-8.275 E0.17034
G1 X-11.329 Y-9.177 E0.06972
G1 X-9.771 Y-7.619 E0.17034
G1 X-9.579 Y-8.329 E0.05687
G1 X-11.329 Y-10.079 E0.19128
G1 X-11.329 Y-10.981 E0.06972
G1 X-9.134 Y-8.786 E0.23997
G1 X-8.689 Y-9.242 E0.04930
G1 X-11.329 Y-11.883 E0.28865
G1 X-11.329 Y-12.784 E0.06972
G1 X-8.217 Y-9.672 E0.34026
G1 X-7.729 Y-10.086 E0.04946
G1 X-11.329 Y-13.686 E0.39359
G1 X-11.305 Y-14.563 E0.06786
G1 X-7.211 Y-10.470 E0.44760
G1 X-6.680 Y-10.841 E0.05007
G1 X-10.418 Y-14.579 E0.40874
G1 X-9.516 Y-14.579 E0.06972
G1 X-6.113 Y-11.175 E0.37217
G1 X-5.537 Y-11.502 E0.05114
G1 X-8.615 Y-14.579 E0.33648
G1 X-7.713 Y-14.579 E0.06972
G1 X-4.916 Y-11.783 E0.30576
G1 X-4.286 Y-12.053 E0.05308
G1 X-6.811 Y-14.579 E0.27614
G1 X-5.909 Y-14.579 E0.06972
G1 X-3.613 Y-12.283 E0.25109
G1 X-2.915 Y-12.487 E0.05620
G1 X-5.008 Y-14.579 E0.22877
G1 X-4.106 Y-14.579 E0.06972
G1 X-2.186 Y-12.659 E0.20987
G1 X-1.409 Y-12.784 E0.06084
G1 X-3.204 Y-14.579 E0.19622
G1 X-2.302 Y-14.579 E0.06972
G1 X-0.600 Y-12.877 E0.18608
G1 X0.261 Y-12.918 E0.06667
G1 X-1.400 Y-14.579 E0.18166
G1 X-0.499 Y-14.579 E0.06972
G1 X1.197 Y-12.884 E0.18537
G1 X2.201 Y-12.781 E0.07807
G1 X0.403 Y-14.579 E0.19660
G1 X1.305 Y-14.579 E0.06972
G1 X3.306 Y-12.577 E0.21884
G1 X4.566 Y-12.220 E0.10125
G1 X2.207 Y-14.579 E0.25797
G1 X3.109 Y-14.579 E0.06972
G1 X6.084 Y-11.604 E0.32528
G1 X8.530 Y-10.059 F15000.000
G1 X4.010 Y-14.579 E0.49415 F960.000
G1 X4.912 Y-14.579 E0.06972
G1 X8.829 Y-10.662 E0.42825
G1 X8.829 Y-11.564 E0.06972
G1 X5.814 Y-14.579 E0.32965
G1 X6.716 Y-14.579 E0.06972
G1 X8.829 Y-12.466 E0.23106
G1 X8.829 Y-13.368 E0.06972
G1 X7.617 Y-14.579 E0.13246
G1 X8.519 Y-14.579 E0.06972
G1 X8.829 Y-14.269 E0.03386
G1 E-3.20000 F3000.00000
G1 Z0.700 F15000.000
G1 X4.481 Y-23.421 F15000.000
G1 Z0.300 F15000.000
G1 E3.20000 F3000.00000
G1 X4.171 Y-23.731 E0.03378 F960.000
G1 X4.171 Y-24.630 E0.06940
G1 X5.380 Y-23.421 E0.13193
G1 X6.280 Y-23.421 E0.06940
G1 X4.171 Y-25.530 E0.23008
G1 X4.171 Y-26.430 E0.06940
G1 X7.180 Y-23.421 E0.32823
G1 X8.080 Y-23.421 E0.06940
G1 X4.171 Y-27.330 E0.42638
G1 X4.171 Y-28.229 E0.06940
G1 X8.979 Y-23.421 E0.52453
G1 X9.879 Y-23.421 E0.06940
G1 X4.721 Y-28.579 E0.56267
G1 X5.621 Y-28.579 E0.06940
G1 X10.779 Y-23.421 E0.56267
G1 X11.329 Y-23.771 E0.05028
G1 X6.521 Y-28.579 E0.52453
G1 X7.420 Y-28.579 E0.06940
G1 X11.329 Y-24.670 E0.42638
G1 X11.329 Y-25.570 E0.06940
G1 X8.320 Y-28.579 E0.32823
G1 X9.220 Y-28.579 E0.06940
G1 X11.329 Y-26.470 E0.23008
G1 X11.329 Y-27.370 E0.06940
G1 X10.120 Y-28.579 E0.13193
G1 X11.019 Y-28.579 E0.06940
G1 X11.329 Y-28.269 E0.03378
G1 E-3.20000 F3000.00000
G1 Z0.700 F15000.000
G1 X11.329 Y23.731 F15000.000
G1 Z0.300 F15000.000
G1 E3.20000 F3000.00000
G1 X11.019 Y23.421 E0.03378 F960.000
G1 X10.120 Y23.421 E0.06940
G1 X11.329 Y24.630 E0.13193
G1 X11.329 Y25.530 E0.06940
G1 X9.220 Y23.421 E0.23008
G1 X8.320 Y23.421 E0.06940
G1 X11.329 Y26.430 E0.32823
G1 X11.329 Y27.330 E0.06940
G1 X7.420 Y23.421 E0.42638
G1 X6.521 Y23.421 E0.06940
G1 X11.329 Y28.229 E0.52453
G1 X10.779 Y28.579 E0.05028
G1 X5.621 Y23.421 E0.56267
G1 X4.721 Y23.421 E0.06940
G1 X9.879 Y28.579 E0.56267
G1 X8.979 Y28.579 E0.06940
G1 X4.171 Y23.771 E0.52453
G1 X4.171 Y24.670 E0.06940
G1 X8.080 Y28.579 E0.42638
G1 X7.180 Y28.579 E0.06940
G1 X4.171 Y25.570 E0.32823
G1 X4.171 Y26.470 E0.06940
G1 X6.280 Y28.579 E0.23008
G1 X5.380 Y28.579 E0.06940
G1 X4.171 Y27.370 E0.13193
G1 X4.171 Y28.269 E0.06940
G1 X4.481 Y28.579 E0.03378
G1 E-3.20000 F3000.00000
G1 Z0.700 F15000.000
G1 X3.000 Y28.579 F15000.000
G1 Z0.500 F15000.000
G1 E3.20000 F3000.00000
G1 X3.000 Y28.679 E0.00288 F2945.676
G1 X1.650 Y27.224 E0.05729
G1 X0.808 Y26.159 E0.03918
G1 X0.053 Y25.031 E0.03918
G1 X-0.612 Y23.847 E0.03918
G1 X-1.181 Y22.615 E0.03918
G1 X-1.652 Y21.342 E0.03918
G1 X-2.021 Y20.036 E0.03918
G1 X-2.287 Y18.704 E0.03918
G1 X-2.447 Y17.356 E0.03918
G1 X-2.510 Y15.750 E0.04640
G1 X10.000 Y15.750 E0.36107
G1 X10.000 Y-15.750 E0.90917
G1 X-2.510 Y-15.750 E0.36107
G1 X-2.447 Y-17.356 E0.04640
G1 X-2.287 Y-18.704 E0.03918
G1 X-2.021 Y-20.036 E0.03919
G1 X-1.638 Y-21.380 E0.04034
G1 X-1.181 Y-22.615 E0.03801
G1 X-0.612 Y-23.847 E0.03918
G1 X0.053 Y-25.031 E0.03918
G1 X0.808 Y-26.159 E0.03919
G1 X1.678 Y-27.253 E0.04034
G1 X3.000 Y-28.679 E0.05612 F2945.676
G1 X3.000 Y-22.250 E0.18555
G1 X12.000 Y-22.250 E0.25976
G1 X12.000 Y22.250 E1.28439
G1 X3.000 Y22.250 E0.25976
G1 X3.000 Y28.519 E0.18094
G1 X3.086 Y28.629 F15000.000
G1 E-3.20000 F3000.00000
G1 Z0.900 F15000.000
G1 X3.357 Y-24.046 F15000.000
G1 Z0.500 F15000.000
G1 E3.20000 F3000.00000
G1 X3.357 Y-29.393 E0.15434 F2454.730
G1 X12.143 Y-29.393 E0.25358
G1 X12.143 Y-22.607 E0.19586
G1 X3.357 Y-22.607 E0.25358 F2454.730
G1 X3.357 Y-23.986 E0.03979
G1 E-3.20000 F3000.00000
G1 Z0.900 F15000.000
G1 X9.643 Y-7.692 F15000.000
G1 Z0.500 F15000.000
G1 E3.20000 F3000.00000
G1 X8.522 Y-8.841 E0.04635 F2945.676
G1 X7.635 Y-9.594 E0.03358
G1 X6.700 Y-10.246 E0.03289
G1 X5.726 Y-10.798 E0.03230
G1 X4.706 Y-11.257 E0.03230
G1 X3.608 Y-11.633 E0.03348
G1 X2.502 Y-11.896 E0.03283
G1 X1.346 Y-12.058 E0.03368
G1 X0.095 Y-12.102 E0.03613
G1 X-0.933 Y-12.049 E0.02972
G1 X-1.936 Y-11.908 E0.02922
G1 X-3.107 Y-11.633 E0.03474
G1 X-4.185 Y-11.266 E0.03285
G1 X-5.222 Y-10.800 E0.03282
G1 X-6.211 Y-10.239 E0.03282
G1 X-7.144 Y-9.588 E0.03282
G1 X-8.010 Y-8.852 E0.03282
G1 X-8.957 Y-7.882 E0.03913
G1 X-8.957 Y7.882 E0.45498
G1 X-8.010 Y8.852 E0.03913
G1 X-7.144 Y9.588 E0.03282
G1 X-6.211 Y10.239 E0.03282
G1 X-5.222 Y10.800 E0.03282
G1 X-4.185 Y11.266 E0.03282
G1 X-3.107 Y11.633 E0.03285
G1 X-1.933 Y11.908 E0.03481
G1 X-0.852 Y12.057 E0.03151
G1 X0.235 Y12.108 E0.03139
G1 X1.335 Y12.058 E0.03180
G1 X2.509 Y11.895 E0.03419
G1 X3.628 Y11.627 E0.03321
G1 X4.687 Y11.265 E0.03231
G1 X5.726 Y10.798 E0.03288
G1 X6.717 Y10.236 E0.03289
G1 X7.652 Y9.581 E0.03293
G1 X8.522 Y8.841 E0.03296
G1 X9.643 Y7.692 E0.04634
G1 X9.643 Y15.393 E0.22228
G1 X-12.143 Y15.393 E0.62880
G1 X-12.143 Y-15.393 E0.88856
G1 X9.643 Y-15.393 E0.62880
G1 X9.643 Y-7.752 E0.22055
G1 X9.100 Y-7.737 F15000.000
G1 X9.100 Y7.737 E0.44661 F2945.676
G1 X8.278 Y8.580 E0.03399
G1 X7.434 Y9.299 E0.03200
G1 X6.526 Y9.933 E0.03196
G1 X5.565 Y10.480 E0.03192
G1 X4.556 Y10.933 E0.03192
G1 X3.528 Y11.283 E0.03135
G1 X2.442 Y11.544 E0.03223
G1 X1.303 Y11.703 E0.03321
G1 X0.235 Y11.750 E0.03085
G1 X-0.819 Y11.701 E0.03046
G1 X-1.868 Y11.557 E0.03056
G1 X-3.009 Y11.289 E0.03383
G1 X-4.054 Y10.934 E0.03186
G1 X-5.061 Y10.482 E0.03185
G1 X-6.021 Y9.937 E0.03185
G1 X-6.925 Y9.305 E0.03185
G1 X-7.767 Y8.591 E0.03185
G1 X-8.600 Y7.737 E0.03445
G1 X-8.600 Y-7.737 E0.44659
G1 X-7.767 Y-8.591 E0.03445
G1 X-6.925 Y-9.305 E0.03185
G1 X-6.021 Y-9.937 E0.03185
G1 X-5.061 Y-10.482 E0.03185
G1 X-4.054 Y-10.934 E0.03185
G1 X-3.009 Y-11.289 E0.03186
G1 X-1.870 Y-11.556 E0.03377
G1 X-0.899 Y-11.693 E0.02830
G1 X0.098 Y-11.745 E0.02882 F2945.676
G1 X1.315 Y-11.702 E0.03515
G1 X2.435 Y-11.545 E0.03265
G1 X3.509 Y-11.289 E0.03185
G1 X4.574 Y-10.925 E0.03250
G1 X5.565 Y-10.480 E0.03134
G1 X6.509 Y-9.944 E0.03134
G1 X7.417 Y-9.311 E0.03192
G1 X8.278 Y-8.580 E0.03261
G1 X9.058 Y-7.780 E0.03226
G1 X9.486 Y-7.632 F15000.000
G1 E-3.20000 F3000.00000
G1 Z0.900 F15000.000
G1 X6.678 Y22.607 F15000.000
G1 Z0.500 F15000.000
G1 E3.20000 F3000.00000
G1 X12.143 Y22.607 E0.15772 F2454.730
G1 X12.143 Y29.393 E0.19586
G1 X3.357 Y29.393 E0.25358 F2454.730
G1 X3.357 Y22.607 E0.19586
G1 X6.618 Y22.607 E0.09413
G1 X12.500 Y22.607 F15000.000
G1 X12.500 Y29.750 E0.20616 F2945.676
G1 X3.000 Y29.750 E0.27420 F2945.676
G1 X3.000 Y29.311 E0.01267
G1 X1.847 Y28.189 E0.04643
G1 X0.869 Y27.062 E0.04308
