; generated by Slic3r 1.2.9 on 2017-02-10 at 15:47:27

; external perimeters extrusion width = 0.40mm
; perimeters extrusion width = 0.40mm
; infill extrusion width = 0.40mm
; solid infill extrusion width = 0.40mm
; top infill extrusion width = 0.40mm

M107
M83
T0
M116
G21 ; set units to millimeters
G90 ; use absolute coordinates
M83 ; use relative distances for extrusion
G1 E-3.20000 F3000.00000
G1 Z0.400 F15000.000
G1 X0.000 Y14.736 F15000.000
G1 Z0.300 F15000.000
G1 E3.20000 F3000.00000
G1 X-19.450 Y14.736 E1.49892 F960.000
G1 X-21.097 Y14.341 E0.13052
G1 X-22.387 Y13.243 E0.13052
G1 X-23.086 Y11.100 E0.17373
G1 X-23.086 Y-11.950 E1.77636
G1 X-22.691 Y-13.597 E0.13052
G1 X-21.593 Y-14.887 E0.13052
G1 X-19.450 Y-15.586 E0.17373
G1 X19.450 Y-15.586 E2.99785
G1 X21.097 Y-15.191 E0.13052
G1 X22.387 Y-14.093 E0.13052 F960.000
G1 X23.086 Y-11.950 E0.17373
G1 X23.086 Y11.100 E1.77636
G1 X22.691 Y12.747 E0.13052
G1 X21.593 Y14.037 E0.13052
G1 X19.450 Y14.736 E0.17373
G1 X0.060 Y14.736 E1.49430
G1 E-3.20000 F3000.00000
G1 Z0.700 F15000.000
G1 X0.060 Y10.750 F15000.000
G1 Z0.300 F15000.000
G1 E3.20000 F3000.00000
G1 X-19.100 Y10.750 E1.47657 F720.000
G1 X-19.100 Y-11.600 E1.72241
G1 X-12.025 Y-11.600 E0.54527
G1 X-11.587 Y-11.542 E0.03403
G1 X-11.202 Y-11.383 E0.03212
G1 X-10.871 Y-11.129 E0.03212
G1 X-10.617 Y-10.798 E0.03212
G1 X-10.458 Y-10.413 E0.03212
G1 X-10.400 Y-9.974 E0.03416
G1 X-10.400 Y1.666 E0.89700
G1 X-9.166 Y2.900 E0.13452
G1 X10.166 Y2.900 E1.48978
G1 X11.400 Y1.666 E0.13452
G1 X11.400 Y-9.974 E0.89700
G1 X11.458 Y-10.413 E0.03416
G1 X11.617 Y-10.798 E0.03212
G1 X11.871 Y-11.129 E0.03212
G1 X12.202 Y-11.383 E0.03212
G1 X12.587 Y-11.542 E0.03212
G1 X13.026 Y-11.600 E0.03416
G1 X19.100 Y-11.600 E0.46808
G1 X19.100 Y10.750 E1.72241
G1 X0.120 Y10.750 E1.46270 F720.000
G1 X-0.140 Y10.404 F15000.000
G1 X18.464 Y-3.397 F15000.000
G1 X18.464 Y10.114 E1.04125 F720.000
G1 X-18.464 Y10.114 E2.84593 F720.000
G1 X-18.464 Y-10.964 E1.62444
G1 X-12.066 Y-10.964 E0.49307
G1 X-11.753 Y-10.923 E0.02437
G1 X-11.522 Y-10.827 E0.01922
G1 X-11.324 Y-10.676 E0.01922
G1 X-11.173 Y-10.478 E0.01922
G1 X-11.077 Y-10.247 E0.01922
G1 X-11.036 Y-9.932 E0.02450
G1 X-11.036 Y1.929 E0.91408
G1 X-9.429 Y3.536 E0.17510
G1 X10.429 Y3.536 E1.53036
G1 X12.036 Y1.929 E0.17510
G1 X12.036 Y-9.932 E0.91408
G1 X12.077 Y-10.247 E0.02450
G1 X12.173 Y-10.478 E0.01922
G1 X12.324 Y-10.676 E0.01922
G1 X12.522 Y-10.827 E0.01922
G1 X12.753 Y-10.923 E0.01922
G1 X13.068 Y-10.964 E0.02450
G1 X18.464 Y-10.964 E0.41588
G1 X18.464 Y-3.457 E0.57857
G1 X18.079 Y-10.269 F15000.000
G1 X17.769 Y-10.579 E0.03382 F960.000
G1 X16.869 Y-10.579 E0.06956
G1 X18.079 Y-9.369 E0.13219
G1 X18.079 Y-8.468 E0.06956
G1 X15.968 Y-10.579 E0.23056
G1 X15.067 Y-10.579 E0.06956
G1 X18.079 Y-7.567 E0.32894
G1 X18.079 Y-6.666 E0.06956
G1 X14.166 Y-10.579 E0.42731
G1 X13.266 Y-10.579 E0.06956
G1 X18.079 Y-5.766 E0.52568
G1 X18.079 Y-4.865 E0.06956
G1 X12.536 Y-10.408 E0.60533
G1 X12.421 Y-9.622 E0.06132
G1 X18.079 Y-3.964 E0.61791
G1 X18.079 Y-3.063 E0.06956
G1 X12.421 Y-8.721 E0.61791
G1 X12.421 Y-7.820 E0.06956
G1 X18.079 Y-2.163 E0.61791
G1 X18.079 Y-1.262 E0.06956
G1 X12.421 Y-6.920 E0.61791
G1 X12.421 Y-6.019 E0.06956
G1 X18.079 Y-0.361 E0.61791
G1 X18.079 Y0.540 E0.06956
G1 X12.421 Y-5.118 E0.61791
G1 X12.421 Y-4.217 E0.06956
G1 X18.079 Y1.440 E0.61791
G1 X18.079 Y2.341 E0.06956
G1 X12.421 Y-3.317 E0.61791
G1 X12.421 Y-2.416 E0.06956
G1 X18.079 Y3.242 E0.61791
G1 X18.079 Y4.143 E0.06956
G1 X12.421 Y-1.515 E0.61791
G1 X12.421 Y-0.614 E0.06956
G1 X18.079 Y5.043 E0.61791
G1 X18.079 Y5.944 E0.06956
G1 X12.421 Y0.286 E0.61791
G1 X12.421 Y1.187 E0.06956
G1 X18.079 Y6.845 E0.61791
G1 X18.079 Y7.746 E0.06956
G1 X12.382 Y2.049 E0.62218
G1 X11.932 Y2.499 E0.04919
G1 X18.079 Y8.646 E0.67136
G1 X18.079 Y9.547 E0.06956
G1 X11.481 Y2.949 E0.72055
G1 X11.031 Y3.400 E0.04919
G1 X17.360 Y9.729 E0.69121
G1 X16.459 Y9.729 E0.06956
G1 X10.580 Y3.850 E0.64202
G1 X9.751 Y3.921 E0.06432
G1 X15.558 Y9.729 E0.63429
G1 X14.658 Y9.729 E0.06956
G1 X8.850 Y3.921 E0.63429
G1 X7.949 Y3.921 E0.06956
G1 X13.757 Y9.729 E0.63429
G1 X12.856 Y9.729 E0.06956
G1 X7.048 Y3.921 E0.63429
G1 X6.148 Y3.921 E0.06956
G1 X11.955 Y9.729 E0.63429
G1 X11.055 Y9.729 E0.06956
G1 X5.247 Y3.921 E0.63429
G1 X4.346 Y3.921 E0.06956
G1 X10.154 Y9.729 E0.63429
G1 X9.253 Y9.729 E0.06956
G1 X3.445 Y3.921 E0.63429
G1 X2.545 Y3.921 E0.06956
G1 X8.352 Y9.729 E0.63429
G1 X7.452 Y9.729 E0.06956
G1 X1.644 Y3.921 E0.63429
G1 X0.743 Y3.921 E0.06956
G1 X6.551 Y9.729 E0.63429
G1 X5.650 Y9.729 E0.06956
G1 X-0.158 Y3.921 E0.63429
G1 X-1.058 Y3.921 E0.06956
G1 X4.749 Y9.729 E0.63429
G1 X3.849 Y9.729 E0.06956
G1 X-1.959 Y3.921 E0.63429
G1 X-2.860 Y3.921 E0.06956
G1 X2.948 Y9.729 E0.63429
G1 X2.047 Y9.729 E0.06956
G1 X-3.761 Y3.921 E0.63429
G1 X-4.661 Y3.921 E0.06956
G1 X1.146 Y9.729 E0.63429
G1 X0.246 Y9.729 E0.06956
G1 X-5.562 Y3.921 E0.63429
G1 X-6.463 Y3.921 E0.06956
G1 X-0.655 Y9.729 E0.63429
G1 X-1.556 Y9.729 E0.06956
G1 X-7.364 Y3.921 E0.63429
G1 X-8.264 Y3.921 E0.06956
G1 X-2.457 Y9.729 E0.63429
G1 X-3.357 Y9.729 E0.06956
G1 X-9.165 Y3.921 E0.63429
G1 X-11.421 Y1.665 F15000.000
G1 X-18.079 Y-4.993 E0.72712 F960.000
G1 X-18.079 Y-4.092 E0.06956
G1 X-4.258 Y9.729 E1.50940
G1 X-5.159 Y9.729 E0.06956
G1 X-18.079 Y-3.191 E1.41102
G1 X-18.079 Y-2.290 E0.06956
G1 X-6.060 Y9.729 E1.31265
G1 X-6.960 Y9.729 E0.06956
G1 X-18.079 Y-1.390 E1.21428
G1 X-18.079 Y-0.489 E0.06956
G1 X-7.861 Y9.729 E1.11591
G1 X-8.762 Y9.729 E0.06956
G1 X-18.079 Y0.412 E1.01754
G1 X-18.079 Y1.313 E0.06956
G1 X-9.663 Y9.729 E0.91916
G1 X-10.563 Y9.729 E0.06956
G1 X-18.079 Y2.213 E0.82079
G1 X-18.079 Y3.114 E0.06956
G1 X-11.464 Y9.729 E0.72242
G1 X-12.365 Y9.729 E0.06956
G1 X-18.079 Y4.015 E0.62405
G1 X-18.079 Y4.916 E0.06956
G1 X-13.266 Y9.729 E0.52568
G1 X-14.166 Y9.729 E0.06956
G1 X-18.079 Y5.816 E0.42730
G1 X-18.079 Y6.717 E0.06956
G1 X-15.067 Y9.729 E0.32893
G1 X-15.968 Y9.729 E0.06956
G1 X-18.079 Y7.618 E0.23056
G1 X-18.079 Y8.519 E0.06956
G1 X-16.869 Y9.729 E0.13219
G1 X-17.769 Y9.729 E0.06956
G1 X-18.079 Y9.419 E0.03381
G1 X-11.421 Y0.764 F15000.000
G1 X-18.079 Y-5.893 E0.72712 F960.000
G1 X-18.079 Y-6.794 E0.06956
G1 X-11.421 Y-0.136 E0.72712
G1 X-11.421 Y-1.037 E0.06956
G1 X-18.079 Y-7.695 E0.72712
G1 X-18.079 Y-8.596 E0.06956
G1 X-11.421 Y-1.938 E0.72712
G1 X-11.421 Y-2.839 E0.06956
G1 X-18.079 Y-9.496 E0.72712
G1 X-18.079 Y-10.397 E0.06956
G1 X-11.421 Y-3.739 E0.72712
G1 X-11.421 Y-4.640 E0.06956
G1 X-17.360 Y-10.579 E0.64859
G1 X-16.459 Y-10.579 E0.06956
G1 X-11.421 Y-5.541 E0.55022
G1 X-11.421 Y-6.442 E0.06956
G1 X-15.558 Y-10.579 E0.45184
G1 X-14.658 Y-10.579 E0.06956
G1 X-11.421 Y-7.342 E0.35347
G1 X-11.421 Y-8.243 E0.06956
G1 X-13.757 Y-10.579 E0.25509
G1 X-12.856 Y-10.579 E0.06956
G1 X-11.421 Y-9.144 E0.15672
G1 E-3.20000 F3000.00000
G1 Z0.700 F15000.000
G1 X-10.798 Y-10.694 F15000.000
G1 Z0.500 F15000.000
G1 E3.20000 F3000.00000
G1 X-10.660 Y-10.359 E0.01046 F2733.738
G1 X-10.607 Y-9.960 E0.01161
G1 X-10.607 Y1.751 E0.33803
G1 X-9.251 Y3.107 E0.05533
G1 X10.251 Y3.107 E0.56291
G1 X11.607 Y1.751 E0.05533
G1 X11.607 Y-9.960 E0.33803
G1 X11.660 Y-10.359 E0.01161
G1 X11.798 Y-10.694 E0.01046
G1 X12.019 Y-10.981 E0.01046
G1 X12.306 Y-11.202 E0.01046
G1 X12.641 Y-11.340 E0.01046
G1 X13.040 Y-11.393 E0.01161
G1 X18.893 Y-11.393 E0.16894
G1 X18.893 Y10.793 E0.64034
G1 X-18.893 Y10.793 E1.09060 F2733.738
G1 X-18.893 Y-11.393 E0.64034
G1 X-12.030 Y-11.392 E0.19808
G1 X-11.641 Y-11.340 E0.01133
G1 X-11.306 Y-11.202 E0.01046
G1 X-11.019 Y-10.981 E0.01046
G1 X-10.835 Y-10.741 E0.00872
G1 X-10.551 Y-10.959 F15000.000
G1 X-10.486 Y-10.874 E0.00309 F2733.738
G1 X-10.312 Y-10.452 E0.01317
G1 X-10.250 Y-9.984 E0.01365
G1 X-10.250 Y1.604 E0.33444
G1 X-9.104 Y2.750 E0.04680
G1 X10.104 Y2.750 E0.55437
G1 X11.250 Y1.604 E0.04680
G1 X11.250 Y-9.984 E0.33444
G1 X11.312 Y-10.452 E0.01365
G1 X11.486 Y-10.874 E0.01317
G1 X11.764 Y-11.236 E0.01317
G1 X12.126 Y-11.514 E0.01317
G1 X12.548 Y-11.688 E0.01317
G1 X13.016 Y-11.750 E0.01365
G1 X19.250 Y-11.750 E0.17992
G1 X19.250 Y11.150 E0.66096
G1 X-19.250 Y11.150 E1.11121 F2733.738
G1 X-19.250 Y-11.750 E0.66095
G1 X-12.007 Y-11.749 E0.20906
G1 X-11.548 Y-11.688 E0.01336
G1 X-11.126 Y-11.514 E0.01317
G1 X-10.764 Y-11.236 E0.01317
G1 X-10.588 Y-11.006 E0.00835
G1 X-10.592 Y-10.860 F15000.000
G1 X-18.494 Y-11.185 F15000.000
G1 X-18.685 Y-10.994 E0.00784 F3644.984
G1 X-18.685 Y-10.487 E0.01466
G1 X-17.987 Y-11.185 E0.02857
G1 X-17.481 Y-11.185 E0.01466
G1 X-18.685 Y-9.981 E0.04931
G1 X-18.685 Y-9.474 E0.01466
G1 X-16.974 Y-11.185 E0.07004
G1 X-16.468 Y-11.185 E0.01466
G1 X-18.685 Y-8.968 E0.09078
G1 X-18.685 Y-8.461 E0.01466
G1 X-15.962 Y-11.185 E0.11151
G1 X-15.455 Y-11.185 E0.01466
G1 X-18.685 Y-7.954 E0.13225
G1 X-18.685 Y-7.448 E0.01466
G1 X-14.949 Y-11.184 E0.15298
G1 X-14.442 Y-11.184 E0.01466
G1 X-18.685 Y-6.941 E0.17372
G1 X-18.685 Y-6.435 E0.01466
G1 X-13.936 Y-11.184 E0.19445
G1 X-13.429 Y-11.184 E0.01466
G1 X-18.685 Y-5.928 E0.21519
G1 X-18.685 Y-5.422 E0.01466
G1 X-12.923 Y-11.184 E0.23592
G1 X-12.416 Y-11.184 E0.01466
G1 X-18.685 Y-4.915 E0.25666
G1 X-18.685 Y-4.409 E0.01466
G1 X-11.917 Y-11.177 E0.27710
G1 X-11.504 Y-11.084 E0.01228
G1 X-18.685 Y-3.902 E0.29404
G1 X-18.685 Y-3.396 E0.01466
G1 X-11.191 Y-10.890 E0.30684
G1 X-10.964 Y-10.611 E0.01042
G1 X-18.685 Y-2.889 E0.31615
G1 X-18.685 Y-2.383 E0.01466
G1 X-10.842 Y-10.226 E0.32111
G1 X-10.815 Y-9.746 E0.01389
G1 X-18.685 Y-1.876 E0.32223
G1 X-18.685 Y-1.370 E0.01466
G1 X-10.815 Y-9.240 E0.32223
G1 X-10.815 Y-8.733 E0.01466
G1 X-18.685 Y-0.863 E0.32223
G1 X-18.685 Y-0.356 E0.01466
G1 X-10.815 Y-8.227 E0.32223
G1 X-10.815 Y-7.720 E0.01466
G1 X-18.685 Y0.150 E0.32223
G1 X-18.685 Y0.657 E0.01466
G1 X-10.815 Y-7.214 E0.32223
G1 X-10.815 Y-6.707 E0.01466
G1 X-18.685 Y1.163 E0.32223
G1 X-18.685 Y1.670 E0.01466
G1 X-10.815 Y-6.201 E0.32223
G1 X-10.815 Y-5.694 E0.01466
G1 X-18.685 Y2.176 E0.32223
G1 X-18.685 Y2.683 E0.01466
G1 X-10.815 Y-5.188 E0.32223
G1 X-10.815 Y-4.681 E0.01466
G1 X-18.685 Y3.189 E0.32223
G1 X-18.685 Y3.696 E0.01466
G1 X-10.815 Y-4.175 E0.32223
G1 X-10.815 Y-3.668 E0.01466
G1 X-18.685 Y4.202 E0.32223
G1 X-18.685 Y4.709 E0.01466
G1 X-10.815 Y-3.162 E0.32223
G1 X-10.815 Y-2.655 E0.01466
G1 X-18.685 Y5.215 E0.32223
G1 X-18.685 Y5.722 E0.01466
G1 X-10.815 Y-2.148 E0.32223
G1 X-10.815 Y-1.642 E0.01466
G1 X-18.685 Y6.228 E0.32223
G1 X-18.685 Y6.735 E0.01466
G1 X-10.815 Y-1.135 E0.32223
G1 X-10.815 Y-0.629 E0.01466
G1 X-18.685 Y7.241 E0.32223
G1 X-18.685 Y7.748 E0.01466
G1 X-10.815 Y-0.122 E0.32223
G1 X-10.815 Y0.384 E0.01466
G1 X-18.685 Y8.255 E0.32223
G1 X-18.685 Y8.761 E0.01466
G1 X-10.815 Y0.891 E0.32223
G1 X-10.815 Y1.397 E0.01466
G1 X-18.685 Y9.268 E0.32223
G1 X-18.685 Y9.774 E0.01466
G1 X-10.759 Y1.848 E0.32450
G1 X-10.506 Y2.102 E0.01037
G1 X-18.685 Y10.281 E0.33487
G1 X-18.483 Y10.585 E0.01058
G1 X-10.253 Y2.355 E0.33697
G1 X-10.000 Y2.608 E0.01037
G1 X-17.977 Y10.585 E0.32660
G1 X-17.470 Y10.585 E0.01466
G1 X-9.746 Y2.862 E0.31623
G1 X-9.493 Y3.115 E0.01037
G1 X-16.964 Y10.585 E0.30586
G1 X-16.457 Y10.585 E0.01466
G1 X-9.187 Y3.315 E0.29767
G1 X-8.680 Y3.315 E0.01466
G1 X-15.950 Y10.585 E0.29767
G1 X-15.444 Y10.585 E0.01466
G1 X-8.174 Y3.315 E0.29767
G1 X-7.667 Y3.315 E0.01466
G1 X-14.937 Y10.585 E0.29767
G1 X-14.431 Y10.585 E0.01466
G1 X-7.161 Y3.315 E0.29767
G1 X-6.654 Y3.315 E0.01466
G1 X-13.924 Y10.585 E0.29767
G1 X-13.418 Y10.585 E0.01466
G1 X-6.147 Y3.315 E0.29767
G1 X-5.641 Y3.315 E0.01466
G1 X-12.911 Y10.585 E0.29767
G1 X-12.405 Y10.585 E0.01466
G1 X-5.134 Y3.315 E0.29767
G1 X-4.628 Y3.315 E0.01466
G1 X-11.898 Y10.585 E0.29767
G1 X-11.392 Y10.585 E0.01466
G1 X-4.121 Y3.315 E0.29767
G1 X-3.615 Y3.315 E0.01466
G1 X-10.885 Y10.585 E0.29767
G1 X-10.379 Y10.585 E0.01466
G1 X-3.108 Y3.315 E0.29767
G1 X-2.602 Y3.315 E0.01466
G1 X-9.872 Y10.585 E0.29767
G1 X-9.366 Y10.585 E0.01466
G1 X-2.095 Y3.315 E0.29767
G1 X-1.589 Y3.315 E0.01466
G1 X-8.859 Y10.585 E0.29767
G1 X-8.352 Y10.585 E0.01466
G1 X-1.082 Y3.315 E0.29767
G1 X-0.576 Y3.315 E0.01466
G1 X-7.846 Y10.585 E0.29767
G1 X-7.339 Y10.585 E0.01466
G1 X-0.069 Y3.315 E0.29767
G1 X0.437 Y3.315 E0.01466
G1 X-6.833 Y10.585 E0.29767
G1 X-6.326 Y10.585 E0.01466
G1 X0.944 Y3.315 E0.29767
G1 X1.451 Y3.315 E0.01466
G1 X-5.820 Y10.585 E0.29767
G1 X-5.313 Y10.585 E0.01466
G1 X1.957 Y3.315 E0.29767
G1 X2.464 Y3.315 E0.01466
G1 X-4.807 Y10.585 E0.29767
G1 X-4.300 Y10.585 E0.01466
G1 X2.970 Y3.315 E0.29767
G1 X3.477 Y3.315 E0.01466
G1 X-3.794 Y10.585 E0.29767
G1 X-3.287 Y10.585 E0.01466
G1 X3.983 Y3.315 E0.29767
G1 X4.490 Y3.315 E0.01466
G1 X-2.781 Y10.585 E0.29767
G1 X-2.274 Y10.585 E0.01466
G1 X4.996 Y3.315 E0.29767
G1 X5.503 Y3.315 E0.01466
G1 X-1.768 Y10.585 E0.29767
G1 X-1.261 Y10.585 E0.01466
G1 X6.009 Y3.315 E0.29767
G1 X6.516 Y3.315 E0.01466
G1 X-0.755 Y10.585 E0.29767
G1 X-0.248 Y10.585 E0.01466
G1 X7.022 Y3.315 E0.29767
G1 X7.529 Y3.315 E0.01466
G1 X0.259 Y10.585 E0.29767
G1 X0.765 Y10.585 E0.01466
G1 X8.035 Y3.315 E0.29767
G1 X8.542 Y3.315 E0.01466
G1 X1.272 Y10.585 E0.29767
G1 X1.778 Y10.585 E0.01466
G1 X9.048 Y3.315 E0.29767
G1 X9.555 Y3.315 E0.01466
G1 X2.285 Y10.585 E0.29767
G1 X2.791 Y10.585 E0.01466
G1 X10.062 Y3.315 E0.29767
G1 X18.494 Y10.585 F15000.000
G1 X18.685 Y10.394 E0.00784 F3644.984
G1 X18.685 Y9.887 E0.01466
G1 X17.987 Y10.585 E0.02858
G1 X17.481 Y10.585 E0.01466
G1 X18.685 Y9.381 E0.04932
G1 X18.685 Y8.874 E0.01466
G1 X16.974 Y10.585 E0.07006
G1 X16.468 Y10.585 E0.01466
G1 X18.685 Y8.368 E0.09080
G1 X18.685 Y7.861 E0.01466
G1 X15.961 Y10.585 E0.11153
G1 X15.454 Y10.585 E0.01466
G1 X18.685 Y7.354 E0.13227
G1 X18.685 Y6.848 E0.01466
G1 X14.948 Y10.585 E0.15301
G1 X14.441 Y10.585 E0.01466
G1 X18.685 Y6.341 E0.17375
G1 X18.685 Y5.835 E0.01466
G1 X13.935 Y10.585 E0.19449
G1 X13.428 Y10.585 E0.01466
G1 X18.685 Y5.328 E0.21523
G1 X18.685 Y4.822 E0.01466
G1 X12.922 Y10.585 E0.23597
G1 X12.415 Y10.585 E0.01466
G1 X18.685 Y4.315 E0.25671
G1 X18.685 Y3.809 E0.01466
G1 X11.909 Y10.585 E0.27745
G1 X11.402 Y10.585 E0.01466
G1 X18.685 Y3.302 E0.29818
G1 X18.685 Y2.796 E0.01466
G1 X10.896 Y10.585 E0.31892
G1 X10.389 Y10.585 E0.01466
G1 X18.685 Y2.289 E0.33966
G1 X18.685 Y1.783 E0.01466
G1 X9.883 Y10.585 E0.36040
G1 X9.376 Y10.585 E0.01466
G1 X18.685 Y1.276 E0.38114
G1 X18.685 Y0.770 E0.01466
G1 X8.870 Y10.585 E0.40188
G1 X8.363 Y10.585 E0.01466
G1 X18.685 Y0.263 E0.42262
G1 X18.685 Y-0.243 E0.01466
G1 X7.857 Y10.585 E0.44336
G1 X7.350 Y10.585 E0.01466
G1 X18.685 Y-0.750 E0.46409
G1 X18.685 Y-1.257 E0.01466
G1 X6.843 Y10.585 E0.48483
G1 X6.337 Y10.585 E0.01466
G1 X18.685 Y-1.763 E0.50557
G1 X18.685 Y-2.270 E0.01466
G1 X5.830 Y10.585 E0.52631
G1 X5.324 Y10.585 E0.01466
G1 X18.685 Y-2.776 E0.54705
G1 X18.685 Y-3.283 E0.01466
G1 X4.817 Y10.585 E0.56779
G1 X4.311 Y10.585 E0.01466
G1 X18.685 Y-3.789 E0.58853
G1 X18.685 Y-4.296 E0.01466
G1 X3.804 Y10.585 E0.60927
G1 X3.298 Y10.585 E0.01466
G1 X18.685 Y-4.802 E0.63001
G1 X18.685 Y-5.309 E0.01466
G1 X11.815 Y1.562 E0.28129
G1 X11.815 Y1.055 E0.01466
G1 X18.685 Y-5.815 E0.28129
G1 X18.685 Y-6.322 E0.01466
G1 X11.815 Y0.548 E0.28129
G1 X11.815 Y0.042 E0.01466
G1 X18.685 Y-6.828 E0.28129
G1 X18.685 Y-7.335 E0.01466
G1 X11.815 Y-0.465 E0.28129
G1 X11.815 Y-0.971 E0.01466
G1 X18.685 Y-7.841 E0.28129
G1 X18.685 Y-8.348 E0.01466
G1 X11.815 Y-1.478 E0.28129
G1 X11.815 Y-1.984 E0.01466
G1 X18.685 Y-8.855 E0.28129
G1 X18.685 Y-9.361 E0.01466
G1 X11.815 Y-2.491 E0.28129
G1 X11.815 Y-2.997 E0.01466
G1 X18.685 Y-9.868 E0.28129
G1 X18.685 Y-10.374 E0.01466
G1 X11.815 Y-3.504 E0.28129
G1 X11.815 Y-4.010 E0.01466
G1 X18.685 Y-10.881 E0.28129
G1 X18.483 Y-11.185 E0.01058
G1 X11.815 Y-4.517 E0.27302
G1 X11.815 Y-5.023 E0.01466
G1 X17.977 Y-11.185 E0.25228
G1 X17.470 Y-11.185 E0.01466
G1 X11.815 Y-5.530 E0.23154
G1 X11.815 Y-6.036 E0.01466
G1 X16.964 Y-11.185 E0.21080
G1 X16.457 Y-11.185 E0.01466
G1 X11.815 Y-6.543 E0.19007
G1 X11.815 Y-7.049 E0.01466
G1 X15.951 Y-11.185 E0.16933
G1 X15.444 Y-11.185 E0.01466
G1 X11.815 Y-7.556 E0.14859
G1 X11.815 Y-8.063 E0.01466
