; generated by Slic3r 1.2.9 on 2017-03-14 at 12:30:07

; external perimeters extrusion width = 0.40mm
; perimeters extrusion width = 0.40mm
; infill extrusion width = 0.40mm
; solid infill extrusion width = 0.40mm
; top infill extrusion width = 0.40mm

M107
M83
T0
M116
G21 ; set units to millimeters
G90 ; use absolute coordinates
M83 ; use relative distances for extrusion
G1 E-3.20000 F3000.00000
G1 Z0.400 F15000.000
G1 X13.586 Y0.000 F15000.000
G1 Z0.300 F15000.000
G1 E3.20000 F3000.00000
G1 X13.586 Y22.950 E1.76865 F960.000
G1 X13.191 Y24.597 E0.13052
G1 X12.093 Y25.887 E0.13052
G1 X9.950 Y26.586 E0.17373
G1 X-9.950 Y26.586 E1.53360
G1 X-11.597 Y26.191 E0.13052
G1 X-12.887 Y25.093 E0.13052
G1 X-13.586 Y22.950 E0.17373
G1 X-13.586 Y-17.999 E3.15574
G1 X-13.557 Y-18.664 E0.05128
G1 X-13.451 Y-19.499 E0.06491
G1 X-13.381 Y-19.849 E0.02750
G1 X-13.160 Y-20.662 E0.06491
G1 X-12.860 Y-21.449 E0.06491
G1 X-12.484 Y-22.202 E0.06491
G1 X-12.234 Y-22.619 E0.03744
G1 X-11.747 Y-23.306 E0.06491
G1 X-11.194 Y-23.942 E0.06491
G1 X-10.582 Y-24.520 E0.06491
G1 X-10.306 Y-24.747 E0.02750
G1 X-9.642 Y-25.219 E0.06281
G1 X-8.888 Y-25.652 E0.06700
G1 X-8.449 Y-25.860 E0.03744
G1 X-7.677 Y-26.155 E0.06368
G1 X-6.860 Y-26.379 E0.06527
G1 X-6.499 Y-26.451 E0.02837
G1 X-5.664 Y-26.557 E0.06491
G1 X-5.177 Y-26.581 E0.03753
G1 X5.016 Y-26.585 E0.78556
G1 X5.664 Y-26.557 E0.04993 F960.000
G1 X6.499 Y-26.451 E0.06491
G1 X7.320 Y-26.263 E0.06491
G1 X7.662 Y-26.160 E0.02750
G1 X8.119 Y-25.996 E0.03744
G1 X8.888 Y-25.652 E0.06491
G1 X9.619 Y-25.234 E0.06491
G1 X9.916 Y-25.036 E0.02750
G1 X10.306 Y-24.747 E0.03744
G1 X10.942 Y-24.194 E0.06491
G1 X11.194 Y-23.942 E0.02750
G1 X11.747 Y-23.306 E0.06491
G1 X12.036 Y-22.916 E0.03744
G1 X12.484 Y-22.202 E0.06491
G1 X12.860 Y-21.449 E0.06491
G1 X13.160 Y-20.662 E0.06491
G1 X13.263 Y-20.320 E0.02750
G1 X13.451 Y-19.499 E0.06491
G1 X13.557 Y-18.664 E0.06491
G1 X13.586 Y-17.999 E0.05128
G1 X13.586 Y-0.060 E1.38246
G1 E-3.20000 F3000.00000
G1 Z0.700 F15000.000
G1 X5.729 Y13.563 F15000.000
G1 Z0.300 F15000.000
G1 E3.20000 F3000.00000
G1 X6.172 Y13.930 E0.04431 F600.000
G1 X6.510 Y14.395 E0.04431
G1 X6.722 Y14.930 E0.04431
G1 X6.794 Y15.500 E0.04431
G1 X6.722 Y16.070 E0.04431
G1 X6.510 Y16.605 E0.04431
G1 X6.168 Y17.076 E0.04482
G1 X5.707 Y17.447 E0.04566
G1 X5.209 Y17.682 E0.04242
G1 X4.644 Y17.789 E0.04431
G1 X4.070 Y17.753 E0.04431
G1 X3.523 Y17.576 E0.04431
G1 X3.038 Y17.267 E0.04431
G1 X2.644 Y16.848 E0.04431
G1 X2.367 Y16.344 E0.04431
G1 X2.224 Y15.787 E0.04431
G1 X2.224 Y15.213 E0.04431
G1 X2.367 Y14.656 E0.04431
G1 X2.644 Y14.152 E0.04431
G1 X3.038 Y13.733 E0.04431
G1 X3.529 Y13.421 E0.04482
G1 X4.095 Y13.245 E0.04566
G1 X4.644 Y13.211 E0.04241 F600.000
G1 X5.209 Y13.318 E0.04431
G1 X5.675 Y13.538 E0.03969
G1 X5.386 Y14.104 F15000.000
G1 X5.705 Y14.368 E0.03194 F600.000
G1 X5.949 Y14.704 E0.03194
G1 X6.101 Y15.089 E0.03194
G1 X6.153 Y15.500 E0.03194
G1 X6.101 Y15.911 E0.03194
G1 X5.949 Y16.296 E0.03194
G1 X5.704 Y16.634 E0.03212
G1 X5.367 Y16.905 E0.03329
G1 X5.011 Y17.072 E0.03036
G1 X4.604 Y17.150 E0.03194
G1 X4.190 Y17.124 E0.03194
G1 X3.796 Y16.996 E0.03194
G1 X3.446 Y16.774 E0.03194
G1 X3.163 Y16.472 E0.03194
G1 X2.963 Y16.109 E0.03194
G1 X2.860 Y15.707 E0.03194
G1 X2.860 Y15.293 E0.03194
G1 X2.963 Y14.891 E0.03194
G1 X3.163 Y14.528 E0.03194
G1 X3.446 Y14.226 E0.03194
G1 X3.798 Y14.003 E0.03211
G1 X4.211 Y13.875 E0.03329
G1 X4.604 Y13.850 E0.03036 F600.000
G1 X5.011 Y13.928 E0.03194
G1 X5.332 Y14.079 E0.02731
G1 X5.748 Y13.934 F15000.000
G1 X-2.757 Y15.100 F15000.000
G1 X-2.706 Y15.500 E0.03104 F600.000
G1 X-2.778 Y16.070 E0.04431
G1 X-2.981 Y16.582 E0.04242
G1 X-3.323 Y17.066 E0.04566
G1 X-3.771 Y17.437 E0.04482
G1 X-4.291 Y17.682 E0.04431
G1 X-4.856 Y17.789 E0.04431
G1 X-5.430 Y17.753 E0.04431
G1 X-5.953 Y17.583 E0.04242
G1 X-6.458 Y17.272 E0.04566
G1 X-6.856 Y16.848 E0.04482
G1 X-7.133 Y16.344 E0.04431
G1 X-7.276 Y15.787 E0.04431
G1 X-7.276 Y15.213 E0.04431
G1 X-7.133 Y14.656 E0.04431
G1 X-6.856 Y14.152 E0.04431
G1 X-6.462 Y13.733 E0.04431
G1 X-5.971 Y13.421 E0.04482
G1 X-5.405 Y13.245 E0.04566
G1 X-4.856 Y13.211 E0.04241 F600.000
G1 X-4.291 Y13.318 E0.04431
G1 X-3.771 Y13.563 E0.04431
G1 X-3.323 Y13.934 E0.04482
G1 X-2.981 Y14.418 E0.04566
G1 X-2.778 Y14.930 E0.04242
G1 X-2.764 Y15.041 E0.00865
G1 X-3.395 Y15.121 F15000.000
G1 X-3.347 Y15.500 E0.02947 F600.000
G1 X-3.399 Y15.911 E0.03194
G1 X-3.544 Y16.277 E0.03036
G1 X-3.793 Y16.630 E0.03329
G1 X-4.114 Y16.896 E0.03212
G1 X-4.489 Y17.072 E0.03194
G1 X-4.896 Y17.150 E0.03193
G1 X-5.310 Y17.124 E0.03194
G1 X-5.684 Y17.002 E0.03036
G1 X-6.052 Y16.775 E0.03329
G1 X-6.337 Y16.472 E0.03211
G1 X-6.537 Y16.109 E0.03194
G1 X-6.640 Y15.707 E0.03194
G1 X-6.640 Y15.293 E0.03194
G1 X-6.537 Y14.891 E0.03194
G1 X-6.337 Y14.528 E0.03194
G1 X-6.054 Y14.226 E0.03194
G1 X-5.702 Y14.003 E0.03212
G1 X-5.289 Y13.875 E0.03329
G1 X-4.896 Y13.850 E0.03036 F600.000
G1 X-4.489 Y13.928 E0.03194
G1 X-4.114 Y14.104 E0.03194
G1 X-3.793 Y14.370 E0.03211
G1 X-3.544 Y14.723 E0.03329
G1 X-3.409 Y15.063 E0.02820
G1 X-3.032 Y15.241 F15000.000
G1 X-0.593 Y0.087 F15000.000
G1 X-1.275 Y-0.132 E0.05521 F600.000
G1 X-1.994 Y-0.569 E0.06486
G1 X-2.537 Y-1.144 E0.06094
G1 X-2.907 Y-1.806 E0.05840
G1 X-3.123 Y-2.657 E0.06765
G1 X-3.116 Y-3.414 E0.05836
G1 X-2.918 Y-4.170 E0.06023
G1 X-2.536 Y-4.858 E0.06067
G1 X-1.969 Y-5.449 E0.06307
G1 X-1.304 Y-5.858 E0.06017
G1 X-0.595 Y-6.086 E0.05742
G1 X0.159 Y-6.138 E0.05821 F600.000
G1 X1.020 Y-5.971 E0.06765
G1 X1.702 Y-5.642 E0.05835
G1 X2.302 Y-5.141 E0.06023
G1 X2.758 Y-4.508 E0.06008
G1 X3.024 Y-3.843 E0.05521
G1 X3.146 Y-3.000 E0.06563
G1 X3.024 Y-2.157 E0.06563
G1 X2.758 Y-1.492 E0.05521
G1 X2.297 Y-0.853 E0.06073
G1 X1.638 Y-0.320 E0.06534
G1 X0.954 Y-0.005 E0.05800
G1 X0.185 Y0.138 E0.06022
G1 X-0.533 Y0.091 E0.05549
G1 X-0.473 Y-0.543 F15000.000
G1 X-1.010 Y-0.714 E0.04339 F600.000
G1 X-1.591 Y-1.067 E0.05242
G1 X-2.020 Y-1.523 E0.04825
G1 X-2.311 Y-2.043 E0.04592
G1 X-2.486 Y-2.733 E0.05487
G1 X-2.481 Y-3.329 E0.04592
G1 X-2.323 Y-3.931 E0.04800
G1 X-2.020 Y-4.478 E0.04816
G1 X-1.567 Y-4.950 E0.05045
G1 X-1.037 Y-5.277 E0.04797
G1 X-0.474 Y-5.457 E0.04555
G1 X0.119 Y-5.499 E0.04585 F600.000
G1 X0.818 Y-5.363 E0.05487
G1 X1.355 Y-5.104 E0.04592
G1 X1.833 Y-4.704 E0.04800
G1 X2.196 Y-4.199 E0.04795
G1 X2.406 Y-3.677 E0.04338
G1 X2.504 Y-3.000 E0.05271
G1 X2.406 Y-2.323 E0.05271
G1 X2.196 Y-1.801 E0.04338
G1 X1.831 Y-1.293 E0.04818
G1 X1.300 Y-0.864 E0.05265
G1 X0.760 Y-0.616 E0.04579
G1 X0.148 Y-0.502 E0.04800
G1 X-0.413 Y-0.539 E0.04333
G1 X-0.747 Y-0.250 F15000.000
G1 E-3.20000 F3000.00000
G1 Z0.700 F15000.000
G1 X0.178 Y-13.861 F15000.000
G1 Z0.300 F15000.000
G1 E3.20000 F3000.00000
G1 X-0.587 Y-13.912 E0.05910 F600.000
G1 X-1.312 Y-14.144 E0.05861
G1 X-2.017 Y-14.589 E0.06427
G1 X-2.537 Y-15.145 E0.05870
G1 X-2.911 Y-15.814 E0.05900
G1 X-3.122 Y-16.655 E0.06684
G1 X-3.120 Y-17.379 E0.05583
G1 X-2.936 Y-18.120 E0.05883
G1 X-2.515 Y-18.883 E0.06718
G1 X-1.986 Y-19.435 E0.05891
G1 X-1.346 Y-19.841 E0.05841
G1 X-0.582 Y-20.090 E0.06194
G1 X0.259 Y-20.131 E0.06491 F600.000
G1 X1.033 Y-19.964 E0.06098
G1 X1.683 Y-19.655 E0.05549
G1 X2.294 Y-19.149 E0.06117
G1 X2.741 Y-18.536 E0.05843
G1 X3.029 Y-17.834 E0.05850
G1 X3.145 Y-17.000 E0.06487
G1 X3.029 Y-16.166 E0.06486
G1 X2.741 Y-15.464 E0.05850
G1 X2.294 Y-14.851 E0.05843
G1 X1.683 Y-14.345 E0.06117
G1 X1.027 Y-14.033 E0.05599
G1 X0.237 Y-13.873 E0.06212
G1 X0.136 Y-14.501 F15000.000
G1 X-0.467 Y-14.541 E0.04657 F600.000
G1 X-1.041 Y-14.725 E0.04640
G1 X-1.609 Y-15.083 E0.05173
G1 X-2.020 Y-15.523 E0.04643
G1 X-2.315 Y-16.050 E0.04654
G1 X-2.486 Y-16.732 E0.05421
G1 X-2.484 Y-17.301 E0.04379
G1 X-2.339 Y-17.886 E0.04649
G1 X-1.999 Y-18.504 E0.05434
G1 X-1.581 Y-18.940 E0.04654
G1 X-1.073 Y-19.261 E0.04633
G1 X-0.466 Y-19.460 E0.04924
G1 X0.207 Y-19.492 E0.05189 F600.000
G1 X0.826 Y-19.359 E0.04884
G1 X1.338 Y-19.115 E0.04370
G1 X1.828 Y-18.710 E0.04897
G1 X2.182 Y-18.224 E0.04633
G1 X2.410 Y-17.667 E0.04640
G1 X2.503 Y-17.000 E0.05188
G1 X2.410 Y-16.333 E0.05188
G1 X2.182 Y-15.776 E0.04640
G1 X1.828 Y-15.290 E0.04633
G1 X1.338 Y-14.885 E0.04897
G1 X0.824 Y-14.640 E0.04388
G1 X0.194 Y-14.513 E0.04954
G1 X-0.057 Y-14.150 F15000.000
G1 X-8.964 Y-5.108 F15000.000
G1 X-8.964 Y-17.975 E0.99157 F720.000
G1 X-8.944 Y-18.388 E0.03193
G1 X-8.887 Y-18.773 E0.02997
G1 X-8.792 Y-19.150 E0.02997
G1 X-8.661 Y-19.517 E0.02997
G1 X-8.495 Y-19.868 E0.02997
G1 X-8.295 Y-20.202 E0.02997
G1 X-8.064 Y-20.514 E0.02997
G1 X-7.802 Y-20.802 E0.02997
G1 X-7.514 Y-21.064 E0.02997
G1 X-7.213 Y-21.287 E0.02886
G1 X-6.867 Y-21.496 E0.03120
G1 X-6.517 Y-21.661 E0.02985
G1 X-6.164 Y-21.788 E0.02886
G1 X-5.772 Y-21.887 E0.03120
G1 X-5.388 Y-21.944 E0.02985
G1 X-4.975 Y-21.964 E0.03193
G1 X4.992 Y-21.964 E0.76806
G1 X5.388 Y-21.944 E0.03061 F720.000
G1 X5.773 Y-21.887 E0.02997
G1 X6.150 Y-21.792 E0.02997
G1 X6.517 Y-21.661 E0.02997
G1 X6.868 Y-21.495 E0.02997
G1 X7.202 Y-21.295 E0.02997
G1 X7.514 Y-21.064 E0.02997
G1 X7.802 Y-20.802 E0.02997
G1 X8.064 Y-20.514 E0.02997
G1 X8.295 Y-20.202 E0.02997
G1 X8.495 Y-19.868 E0.02997
G1 X8.661 Y-19.517 E0.02997
G1 X8.792 Y-19.150 E0.02997
G1 X8.887 Y-18.773 E0.02997
G1 X8.944 Y-18.388 E0.02997
G1 X8.964 Y-17.975 E0.03193
G1 X8.964 Y21.964 E3.07792
G1 X-8.964 Y21.964 E1.38169
G1 X-8.964 Y-5.048 E2.08172
G1 X-9.600 Y-5.048 F15000.000
G1 X-9.600 Y-17.990 E0.99740 F720.000
G1 X-9.577 Y-18.451 E0.03554
G1 X-9.511 Y-18.897 E0.03479
G1 X-9.401 Y-19.335 E0.03479
G1 X-9.249 Y-19.760 E0.03479
G1 X-9.056 Y-20.168 E0.03479
G1 X-8.824 Y-20.555 E0.03479
G1 X-8.555 Y-20.918 E0.03479
G1 X-8.252 Y-21.252 E0.03479
G1 X-7.918 Y-21.555 E0.03479
G1 X-7.568 Y-21.815 E0.03360
G1 X-7.168 Y-22.057 E0.03601
G1 X-6.760 Y-22.249 E0.03474
G1 X-6.350 Y-22.396 E0.03360
G1 X-5.897 Y-22.511 E0.03601
G1 X-5.451 Y-22.577 E0.03474
G1 X-4.990 Y-22.600 E0.03554
G1 X5.007 Y-22.599 E0.77046
G1 X5.451 Y-22.577 E0.03422 F720.000
G1 X5.897 Y-22.511 E0.03479
G1 X6.335 Y-22.401 E0.03479
G1 X6.760 Y-22.249 E0.03479
G1 X7.168 Y-22.056 E0.03479
G1 X7.555 Y-21.824 E0.03479
G1 X7.918 Y-21.555 E0.03479
G1 X8.252 Y-21.252 E0.03479
G1 X8.555 Y-20.918 E0.03479
G1 X8.824 Y-20.555 E0.03479
G1 X9.056 Y-20.168 E0.03479
G1 X9.249 Y-19.760 E0.03479
G1 X9.401 Y-19.335 E0.03479
G1 X9.511 Y-18.897 E0.03479
G1 X9.577 Y-18.451 E0.03479
G1 X9.600 Y-17.990 E0.03554
G1 X9.600 Y22.600 E3.12810
G1 X-9.600 Y22.600 E1.47966
G1 X-9.600 Y-4.988 E2.12608
G1 X-9.254 Y-5.248 F15000.000
G1 X-8.579 Y-5.772 F15000.000
G1 X8.579 Y11.386 E1.87514 F960.000
G1 X8.579 Y12.287 E0.06966
G1 X-8.579 Y-4.871 E1.87514
G1 X-8.579 Y-3.969 E0.06966
G1 X8.579 Y13.189 E1.87514
G1 X8.579 Y14.090 E0.06966
G1 X-8.579 Y-3.068 E1.87514
G1 X-8.579 Y-2.166 E0.06966
G1 X8.579 Y14.991 E1.87514
G1 X8.579 Y15.893 E0.06966
G1 X6.927 Y14.241 E0.18050
G1 X7.180 Y15.395 E0.09126
G1 X8.579 Y16.794 E0.15293
G1 X8.579 Y17.696 E0.06966
G1 X7.054 Y16.170 E0.16670
G1 X6.780 Y16.798 E0.05292
G1 X8.579 Y18.597 E0.19659
G1 X8.579 Y19.498 E0.06966
G1 X6.397 Y17.316 E0.23849
G1 X5.897 Y17.718 E0.04954
G1 X8.579 Y20.400 E0.29305
G1 X8.579 Y21.301 E0.06966
G1 X5.295 Y18.018 E0.35885
G1 X4.552 Y18.176 E0.05871
G1 X7.955 Y21.579 E0.37191
G1 X7.054 Y21.579 E0.06966
G1 X3.499 Y18.024 E0.38856
G1 X1.969 Y16.493 F15000.000
G1 X-8.579 Y5.946 E1.15271 F960.000
G1 X-8.579 Y6.847 E0.06966
G1 X6.153 Y21.579 E1.60998
G1 X5.251 Y21.579 E0.06966
G1 X-8.579 Y7.749 E1.51147
G1 X-8.579 Y8.650 E0.06966
G1 X-4.341 Y12.888 E0.46320
G1 X-5.272 Y12.859 E0.07198
G1 X-8.579 Y9.551 E0.36146
G1 X-8.579 Y10.453 E0.06966
G1 X-5.977 Y13.055 E0.28435
G1 X-6.544 Y13.389 E0.05087
G1 X-8.579 Y11.354 E0.22237
G1 X-8.579 Y12.256 E0.06966
G1 X-7.005 Y13.829 E0.17199
G1 X-7.362 Y14.373 E0.05030
G1 X-8.579 Y13.157 E0.13295
G1 X-8.579 Y14.058 E0.06966
G1 X-7.599 Y15.039 E0.10712
G1 X-7.661 Y15.877 E0.06501
G1 X-8.579 Y14.960 E0.10030
G1 X-8.579 Y15.861 E0.06966
G1 X-2.861 Y21.579 E0.62489
G1 X-1.960 Y21.579 E0.06966
G1 X-5.388 Y18.151 E0.37465
G1 X-4.539 Y18.098 E0.06570
G1 X-1.058 Y21.579 E0.38042
G1 X-0.157 Y21.579 E0.06966
G1 X-3.874 Y17.862 E0.40622
G1 X-3.332 Y17.503 E0.05025
G1 X0.744 Y21.579 E0.44550
G1 X1.646 Y21.579 E0.06966
G1 X-2.896 Y17.037 E0.49632
G1 X-2.564 Y16.468 E0.05095
G1 X2.547 Y21.579 E0.55860
G1 X3.449 Y21.579 E0.06966
G1 X-2.367 Y15.763 E0.63556
G1 X-2.382 Y14.847 E0.07084
G1 X4.350 Y21.579 E0.73572
G1 X1.839 Y15.462 F15000.000
G1 X-8.579 Y5.045 E1.13853 F960.000
G1 X-8.579 Y4.143 E0.06966
G1 X1.986 Y14.708 E1.15462
G1 X2.285 Y14.106 E0.05198
G1 X-8.579 Y3.242 E1.18727
G1 X-8.579 Y2.340 E0.06966
G1 X2.696 Y13.615 E1.23219
G1 X3.210 Y13.228 E0.04974
G1 X-8.579 Y1.439 E1.28835
G1 X-8.579 Y0.538 E0.06966
G1 X3.840 Y12.956 E1.35720
G1 X4.619 Y12.834 E0.06096
G1 X-8.579 Y-0.364 E1.44237
G1 X-8.579 Y-1.265 E0.06966
G1 X5.761 Y13.074 E1.56712
G1 X8.579 Y1.471 F15000.000
G1 X3.463 Y-3.645 E0.55912 F960.000
G1 X3.478 Y-2.729 E0.07083
G1 X8.579 Y2.372 E0.55747
G1 X8.579 Y3.274 E0.06966
G1 X3.325 Y-1.981 E0.57421
G1 X3.060 Y-1.344 E0.05328
G1 X8.579 Y4.175 E0.60314
G1 X8.579 Y5.076 E0.06966
G1 X2.683 Y-0.820 E0.64440
G1 X2.229 Y-0.372 E0.04926
G1 X8.579 Y5.978 E0.69399
G1 X8.579 Y6.879 E0.06966
G1 X1.719 Y0.019 E0.74973
G1 X1.101 Y0.303 E0.05252
G1 X8.579 Y7.780 E0.81721
G1 X8.579 Y8.682 E0.06966
G1 X0.370 Y0.473 E0.89715
G1 X-0.517 Y0.487 E0.06857
G1 X8.579 Y9.583 E0.99410
G1 X8.579 Y10.485 E0.06966
G1 X-1.801 Y0.104 E1.13442
G1 X-3.103 Y-1.197 F15000.000
G1 X-8.579 Y-6.673 E0.59844 F960.000
G1 X-8.579 Y-7.575 E0.06966
G1 X-3.508 Y-2.504 E0.55416
G1 X-3.490 Y-3.387 E0.06828
G1 X-8.579 Y-8.476 E0.55613
G1 X-8.579 Y-9.377 E0.06966
G1 X-3.303 Y-4.102 E0.57659
G1 X-3.006 Y-4.706 E0.05203
G1 X-8.579 Y-10.279 E0.60908
G1 X-8.579 Y-11.180 E0.06966
G1 X-2.633 Y-5.234 E0.64987
G1 X-2.191 Y-5.694 E0.04926
G1 X-8.579 Y-12.082 E0.69810
G1 X-8.579 Y-12.983 E0.06966
G1 X-1.641 Y-6.045 E0.75828
G1 X-1.014 Y-6.320 E0.05286
G1 X-8.579 Y-13.884 E0.82671
G1 X-8.579 Y-14.786 E0.06966
G1 X-0.279 Y-6.485 E0.90712
G1 X0.642 Y-6.466 E0.07118
G1 X-8.579 Y-15.687 E1.00776
G1 X-8.579 Y-16.588 E0.06966
G1 X2.006 Y-6.003 E1.15681
G1 X2.999 Y-5.010 F15000.000
G1 X8.579 Y0.569 E0.60981 F960.000
G1 X8.579 Y-0.332 E0.06966
G1 X-8.579 Y-17.490 E1.87514
G1 X-8.565 Y-18.377 E0.06860
G1 X8.579 Y-1.233 E1.87363
G1 X8.579 Y-2.135 E0.06966
G1 X-8.427 Y-19.140 E1.85849
G1 X-8.160 Y-19.775 E0.05321
G1 X8.579 Y-3.036 E1.82936
G1 X8.579 Y-3.937 E0.06966
G1 X-1.108 Y-13.624 E1.05866
G1 X-3.362 Y-15.879 F15000.000
G1 X-7.797 Y-20.313 E0.48459 F960.000
G1 X-7.346 Y-20.764 E0.04925
G1 X-3.506 Y-16.924 E0.41964
G1 X-3.403 Y-17.722 E0.06217
G1 X-6.816 Y-21.135 E0.37304
G1 X-6.189 Y-21.409 E0.05290
G1 X-3.171 Y-18.392 E0.32977
G1 X-2.851 Y-18.973 E0.05127
G1 X-5.440 Y-21.562 E0.28298
G1 X-4.556 Y-21.579 E0.06837
G1 X-2.428 Y-19.451 E0.23255
G1 X-1.937 Y-19.862 E0.04945
G1 X-3.654 Y-21.579 E0.18764
G1 X-2.753 Y-21.579 E0.06966
G1 X-1.374 Y-20.200 E0.15070
G1 X-0.694 Y-20.422 E0.05523
G1 X-1.851 Y-21.579 E0.12643
G1 X-0.950 Y-21.579 E0.06966
G1 X0.125 Y-20.504 E0.11743
G1 X1.169 Y-20.362 E0.08142
G1 X-0.048 Y-21.579 E0.13300
G1 X0.853 Y-21.578 E0.06966
G1 X8.579 Y-13.853 E0.84434
G1 X8.579 Y-14.754 E0.06966
G1 X1.754 Y-21.578 E0.74583
G1 X2.656 Y-21.578 E0.06966
G1 X8.579 Y-15.655 E0.64731
G1 X8.579 Y-16.557 E0.06966
G1 X3.557 Y-21.578 E0.54879
G1 X4.459 Y-21.578 E0.06966
G1 X8.579 Y-17.458 E0.45027
G1 X8.530 Y-18.408 E0.07354
G1 X5.408 Y-21.530 E0.34115
G1 X7.030 Y-20.810 F15000.000
G1 X7.810 Y-20.030 E0.08521 F960.000
G1 X8.579 Y-12.951 F15000.000
G1 X3.383 Y-18.147 E0.56789 F960.000
G1 X3.531 Y-17.098 E0.08189
G1 X8.579 Y-12.050 E0.55172
G1 X8.579 Y-11.148 E0.06966
G1 X3.420 Y-16.307 E0.56381
G1 X3.186 Y-15.640 E0.05464
G1 X8.579 Y-10.247 E0.58941
G1 X8.579 Y-9.346 E0.06966
G1 X2.861 Y-15.064 E0.62495
G1 X2.462 Y-14.561 E0.04958
G1 X8.579 Y-8.444 E0.66851
G1 X8.579 Y-7.543 E0.06966
G1 X1.969 Y-14.153 E0.72240
G1 X1.391 Y-13.829 E0.05117
G1 X8.579 Y-6.642 E0.78552
G1 X8.579 Y-5.740 E0.06966
G1 X0.718 Y-13.602 E0.85915
G1 X-0.064 Y-13.482 E0.06111
