; generated by Slic3r 1.2.9 on 2017-03-14 at 11:52:36

; external perimeters extrusion width = 0.40mm
; perimeters extrusion width = 0.40mm
; infill extrusion width = 0.40mm
; solid infill extrusion width = 0.40mm
; top infill extrusion width = 0.40mm

M107
M83
T0
M116
G21 ; set units to millimeters
G90 ; use absolute coordinates
M83 ; use relative distances for extrusion
G1 E-3.20000 F3000.00000
G1 Z0.400 F15000.000
G1 X13.586 Y0.000 F15000.000
G1 Z0.300 F15000.000
G1 E3.20000 F3000.00000
G1 X13.586 Y18.450 E1.42186 F960.000
G1 X13.191 Y20.097 E0.13052
G1 X12.093 Y21.387 E0.13052
G1 X9.950 Y22.086 E0.17373
G1 X-9.950 Y22.086 E1.53360
G1 X-11.597 Y21.691 E0.13052
G1 X-12.887 Y20.593 E0.13052
G1 X-13.586 Y18.450 E0.17373
G1 X-13.586 Y-13.499 E2.46215
G1 X-13.557 Y-14.164 E0.05128
G1 X-13.522 Y-14.519 E0.02750
G1 X-13.381 Y-15.349 E0.06491
G1 X-13.160 Y-16.162 E0.06491
G1 X-12.860 Y-16.949 E0.06491
G1 X-12.484 Y-17.702 E0.06491
G1 X-12.234 Y-18.119 E0.03744
G1 X-11.756 Y-18.793 E0.06368
G1 X-11.202 Y-19.433 E0.06527
G1 X-10.582 Y-20.020 E0.06578
G1 X-9.916 Y-20.536 E0.06491
G1 X-9.619 Y-20.734 E0.02749
G1 X-8.912 Y-21.139 E0.06281
G1 X-8.119 Y-21.496 E0.06701
G1 X-7.320 Y-21.763 E0.06491
G1 X-6.849 Y-21.881 E0.03744
G1 X-6.019 Y-22.022 E0.06491
G1 X-5.177 Y-22.081 E0.06500
G1 X5.177 Y-22.081 E0.79796
G1 X5.991 Y-22.025 E0.06291 F960.000
G1 X6.488 Y-21.953 E0.03866
G1 X6.849 Y-21.881 E0.02837
G1 X7.662 Y-21.660 E0.06491
G1 X8.119 Y-21.496 E0.03744
G1 X8.888 Y-21.152 E0.06491
G1 X9.619 Y-20.734 E0.06491
G1 X9.916 Y-20.536 E0.02750
G1 X10.306 Y-20.247 E0.03744
G1 X10.942 Y-19.694 E0.06491
G1 X11.194 Y-19.442 E0.02750
G1 X11.747 Y-18.806 E0.06491
G1 X12.036 Y-18.416 E0.03744
G1 X12.484 Y-17.702 E0.06491
G1 X12.860 Y-16.949 E0.06491
G1 X12.996 Y-16.619 E0.02750
G1 X13.263 Y-15.820 E0.06491
G1 X13.451 Y-14.999 E0.06491
G1 X13.557 Y-14.164 E0.06491
G1 X13.581 Y-13.677 E0.03753
G1 X13.586 Y-0.060 E1.04941
G1 E-3.20000 F3000.00000
G1 Z0.700 F15000.000
G1 X-2.981 Y10.918 F15000.000
G1 Z0.300 F15000.000
G1 E3.20000 F3000.00000
G1 X-2.778 Y11.430 E0.04242 F600.000
G1 X-2.706 Y12.000 E0.04431
G1 X-2.778 Y12.570 E0.04431
G1 X-2.981 Y13.082 E0.04242
G1 X-3.323 Y13.566 E0.04566
G1 X-3.771 Y13.937 E0.04482
G1 X-4.269 Y14.171 E0.04242
G1 X-4.849 Y14.290 E0.04566
G1 X-5.430 Y14.253 E0.04482
G1 X-5.977 Y14.076 E0.04431
G1 X-6.462 Y13.767 E0.04431
G1 X-6.856 Y13.348 E0.04431
G1 X-7.133 Y12.844 E0.04431
G1 X-7.276 Y12.287 E0.04431
G1 X-7.276 Y11.713 E0.04431
G1 X-7.133 Y11.156 E0.04431
G1 X-6.856 Y10.652 E0.04431
G1 X-6.462 Y10.233 E0.04431
G1 X-5.971 Y9.921 E0.04482
G1 X-5.405 Y9.745 E0.04566
G1 X-4.856 Y9.711 E0.04242 F600.000
G1 X-4.291 Y9.818 E0.04431
G1 X-3.771 Y10.063 E0.04431
G1 X-3.323 Y10.434 E0.04482
G1 X-3.015 Y10.869 E0.04104
G1 X-3.544 Y11.223 F15000.000
G1 X-3.399 Y11.589 E0.03036 F600.000
G1 X-3.347 Y12.000 E0.03194
G1 X-3.399 Y12.411 E0.03194
G1 X-3.544 Y12.777 E0.03036
G1 X-3.793 Y13.130 E0.03329
G1 X-4.114 Y13.396 E0.03212
G1 X-4.471 Y13.564 E0.03036
G1 X-4.894 Y13.650 E0.03329
G1 X-5.310 Y13.624 E0.03212
G1 X-5.704 Y13.496 E0.03194
G1 X-6.054 Y13.274 E0.03194
G1 X-6.337 Y12.972 E0.03194
G1 X-6.537 Y12.609 E0.03194
G1 X-6.640 Y12.207 E0.03194
G1 X-6.640 Y11.793 E0.03194
G1 X-6.537 Y11.391 E0.03194
G1 X-6.337 Y11.028 E0.03194
G1 X-6.054 Y10.726 E0.03194
G1 X-5.702 Y10.503 E0.03211
G1 X-5.289 Y10.375 E0.03329
G1 X-4.896 Y10.350 E0.03036 F600.000
G1 X-4.489 Y10.428 E0.03194
G1 X-4.114 Y10.604 E0.03194
G1 X-3.793 Y10.870 E0.03212
G1 X-3.578 Y11.174 E0.02866
G1 X-3.151 Y11.249 F15000.000
G1 X2.224 Y11.713 F15000.000
G1 X2.367 Y11.156 E0.04431 F600.000
G1 X2.644 Y10.652 E0.04431
G1 X3.038 Y10.233 E0.04431
G1 X3.529 Y9.921 E0.04482
G1 X4.095 Y9.745 E0.04566
G1 X4.644 Y9.711 E0.04242 F600.000
G1 X5.209 Y9.818 E0.04431
G1 X5.729 Y10.063 E0.04431
G1 X6.172 Y10.430 E0.04431
G1 X6.510 Y10.895 E0.04431
G1 X6.722 Y11.430 E0.04431
G1 X6.794 Y12.000 E0.04431
G1 X6.722 Y12.570 E0.04431
G1 X6.510 Y13.105 E0.04431
G1 X6.172 Y13.570 E0.04431
G1 X5.729 Y13.937 E0.04431
G1 X5.209 Y14.182 E0.04431
G1 X4.644 Y14.289 E0.04431
G1 X4.070 Y14.253 E0.04431
G1 X3.523 Y14.076 E0.04431
G1 X3.038 Y13.767 E0.04431
G1 X2.644 Y13.348 E0.04431
G1 X2.367 Y12.844 E0.04431
G1 X2.224 Y12.287 E0.04431
G1 X2.224 Y11.773 E0.03969
G1 X2.860 Y11.793 F15000.000
G1 X2.963 Y11.391 E0.03194 F600.000
G1 X3.163 Y11.028 E0.03194
G1 X3.446 Y10.726 E0.03194
G1 X3.798 Y10.503 E0.03211
G1 X4.211 Y10.375 E0.03329
G1 X4.604 Y10.350 E0.03036 F600.000
G1 X5.011 Y10.428 E0.03194
G1 X5.386 Y10.604 E0.03194
G1 X5.705 Y10.868 E0.03194
G1 X5.949 Y11.204 E0.03194
G1 X6.101 Y11.589 E0.03194
G1 X6.153 Y12.000 E0.03194
G1 X6.101 Y12.411 E0.03194
G1 X5.949 Y12.796 E0.03194
G1 X5.705 Y13.132 E0.03194
G1 X5.386 Y13.396 E0.03194
G1 X5.011 Y13.572 E0.03194
G1 X4.604 Y13.650 E0.03194
G1 X4.190 Y13.624 E0.03194
G1 X3.796 Y13.496 E0.03194
G1 X3.446 Y13.274 E0.03194
G1 X3.163 Y12.972 E0.03194
G1 X2.963 Y12.609 E0.03194
G1 X2.860 Y12.207 E0.03194
G1 X2.860 Y11.853 E0.02731
G1 X2.552 Y11.538 F15000.000
G1 X0.954 Y5.495 F15000.000
G1 X0.185 Y5.638 E0.06022 F600.000
G1 X-0.593 Y5.587 E0.06011
G1 X-1.275 Y5.368 E0.05521
G1 X-1.994 Y4.931 E0.06486
G1 X-2.537 Y4.356 E0.06094
G1 X-2.907 Y3.694 E0.05840
G1 X-3.123 Y2.843 E0.06765
G1 X-3.116 Y2.086 E0.05836
G1 X-2.918 Y1.330 E0.06023
G1 X-2.536 Y0.642 E0.06067
G1 X-1.969 Y0.051 E0.06307
G1 X-1.304 Y-0.358 E0.06017
G1 X-0.595 Y-0.586 E0.05742
G1 X0.159 Y-0.638 E0.05821 F600.000
G1 X1.020 Y-0.471 E0.06765
G1 X1.702 Y-0.142 E0.05835
G1 X2.302 Y0.359 E0.06023
G1 X2.758 Y0.992 E0.06008
G1 X3.024 Y1.657 E0.05521
G1 X3.146 Y2.500 E0.06563
G1 X3.024 Y3.343 E0.06563
G1 X2.758 Y4.008 E0.05521
G1 X2.297 Y4.647 E0.06073
G1 X1.638 Y5.180 E0.06534
G1 X1.008 Y5.470 E0.05338
G1 X0.760 Y4.884 F15000.000
G1 X0.148 Y4.998 E0.04800 F600.000
G1 X-0.473 Y4.957 E0.04796
G1 X-1.010 Y4.786 E0.04339
G1 X-1.591 Y4.433 E0.05242
G1 X-2.020 Y3.977 E0.04825
G1 X-2.311 Y3.457 E0.04592
G1 X-2.486 Y2.767 E0.05487
G1 X-2.481 Y2.171 E0.04592
G1 X-2.323 Y1.569 E0.04800
G1 X-2.020 Y1.022 E0.04816
G1 X-1.567 Y0.550 E0.05045
G1 X-1.037 Y0.223 E0.04797
G1 X-0.474 Y0.043 E0.04555
G1 X0.119 Y0.001 E0.04585 F600.000
G1 X0.818 Y0.137 E0.05487
G1 X1.355 Y0.396 E0.04592
G1 X1.833 Y0.796 E0.04800
G1 X2.196 Y1.301 E0.04795
G1 X2.406 Y1.823 E0.04338
G1 X2.504 Y2.500 E0.05271
G1 X2.406 Y3.177 E0.05271
G1 X2.196 Y3.699 E0.04338
G1 X1.831 Y4.207 E0.04818
G1 X1.300 Y4.636 E0.05265
G1 X0.814 Y4.859 E0.04117
G1 X0.658 Y5.271 F15000.000
G1 E-3.20000 F3000.00000
G1 Z0.700 F15000.000
G1 X0.178 Y-8.361 F15000.000
G1 Z0.300 F15000.000
G1 E3.20000 F3000.00000
G1 X-0.587 Y-8.412 E0.05910 F600.000
G1 X-1.312 Y-8.644 E0.05861
G1 X-2.017 Y-9.089 E0.06427
G1 X-2.537 Y-9.645 E0.05870
G1 X-2.911 Y-10.314 E0.05900
G1 X-3.122 Y-11.155 E0.06684
G1 X-3.120 Y-11.879 E0.05583
G1 X-2.936 Y-12.620 E0.05883
G1 X-2.515 Y-13.383 E0.06718
G1 X-1.986 Y-13.935 E0.05891
G1 X-1.346 Y-14.341 E0.05841
G1 X-0.582 Y-14.590 E0.06194
G1 X0.259 Y-14.631 E0.06491 F600.000
G1 X1.033 Y-14.464 E0.06098
G1 X1.683 Y-14.155 E0.05549
G1 X2.294 Y-13.649 E0.06117
G1 X2.741 Y-13.036 E0.05843
G1 X3.029 Y-12.334 E0.05850
G1 X3.145 Y-11.500 E0.06487
G1 X3.029 Y-10.666 E0.06487
G1 X2.741 Y-9.964 E0.05850
G1 X2.294 Y-9.351 E0.05843
G1 X1.683 Y-8.845 E0.06117
G1 X1.027 Y-8.533 E0.05599
G1 X0.237 Y-8.373 E0.06213
G1 X0.136 Y-9.001 F15000.000
G1 X-0.467 Y-9.041 E0.04657 F600.000
G1 X-1.041 Y-9.225 E0.04640
G1 X-1.609 Y-9.583 E0.05173
G1 X-2.020 Y-10.023 E0.04643
G1 X-2.315 Y-10.550 E0.04654
G1 X-2.486 Y-11.232 E0.05421
G1 X-2.484 Y-11.801 E0.04379
G1 X-2.339 Y-12.386 E0.04649
G1 X-1.999 Y-13.004 E0.05434
G1 X-1.581 Y-13.440 E0.04654
G1 X-1.073 Y-13.761 E0.04633
G1 X-0.466 Y-13.960 E0.04924
G1 X0.207 Y-13.992 E0.05189 F600.000
G1 X0.826 Y-13.859 E0.04884
G1 X1.338 Y-13.615 E0.04370
G1 X1.828 Y-13.210 E0.04897
G1 X2.182 Y-12.724 E0.04633
G1 X2.410 Y-12.167 E0.04640
G1 X2.503 Y-11.500 E0.05188
G1 X2.410 Y-10.833 E0.05188
G1 X2.182 Y-10.276 E0.04640
G1 X1.828 Y-9.790 E0.04633
G1 X1.338 Y-9.385 E0.04897
G1 X0.824 Y-9.140 E0.04388
G1 X0.194 Y-9.013 E0.04954
G1 X-0.057 Y-8.650 F15000.000
G1 X-8.964 Y2.974 F15000.000
G1 X-8.964 Y-13.475 E1.26765 F720.000
G1 X-8.944 Y-13.888 E0.03193
G1 X-8.887 Y-14.273 E0.02997
G1 X-8.792 Y-14.650 E0.02997
G1 X-8.661 Y-15.017 E0.02997
G1 X-8.495 Y-15.368 E0.02997
G1 X-8.295 Y-15.702 E0.02997
G1 X-8.072 Y-16.003 E0.02886
G1 X-7.801 Y-16.303 E0.03120
G1 X-7.514 Y-16.564 E0.02985
G1 X-7.202 Y-16.795 E0.02997
G1 X-6.881 Y-16.988 E0.02886
G1 X-6.515 Y-17.162 E0.03120
G1 X-6.150 Y-17.292 E0.02985
G1 X-5.773 Y-17.387 E0.02997
G1 X-5.388 Y-17.444 E0.02997
G1 X-4.975 Y-17.464 E0.03193
G1 X4.975 Y-17.464 E0.76674
G1 X5.374 Y-17.445 E0.03082
G1 X5.775 Y-17.387 E0.03120 F720.000
G1 X6.150 Y-17.292 E0.02985
G1 X6.517 Y-17.161 E0.02997
G1 X6.868 Y-16.995 E0.02997
G1 X7.202 Y-16.795 E0.02997
G1 X7.514 Y-16.564 E0.02997
G1 X7.802 Y-16.302 E0.02997
G1 X8.064 Y-16.014 E0.02997
G1 X8.295 Y-15.702 E0.02997
G1 X8.495 Y-15.368 E0.02997
G1 X8.661 Y-15.017 E0.02997
G1 X8.792 Y-14.650 E0.02997
G1 X8.887 Y-14.273 E0.02997
G1 X8.944 Y-13.888 E0.02997
G1 X8.964 Y-13.475 E0.03193
G1 X8.964 Y17.464 E2.38433
G1 X-8.964 Y17.464 E1.38169
G1 X-8.964 Y3.034 E1.11205
G1 X-9.600 Y3.034 F15000.000
G1 X-9.600 Y-13.490 E1.27348 F720.000
G1 X-9.577 Y-13.951 E0.03554
G1 X-9.511 Y-14.397 E0.03479
G1 X-9.401 Y-14.835 E0.03479
G1 X-9.249 Y-15.260 E0.03479
G1 X-9.056 Y-15.668 E0.03479
G1 X-8.824 Y-16.055 E0.03479
G1 X-8.565 Y-16.406 E0.03360
G1 X-8.252 Y-16.753 E0.03601
G1 X-7.918 Y-17.055 E0.03474
G1 X-7.555 Y-17.324 E0.03479
G1 X-7.181 Y-17.549 E0.03360
G1 X-6.760 Y-17.750 E0.03601
G1 X-6.335 Y-17.901 E0.03474
G1 X-5.897 Y-18.011 E0.03479
G1 X-5.451 Y-18.077 E0.03479
G1 X-4.990 Y-18.100 E0.03554
G1 X4.990 Y-18.100 E0.76914
G1 X5.435 Y-18.078 E0.03436
G1 X5.898 Y-18.011 E0.03601 F720.000
G1 X6.335 Y-17.901 E0.03474
G1 X6.760 Y-17.749 E0.03479
G1 X7.168 Y-17.556 E0.03479
G1 X7.555 Y-17.324 E0.03479
G1 X7.918 Y-17.055 E0.03479
G1 X8.252 Y-16.752 E0.03479
G1 X8.555 Y-16.418 E0.03479
G1 X8.824 Y-16.055 E0.03479
G1 X9.056 Y-15.668 E0.03479
G1 X9.249 Y-15.260 E0.03479
G1 X9.401 Y-14.835 E0.03479
G1 X9.511 Y-14.397 E0.03479
G1 X9.577 Y-13.951 E0.03479
G1 X9.600 Y-13.490 E0.03554
G1 X9.600 Y18.100 E2.43451
G1 X-9.600 Y18.100 E1.47966
G1 X-9.600 Y3.094 E1.15641
G1 X-9.254 Y2.834 F15000.000
G1 X0.757 Y-0.944 F15000.000
G1 X-8.579 Y-10.280 E1.02060 F960.000
G1 X-8.579 Y-9.378 E0.06970
G1 X-0.192 Y-0.991 E0.91681
G1 X-0.945 Y-0.842 E0.05929
G1 X-8.579 Y-8.476 E0.83456
G1 X-8.579 Y-7.575 E0.06970
G1 X-1.584 Y-0.580 E0.76470
G1 X-2.142 Y-0.236 E0.05066
G1 X-8.579 Y-6.673 E0.70370
G1 X-8.579 Y-5.771 E0.06970
G1 X-2.588 Y0.220 E0.65494
G1 X-2.973 Y0.736 E0.04980
G1 X-8.579 Y-4.870 E0.61280
G1 X-8.579 Y-3.968 E0.06970
G1 X-3.284 Y1.327 E0.57881
G1 X-3.471 Y2.041 E0.05709
G1 X-8.579 Y-3.067 E0.55834
G1 X-8.579 Y-2.165 E0.06970
G1 X-3.507 Y2.907 E0.55441
G1 X-3.217 Y4.099 E0.09483
G1 X-8.579 Y-1.263 E0.58615
G1 X-8.579 Y-0.362 E0.06970
G1 X2.322 Y10.539 E1.19162
G1 X2.007 Y11.126 E0.05149
G1 X-8.579 Y0.540 E1.15725
G1 X-8.579 Y1.442 E0.06970
G1 X1.839 Y11.859 E1.13885
G1 X1.933 Y12.855 F15000.000
G1 X-8.579 Y2.343 E1.14916 F960.000
G1 X-8.579 Y3.245 E0.06970
G1 X5.255 Y17.079 E1.51231
G1 X4.353 Y17.079 E0.06970
G1 X-8.579 Y4.146 E1.41375
G1 X-8.579 Y5.048 E0.06970
G1 X-4.215 Y9.412 E0.47710
G1 X-5.176 Y9.353 E0.07445
G1 X-8.579 Y5.950 E0.37202
G1 X-8.579 Y6.851 E0.06970
G1 X-5.900 Y9.531 E0.29290
G1 X-6.482 Y9.850 E0.05135
G1 X-8.579 Y7.753 E0.22919
G1 X-8.579 Y8.655 E0.06970
G1 X-6.956 Y10.277 E0.17738
G1 X-7.327 Y10.809 E0.05006
G1 X-8.579 Y9.556 E0.13689
G1 X-8.579 Y10.458 E0.06970
G1 X-7.578 Y11.459 E0.10940
G1 X-7.661 Y12.277 E0.06361
G1 X-8.579 Y11.360 E0.10033
G1 X-8.579 Y12.261 E0.06970
G1 X-3.761 Y17.079 E0.52667
G1 X-2.860 Y17.079 E0.06970
G1 X-5.281 Y14.658 E0.26471
G1 X-4.458 Y14.578 E0.06388
G1 X-1.958 Y17.079 E0.27335
G1 X-1.056 Y17.079 E0.06970
G1 X-3.806 Y14.330 E0.30054
G1 X-3.277 Y13.957 E0.05001
G1 X-0.155 Y17.079 E0.34131
G1 X0.747 Y17.079 E0.06970
G1 X-2.854 Y13.478 E0.39363
G1 X-2.535 Y12.895 E0.05136
G1 X1.649 Y17.079 E0.45738
G1 X2.550 Y17.079 E0.06970
G1 X-2.356 Y12.173 E0.53629
G1 X-2.397 Y11.230 E0.07296
G1 X3.452 Y17.079 E0.63936
G1 X3.651 Y14.573 F15000.000
G1 X6.157 Y17.079 E0.27395 F960.000
G1 X7.058 Y17.079 E0.06970
G1 X4.639 Y14.659 E0.26450
G1 X5.366 Y14.485 E0.05778
G1 X7.960 Y17.079 E0.28362
G1 X8.579 Y16.796 E0.05260
G1 X5.959 Y14.176 E0.28646
G1 X6.444 Y13.760 E0.04943
G1 X8.579 Y15.895 E0.23334
G1 X8.579 Y14.993 E0.06970
G1 X6.824 Y13.238 E0.19186
G1 X7.083 Y12.596 E0.05354
G1 X8.579 Y14.091 E0.16352
G1 X8.579 Y13.190 E0.06970
G1 X7.173 Y11.784 E0.15368
G1 X6.859 Y10.568 E0.09709
G1 X8.579 Y12.288 E0.18805
G1 X8.579 Y11.386 E0.06970
G1 X2.279 Y5.087 E0.68867
G1 X2.721 Y4.627 E0.04929
G1 X8.579 Y10.485 E0.64039
G1 X8.579 Y9.583 E0.06970
G1 X3.093 Y4.098 E0.59968
G1 X3.351 Y3.454 E0.05361
G1 X8.579 Y8.682 E0.57149
G1 X8.579 Y7.780 E0.06970
G1 X3.490 Y2.691 E0.55635
G1 X3.447 Y1.747 E0.07305
G1 X8.579 Y6.878 E0.56099
G1 X8.579 Y5.977 E0.06970
G1 X-8.579 Y-11.181 E1.87567
G1 X-8.579 Y-12.083 E0.06970
G1 X8.579 Y5.075 E1.87567
G1 X8.579 Y4.173 E0.06970
G1 X-8.579 Y-12.984 E1.87567
G1 X-8.565 Y-13.873 E0.06866
G1 X8.579 Y3.272 E1.87419
G1 X8.579 Y2.370 E0.06970
G1 X-8.428 Y-14.637 E1.85916
G1 X-3.394 Y-10.504 F15000.000
G1 X-8.162 Y-15.272 E0.52121 F960.000
G1 X-7.799 Y-15.811 E0.05020
G1 X-3.506 Y-11.518 E0.46928
G1 X-3.384 Y-12.297 E0.06100
G1 X-7.348 Y-16.261 E0.43333
G1 X-6.819 Y-16.634 E0.05002
G1 X-3.138 Y-12.953 E0.40241
G1 X-2.817 Y-13.534 E0.05130
G1 X-6.191 Y-16.908 E0.36888
G1 X-5.443 Y-17.062 E0.05903
G1 X-2.381 Y-14.000 E0.33475
G1 X-1.879 Y-14.399 E0.04960
G1 X-4.559 Y-17.079 E0.29298
G1 X-3.657 Y-17.079 E0.06970
G1 X-1.302 Y-14.723 E0.25750
G1 X-0.622 Y-14.946 E0.05526
G1 X-2.756 Y-17.079 E0.23322
G1 X-1.854 Y-17.079 E0.06970
G1 X0.216 Y-15.009 E0.22633
G1 X1.292 Y-14.835 E0.08419
G1 X-0.952 Y-17.079 E0.24531
G1 X5.409 Y-17.029 F15000.000
G1 X8.530 Y-13.908 E0.34120 F960.000
G1 X8.579 Y-12.958 E0.07358
G1 X4.458 Y-17.079 E0.45055
G1 X3.556 Y-17.079 E0.06970
G1 X8.579 Y-12.056 E0.54911
G1 X8.579 Y-11.154 E0.06970
G1 X2.654 Y-17.079 E0.64767
G1 X1.753 Y-17.079 E0.06970
G1 X8.579 Y-10.253 E0.74624
G1 X8.579 Y-9.351 E0.06970
G1 X0.851 Y-17.079 E0.84480
G1 X-0.051 Y-17.079 E0.06970
G1 X8.579 Y-8.449 E0.94337
G1 X8.579 Y-7.548 E0.06970
G1 X3.316 Y-12.811 E0.57534
G1 X3.527 Y-11.698 E0.08754
G1 X8.579 Y-6.646 E0.55228
G1 X8.579 Y-5.744 E0.06970
G1 X3.432 Y-10.892 E0.56268
G1 X3.214 Y-10.208 E0.05545
G1 X8.579 Y-4.843 E0.58654
G1 X8.579 Y-3.941 E0.06970
G1 X2.901 Y-9.619 E0.62072
G1 X2.514 Y-9.104 E0.04978
G1 X8.579 Y-3.040 E0.66300
G1 X8.579 Y-2.138 E0.06970
G1 X2.021 Y-8.696 E0.71692
G1 X1.456 Y-8.360 E0.05085
G1 X8.579 Y-1.236 E0.77872
G1 X8.579 Y-0.335 E0.06970
G1 X0.796 Y-8.118 E0.85080
G1 X0.037 Y-7.975 E0.05971
G1 X8.579 Y0.567 E0.93379
G1 X8.579 Y1.469 E0.06970
G1 X-0.970 Y-8.080 E1.04385
G1 E-3.20000 F3000.00000
G1 Z0.700 F15000.000
G1 X7.030 Y-16.310 F15000.000
G1 Z0.300 F15000.000
G1 E3.20000 F3000.00000
G1 X7.810 Y-15.530 E0.08524 F960.000
G1 X1.781 Y5.490 F15000.000
G1 X5.958 Y9.668 E0.45669 F960.000
G1 X4.717 Y9.328 E0.09946
G1 X1.163 Y5.774 E0.38850
G1 X0.446 Y5.959 E0.05725
G1 X3.919 Y9.432 E0.37967
G1 X3.273 Y9.687 E0.05370
G1 X-0.421 Y5.993 E0.40382
G1 X-1.595 Y5.720 E0.09322
G1 X2.746 Y10.062 E0.47459
G1 X-4.663 Y17.079 F15000.000
G1 X-8.579 Y13.163 E0.42811 F960.000
G1 X-8.579 Y14.064 E0.06970
G1 X-5.564 Y17.079 E0.32954
G1 X-6.466 Y17.079 E0.06970
G1 X-8.579 Y14.966 E0.23098
G1 X-8.579 Y15.868 E0.06970
G1 X-7.368 Y17.079 E0.13241
G1 X-8.269 Y17.079 E0.06970
G1 X-8.579 Y16.769 E0.03385
G1 E-3.20000 F3000.00000
G1 Z0.700 F15000.000
G1 X2.769 Y12.685 F15000.000
G1 Z0.500 F15000.000
G1 E3.20000 F3000.00000
G1 X2.651 Y12.226 E0.01368 F2604.112
G1 X2.664 Y11.723 E0.01453
G1 X2.769 Y11.315 E0.01217
G1 X2.994 Y10.906 E0.01347
G1 X3.313 Y10.565 E0.01347
G1 X3.713 Y10.311 E0.01368
G1 X4.196 Y10.168 E0.01453
