; generated by Slic3r 1.2.9 on 2017-02-21 at 17:03:39

; external perimeters extrusion width = 0.40mm
; perimeters extrusion width = 0.40mm
; infill extrusion width = 0.40mm
; solid infill extrusion width = 0.40mm
; top infill extrusion width = 0.40mm

M107
M83
T0
M116
G21 ; set units to millimeters
G90 ; use absolute coordinates
M83 ; use relative distances for extrusion
G1 E-3.20000 F3000.00000
G1 Z0.400 F15000.000
G1 X23.586 Y0.000 F15000.000
G1 Z0.300 F15000.000
G1 E3.20000 F3000.00000
G1 X23.586 Y25.950 E1.99985 F960.000
G1 X23.191 Y27.597 E0.13052
G1 X22.093 Y28.887 E0.13052
G1 X19.950 Y29.586 E0.17373
G1 X-19.950 Y29.586 E3.07491
G1 X-21.597 Y29.191 E0.13052
G1 X-22.887 Y28.093 E0.13052
G1 X-23.586 Y25.950 E0.17373
G1 X-23.586 Y-25.950 E3.99970
G1 X-23.191 Y-27.597 E0.13052
G1 X-22.093 Y-28.887 E0.13052
G1 X-19.950 Y-29.586 E0.17373
G1 X19.950 Y-29.586 E3.07491
G1 X21.597 Y-29.191 E0.13052
G1 X22.887 Y-28.093 E0.13052 F960.000
G1 X23.586 Y-25.950 E0.17373
G1 X23.586 Y-0.060 E1.99523
G1 E-3.20000 F3000.00000
G1 Z0.700 F15000.000
G1 X0.126 Y18.545 F15000.000
G1 Z0.300 F15000.000
G1 E3.20000 F3000.00000
G1 X0.652 Y19.272 E0.06912 F600.000
G1 X0.974 Y20.082 E0.06718
G1 X1.095 Y21.000 E0.07137
G1 X0.974 Y21.918 E0.07137
G1 X0.652 Y22.728 E0.06718
G1 X0.126 Y23.455 E0.06912
G1 X-0.565 Y24.029 E0.06920
G1 X-1.355 Y24.405 E0.06742
G1 X-2.286 Y24.589 E0.07316
G1 X-3.186 Y24.528 E0.06952
G1 X-4.015 Y24.259 E0.06715
G1 X-4.797 Y23.765 E0.07125
G1 X-5.411 Y23.108 E0.06932
G1 X-5.834 Y22.342 E0.06743
G1 X-6.068 Y21.425 E0.07299
G1 X-6.066 Y20.551 E0.06736
G1 X-5.851 Y19.704 E0.06734
G1 X-5.397 Y18.873 E0.07299
G1 X-4.797 Y18.236 E0.06743
G1 X-4.041 Y17.753 E0.06910
G1 X-3.188 Y17.472 E0.06922
G1 X-2.312 Y17.413 E0.06771 F600.000
G1 X-1.358 Y17.594 E0.07479
G1 X-0.565 Y17.971 E0.06772
G1 X0.080 Y18.507 E0.06458
G1 X-0.342 Y18.983 F15000.000
G1 X0.090 Y19.580 E0.05685 F600.000
G1 X0.354 Y20.244 E0.05500
G1 X0.454 Y21.000 E0.05881
G1 X0.354 Y21.756 E0.05881
G1 X0.090 Y22.420 E0.05500
G1 X-0.342 Y23.017 E0.05685
G1 X-0.910 Y23.489 E0.05688
G1 X-1.556 Y23.796 E0.05515
G1 X-2.327 Y23.949 E0.06057
G1 X-3.065 Y23.899 E0.05699
G1 X-3.743 Y23.679 E0.05495
G1 X-4.388 Y23.272 E0.05881
G1 X-4.893 Y22.732 E0.05692
G1 X-5.238 Y22.106 E0.05508
G1 X-5.432 Y21.345 E0.06052
G1 X-5.431 Y20.631 E0.05507
G1 X-5.255 Y19.938 E0.05508
G1 X-4.878 Y19.249 E0.06052
G1 X-4.388 Y18.729 E0.05507
G1 X-3.767 Y18.332 E0.05684
G1 X-3.066 Y18.101 E0.05689
G1 X-2.350 Y18.053 E0.05527 F600.000
G1 X-1.557 Y18.203 E0.06220
G1 X-0.910 Y18.511 E0.05525
G1 X-0.388 Y18.944 E0.05226
G1 X0.051 Y18.909 F15000.000
G1 X-7.649 Y15.917 F15000.000
G1 X-7.797 Y16.272 E0.02962 F600.000
G1 X-8.197 Y16.795 E0.05074
G1 X-8.741 Y17.210 E0.05273
G1 X-9.350 Y17.459 E0.05073
G1 X-10.000 Y17.544 E0.05049
G1 X-10.650 Y17.459 E0.05049
G1 X-11.259 Y17.210 E0.05073
G1 X-11.803 Y16.795 E0.05273
G1 X-12.203 Y16.272 E0.05074
G1 X-12.451 Y15.678 E0.04959
G1 X-12.545 Y15.000 E0.05278
G1 X-12.451 Y14.322 E0.05278
G1 X-12.203 Y13.728 E0.04959
G1 X-11.803 Y13.205 E0.05074
G1 X-11.261 Y12.791 E0.05258
G1 X-10.666 Y12.545 E0.04958
G1 X-10.012 Y12.456 E0.05085 F600.000
G1 X-9.324 Y12.548 E0.05351
G1 X-8.728 Y12.797 E0.04979
G1 X-8.205 Y13.197 E0.05074
G1 X-7.790 Y13.741 E0.05274
G1 X-7.541 Y14.350 E0.05073
G1 X-7.455 Y15.005 E0.05085
G1 X-7.549 Y15.678 E0.05242
G1 X-7.626 Y15.862 E0.01535
G1 X-8.213 Y15.618 F15000.000
G1 X-8.352 Y15.952 E0.02789 F600.000
G1 X-8.650 Y16.342 E0.03783
G1 X-9.060 Y16.654 E0.03968
G1 X-9.514 Y16.840 E0.03786
G1 X-10.000 Y16.903 E0.03774
G1 X-10.486 Y16.840 E0.03774
G1 X-10.940 Y16.654 E0.03786
G1 X-11.350 Y16.342 E0.03968
G1 X-11.648 Y15.952 E0.03783
G1 X-11.832 Y15.509 E0.03693
G1 X-11.903 Y15.000 E0.03963
G1 X-11.832 Y14.491 E0.03963
G1 X-11.648 Y14.048 E0.03693
G1 X-11.350 Y13.658 E0.03783
G1 X-10.941 Y13.346 E0.03963
G1 X-10.499 Y13.164 E0.03686
G1 X-10.012 Y13.097 E0.03790 F600.000
G1 X-9.492 Y13.167 E0.04044
G1 X-9.048 Y13.352 E0.03700
G1 X-8.658 Y13.650 E0.03783
G1 X-8.346 Y14.060 E0.03968
G1 X-8.160 Y14.514 E0.03786
G1 X-8.097 Y15.002 E0.03787
G1 X-8.168 Y15.509 E0.03950
G1 X-8.190 Y15.562 E0.00441
G1 X-7.993 Y15.905 F15000.000
G1 X7.455 Y15.000 F15000.000
G1 X7.549 Y14.322 E0.05278 F600.000
G1 X7.797 Y13.728 E0.04959
G1 X8.197 Y13.205 E0.05074
G1 X8.741 Y12.790 E0.05273
G1 X9.349 Y12.541 E0.05064
G1 X9.990 Y12.456 E0.04979 F600.000
G1 X10.676 Y12.548 E0.05336
G1 X11.272 Y12.797 E0.04979
G1 X11.795 Y13.197 E0.05074
G1 X12.210 Y13.741 E0.05274
G1 X12.459 Y14.350 E0.05073
G1 X12.545 Y15.005 E0.05085
G1 X12.451 Y15.678 E0.05242
G1 X12.203 Y16.272 E0.04959
G1 X11.803 Y16.795 E0.05074
G1 X11.259 Y17.210 E0.05273
G1 X10.650 Y17.459 E0.05073
G1 X10.000 Y17.544 E0.05049
G1 X9.350 Y17.459 E0.05049
G1 X8.741 Y17.210 E0.05073
G1 X8.197 Y16.795 E0.05273
G1 X7.797 Y16.272 E0.05074
G1 X7.549 Y15.678 E0.04959
G1 X7.463 Y15.059 E0.04816
G1 X8.097 Y15.000 F15000.000
G1 X8.168 Y14.491 E0.03963 F600.000
G1 X8.352 Y14.048 E0.03693
G1 X8.650 Y13.658 E0.03783
G1 X9.060 Y13.346 E0.03968
G1 X9.514 Y13.160 E0.03783
G1 X9.989 Y13.097 E0.03694 F600.000
G1 X10.509 Y13.167 E0.04039
G1 X10.952 Y13.352 E0.03700
G1 X11.342 Y13.650 E0.03783
G1 X11.654 Y14.060 E0.03968
G1 X11.840 Y14.514 E0.03786
G1 X11.903 Y15.002 E0.03787
G1 X11.832 Y15.509 E0.03950
G1 X11.648 Y15.952 E0.03693
G1 X11.350 Y16.342 E0.03783
G1 X10.940 Y16.654 E0.03968
G1 X10.486 Y16.840 E0.03786
G1 X10.000 Y16.903 E0.03774
G1 X9.514 Y16.840 E0.03774
G1 X9.060 Y16.654 E0.03786
G1 X8.650 Y16.342 E0.03968
G1 X8.352 Y15.952 E0.03783
G1 X8.168 Y15.509 E0.03693
G1 X8.105 Y15.059 E0.03501
G1 X7.760 Y14.784 F15000.000
G1 X10.000 Y-12.456 F15000.000
G1 X9.350 Y-12.541 E0.05049 F600.000
G1 X8.741 Y-12.790 E0.05073
G1 X8.197 Y-13.205 E0.05273
G1 X7.797 Y-13.728 E0.05074
G1 X7.549 Y-14.322 E0.04959
G1 X7.455 Y-15.000 E0.05278
G1 X7.549 Y-15.678 E0.05278
G1 X7.797 Y-16.272 E0.04959
G1 X8.197 Y-16.795 E0.05074
G1 X8.741 Y-17.210 E0.05273
G1 X9.349 Y-17.459 E0.05064
G1 X9.990 Y-17.544 E0.04979 F600.000
G1 X10.676 Y-17.452 E0.05336
G1 X11.272 Y-17.203 E0.04979
G1 X11.795 Y-16.803 E0.05074
G1 X12.210 Y-16.259 E0.05273
G1 X12.459 Y-15.650 E0.05073
G1 X12.545 Y-14.995 E0.05085
G1 X12.451 Y-14.322 E0.05242
G1 X12.203 Y-13.728 E0.04959
G1 X11.803 Y-13.205 E0.05074
G1 X11.259 Y-12.790 E0.05273
G1 X10.650 Y-12.541 E0.05073
G1 X10.059 Y-12.464 E0.04587
G1 X10.000 Y-13.097 F15000.000
G1 X9.514 Y-13.160 E0.03774 F600.000
G1 X9.060 Y-13.346 E0.03786
G1 X8.650 Y-13.658 E0.03968
G1 X8.352 Y-14.048 E0.03783
G1 X8.168 Y-14.491 E0.03693
G1 X8.097 Y-15.000 E0.03963
G1 X8.168 Y-15.509 E0.03963
G1 X8.352 Y-15.952 E0.03693
G1 X8.650 Y-16.342 E0.03783
G1 X9.060 Y-16.654 E0.03968
G1 X9.514 Y-16.840 E0.03783
G1 X9.989 Y-16.903 E0.03693 F600.000
G1 X10.508 Y-16.833 E0.04039
G1 X10.952 Y-16.648 E0.03700
G1 X11.342 Y-16.350 E0.03783
G1 X11.654 Y-15.940 E0.03968
G1 X11.840 Y-15.486 E0.03786
G1 X11.903 Y-14.998 E0.03787
G1 X11.832 Y-14.491 E0.03950
G1 X11.648 Y-14.048 E0.03693
G1 X11.350 Y-13.658 E0.03783
G1 X10.940 Y-13.346 E0.03968
G1 X10.486 Y-13.160 E0.03786
G1 X10.059 Y-13.105 E0.03312
G1 X9.785 Y-12.760 F15000.000
G1 X0.652 Y-19.272 F15000.000
G1 X0.126 Y-18.545 E0.06912 F600.000
G1 X-0.565 Y-17.971 E0.06920
G1 X-1.355 Y-17.595 E0.06743
G1 X-2.286 Y-17.411 E0.07316
G1 X-3.186 Y-17.472 E0.06952
G1 X-4.015 Y-17.741 E0.06715
G1 X-4.797 Y-18.235 E0.07125
G1 X-5.411 Y-18.892 E0.06932
G1 X-5.834 Y-19.658 E0.06743
G1 X-6.068 Y-20.575 E0.07299
G1 X-6.066 Y-21.449 E0.06736
G1 X-5.851 Y-22.296 E0.06734
G1 X-5.397 Y-23.127 E0.07299
G1 X-4.797 Y-23.764 E0.06743
G1 X-4.041 Y-24.247 E0.06910
G1 X-3.188 Y-24.528 E0.06922
G1 X-2.312 Y-24.587 E0.06771 F600.000
G1 X-1.358 Y-24.406 E0.07479
G1 X-0.565 Y-24.029 E0.06772
G1 X0.126 Y-23.455 E0.06920
G1 X0.652 Y-22.728 E0.06912
G1 X0.974 Y-21.918 E0.06718
G1 X1.095 Y-21.000 E0.07137
G1 X0.974 Y-20.082 E0.07137
G1 X0.674 Y-19.328 E0.06256
G1 X0.090 Y-19.580 F15000.000
G1 X-0.342 Y-18.983 E0.05685 F600.000
G1 X-0.910 Y-18.511 E0.05688
G1 X-1.556 Y-18.204 E0.05515
G1 X-2.327 Y-18.051 E0.06057
G1 X-3.065 Y-18.101 E0.05699
G1 X-3.743 Y-18.321 E0.05495
G1 X-4.388 Y-18.728 E0.05881
G1 X-4.893 Y-19.268 E0.05692
G1 X-5.238 Y-19.894 E0.05508
G1 X-5.432 Y-20.655 E0.06052
G1 X-5.431 Y-21.369 E0.05507
G1 X-5.255 Y-22.062 E0.05508
G1 X-4.878 Y-22.751 E0.06052
G1 X-4.388 Y-23.271 E0.05507
G1 X-3.767 Y-23.668 E0.05684
G1 X-3.066 Y-23.899 E0.05689
G1 X-2.350 Y-23.947 E0.05527 F600.000
G1 X-1.557 Y-23.797 E0.06220
G1 X-0.910 Y-23.489 E0.05525
G1 X-0.342 Y-23.017 E0.05688
G1 X0.090 Y-22.420 E0.05685
G1 X0.354 Y-21.756 E0.05500
G1 X0.454 Y-21.000 E0.05881
G1 X0.354 Y-20.244 E0.05881
G1 X0.113 Y-19.636 E0.05037
G1 X0.283 Y-19.230 F15000.000
G1 E-3.20000 F3000.00000
G1 Z0.700 F15000.000
G1 X-7.790 Y-16.259 F15000.000
G1 Z0.300 F15000.000
G1 E3.20000 F3000.00000
G1 X-7.541 Y-15.650 E0.05073 F600.000
G1 X-7.456 Y-15.000 E0.05049
G1 X-7.540 Y-14.350 E0.05049
G1 X-7.790 Y-13.741 E0.05073
G1 X-8.205 Y-13.197 E0.05274
G1 X-8.728 Y-12.797 E0.05074
G1 X-9.322 Y-12.549 E0.04959
G1 X-9.995 Y-12.455 E0.05242
G1 X-10.650 Y-12.541 E0.05085
G1 X-11.259 Y-12.790 E0.05073
G1 X-11.803 Y-13.205 E0.05273
G1 X-12.203 Y-13.728 E0.05074
G1 X-12.451 Y-14.322 E0.04959
G1 X-12.545 Y-15.000 E0.05278
G1 X-12.451 Y-15.678 E0.05278
G1 X-12.203 Y-16.272 E0.04959
G1 X-11.803 Y-16.795 E0.05074
G1 X-11.259 Y-17.210 E0.05273
G1 X-10.651 Y-17.459 E0.05064
G1 X-10.010 Y-17.544 E0.04979 F600.000
G1 X-9.324 Y-17.452 E0.05336
G1 X-8.728 Y-17.203 E0.04979
G1 X-8.205 Y-16.803 E0.05074
G1 X-7.826 Y-16.307 E0.04811
G1 X-8.346 Y-15.940 F15000.000
G1 X-8.160 Y-15.486 E0.03786 F600.000
G1 X-8.097 Y-15.000 E0.03774
G1 X-8.160 Y-14.514 E0.03774
G1 X-8.346 Y-14.060 E0.03786
G1 X-8.658 Y-13.650 E0.03968
G1 X-9.048 Y-13.352 E0.03783
G1 X-9.491 Y-13.168 E0.03693
G1 X-9.998 Y-13.097 E0.03950
G1 X-10.486 Y-13.160 E0.03787
G1 X-10.940 Y-13.346 E0.03786
G1 X-11.350 Y-13.658 E0.03968
G1 X-11.648 Y-14.048 E0.03783
G1 X-11.832 Y-14.491 E0.03693
G1 X-11.903 Y-15.000 E0.03963
G1 X-11.832 Y-15.509 E0.03963
G1 X-11.648 Y-15.952 E0.03693
G1 X-11.350 Y-16.342 E0.03783
G1 X-10.940 Y-16.654 E0.03968
G1 X-10.486 Y-16.840 E0.03783
G1 X-10.011 Y-16.903 E0.03693 F600.000
G1 X-9.492 Y-16.833 E0.04039
G1 X-9.048 Y-16.648 E0.03700
G1 X-8.658 Y-16.350 E0.03783
G1 X-8.382 Y-15.988 E0.03506
G1 X-7.947 Y-15.921 F15000.000
G1 E-3.20000 F3000.00000
G1 Z0.700 F15000.000
G1 X-18.964 Y-6.889 F15000.000
G1 Z0.300 F15000.000
G1 E3.20000 F3000.00000
G1 X-18.964 Y-24.964 E1.39301 F720.000
G1 X18.964 Y-24.964 E2.92300 F720.000
G1 X18.964 Y24.964 E3.84778
G1 X-18.964 Y24.964 E2.92300
G1 X-18.964 Y-6.829 E2.45015
G1 X-19.600 Y-6.829 F15000.000
G1 X-19.600 Y-25.600 E1.44662 F720.000
G1 X19.600 Y-25.600 E3.02097
G1 X19.600 Y25.600 E3.94575
G1 X-19.600 Y25.600 E3.02097 F720.000
G1 X-19.600 Y-6.769 E2.49451
G1 X-19.254 Y-7.029 F15000.000
G1 X-12.842 Y-14.195 F15000.000
G1 X-18.579 Y-19.932 E0.62743 F960.000
G1 X-18.579 Y-19.030 E0.06976
G1 X18.579 Y18.128 E4.06400
G1 X18.579 Y19.030 E0.06976
G1 X-18.579 Y-18.128 E4.06400
G1 X-18.579 Y-17.226 E0.06976
G1 X10.804 Y12.157 E3.21369
G1 X9.848 Y12.103 E0.07411
G1 X-18.579 Y-16.324 E3.10905
G1 X-18.579 Y-15.422 E0.06976
G1 X9.110 Y12.267 E3.02832
G1 X8.499 Y12.558 E0.05234
G1 X-18.579 Y-14.520 E2.96150
G1 X-18.579 Y-13.618 E0.06976
G1 X7.987 Y12.948 E2.90554
G1 X7.590 Y13.453 E0.04968
G1 X-18.579 Y-12.715 E2.86211
G1 X-18.579 Y-11.813 E0.06976
G1 X7.288 Y14.054 E2.82914
G1 X7.114 Y14.781 E0.05785
G1 X-18.579 Y-10.911 E2.81003
G1 X-18.579 Y-10.009 E0.06976
G1 X7.145 Y15.715 E2.81349
G1 X9.289 Y17.859 F15000.000
G1 X16.009 Y24.579 E0.73498 F960.000
G1 X16.911 Y24.579 E0.06976
G1 X10.220 Y17.888 E0.73184
G1 X10.945 Y17.711 E0.05773
G1 X17.813 Y24.579 E0.75118
G1 X18.579 Y24.442 E0.06014
G1 X11.545 Y17.409 E0.76929
G1 X12.053 Y17.014 E0.04971
G1 X18.579 Y23.540 E0.71379
G1 X18.579 Y22.638 E0.06976
G1 X12.444 Y16.503 E0.67103
G1 X12.734 Y15.892 E0.05235
G1 X18.579 Y21.736 E0.63924
G1 X18.579 Y20.834 E0.06976
G1 X12.896 Y15.151 E0.62157
G1 X12.847 Y14.200 E0.07361
G1 X18.579 Y19.932 E0.62687
G1 X15.107 Y24.579 F15000.000
G1 X-18.579 Y-9.107 E3.68429 F960.000
G1 X-18.579 Y-8.205 E0.06976
G1 X14.205 Y24.579 E3.58563
G1 X13.303 Y24.579 E0.06976
G1 X-18.579 Y-7.303 E3.48697
G1 X-18.579 Y-6.401 E0.06976
G1 X12.401 Y24.579 E3.38831
G1 X11.499 Y24.579 E0.06976
G1 X-18.579 Y-5.499 E3.28965
G1 X-18.579 Y-4.597 E0.06976
G1 X10.597 Y24.579 E3.19099
G1 X9.695 Y24.579 E0.06976
G1 X-18.579 Y-3.695 E3.09233
G1 X-18.579 Y-2.793 E0.06976
G1 X8.793 Y24.579 E2.99367
G1 X7.891 Y24.579 E0.06976
G1 X-18.579 Y-1.891 E2.89501
G1 X-18.579 Y-0.989 E0.06976
G1 X6.989 Y24.579 E2.79635
G1 X6.087 Y24.579 E0.06976
G1 X1.350 Y19.843 E0.51802
G1 X1.484 Y20.878 E0.08075
G1 X5.184 Y24.579 E0.40476
G1 X4.282 Y24.579 E0.06976
G1 X1.378 Y21.675 E0.31762
G1 X1.167 Y22.366 E0.05588
G1 X3.380 Y24.579 E0.24204
G1 X2.478 Y24.579 E0.06976
G1 X0.879 Y22.980 E0.17488
G1 X0.501 Y23.503 E0.04996
G1 X1.576 Y24.579 E0.11765
G1 X0.674 Y24.579 E0.06976
G1 X0.046 Y23.951 E0.06870
G1 X-4.738 Y24.579 F15000.000
G1 X-18.579 Y10.738 E1.51377 F960.000
G1 X-18.579 Y11.640 E0.06976
G1 X-5.640 Y24.579 E1.41511
G1 X-6.542 Y24.579 E0.06976
G1 X-18.579 Y12.542 E1.31645
G1 X-18.579 Y13.445 E0.06976
G1 X-7.445 Y24.579 E1.21779
G1 X-8.347 Y24.579 E0.06976
G1 X-18.579 Y14.347 E1.11913
G1 X-18.579 Y15.249 E0.06976
G1 X-9.249 Y24.579 E1.02047
G1 X-10.151 Y24.579 E0.06976
G1 X-18.579 Y16.151 E0.92180
G1 X-18.579 Y17.053 E0.06976
G1 X-11.053 Y24.579 E0.82314
G1 X-11.955 Y24.579 E0.06976
G1 X-18.579 Y17.955 E0.72448
G1 X-18.579 Y18.857 E0.06976
G1 X-12.857 Y24.579 E0.62582
G1 X-13.759 Y24.579 E0.06976
G1 X-18.579 Y19.759 E0.52716
G1 X-18.579 Y20.661 E0.06976
G1 X-14.661 Y24.579 E0.42850
G1 X-15.563 Y24.579 E0.06976
G1 X-18.579 Y21.563 E0.32984
G1 X-18.579 Y22.465 E0.06976
G1 X-16.465 Y24.579 E0.23118
G1 X-17.367 Y24.579 E0.06976
G1 X-18.579 Y23.367 E0.13252
G1 X-18.579 Y24.269 E0.06976
G1 X-18.269 Y24.579 E0.03386
G1 X-10.533 Y17.882 F15000.000
G1 X-6.338 Y22.077 E0.45884 F960.000
G1 X-6.452 Y21.061 E0.07911
G1 X-9.643 Y17.870 E0.34898
G1 X-8.945 Y17.666 E0.05625
G1 X-6.358 Y20.253 E0.28293
G1 X-6.154 Y19.555 E0.05624
G1 X-8.367 Y17.342 E0.24205
G1 X-7.880 Y16.927 E0.04948
G1 X-5.835 Y18.972 E0.22368
G1 X-5.453 Y18.452 E0.04990
G1 X-7.489 Y16.415 E0.22271
G1 X-7.220 Y15.783 E0.05319
G1 X-5.016 Y17.987 E0.24110
G1 X-4.470 Y17.630 E0.05040
G1 X-7.085 Y15.015 E0.28600
G1 X-7.203 Y13.995 E0.07942
G1 X-3.871 Y17.328 E0.36451
G1 X-3.192 Y17.105 E0.05526
G1 X-18.579 Y1.718 E1.68291
G1 X-18.579 Y2.620 E0.06976
G1 X-9.000 Y12.198 E1.04763
G1 X-10.016 Y12.085 E0.07906
G1 X-18.579 Y3.522 E0.93653
G1 X-18.579 Y4.424 E0.06976
G1 X-10.782 Y12.221 E0.85275
G1 X-11.414 Y12.491 E0.05314
G1 X-18.579 Y5.326 E0.78366
G1 X-18.579 Y6.228 E0.06976
G1 X-11.925 Y12.881 E0.72770
G1 X-12.343 Y13.366 E0.04946
G1 X-18.579 Y7.130 E0.68201
G1 X-18.579 Y8.032 E0.06976
G1 X-12.666 Y13.945 E0.64669
G1 X-12.867 Y14.646 E0.05639
G1 X-18.579 Y8.934 E0.62468
G1 X-18.579 Y9.836 E0.06976
G1 X-12.880 Y15.535 E0.62332
G1 E-3.20000 F3000.00000
G1 Z0.700 F15000.000
G1 X-2.356 Y17.038 F15000.000
G1 Z0.300 F15000.000
G1 E3.20000 F3000.00000
G1 X-18.579 Y0.816 E1.77431 F960.000
G1 X-18.579 Y-0.087 E0.06976
G1 X-1.310 Y17.183 E1.88875
G1 X-10.800 Y-12.153 F15000.000
G1 X18.579 Y17.226 E3.21316 F960.000
G1 X18.579 Y16.324 E0.06976
G1 X-9.849 Y-12.104 E3.10920
G1 X-9.109 Y-12.266 E0.05862
G1 X18.579 Y15.422 E3.02821
G1 X18.579 Y14.520 E0.06976
G1 X-8.497 Y-12.556 E2.96134
G1 X-7.986 Y-12.947 E0.04977
G1 X18.579 Y13.618 E2.90544
G1 X18.579 Y12.716 E0.06976
G1 X-7.591 Y-13.455 E2.86228
G1 X-7.289 Y-14.055 E0.05195
G1 X18.579 Y11.813 E2.82924
G1 X18.579 Y10.911 E0.06976
G1 X-7.112 Y-14.780 E2.80989
G1 X-7.141 Y-15.711 E0.07202
G1 X18.579 Y10.009 E2.81303
G1 X18.579 Y9.107 E0.06976
G1 X-15.107 Y-24.579 E3.68430
G1 X-14.205 Y-24.579 E0.06976
G1 X18.579 Y8.205 E3.58564
G1 X18.579 Y7.303 E0.06976
G1 X-13.303 Y-24.579 E3.48698
G1 X-12.401 Y-24.579 E0.06976
G1 X18.579 Y6.401 E3.38832
G1 X18.579 Y5.499 E0.06976
