; generated by Slic3r 1.2.9 on 2017-02-15 at 10:56:30

; external perimeters extrusion width = 0.40mm
; perimeters extrusion width = 0.40mm
; infill extrusion width = 0.40mm
; solid infill extrusion width = 0.40mm
; top infill extrusion width = 0.40mm

M107
M83
T0
M116
G21 ; set units to millimeters
G90 ; use absolute coordinates
M83 ; use relative distances for extrusion
G1 E-3.20000 F3000.00000
G1 Z0.400 F15000.000
G1 X13.586 Y0.000 F15000.000
G1 Z0.300 F15000.000
G1 E3.20000 F3000.00000
G1 X13.586 Y9.950 E0.76680 F960.000
G1 X13.191 Y11.597 E0.13052
G1 X12.093 Y12.887 E0.13052
G1 X9.950 Y13.586 E0.17373
G1 X-9.950 Y13.586 E1.53360
G1 X-11.597 Y13.191 E0.13052
G1 X-12.887 Y12.093 E0.13052
G1 X-13.586 Y9.950 E0.17373
G1 X-13.586 Y-9.950 E1.53360
G1 X-13.191 Y-11.597 E0.13052
G1 X-12.093 Y-12.887 E0.13052
G1 X-9.950 Y-13.586 E0.17373
G1 X9.950 Y-13.586 E1.53360
G1 X11.597 Y-13.191 E0.13052
G1 X12.887 Y-12.093 E0.13052 F960.000
G1 X13.586 Y-9.950 E0.17373
G1 X13.586 Y-0.060 E0.76218
G1 E-3.20000 F3000.00000
G1 Z0.700 F15000.000
G1 X-8.964 Y-5.898 F15000.000
G1 Z0.300 F15000.000
G1 E3.20000 F3000.00000
G1 X-8.964 Y-8.964 E0.23630 F720.000
G1 X8.964 Y-8.964 E1.38169
G1 X8.964 Y8.964 E1.38169
G1 X-8.964 Y8.964 E1.38169 F720.000
G1 X-8.964 Y-5.838 E1.14077
G1 X-9.600 Y-5.838 F15000.000
G1 X-9.600 Y-9.600 E0.28991 F720.000
G1 X9.600 Y-9.600 E1.47966
G1 X9.600 Y9.600 E1.47966
G1 X-9.600 Y9.600 E1.47966 F720.000
G1 X-9.600 Y-5.778 E1.18513
G1 X-9.254 Y-6.038 F15000.000
G1 X-8.269 Y8.579 F15000.000
G1 X-8.579 Y8.269 E0.03419 F960.000
G1 X-8.579 Y7.359 E0.07111
G1 X-7.359 Y8.579 E0.13475
G1 X-6.448 Y8.579 E0.07111
G1 X-8.579 Y6.448 E0.23531
G1 X-8.579 Y5.537 E0.07111
G1 X-5.537 Y8.579 E0.33587
G1 X-4.626 Y8.579 E0.07111
G1 X-8.579 Y4.626 E0.43643
G1 X-8.579 Y3.716 E0.07111
G1 X-3.716 Y8.579 E0.53700
G1 X-2.805 Y8.579 E0.07111
G1 X-8.579 Y2.805 E0.63756
G1 X-8.579 Y1.894 E0.07111
G1 X-1.894 Y8.579 E0.73812
G1 X-0.984 Y8.579 E0.07111
G1 X-8.579 Y0.984 E0.83868
G1 X-8.579 Y0.073 E0.07111
G1 X-0.073 Y8.579 E0.93924
G1 X0.838 Y8.579 E0.07111
G1 X-8.579 Y-0.838 E1.03980
G1 X-8.579 Y-1.749 E0.07111
G1 X1.749 Y8.579 E1.14036
G1 X2.659 Y8.579 E0.07111
G1 X-8.579 Y-2.659 E1.24092
G1 X-8.579 Y-3.570 E0.07111
G1 X3.570 Y8.579 E1.34148
G1 X4.481 Y8.579 E0.07111
G1 X-8.579 Y-4.481 E1.44204
G1 X-8.579 Y-5.391 E0.07111
G1 X5.391 Y8.579 E1.54261
G1 X6.302 Y8.579 E0.07111
G1 X-8.579 Y-6.302 E1.64317
G1 X-8.579 Y-7.213 E0.07111
G1 X7.213 Y8.579 E1.74373
G1 X8.124 Y8.579 E0.07111
G1 X-8.579 Y-8.124 E1.84429
G1 X-8.124 Y-8.579 E0.05028
G1 X8.579 Y8.124 E1.84429
G1 X8.579 Y7.213 E0.07111
G1 X-7.213 Y-8.579 E1.74373
G1 X-6.302 Y-8.579 E0.07111
G1 X8.579 Y6.302 E1.64317
G1 X8.579 Y5.391 E0.07111
G1 X-5.391 Y-8.579 E1.54261
G1 X-4.481 Y-8.579 E0.07111
G1 X8.579 Y4.481 E1.44205
G1 X8.579 Y3.570 E0.07111
G1 X-3.570 Y-8.579 E1.34149
G1 X-2.659 Y-8.579 E0.07111
G1 X8.579 Y2.659 E1.24093
G1 X8.579 Y1.749 E0.07111
G1 X-1.749 Y-8.579 E1.14036
G1 X-0.838 Y-8.579 E0.07111
G1 X8.579 Y0.838 E1.03980
G1 X8.579 Y-0.073 E0.07111
G1 X0.073 Y-8.579 E0.93924
G1 X0.984 Y-8.579 E0.07111
G1 X8.579 Y-0.984 E0.83868
G1 X8.579 Y-1.894 E0.07111
G1 X1.894 Y-8.579 E0.73812
G1 X2.805 Y-8.579 E0.07111
G1 X8.579 Y-2.805 E0.63756
G1 X8.579 Y-3.716 E0.07111
G1 X3.716 Y-8.579 E0.53700
G1 X4.626 Y-8.579 E0.07111
G1 X8.579 Y-4.626 E0.43644
G1 X8.579 Y-5.537 E0.07111
G1 X5.537 Y-8.579 E0.33588
G1 X6.448 Y-8.579 E0.07111
G1 X8.579 Y-6.448 E0.23532
G1 X8.579 Y-7.359 E0.07111
G1 X7.359 Y-8.579 E0.13475
G1 X8.269 Y-8.579 E0.07111
G1 X8.579 Y-8.269 E0.03419
G1 E-3.20000 F3000.00000
G1 Z0.700 F15000.000
G1 X-9.393 Y-3.561 F15000.000
G1 Z0.500 F15000.000
G1 E3.20000 F3000.00000
G1 X-9.393 Y-9.393 E0.16834 F2400.000
G1 X9.393 Y-9.393 E0.54221
G1 X9.393 Y9.393 E0.54221
G1 X-9.393 Y9.393 E0.54221 F2400.000
G1 X-9.393 Y-3.501 E0.37214
G1 X-9.750 Y-3.501 F15000.000
G1 X-9.750 Y-9.750 E0.18037 F2400.000
G1 X9.750 Y-9.750 E0.56282
G1 X9.750 Y9.750 E0.56282
G1 X-9.750 Y9.750 E0.56282 F2400.000
G1 X-9.750 Y-3.441 E0.38072
G1 X-9.404 Y-3.701 F15000.000
G1 X-9.185 Y-8.994 F15000.000
G1 X-8.994 Y-9.185 E0.00792 F2400.000
G1 X-8.482 Y-9.185 E0.01499
G1 X-9.185 Y-8.482 E0.02912
G1 X-9.185 Y-7.970 E0.01499
G1 X-7.970 Y-9.185 E0.05032
G1 X-7.457 Y-9.185 E0.01499
G1 X-9.185 Y-7.457 E0.07151
G1 X-9.185 Y-6.945 E0.01499
G1 X-6.945 Y-9.185 E0.09271
G1 X-6.433 Y-9.185 E0.01499
G1 X-9.185 Y-6.433 E0.11390
G1 X-9.185 Y-5.921 E0.01499
G1 X-5.921 Y-9.185 E0.13510
G1 X-5.409 Y-9.185 E0.01499
G1 X-9.185 Y-5.409 E0.15629
G1 X-9.185 Y-4.897 E0.01499
G1 X-4.897 Y-9.185 E0.17749
G1 X-4.385 Y-9.185 E0.01499
G1 X-9.185 Y-4.385 E0.19869
G1 X-9.185 Y-3.873 E0.01499
G1 X-3.873 Y-9.185 E0.21988
G1 X-3.361 Y-9.185 E0.01499
G1 X-9.185 Y-3.361 E0.24108
G1 X-9.185 Y-2.849 E0.01499
G1 X-2.849 Y-9.185 E0.26227
G1 X-2.337 Y-9.185 E0.01499
G1 X-9.185 Y-2.337 E0.28347
G1 X-9.185 Y-1.825 E0.01499
G1 X-1.825 Y-9.185 E0.30466
G1 X-1.313 Y-9.185 E0.01499
G1 X-9.185 Y-1.313 E0.32586
G1 X-9.185 Y-0.800 E0.01499
G1 X-0.800 Y-9.185 E0.34706
G1 X-0.288 Y-9.185 E0.01499
G1 X-9.185 Y-0.288 E0.36825
G1 X-9.185 Y0.224 E0.01499
G1 X0.224 Y-9.185 E0.38945
G1 X0.736 Y-9.185 E0.01499
G1 X-9.185 Y0.736 E0.41064
G1 X-9.185 Y1.248 E0.01499
G1 X1.248 Y-9.185 E0.43184
G1 X1.760 Y-9.185 E0.01499
G1 X-9.185 Y1.760 E0.45303
G1 X-9.185 Y2.272 E0.01499
G1 X2.272 Y-9.185 E0.47423
G1 X2.784 Y-9.185 E0.01499
G1 X-9.185 Y2.784 E0.49543
G1 X-9.185 Y3.296 E0.01499
G1 X3.296 Y-9.185 E0.51662
G1 X3.808 Y-9.185 E0.01499
G1 X-9.185 Y3.808 E0.53782
G1 X-9.185 Y4.320 E0.01499
G1 X4.320 Y-9.185 E0.55901
G1 X4.832 Y-9.185 E0.01499
G1 X-9.185 Y4.832 E0.58021
G1 X-9.185 Y5.345 E0.01499
G1 X5.345 Y-9.185 E0.60141
G1 X5.857 Y-9.185 E0.01499
G1 X-9.185 Y5.857 E0.62260
G1 X-9.185 Y6.369 E0.01499
G1 X6.369 Y-9.185 E0.64380
G1 X6.881 Y-9.185 E0.01499
G1 X-9.185 Y6.881 E0.66499
G1 X-9.185 Y7.393 E0.01499
G1 X7.393 Y-9.185 E0.68619
G1 X7.905 Y-9.185 E0.01499
G1 X-9.185 Y7.905 E0.70738
G1 X-9.185 Y8.417 E0.01499
G1 X8.417 Y-9.185 E0.72858
G1 X8.929 Y-9.185 E0.01499
G1 X-9.185 Y8.929 E0.74978
G1 X-8.929 Y9.185 E0.01060
G1 X9.185 Y-8.929 E0.74978
G1 X9.185 Y-8.417 E0.01499
G1 X-8.417 Y9.185 E0.72858
G1 X-7.905 Y9.185 E0.01499
G1 X9.185 Y-7.905 E0.70739
G1 X9.185 Y-7.393 E0.01499
G1 X-7.393 Y9.185 E0.68619
G1 X-6.881 Y9.185 E0.01499
G1 X9.185 Y-6.881 E0.66499
G1 X9.185 Y-6.369 E0.01499
G1 X-6.369 Y9.185 E0.64380
G1 X-5.857 Y9.185 E0.01499
G1 X9.185 Y-5.857 E0.62260
G1 X9.185 Y-5.345 E0.01499
G1 X-5.345 Y9.185 E0.60141
G1 X-4.833 Y9.185 E0.01499
G1 X9.185 Y-4.833 E0.58021
G1 X9.185 Y-4.320 E0.01499
G1 X-4.320 Y9.185 E0.55902
G1 X-3.808 Y9.185 E0.01499
G1 X9.185 Y-3.808 E0.53782
G1 X9.185 Y-3.296 E0.01499
G1 X-3.296 Y9.185 E0.51662
G1 X-2.784 Y9.185 E0.01499
G1 X9.185 Y-2.784 E0.49543
G1 X9.185 Y-2.272 E0.01499
G1 X-2.272 Y9.185 E0.47423
G1 X-1.760 Y9.185 E0.01499
G1 X9.185 Y-1.760 E0.45304
G1 X9.185 Y-1.248 E0.01499
G1 X-1.248 Y9.185 E0.43184
G1 X-0.736 Y9.185 E0.01499
G1 X9.185 Y-0.736 E0.41065
G1 X9.185 Y-0.224 E0.01499
G1 X-0.224 Y9.185 E0.38945
G1 X0.288 Y9.185 E0.01499
G1 X9.185 Y0.288 E0.36825
G1 X9.185 Y0.800 E0.01499
G1 X0.800 Y9.185 E0.34706
G1 X1.312 Y9.185 E0.01499
G1 X9.185 Y1.312 E0.32586
G1 X9.185 Y1.825 E0.01499
G1 X1.825 Y9.185 E0.30467
G1 X2.337 Y9.185 E0.01499
G1 X9.185 Y2.337 E0.28347
G1 X9.185 Y2.849 E0.01499
G1 X2.849 Y9.185 E0.26228
G1 X3.361 Y9.185 E0.01499
G1 X9.185 Y3.361 E0.24108
G1 X9.185 Y3.873 E0.01499
G1 X3.873 Y9.185 E0.21988
G1 X4.385 Y9.185 E0.01499
G1 X9.185 Y4.385 E0.19869
G1 X9.185 Y4.897 E0.01499
G1 X4.897 Y9.185 E0.17749
G1 X5.409 Y9.185 E0.01499
G1 X9.185 Y5.409 E0.15630
G1 X9.185 Y5.921 E0.01499
G1 X5.921 Y9.185 E0.13510
G1 X6.433 Y9.185 E0.01499
G1 X9.185 Y6.433 E0.11391
G1 X9.185 Y6.945 E0.01499
G1 X6.945 Y9.185 E0.09271
G1 X7.457 Y9.185 E0.01499
G1 X9.185 Y7.457 E0.07151
G1 X9.185 Y7.970 E0.01499
G1 X7.970 Y9.185 E0.05032
G1 X8.482 Y9.185 E0.01499
G1 X9.185 Y8.482 E0.02912
G1 X9.185 Y8.994 E0.01499
G1 X8.994 Y9.185 E0.00793
G1 E-3.20000 F3000.00000
G1 Z0.900 F15000.000
G1 X9.393 Y-5.650 F15000.000
G1 Z0.700 F15000.000
G1 E3.20000 F3000.00000
G1 X9.393 Y9.393 E0.43417 F2400.000
G1 X-9.393 Y9.393 E0.54221 F2400.000
G1 X-9.393 Y-9.393 E0.54221
G1 X9.393 Y-9.393 E0.54221
G1 X9.393 Y-5.710 E0.10630
G1 X9.750 Y-5.710 F15000.000
G1 X9.750 Y9.750 E0.44621 F2400.000
G1 X-9.750 Y9.750 E0.56282 F2400.000
G1 X-9.750 Y-9.750 E0.56282
G1 X9.750 Y-9.750 E0.56282
G1 X9.750 Y-5.770 E0.11488
G1 X9.404 Y-5.510 F15000.000
G1 X9.185 Y-9.003 F15000.000
G1 X8.995 Y-9.185 E0.00762 F2400.000
G1 X6.474 Y-9.185 E0.07274
G1 X9.185 Y-6.474 E0.11065
G1 X9.185 Y-4.458 E0.05821
G1 X3.314 Y-9.185 E0.21757
G1 X1.425 Y-9.185 E0.05453
G1 X9.185 Y-1.425 E0.31677
G1 X9.185 Y0.087 E0.04364
G1 X-2.367 Y-9.185 E0.42756
G1 X-3.625 Y-9.185 E0.03631
G1 X9.185 Y3.625 E0.52290
G1 X9.185 Y4.632 E0.02906
G1 X-8.048 Y-9.185 E0.63754
G1 X-8.675 Y-9.185 E0.01809
G1 X9.185 Y8.675 E0.72902
G1 X9.171 Y9.166 E0.01416
G1 X-9.185 Y-5.550 E0.67902
G1 X-9.185 Y-4.645 E0.02610
G1 X4.645 Y9.185 E0.56453
G1 X3.514 Y9.185 E0.03265
G1 X-9.185 Y-1.005 E0.46994
G1 X-9.185 Y0.405 E0.04068
G1 X-0.405 Y9.185 E0.35841
G1 X-2.167 Y9.185 E0.05087
G1 X-9.185 Y3.540 E0.25996
G1 X-9.185 Y5.454 E0.05525
G1 X-5.454 Y9.185 E0.15228
G1 X-7.848 Y9.185 E0.06908
G1 X-9.185 Y8.085 E0.04998
M106 S255
G1 E-3.20000 F3000.00000
G1 Z1.100 F15000.000
G1 X1.011 Y9.393 F15000.000
G1 Z0.900 F15000.000
G1 E3.20000 F3000.00000
G1 X-9.393 Y9.393 E0.30028 F2400.000
G1 X-9.393 Y-9.393 E0.54221
G1 X9.393 Y-9.393 E0.54221
G1 X9.393 Y9.393 E0.54221
G1 X1.071 Y9.393 E0.24020 F2400.000
G1 X1.071 Y9.750 F15000.000
G1 X-9.750 Y9.750 E0.31231 F2400.000
G1 X-9.750 Y-9.750 E0.56282
G1 X9.750 Y-9.750 E0.56282
G1 X9.750 Y9.750 E0.56282
G1 X1.131 Y9.750 E0.24878 F2400.000
G1 X0.871 Y9.404 F15000.000
G1 X9.003 Y9.185 F15000.000
G1 X9.185 Y8.995 E0.00762 F2400.000
G1 X9.185 Y6.474 E0.07274
G1 X6.474 Y9.185 E0.11065
G1 X4.458 Y9.185 E0.05821
G1 X9.185 Y3.314 E0.21757
G1 X9.185 Y1.425 E0.05453
G1 X1.425 Y9.185 E0.31677
G1 X-0.087 Y9.185 E0.04364
G1 X9.185 Y-2.367 E0.42756
G1 X9.185 Y-3.625 E0.03631
G1 X-3.625 Y9.185 E0.52290
G1 X-4.632 Y9.185 E0.02906
G1 X9.185 Y-8.048 E0.63754
G1 X9.185 Y-8.675 E0.01809
G1 X-8.675 Y9.185 E0.72902
G1 X-9.166 Y9.171 E0.01416
G1 X5.550 Y-9.185 E0.67902
G1 X4.645 Y-9.185 E0.02610
G1 X-9.185 Y4.645 E0.56453
G1 X-9.185 Y3.514 E0.03265
G1 X1.005 Y-9.185 E0.46994
G1 X-0.405 Y-9.185 E0.04068
G1 X-9.185 Y-0.405 E0.35841
G1 X-9.185 Y-2.167 E0.05087
G1 X-3.540 Y-9.185 E0.25996
G1 X-5.454 Y-9.185 E0.05525
G1 X-9.185 Y-5.454 E0.15228
G1 X-9.185 Y-7.848 E0.06908
G1 X-8.085 Y-9.185 E0.04998
G1 E-3.20000 F3000.00000
G1 Z1.300 F15000.000
G1 X-9.393 Y-3.062 F15000.000
G1 Z1.100 F15000.000
G1 E3.20000 F3000.00000
G1 X-9.393 Y-9.393 E0.18272 F2400.000
G1 X9.393 Y-9.393 E0.54221
G1 X9.393 Y9.393 E0.54221
G1 X-9.393 Y9.393 E0.54221 F2400.000
G1 X-9.393 Y-3.002 E0.35776
G1 X-9.750 Y-3.002 F15000.000
G1 X-9.750 Y-9.750 E0.19476 F2400.000
G1 X9.750 Y-9.750 E0.56282
G1 X9.750 Y9.750 E0.56282
G1 X-9.750 Y9.750 E0.56282 F2400.000
G1 X-9.750 Y-2.942 E0.36633
G1 X-9.404 Y-3.202 F15000.000
G1 X-9.185 Y8.085 F15000.000
G1 X-7.848 Y9.185 E0.04998 F2400.000
G1 X-5.454 Y9.185 E0.06908
G1 X-9.185 Y5.454 E0.15228
G1 X-9.185 Y3.540 E0.05525
G1 X-2.167 Y9.185 E0.25996
G1 X-0.405 Y9.185 E0.05087
G1 X-9.185 Y0.405 E0.35841
G1 X-9.185 Y-1.005 E0.04068
G1 X3.514 Y9.185 E0.46994
G1 X4.645 Y9.185 E0.03265
G1 X-9.185 Y-4.645 E0.56453
G1 X-9.185 Y-5.550 E0.02610
G1 X9.171 Y9.166 E0.67902
G1 X9.185 Y8.675 E0.01416
G1 X-8.675 Y-9.185 E0.72902
G1 X-8.048 Y-9.185 E0.01809
G1 X9.185 Y4.632 E0.63754
G1 X9.185 Y3.625 E0.02906
G1 X-3.625 Y-9.185 E0.52290
G1 X-2.367 Y-9.185 E0.03631
G1 X9.185 Y0.087 E0.42756
G1 X9.185 Y-1.425 E0.04364
G1 X1.425 Y-9.185 E0.31677
G1 X3.314 Y-9.185 E0.05453
G1 X9.185 Y-4.458 E0.21757
G1 X9.185 Y-6.474 E0.05821
G1 X6.474 Y-9.185 E0.11065
G1 X8.995 Y-9.185 E0.07274
G1 X9.185 Y-9.003 E0.00762
G1 E-3.20000 F3000.00000
G1 Z1.500 F15000.000
G1 X-1.639 Y9.393 F15000.000
G1 Z1.300 F15000.000
G1 E3.20000 F3000.00000
G1 X-9.393 Y9.393 E0.22379 F2400.000
G1 X-9.393 Y-9.393 E0.54221
G1 X9.393 Y-9.393 E0.54221
G1 X9.393 Y9.393 E0.54221
G1 X-1.579 Y9.393 E0.31668 F2400.000
G1 X-1.579 Y9.750 F15000.000
G1 X-9.750 Y9.750 E0.23583 F2400.000
G1 X-9.750 Y-9.750 E0.56282
G1 X9.750 Y-9.750 E0.56282
G1 X9.750 Y9.750 E0.56282
G1 X-1.519 Y9.750 E0.32526 F2400.000
G1 X-1.779 Y9.404 F15000.000
G1 X9.003 Y9.185 F15000.000
G1 X9.185 Y8.995 E0.00762 F2400.000
G1 X9.185 Y6.474 E0.07274
G1 X6.474 Y9.185 E0.11065
G1 X4.458 Y9.185 E0.05821
G1 X9.185 Y3.314 E0.21757
G1 X9.185 Y1.425 E0.05453
G1 X1.425 Y9.185 E0.31677
G1 X-0.087 Y9.185 E0.04364
G1 X9.185 Y-2.367 E0.42756
G1 X9.185 Y-3.625 E0.03631
G1 X-3.625 Y9.185 E0.52290
G1 X-4.632 Y9.185 E0.02906
G1 X9.185 Y-8.048 E0.63754
G1 X9.185 Y-8.675 E0.01809
G1 X-8.675 Y9.185 E0.72902
G1 X-9.166 Y9.171 E0.01416
G1 X5.550 Y-9.185 E0.67902
G1 X4.645 Y-9.185 E0.02610
G1 X-9.185 Y4.645 E0.56453
G1 X-9.185 Y3.514 E0.03265
G1 X1.005 Y-9.185 E0.46994
G1 X-0.405 Y-9.185 E0.04068
G1 X-9.185 Y-0.405 E0.35841
G1 X-9.185 Y-2.167 E0.05087
G1 X-3.540 Y-9.185 E0.25996
G1 X-5.454 Y-9.185 E0.05525
G1 X-9.185 Y-5.454 E0.15228
G1 X-9.185 Y-7.848 E0.06908
G1 X-8.085 Y-9.185 E0.04998
G1 E-3.20000 F3000.00000
G1 Z1.700 F15000.000
G1 X6.290 Y9.393 F15000.000
G1 Z1.500 F15000.000
G1 E3.20000 F3000.00000
G1 X-9.393 Y9.393 E0.45266 F2400.000
G1 X-9.393 Y-9.393 E0.54221
G1 X9.393 Y-9.393 E0.54221
G1 X9.393 Y9.393 E0.54221
G1 X6.350 Y9.393 E0.08782 F2400.000
G1 X6.350 Y9.750 F15000.000
G1 X-9.750 Y9.750 E0.46470 F2400.000
G1 X-9.750 Y-9.750 E0.56282
G1 X9.750 Y-9.750 E0.56282
G1 X9.750 Y9.750 E0.56282
G1 X6.410 Y9.750 E0.09639 F2400.000
G1 X6.150 Y9.404 F15000.000
G1 X-9.185 Y8.085 F15000.000
G1 X-7.848 Y9.185 E0.04998 F2400.000
G1 X-5.454 Y9.185 E0.06908
G1 X-9.185 Y5.454 E0.15228
G1 X-9.185 Y3.540 E0.05525
G1 X-2.167 Y9.185 E0.25996
G1 X-0.405 Y9.185 E0.05087
G1 X-9.185 Y0.405 E0.35841
G1 X-9.185 Y-1.005 E0.04068
G1 X3.514 Y9.185 E0.46994
G1 X4.645 Y9.185 E0.03265
G1 X-9.185 Y-4.645 E0.56453
G1 X-9.185 Y-5.550 E0.02610
G1 X9.171 Y9.166 E0.67902
G1 X9.185 Y8.675 E0.01416
G1 X-8.675 Y-9.185 E0.72902
G1 X-8.048 Y-9.185 E0.01809
G1 X9.185 Y4.632 E0.63754
G1 X9.185 Y3.625 E0.02906
G1 X-3.625 Y-9.185 E0.52290
G1 X-2.367 Y-9.185 E0.03631
G1 X9.185 Y0.087 E0.42756
G1 X9.185 Y-1.425 E0.04364
G1 X1.425 Y-9.185 E0.31677
G1 X3.314 Y-9.185 E0.05453
G1 X9.185 Y-4.458 E0.21757
G1 X9.185 Y-6.474 E0.05821
G1 X6.474 Y-9.185 E0.11065
G1 X8.995 Y-9.185 E0.07274
G1 X9.185 Y-9.003 E0.00762
G1 E-3.20000 F3000.00000
G1 Z1.900 F15000.000
G1 X-9.393 Y3.807 F15000.000
G1 Z1.700 F15000.000
G1 E3.20000 F3000.00000
G1 X-9.393 Y-9.393 E0.38099 F2400.000
G1 X9.393 Y-9.393 E0.54221
G1 X9.393 Y9.393 E0.54221
G1 X-9.393 Y9.393 E0.54221 F2400.000
G1 X-9.393 Y3.867 E0.15949
G1 X-9.750 Y3.867 F15000.000
G1 X-9.750 Y-9.750 E0.39303 F2400.000
G1 X9.750 Y-9.750 E0.56282
G1 X9.750 Y9.750 E0.56282
G1 X-9.750 Y9.750 E0.56282 F2400.000
G1 X-9.750 Y3.927 E0.16807
G1 X-9.404 Y3.667 F15000.000
G1 X-8.085 Y-9.185 F15000.000
G1 X-9.185 Y-7.848 E0.04998 F2400.000
G1 X-9.185 Y-5.454 E0.06908
G1 X-5.454 Y-9.185 E0.15228
G1 X-3.540 Y-9.185 E0.05525
G1 X-9.185 Y-2.167 E0.25996
G1 X-9.185 Y-0.405 E0.05087
G1 X-0.405 Y-9.185 E0.35841
G1 X1.005 Y-9.185 E0.04068
G1 X-9.185 Y3.514 E0.46994
G1 X-9.185 Y4.645 E0.03265
G1 X4.645 Y-9.185 E0.56453
G1 X5.550 Y-9.185 E0.02610
G1 X-9.166 Y9.171 E0.67902
G1 X-8.675 Y9.185 E0.01416
G1 X9.185 Y-8.675 E0.72902
G1 X9.185 Y-8.048 E0.01809
G1 X-4.632 Y9.185 E0.63754
G1 X-3.625 Y9.185 E0.02906
G1 X9.185 Y-3.625 E0.52290
G1 X9.185 Y-2.367 E0.03631
G1 X-0.087 Y9.185 E0.42756
G1 X1.425 Y9.185 E0.04364
G1 X9.185 Y1.425 E0.31677
G1 X9.185 Y3.314 E0.05453
G1 X4.458 Y9.185 E0.21757
G1 X6.474 Y9.185 E0.05821
G1 X9.185 Y6.474 E0.11065
G1 X9.185 Y8.995 E0.07274
G1 X9.003 Y9.185 E0.00762
G1 E-3.20000 F3000.00000
G1 Z2.100 F15000.000
G1 X-5.923 Y9.393 F15000.000
G1 Z1.900 F15000.000
G1 E3.20000 F3000.00000
G1 X-9.393 Y9.393 E0.10015 F2400.000
G1 X-9.393 Y-9.393 E0.54221
