; generated by Slic3r 1.2.9 on 2017-02-16 at 12:24:07

; external perimeters extrusion width = 0.40mm
; perimeters extrusion width = 0.40mm
; infill extrusion width = 0.40mm
; solid infill extrusion width = 0.40mm
; top infill extrusion width = 0.40mm

M107
M83
T0
M116
G21 ; set units to millimeters
G90 ; use absolute coordinates
M83 ; use relative distances for extrusion
G1 E-3.20000 F3000.00000
G1 Z0.400 F15000.000
G1 X0.000 Y19.586 F15000.000
G1 Z0.300 F15000.000
G1 E3.20000 F3000.00000
G1 X-24.700 Y19.586 E1.90352 F960.000
G1 X-26.347 Y19.191 E0.13052
G1 X-27.637 Y18.093 E0.13052
G1 X-28.336 Y15.950 E0.17373
G1 X-28.336 Y-15.950 E2.45839
G1 X-27.941 Y-17.597 E0.13052
G1 X-26.843 Y-18.887 E0.13052
G1 X-24.700 Y-19.586 E0.17373
G1 X24.700 Y-19.586 E3.80704
G1 X26.347 Y-19.191 E0.13052
G1 X27.637 Y-18.093 E0.13052 F960.000
G1 X28.336 Y-15.950 E0.17373
G1 X28.336 Y15.950 E2.45839
G1 X27.941 Y17.597 E0.13052
G1 X26.843 Y18.887 E0.13052
G1 X24.700 Y19.586 E0.17373
G1 X0.060 Y19.586 E1.89889
G1 E-3.20000 F3000.00000
G1 Z0.700 F15000.000
G1 X5.555 Y10.599 F15000.000
G1 Z0.300 F15000.000
G1 E3.20000 F3000.00000
G1 X4.589 Y9.923 E0.09089 F720.000
G1 X3.692 Y9.161 E0.09070
G1 X2.614 Y8.056 E0.11892
G1 X2.614 Y-8.056 E1.24173
G1 X3.692 Y-9.161 E0.11892
G1 X4.589 Y-9.923 E0.09070
G1 X5.555 Y-10.599 E0.09089
G1 X6.579 Y-11.181 E0.09079
G1 X7.654 Y-11.664 E0.09075
G1 X8.769 Y-12.044 E0.09084
G1 X9.925 Y-12.319 E0.09156
G1 X11.067 Y-12.481 E0.08884
G1 X12.223 Y-12.536 E0.08926 F720.000
G1 X13.418 Y-12.482 E0.09214
G1 X14.590 Y-12.316 E0.09124
G1 X15.732 Y-12.044 E0.09045
G1 X16.855 Y-11.660 E0.09147
G1 X17.919 Y-11.182 E0.08988
G1 X18.942 Y-10.601 E0.09068
G1 X19.907 Y-9.927 E0.09069
G1 X20.804 Y-9.165 E0.09069
G1 X21.886 Y-8.056 E0.11941
G1 X21.886 Y8.056 E1.24171
G1 X20.804 Y9.165 E0.11941
G1 X19.907 Y9.927 E0.09069
G1 X18.942 Y10.601 E0.09069
G1 X17.919 Y11.182 E0.09069
G1 X16.845 Y11.664 E0.09068
G1 X15.742 Y12.040 E0.08987
G1 X14.590 Y12.316 E0.09122
G1 X13.417 Y12.482 E0.09135
G1 X12.248 Y12.537 E0.09019
G1 X11.055 Y12.479 E0.09200
G1 X9.909 Y12.316 E0.08919
G1 X8.769 Y12.044 E0.09037
G1 X7.654 Y11.664 E0.09081
G1 X6.579 Y11.181 E0.09075
G1 X5.607 Y10.629 E0.08617
G1 X5.921 Y10.076 F15000.000
G1 X4.977 Y9.420 E0.08859 F720.000
G1 X4.126 Y8.696 E0.08611
G1 X3.250 Y7.798 E0.09670
G1 X3.250 Y-7.798 E1.20186
G1 X4.126 Y-8.696 E0.09670
G1 X4.977 Y-9.420 E0.08611
G1 X5.895 Y-10.061 E0.08628
G1 X6.867 Y-10.613 E0.08618
G1 X7.887 Y-11.072 E0.08614
G1 X8.946 Y-11.432 E0.08622
G1 X10.044 Y-11.694 E0.08696
G1 X11.126 Y-11.847 E0.08428
G1 X12.224 Y-11.900 E0.08471 F720.000
G1 X13.359 Y-11.849 E0.08753
G1 X14.472 Y-11.691 E0.08659
G1 X15.555 Y-11.432 E0.08583
G1 X16.622 Y-11.068 E0.08687
G1 X17.631 Y-10.614 E0.08529
G1 X18.602 Y-10.063 E0.08608
G1 X19.518 Y-9.423 E0.08608
G1 X20.370 Y-8.700 E0.08608
G1 X21.250 Y-7.798 E0.09718
G1 X21.250 Y7.798 E1.20185
G1 X20.370 Y8.700 E0.09718
G1 X19.518 Y9.423 E0.08608
G1 X18.602 Y10.063 E0.08608
G1 X17.631 Y10.614 E0.08608
G1 X16.612 Y11.072 E0.08608
G1 X15.565 Y11.429 E0.08529
G1 X14.472 Y11.691 E0.08661
G1 X13.357 Y11.849 E0.08673
G1 X12.248 Y11.900 E0.08557
G1 X11.115 Y11.846 E0.08740
G1 X10.028 Y11.691 E0.08462
G1 X8.946 Y11.432 E0.08578
G1 X7.887 Y11.072 E0.08621
G1 X6.867 Y10.613 E0.08614
G1 X5.973 Y10.106 E0.07924
G1 X5.564 Y10.257 F15000.000
G1 E-3.20000 F3000.00000
G1 Z0.700 F15000.000
G1 X0.786 Y-9.091 F15000.000
G1 Z0.300 F15000.000
G1 E3.20000 F3000.00000
G1 X0.786 Y-14.964 E0.45265 F720.000
G1 X23.714 Y-14.964 E1.76702
G1 X23.714 Y14.964 E2.30647
G1 X0.786 Y14.964 E1.76702 F720.000
G1 X0.786 Y-9.031 E1.84920
G1 X0.150 Y-9.031 F15000.000
G1 X0.150 Y-15.600 E0.50626 F720.000
G1 X24.350 Y-15.600 E1.86499
G1 X24.350 Y15.600 E2.40444
G1 X0.150 Y15.600 E1.86499 F720.000
G1 X0.150 Y-8.971 E1.89356
G1 X0.496 Y-9.231 F15000.000
G1 E-3.20000 F3000.00000
G1 Z0.700 F15000.000
G1 X16.201 Y-12.344 F15000.000
G1 Z0.300 F15000.000
G1 E3.20000 F3000.00000
G1 X13.966 Y-14.579 E0.24529 F960.000
G1 X13.061 Y-14.579 E0.07026
G1 X14.986 Y-12.654 E0.21128
G1 X13.913 Y-12.822 E0.08430
G1 X12.156 Y-14.579 E0.19286
G1 X11.250 Y-14.579 E0.07026
G1 X12.933 Y-12.896 E0.18473
G1 X12.018 Y-12.906 E0.07102
G1 X10.345 Y-14.579 E0.18367
G1 X9.440 Y-14.579 E0.07026
G1 X11.154 Y-12.864 E0.18819
G1 X10.361 Y-12.752 E0.06217
G1 X8.535 Y-14.579 E0.20050
G1 X7.629 Y-14.579 E0.07026
G1 X9.599 Y-12.609 E0.21621
G1 X8.868 Y-12.435 E0.05834
G1 X6.724 Y-14.579 E0.23531
G1 X5.819 Y-14.579 E0.07026
G1 X8.184 Y-12.213 E0.25965
G1 X7.516 Y-11.977 E0.05505
G1 X4.913 Y-14.579 E0.28563
G1 X4.008 Y-14.579 E0.07026
G1 X6.891 Y-11.696 E0.31644
G1 X6.282 Y-11.399 E0.05255
G1 X3.103 Y-14.579 E0.34901
G1 X2.197 Y-14.579 E0.07026
G1 X5.705 Y-11.071 E0.38500
G1 X5.150 Y-10.722 E0.05095
G1 X1.292 Y-14.579 E0.42340
G1 X1.171 Y-13.795 E0.06158
G1 X4.617 Y-10.349 E0.37824
G1 X4.110 Y-9.950 E0.05003
G1 X1.171 Y-12.890 E0.32263
G1 X1.171 Y-11.984 E0.07026
G1 X3.621 Y-9.534 E0.26892
G1 X3.161 Y-9.089 E0.04969
G1 X1.171 Y-11.079 E0.21844
G1 X1.171 Y-10.174 E0.07026
G1 X2.714 Y-8.631 E0.16937
G1 X2.267 Y-8.172 E0.04969
G1 X1.171 Y-9.268 E0.12031
G1 X1.171 Y-8.363 E0.07026
G1 X2.229 Y-7.305 E0.11612
G1 X2.229 Y-6.400 E0.07026
G1 X1.171 Y-7.458 E0.11612
G1 X1.171 Y-6.552 E0.07026
G1 X2.229 Y-5.495 E0.11612
G1 X2.229 Y-4.589 E0.07026
G1 X1.171 Y-5.647 E0.11612
G1 X1.171 Y-4.742 E0.07026
G1 X2.229 Y-3.684 E0.11612
G1 X2.229 Y-2.779 E0.07026
G1 X1.171 Y-3.837 E0.11612
G1 X1.171 Y-2.931 E0.07026
G1 X2.229 Y-1.873 E0.11612
G1 X2.229 Y-0.968 E0.07026
G1 X1.171 Y-2.026 E0.11612
G1 X1.171 Y-1.121 E0.07026
G1 X2.229 Y-0.063 E0.11612
G1 X2.229 Y0.843 E0.07026
G1 X1.171 Y-0.215 E0.11612
G1 X1.171 Y0.690 E0.07026
G1 X2.229 Y1.748 E0.11612
G1 X2.229 Y2.653 E0.07026
G1 X1.171 Y1.595 E0.11612
G1 X1.171 Y2.500 E0.07026
G1 X2.229 Y3.558 E0.11612
G1 X2.229 Y4.464 E0.07026
G1 X1.171 Y3.406 E0.11612
G1 X1.171 Y4.311 E0.07026
G1 X2.229 Y5.369 E0.11612
G1 X2.229 Y6.274 E0.07026
G1 X1.171 Y5.216 E0.11612
G1 X1.171 Y6.122 E0.07026
G1 X2.229 Y7.180 E0.11612
G1 X2.229 Y8.085 E0.07026
G1 X1.171 Y7.027 E0.11612
G1 X1.171 Y7.932 E0.07026
G1 X7.818 Y14.579 E0.72956
G1 X6.912 Y14.579 E0.07026
G1 X1.171 Y8.838 E0.63019
G1 X1.171 Y9.743 E0.07026
G1 X6.007 Y14.579 E0.53082
G1 X5.102 Y14.579 E0.07026
G1 X1.171 Y10.648 E0.43146
G1 X1.171 Y11.553 F15000.000
G1 X4.197 Y14.579 E0.33209 F960.000
G1 X3.291 Y14.579 E0.07026
G1 X1.171 Y12.459 E0.23272
G1 X1.171 Y13.364 E0.07026
G1 X2.386 Y14.579 E0.13335
G1 X1.481 Y14.579 E0.07026
G1 X1.171 Y14.269 E0.03399
G1 X4.832 Y10.688 F15000.000
G1 X8.723 Y14.579 E0.42707 F960.000
G1 X9.628 Y14.579 E0.07026
G1 X6.847 Y11.797 E0.30533
G1 X8.299 Y12.344 F15000.000
G1 X10.534 Y14.579 E0.24528 F960.000
G1 X11.439 Y14.579 E0.07026
G1 X9.514 Y12.654 E0.21128
G1 X10.588 Y12.823 E0.08435
G1 X12.344 Y14.579 E0.19279
G1 X13.250 Y14.579 E0.07026
G1 X11.567 Y12.896 E0.18468
G1 X12.481 Y12.906 E0.07098
G1 X14.155 Y14.579 E0.18368
G1 X15.060 Y14.579 E0.07026
G1 X13.345 Y12.864 E0.18825
G1 X14.138 Y12.752 E0.06217
G1 X15.965 Y14.579 E0.20055
G1 X16.871 Y14.579 E0.07026
G1 X14.901 Y12.610 E0.21616
G1 X15.632 Y12.435 E0.05828
G1 X17.776 Y14.579 E0.23537
G1 X18.681 Y14.579 E0.07026
G1 X16.316 Y12.213 E0.25964
G1 X16.984 Y11.977 E0.05504
G1 X19.587 Y14.579 E0.28563
G1 X20.492 Y14.579 E0.07026
G1 X17.609 Y11.696 E0.31644
G1 X18.217 Y11.399 E0.05255
G1 X21.397 Y14.579 E0.34901
G1 X22.302 Y14.579 E0.07026
G1 X18.795 Y11.072 E0.38499
G1 X19.350 Y10.722 E0.05095
G1 X23.208 Y14.579 E0.42340
G1 X23.329 Y13.795 E0.06158
G1 X19.883 Y10.349 E0.37822
G1 X20.390 Y9.950 E0.05003
G1 X23.329 Y12.890 E0.32263
G1 X23.329 Y11.984 E0.07026
G1 X20.879 Y9.534 E0.26889
G1 X21.339 Y9.089 E0.04969
G1 X23.329 Y11.079 E0.21844
G1 X23.329 Y10.174 E0.07026
G1 X21.786 Y8.631 E0.16938
G1 X22.233 Y8.172 E0.04969
G1 X23.329 Y9.268 E0.12031
G1 X23.329 Y8.363 E0.07026
G1 X22.271 Y7.305 E0.11612
G1 X22.271 Y6.400 E0.07026
G1 X23.329 Y7.458 E0.11612
G1 X23.329 Y6.553 E0.07026
G1 X22.271 Y5.495 E0.11612
G1 X22.271 Y4.589 E0.07026
G1 X23.329 Y5.647 E0.11612
G1 X23.329 Y4.742 E0.07026
G1 X22.271 Y3.684 E0.11612
G1 X22.271 Y2.779 E0.07026
G1 X23.329 Y3.837 E0.11612
G1 X23.329 Y2.931 E0.07026
G1 X22.271 Y1.873 E0.11612
G1 X22.271 Y0.968 E0.07026
G1 X23.329 Y2.026 E0.11612
G1 X23.329 Y1.121 E0.07026
G1 X22.271 Y0.063 E0.11612
G1 X22.271 Y-0.842 E0.07026
G1 X23.329 Y0.215 E0.11612
G1 X23.329 Y-0.690 E0.07026
G1 X22.271 Y-1.748 E0.11612
G1 X22.271 Y-2.653 E0.07026
G1 X23.329 Y-1.595 E0.11612
G1 X23.329 Y-2.500 E0.07026
G1 X22.271 Y-3.558 E0.11612
G1 X22.271 Y-4.464 E0.07026
G1 X23.329 Y-3.406 E0.11612
G1 X23.329 Y-4.311 E0.07026
G1 X22.271 Y-5.369 E0.11612
G1 X22.271 Y-6.274 E0.07026
G1 X23.329 Y-5.216 E0.11612
G1 X23.329 Y-6.122 E0.07026
G1 X22.271 Y-7.180 E0.11612
G1 X22.271 Y-8.085 E0.07026
G1 X23.329 Y-7.027 E0.11612
G1 X23.329 Y-7.932 E0.07026
G1 X16.682 Y-14.579 E0.72956
G1 X17.588 Y-14.579 E0.07026
G1 X23.329 Y-8.838 E0.63019
G1 X23.329 Y-9.743 E0.07026
G1 X18.493 Y-14.579 E0.53083
G1 X19.398 Y-14.579 E0.07026
G1 X23.329 Y-10.648 E0.43146
G1 X23.329 Y-11.553 E0.07026
G1 X20.303 Y-14.579 E0.33209
G1 X21.209 Y-14.579 E0.07026
G1 X23.329 Y-12.459 E0.23272
G1 X23.329 Y-13.364 E0.07026
G1 X22.114 Y-14.579 E0.13336
G1 X23.019 Y-14.579 E0.07026
G1 X23.329 Y-14.269 E0.03399
G1 X19.668 Y-10.688 F15000.000
G1 X15.777 Y-14.579 E0.42705 F960.000
G1 X14.872 Y-14.579 E0.07026
G1 X17.653 Y-11.797 E0.30531
G1 E-3.20000 F3000.00000
G1 Z0.700 F15000.000
G1 X-15.764 Y3.039 F15000.000
G1 Z0.300 F15000.000
G1 E3.20000 F3000.00000
G1 X-15.764 Y-8.235 E0.86886 F720.000
G1 X-16.912 Y-9.362 E0.12396
G1 X-17.865 Y-10.131 E0.09439
G1 X-18.889 Y-10.803 E0.09439
G1 X-19.973 Y-11.372 E0.09439
G1 X-21.109 Y-11.833 E0.09448
G1 X-22.298 Y-12.184 E0.09554
G1 X-23.479 Y-12.411 E0.09267
G1 X-23.714 Y-12.433 E0.01820
G1 X-23.714 Y-14.964 E0.19508
G1 X-13.786 Y-14.964 E0.76516
G1 X-13.786 Y14.964 E2.30647
G1 X-23.714 Y14.964 E0.76516 F720.000
G1 X-23.714 Y12.433 E0.19508
G1 X-23.481 Y12.411 E0.01806
G1 X-22.298 Y12.184 E0.09281
G1 X-21.109 Y11.833 E0.09553
G1 X-19.973 Y11.372 E0.09448
G1 X-18.889 Y10.803 E0.09439
G1 X-17.865 Y10.131 E0.09439
G1 X-16.912 Y9.362 E0.09439
G1 X-15.764 Y8.235 E0.12396
G1 X-15.764 Y3.099 E0.39576
G1 X-16.400 Y3.099 F15000.000
G1 X-16.400 Y-7.968 E0.85294 F720.000
G1 X-17.335 Y-8.887 E0.10102
G1 X-18.240 Y-9.617 E0.08960
G1 X-19.212 Y-10.255 E0.08960
G1 X-20.241 Y-10.795 E0.08960
G1 X-21.319 Y-11.233 E0.08966
G1 X-22.449 Y-11.566 E0.09074
G1 X-23.569 Y-11.781 E0.08792
G1 X-24.350 Y-11.854 E0.06045
G1 X-24.350 Y-15.600 E0.28870
G1 X-13.150 Y-15.600 E0.86313
G1 X-13.150 Y15.600 E2.40444
G1 X-24.350 Y15.600 E0.86313 F720.000
G1 X-24.350 Y11.854 E0.28869
G1 X-23.571 Y11.781 E0.06032
G1 X-22.449 Y11.566 E0.08806
G1 X-21.319 Y11.233 E0.09073
G1 X-20.241 Y10.795 E0.08966
G1 X-19.212 Y10.255 E0.08960
G1 X-18.240 Y9.617 E0.08960
G1 X-17.335 Y8.887 E0.08960
G1 X-16.400 Y7.968 E0.10102
G1 X-16.400 Y3.159 E0.37059
G1 X-16.054 Y2.899 F15000.000
G1 E-3.20000 F3000.00000
G1 Z0.700 F15000.000
G1 X-23.019 Y14.579 F15000.000
G1 Z0.300 F15000.000
G1 E3.20000 F3000.00000
G1 X-23.329 Y14.269 E0.03452 F960.000
G1 X-23.329 Y13.350 E0.07247
G1 X-22.100 Y14.579 E0.13701
G1 X-21.180 Y14.579 E0.07247
G1 X-23.060 Y12.699 E0.20952
G1 X-22.290 Y12.550 E0.06180
G1 X-20.261 Y14.579 E0.22623
G1 X-19.342 Y14.579 E0.07247
G1 X-21.580 Y12.340 E0.24958
G1 X-20.886 Y12.115 E0.05752
G1 X-18.422 Y14.579 E0.27469
G1 X-17.503 Y14.579 E0.07247
G1 X-20.232 Y11.849 E0.30428
G1 X-19.603 Y11.560 E0.05464
G1 X-16.583 Y14.579 E0.33657
G1 X-15.664 Y14.579 E0.07247
G1 X-19.000 Y11.243 E0.37185
G1 X-18.425 Y10.898 E0.05281
G1 X-14.744 Y14.579 E0.41035
G1 X-14.171 Y14.233 E0.05279
G1 X-17.870 Y10.534 E0.41240
G1 X-17.347 Y10.138 E0.05174
G1 X-14.171 Y13.314 E0.35403
G1 X-14.171 Y12.394 E0.07247
G1 X-16.838 Y9.727 E0.29729
G1 X-16.362 Y9.284 E0.05128
G1 X-14.171 Y11.475 E0.24423
G1 X-14.171 Y10.555 E0.07247
G1 X-15.898 Y8.828 E0.19252
G1 X-15.434 Y8.373 E0.05125
G1 X-14.171 Y9.636 E0.14082
G1 X-14.171 Y8.716 E0.07247
G1 X-15.379 Y7.508 E0.13465
G1 X-15.379 Y6.589 E0.07247
G1 X-14.171 Y7.797 E0.13465
G1 X-14.171 Y6.878 E0.07247
G1 X-15.379 Y5.670 E0.13465
G1 X-15.379 Y4.750 E0.07247
G1 X-14.171 Y5.958 E0.13465
G1 X-14.171 Y5.039 E0.07247
G1 X-15.379 Y3.831 E0.13465
G1 X-15.379 Y2.911 E0.07247
G1 X-14.171 Y4.119 E0.13465
G1 X-14.171 Y3.200 E0.07247
G1 X-15.379 Y1.992 E0.13465
G1 X-15.379 Y1.072 E0.07247
G1 X-14.171 Y2.280 E0.13465
G1 X-14.171 Y1.361 E0.07247
G1 X-15.379 Y0.153 E0.13465
G1 X-15.379 Y-0.766 E0.07247
G1 X-14.171 Y0.442 E0.13465
G1 X-14.171 Y-0.478 E0.07247
G1 X-15.379 Y-1.686 E0.13465
G1 X-15.379 Y-2.605 E0.07247
G1 X-14.171 Y-1.397 E0.13465
G1 X-14.171 Y-2.317 E0.07247
G1 X-15.379 Y-3.525 E0.13465
G1 X-15.379 Y-4.444 E0.07247
G1 X-14.171 Y-3.236 E0.13465
G1 X-14.171 Y-4.156 E0.07247
G1 X-15.379 Y-5.364 E0.13465
G1 X-15.379 Y-6.283 E0.07247
G1 X-14.171 Y-5.075 E0.13465
G1 X-14.171 Y-5.994 E0.07247
G1 X-15.379 Y-7.202 E0.13465
G1 X-15.379 Y-8.122 E0.07247
G1 X-14.171 Y-6.914 E0.13465
G1 X-14.171 Y-7.833 E0.07247
G1 X-20.917 Y-14.579 E0.75198
G1 X-19.997 Y-14.579 E0.07247
G1 X-14.171 Y-8.753 E0.64948
G1 X-14.171 Y-9.672 E0.07247
G1 X-19.078 Y-14.579 E0.54699
G1 X-18.158 Y-14.579 E0.07247
G1 X-14.171 Y-10.592 E0.44450
G1 X-14.171 Y-11.511 E0.07247
G1 X-17.239 Y-14.579 E0.34200
G1 X-16.320 Y-14.579 E0.07247
G1 X-14.171 Y-12.430 E0.23951
G1 X-14.171 Y-13.350 E0.07247
G1 X-15.400 Y-14.579 E0.13701
G1 X-14.481 Y-14.579 E0.07247
G1 X-14.171 Y-14.269 E0.03452
G1 X-18.154 Y-10.897 F15000.000
G1 X-21.836 Y-14.579 E0.41050 F960.000
G1 X-22.756 Y-14.579 E0.07247
G1 X-20.069 Y-11.893 E0.29946
G1 X-21.489 Y-12.393 F15000.000
G1 X-23.329 Y-14.233 E0.20516 F960.000
G1 X-23.329 Y-13.314 E0.07247
G1 X-22.697 Y-12.682 E0.07045
G1 E-3.20000 F3000.00000
G1 Z0.700 F15000.000
G1 X3.043 Y-7.882 F15000.000
G1 Z0.500 F15000.000
G1 E3.20000 F3000.00000
G1 X3.978 Y-8.840 E0.03864 F3129.074
G1 X4.847 Y-9.581 E0.03296
G1 X5.782 Y-10.235 E0.03293
G1 X6.773 Y-10.798 E0.03289
G1 X7.812 Y-11.265 E0.03288
G1 X8.891 Y-11.633 E0.03292
G1 X10.026 Y-11.901 E0.03365
G1 X11.095 Y-12.052 E0.03115
G1 X12.184 Y-12.105 E0.03148 F3129.074
G1 X13.369 Y-12.056 E0.03423
G1 X14.510 Y-11.895 E0.03325
G1 X15.610 Y-11.632 E0.03264
G1 X16.707 Y-11.257 E0.03349
G1 X17.723 Y-10.800 E0.03213
G1 X18.712 Y-10.239 E0.03281
G1 X19.644 Y-9.588 E0.03282
G1 X20.511 Y-8.852 E0.03282
G1 X21.457 Y-7.882 E0.03912
G1 X21.457 Y7.882 E0.45498
G1 X20.511 Y8.852 E0.03912
G1 X19.644 Y9.588 E0.03282
G1 X18.712 Y10.239 E0.03282
G1 X17.723 Y10.800 E0.03282
G1 X16.686 Y11.266 E0.03281
G1 X15.632 Y11.625 E0.03213
G1 X14.510 Y11.895 E0.03331
G1 X13.365 Y12.056 E0.03337
G1 X12.245 Y12.108 E0.03236
G1 X11.067 Y12.049 E0.03404
G1 X9.990 Y11.895 E0.03142
G1 X8.891 Y11.632 E0.03261
G1 X7.812 Y11.265 E0.03290
G1 X6.773 Y10.798 E0.03288
G1 X5.782 Y10.235 E0.03289
G1 X4.847 Y9.581 E0.03293
G1 X3.978 Y8.840 E0.03296
G1 X3.043 Y7.882 E0.03864
G1 X3.043 Y-7.822 E0.45326
G1 X3.400 Y-7.737 F15000.000
G1 X4.222 Y-8.579 E0.03397 F3129.074
G1 X5.066 Y-9.298 E0.03199
G1 X5.973 Y-9.933 E0.03196
G1 X6.935 Y-10.479 E0.03192
G1 X7.943 Y-10.932 E0.03191
G1 X8.990 Y-11.289 E0.03194
G1 X10.092 Y-11.550 E0.03269
G1 X11.128 Y-11.696 E0.03020
G1 X12.185 Y-11.748 E0.03054 F3129.074
G1 X13.336 Y-11.700 E0.03325
G1 X14.443 Y-11.544 E0.03226
G1 X15.510 Y-11.289 E0.03166
G1 X16.576 Y-10.924 E0.03252
G1 X17.561 Y-10.481 E0.03117
G1 X18.521 Y-9.937 E0.03185
G1 X19.425 Y-9.305 E0.03185
G1 X20.267 Y-8.591 E0.03185
G1 X21.100 Y-7.737 E0.03444
G1 X21.100 Y7.737 E0.44659
G1 X20.267 Y8.591 E0.03444
G1 X19.425 Y9.305 E0.03185
G1 X18.521 Y9.937 E0.03185
G1 X17.561 Y10.481 E0.03185
G1 X16.555 Y10.933 E0.03185
G1 X15.532 Y11.282 E0.03117
G1 X14.443 Y11.544 E0.03233
G1 X13.332 Y11.700 E0.03239
G1 X12.246 Y11.750 E0.03138
G1 X11.102 Y11.693 E0.03307
G1 X10.057 Y11.544 E0.03047
G1 X8.990 Y11.289 E0.03165
G1 X7.943 Y10.932 E0.03193
G1 X6.935 Y10.479 E0.03191
G1 X5.973 Y9.933 E0.03192
G1 X5.066 Y9.298 E0.03196
G1 X4.222 Y8.579 E0.03199
G1 X3.400 Y7.737 E0.03397
