; generated by Slic3r 1.2.9 on 2017-03-07 at 11:12:14

; external perimeters extrusion width = 0.40mm
; perimeters extrusion width = 0.40mm
; infill extrusion width = 0.40mm
; solid infill extrusion width = 0.40mm
; top infill extrusion width = 0.40mm

M107
M83
T0
M116
G21 ; set units to millimeters
G90 ; use absolute coordinates
M83 ; use relative distances for extrusion
G1 E-3.20000 F3000.00000
G1 Z0.400 F15000.000
G1 X-11.429 Y13.680 F15000.000
G1 Z0.300 F15000.000
G1 E3.20000 F3000.00000
G1 X-41.281 Y-11.260 E2.99779 F960.000
G1 X-42.292 Y-12.619 E0.13052
G1 X-42.586 Y-14.050 E0.11260
G1 X-42.586 Y-18.950 E0.37762
G1 X-42.191 Y-20.597 E0.13052
G1 X-41.093 Y-21.887 E0.13052
G1 X-38.950 Y-22.586 E0.17373
G1 X38.950 Y-22.586 E6.00340
G1 X40.597 Y-22.191 E0.13052
G1 X41.887 Y-21.093 E0.13052 F960.000
G1 X42.586 Y-18.950 E0.17373
G1 X42.586 Y18.950 E2.92078
G1 X42.191 Y20.597 E0.13052
G1 X41.093 Y21.887 E0.13052
G1 X38.950 Y22.586 E0.17373
G1 X0.550 Y22.586 E2.95931
G1 X-1.781 Y21.740 E0.19109
G1 X-11.383 Y13.718 E0.96422
G1 E-3.20000 F3000.00000
G1 Z0.700 F15000.000
G1 X-1.039 Y13.718 F15000.000
G1 Z0.300 F15000.000
G1 E3.20000 F3000.00000
G1 X-1.039 Y-12.089 E1.98883 F960.000
G1 X-1.411 Y-12.461 E0.04058
G1 X-39.608 Y-12.461 E2.94366
G1 X-40.539 Y-13.392 E0.10145
G1 X-40.539 Y-19.608 E0.47907
G1 X-39.608 Y-20.539 E0.10145
G1 X39.608 Y-20.539 E6.10485
G1 X40.539 Y-19.608 E0.10145
G1 X40.539 Y19.608 E3.02223 F960.000
G1 X39.608 Y20.539 E0.10145
G1 X-0.108 Y20.539 E3.06076
G1 X-1.039 Y19.608 E0.10145
G1 X-1.039 Y13.778 E0.44928
G1 X-0.403 Y13.778 F15000.000
G1 X-0.403 Y-12.724 E2.04243 F960.000
G1 X-0.776 Y-13.097 E0.04058
G1 X-39.345 Y-13.097 E2.97235
G1 X-39.903 Y-13.655 E0.06087
G1 X-39.903 Y-19.345 E0.43849
G1 X-39.345 Y-19.903 E0.06087
G1 X39.345 Y-19.903 E6.06427
G1 X39.903 Y-19.345 E0.06087 F960.000
G1 X39.903 Y19.345 E2.98165
G1 X39.345 Y19.903 E0.06087
G1 X0.155 Y19.903 E3.02018
G1 X-0.403 Y19.345 E0.06087
G1 X-0.403 Y13.838 E0.42437
G1 X0.232 Y13.838 F15000.000
G1 X0.232 Y-13.360 E2.09604 F960.000
G1 X-0.140 Y-13.732 E0.04058
G1 X-39.082 Y-13.732 E3.00105
G1 X-39.268 Y-13.918 E0.02029
G1 X-39.268 Y-19.082 E0.39791
G1 X-39.082 Y-19.268 E0.02029
G1 X39.082 Y-19.268 E6.02369
G1 X39.268 Y-19.082 E0.02029
G1 X39.268 Y19.082 E2.94107 F960.000
G1 X39.082 Y19.268 E0.02029
G1 X0.418 Y19.268 E2.97961
G1 X0.232 Y19.082 E0.02029
G1 X0.232 Y13.898 E0.39945
G1 E-3.20000 F3000.00000
G1 Z0.700 F15000.000
G1 X37.964 Y1.529 F15000.000
G1 Z0.300 F15000.000
G1 E3.20000 F3000.00000
G1 X37.964 Y17.964 E1.26660 F720.000
G1 X1.536 Y17.964 E2.80740 F720.000
G1 X1.536 Y-15.036 E2.54316
G1 X-37.964 Y-15.036 E3.04409
G1 X-37.964 Y-17.964 E0.22571
G1 X37.964 Y-17.964 E5.85149
G1 X37.964 Y1.469 E1.49764
G1 X38.600 Y1.469 F15000.000
G1 X38.600 Y18.600 E1.32021 F720.000
G1 X0.900 Y18.600 E2.90537 F720.000
G1 X0.900 Y-14.400 E2.54316
G1 X-38.600 Y-14.400 E3.04409
G1 X-38.600 Y-18.600 E0.32368
G1 X38.600 Y-18.600 E5.94946
G1 X38.600 Y1.409 E1.54200
G1 X38.254 Y1.669 F15000.000
G1 X37.579 Y-17.269 F15000.000
G1 X37.269 Y-17.579 E0.03388 F960.000
G1 X36.367 Y-17.579 E0.06980
G1 X37.579 Y-16.367 E0.13259
G1 X37.579 Y-15.465 E0.06980
G1 X35.465 Y-17.579 E0.23131
G1 X34.562 Y-17.579 E0.06980
G1 X37.579 Y-14.562 E0.33002
G1 X37.579 Y-13.660 E0.06980
G1 X33.660 Y-17.579 E0.42873
G1 X32.758 Y-17.579 E0.06980
G1 X37.579 Y-12.758 E0.52745
G1 X37.579 Y-11.855 E0.06980
G1 X31.855 Y-17.579 E0.62616
G1 X30.953 Y-17.579 E0.06980
G1 X37.579 Y-10.953 E0.72487
G1 X37.579 Y-10.051 E0.06980
G1 X30.051 Y-17.579 E0.82359
G1 X29.148 Y-17.579 E0.06980
G1 X37.579 Y-9.148 E0.92230
G1 X37.579 Y-8.246 E0.06980
G1 X28.246 Y-17.579 E1.02101
G1 X27.344 Y-17.579 E0.06980
G1 X37.579 Y-7.344 E1.11973
G1 X37.579 Y-6.442 E0.06980
G1 X26.442 Y-17.579 E1.21844
G1 X25.539 Y-17.579 E0.06980
G1 X37.579 Y-5.539 E1.31715
G1 X37.579 Y-4.637 E0.06980
G1 X24.637 Y-17.579 E1.41587
G1 X23.735 Y-17.579 E0.06980
G1 X37.579 Y-3.735 E1.51458
G1 X37.579 Y-2.832 E0.06980
G1 X22.832 Y-17.579 E1.61329
G1 X21.930 Y-17.579 E0.06980
G1 X37.579 Y-1.930 E1.71201
G1 X37.579 Y-1.028 E0.06980
G1 X21.028 Y-17.579 E1.81072
G1 X20.125 Y-17.579 E0.06980
G1 X37.579 Y-0.125 E1.90944
G1 X37.579 Y0.777 E0.06980
G1 X19.223 Y-17.579 E2.00815
G1 X18.321 Y-17.579 E0.06980
G1 X37.579 Y1.679 E2.10686
G1 X37.579 Y2.582 E0.06980
G1 X17.418 Y-17.579 E2.20558
G1 X16.516 Y-17.579 E0.06980
G1 X37.579 Y3.484 E2.30429
G1 X37.579 Y4.386 E0.06980
G1 X15.614 Y-17.579 E2.40300
G1 X14.711 Y-17.579 E0.06980
G1 X37.579 Y5.289 E2.50172
G1 X37.579 Y6.191 E0.06980
G1 X13.809 Y-17.579 E2.60043
G1 X12.907 Y-17.579 E0.06980
G1 X37.579 Y7.093 E2.69914
G1 X37.579 Y7.995 E0.06980
G1 X12.005 Y-17.579 E2.79786
G1 X11.102 Y-17.579 E0.06980
G1 X37.579 Y8.898 E2.89657
G1 X37.579 Y9.800 E0.06980
G1 X10.200 Y-17.579 E2.99528
G1 X9.298 Y-17.579 E0.06980
G1 X37.579 Y10.702 E3.09400
G1 X37.579 Y11.605 E0.06980
G1 X8.395 Y-17.579 E3.19271
G1 X7.493 Y-17.579 E0.06980
G1 X37.579 Y12.507 E3.29142
G1 X37.579 Y13.409 E0.06980
G1 X6.591 Y-17.579 E3.39014
G1 X5.688 Y-17.579 E0.06980
G1 X37.579 Y14.312 E3.48885
G1 X37.579 Y15.214 E0.06980
G1 X4.786 Y-17.579 E3.58756
G1 X3.884 Y-17.579 E0.06980
G1 X37.579 Y16.116 E3.68628
G1 X37.579 Y17.019 E0.06980
G1 X2.981 Y-17.579 E3.78499
G1 X2.079 Y-17.579 E0.06980
G1 X37.237 Y17.579 E3.84630
G1 X36.335 Y17.579 E0.06980
G1 X1.177 Y-17.579 E3.84630
G1 X0.274 Y-17.579 E0.06980
G1 X35.432 Y17.579 E3.84630
G1 X34.530 Y17.579 E0.06980
G1 X1.921 Y-15.030 E3.56745
G1 X1.530 Y-15.421 F15000.000
G1 X-0.628 Y-17.579 E0.23608 F960.000
G1 X-1.530 Y-17.579 E0.06980
G1 X0.628 Y-15.421 E0.23608
G1 X-0.275 Y-15.421 E0.06980
G1 X-2.432 Y-17.579 E0.23608
G1 X-3.335 Y-17.579 E0.06980
G1 X-1.177 Y-15.421 E0.23608
G1 X-2.079 Y-15.421 E0.06980
G1 X-4.237 Y-17.579 E0.23608
G1 X-5.139 Y-17.579 E0.06980
G1 X-2.981 Y-15.421 E0.23608
G1 X-3.884 Y-15.421 E0.06980
G1 X-6.042 Y-17.579 E0.23608
G1 X-6.944 Y-17.579 E0.06980
G1 X-4.786 Y-15.421 E0.23608
G1 X-5.688 Y-15.421 E0.06980
G1 X-7.846 Y-17.579 E0.23608
G1 X-8.749 Y-17.579 E0.06980
G1 X-6.591 Y-15.421 E0.23608
G1 X-7.493 Y-15.421 E0.06980
G1 X-9.651 Y-17.579 E0.23608
G1 X-10.553 Y-17.579 E0.06980
G1 X-8.395 Y-15.421 E0.23608
G1 X-9.298 Y-15.421 E0.06980
G1 X-11.456 Y-17.579 E0.23608
G1 X-12.358 Y-17.579 E0.06980
G1 X-10.200 Y-15.421 E0.23608
G1 X-11.102 Y-15.421 E0.06980
G1 X-13.260 Y-17.579 E0.23608
G1 X-14.163 Y-17.579 E0.06980
G1 X-12.005 Y-15.421 E0.23608
G1 X-12.907 Y-15.421 E0.06980
G1 X-15.065 Y-17.579 E0.23608
G1 X-15.967 Y-17.579 E0.06980
G1 X-13.809 Y-15.421 E0.23608
G1 X-14.712 Y-15.421 E0.06980
G1 X-16.869 Y-17.579 E0.23608
G1 X-17.772 Y-17.579 E0.06980
G1 X-15.614 Y-15.421 E0.23608
G1 X-16.516 Y-15.421 E0.06980
G1 X-18.674 Y-17.579 E0.23608
G1 X-19.576 Y-17.579 E0.06980
G1 X-17.418 Y-15.421 E0.23608
G1 X-18.321 Y-15.421 E0.06980
G1 X-20.479 Y-17.579 E0.23608
G1 X-21.381 Y-17.579 E0.06980
G1 X-19.223 Y-15.421 E0.23608
G1 X-20.125 Y-15.421 E0.06980
G1 X-22.283 Y-17.579 E0.23608
G1 X-23.186 Y-17.579 E0.06980
G1 X-21.028 Y-15.421 E0.23608
G1 X-21.930 Y-15.421 E0.06980
G1 X-24.088 Y-17.579 E0.23608
G1 X-24.990 Y-17.579 E0.06980
G1 X-22.832 Y-15.421 E0.23608
G1 X-23.735 Y-15.421 E0.06980
G1 X-25.893 Y-17.579 E0.23608
G1 X-26.795 Y-17.579 E0.06980
G1 X-24.637 Y-15.421 E0.23608
G1 X-25.539 Y-15.421 E0.06980
G1 X-27.697 Y-17.579 E0.23608
G1 X-28.600 Y-17.579 E0.06980
G1 X-26.442 Y-15.421 E0.23608
G1 X-27.344 Y-15.421 E0.06980
G1 X-29.502 Y-17.579 E0.23608
G1 X-30.404 Y-17.579 E0.06980
G1 X-28.246 Y-15.421 E0.23608
G1 X-29.149 Y-15.421 E0.06980
G1 X-31.306 Y-17.579 E0.23608
G1 X-32.209 Y-17.579 E0.06980
G1 X-30.051 Y-15.421 E0.23608
G1 X-30.953 Y-15.421 E0.06980
G1 X-33.111 Y-17.579 E0.23608
G1 X-34.013 Y-17.579 E0.06980
G1 X-31.855 Y-15.421 E0.23608
G1 X-32.758 Y-15.421 E0.06980
G1 X-34.916 Y-17.579 E0.23608
G1 X-35.818 Y-17.579 E0.06980
G1 X-33.660 Y-15.421 E0.23608
G1 X-34.562 Y-15.421 E0.06980
G1 X-36.720 Y-17.579 E0.23608
G1 X-37.579 Y-17.535 E0.06651
G1 X-35.465 Y-15.421 E0.23130
G1 X-36.367 Y-15.421 E0.06980
G1 X-37.579 Y-16.633 E0.13259
G1 X-37.579 Y-15.731 E0.06980
G1 X-37.269 Y-15.421 E0.03387
G1 X1.921 Y-14.128 F15000.000
G1 X33.628 Y17.579 E3.46874 F960.000
G1 X32.725 Y17.579 E0.06980
G1 X1.921 Y-13.225 E3.37002
G1 X1.921 Y-12.323 E0.06980
G1 X31.823 Y17.579 E3.27131
G1 X30.921 Y17.579 E0.06980
G1 X1.921 Y-11.421 E3.17260
G1 X1.921 Y-10.519 E0.06980
G1 X30.019 Y17.579 E3.07388
G1 X29.116 Y17.579 E0.06980
G1 X1.921 Y-9.616 E2.97517
G1 X1.921 Y-8.714 E0.06980
G1 X28.214 Y17.579 E2.87645
G1 X27.312 Y17.579 E0.06980
G1 X1.921 Y-7.812 E2.77774
G1 X1.921 Y-6.909 E0.06980
G1 X26.409 Y17.579 E2.67903
G1 X25.507 Y17.579 E0.06980
G1 X1.921 Y-6.007 E2.58031
G1 X1.921 Y-5.105 E0.06980
G1 X24.605 Y17.579 E2.48160
G1 X23.702 Y17.579 E0.06980
G1 X1.921 Y-4.202 E2.38289
G1 X1.921 Y-3.300 E0.06980
G1 X22.800 Y17.579 E2.28417
G1 X21.898 Y17.579 E0.06980
G1 X1.921 Y-2.398 E2.18546
G1 X1.921 Y-1.495 E0.06980
G1 X20.995 Y17.579 E2.08675
G1 X20.093 Y17.579 E0.06980
G1 X1.921 Y-0.593 E1.98803
G1 X1.921 Y0.309 E0.06980
G1 X19.191 Y17.579 E1.88932
G1 X18.288 Y17.579 E0.06980
G1 X1.921 Y1.212 E1.79061
G1 X1.921 Y2.114 E0.06980
G1 X17.386 Y17.579 E1.69189
G1 X16.484 Y17.579 E0.06980
G1 X1.921 Y3.016 E1.59318
G1 X1.921 Y3.918 E0.06980
G1 X15.582 Y17.579 E1.49447
G1 X14.679 Y17.579 E0.06980
G1 X1.921 Y4.821 E1.39575
G1 X1.921 Y5.723 E0.06980
G1 X13.777 Y17.579 E1.29704
G1 X12.875 Y17.579 E0.06980
G1 X1.921 Y6.625 E1.19832
G1 X1.921 Y7.528 E0.06980
G1 X11.972 Y17.579 E1.09961
G1 X11.070 Y17.579 E0.06980
G1 X1.921 Y8.430 E1.00090
G1 X1.921 Y9.332 E0.06980
G1 X10.168 Y17.579 E0.90218
G1 X9.265 Y17.579 E0.06980
G1 X1.921 Y10.235 E0.80347
G1 X1.921 Y11.137 E0.06980
G1 X8.363 Y17.579 E0.70476
G1 X7.461 Y17.579 E0.06980
G1 X1.921 Y12.039 E0.60604
G1 X1.921 Y12.942 E0.06980
G1 X6.558 Y17.579 E0.50733
G1 X5.656 Y17.579 E0.06980
G1 X1.921 Y13.844 E0.40862
G1 X1.921 Y14.746 E0.06980
G1 X4.754 Y17.579 E0.30990
G1 X3.851 Y17.579 E0.06980
G1 X1.921 Y15.649 E0.21119
G1 X1.921 Y16.551 E0.06980
G1 X2.949 Y17.579 E0.11248
G1 E-3.20000 F3000.00000
G1 Z0.700 F15000.000
G1 X-1.943 Y-14.607 F15000.000
G1 Z0.500 F15000.000
G1 E3.20000 F3000.00000
G1 X-38.393 Y-14.607 E1.05205 F3600.000
G1 X-38.393 Y-18.393 E0.10927
G1 X38.393 Y-18.393 E2.21625
G1 X38.393 Y18.393 E1.06174
G1 X1.107 Y18.393 E1.07617 F3600.000
G1 X1.107 Y-14.607 E0.95247
G1 X-1.883 Y-14.607 E0.08630
G1 X-1.883 Y-14.250 F15000.000
G1 X-38.750 Y-14.250 E1.06409 F3600.000
G1 X-38.750 Y-18.750 E0.12988
G1 X38.750 Y-18.750 E2.23686
G1 X38.750 Y18.750 E1.08235
G1 X0.750 Y18.750 E1.09678 F3600.000
G1 X0.750 Y-14.250 E0.95247
G1 X-1.823 Y-14.250 E0.07426
G1 X-2.083 Y-14.596 F15000.000
G1 X1.150 Y-14.815 F15000.000
G1 X4.520 Y-18.185 E0.13788 F4800.000
G1 X4.014 Y-18.185 E0.01464
G1 X0.643 Y-14.815 E0.13788
G1 X0.137 Y-14.815 E0.01464
G1 X3.508 Y-18.185 E0.13788
G1 X3.002 Y-18.185 E0.01464
G1 X-0.369 Y-14.815 E0.13788
G1 X-0.875 Y-14.815 E0.01464
G1 X2.495 Y-18.185 E0.13788
G1 X1.989 Y-18.185 E0.01464
G1 X-1.381 Y-14.815 E0.13788
G1 X-1.887 Y-14.815 E0.01464
G1 X1.483 Y-18.185 E0.13788
G1 X0.977 Y-18.185 E0.01464
G1 X-2.393 Y-14.815 E0.13788
G1 X-2.899 Y-14.815 E0.01464
G1 X0.471 Y-18.185 E0.13788
G1 X-0.035 Y-18.185 E0.01464
G1 X-3.405 Y-14.815 E0.13788
G1 X-3.912 Y-14.815 E0.01464
G1 X-0.541 Y-18.185 E0.13788
G1 X-1.047 Y-18.185 E0.01464
G1 X-4.418 Y-14.815 E0.13788
G1 X-4.924 Y-14.815 E0.01464
G1 X-1.553 Y-18.185 E0.13788
G1 X-2.060 Y-18.185 E0.01464
G1 X-5.430 Y-14.815 E0.13788
G1 X-5.936 Y-14.815 E0.01464
G1 X-2.566 Y-18.185 E0.13788
G1 X-3.072 Y-18.185 E0.01464
G1 X-6.442 Y-14.815 E0.13788
G1 X-6.948 Y-14.815 E0.01464
G1 X-3.578 Y-18.185 E0.13788
G1 X-4.084 Y-18.185 E0.01464
G1 X-7.454 Y-14.815 E0.13788
G1 X-7.961 Y-14.815 E0.01464
G1 X-4.590 Y-18.185 E0.13788
G1 X-5.096 Y-18.185 E0.01464
G1 X-8.467 Y-14.815 E0.13788
G1 X-8.973 Y-14.815 E0.01464
G1 X-5.602 Y-18.185 E0.13788
G1 X-6.109 Y-18.185 E0.01464
G1 X-9.479 Y-14.815 E0.13788
G1 X-9.985 Y-14.815 E0.01464
G1 X-6.615 Y-18.185 E0.13788
G1 X-7.121 Y-18.185 E0.01464
G1 X-10.491 Y-14.815 E0.13788
G1 X-10.997 Y-14.815 E0.01464
G1 X-7.627 Y-18.185 E0.13788
G1 X-8.133 Y-18.185 E0.01464
G1 X-11.503 Y-14.815 E0.13788
G1 X-12.009 Y-14.815 E0.01464
G1 X-8.639 Y-18.185 E0.13788
G1 X-9.145 Y-18.185 E0.01464
G1 X-12.516 Y-14.815 E0.13788
G1 X-13.022 Y-14.815 E0.01464
G1 X-9.651 Y-18.185 E0.13788
G1 X-10.157 Y-18.185 E0.01464
G1 X-13.528 Y-14.815 E0.13788
G1 X-14.034 Y-14.815 E0.01464
G1 X-10.664 Y-18.185 E0.13788
G1 X-11.170 Y-18.185 E0.01464
G1 X-14.540 Y-14.815 E0.13788
G1 X-15.046 Y-14.815 E0.01464
G1 X-11.676 Y-18.185 E0.13788
G1 X-12.182 Y-18.185 E0.01464
G1 X-15.552 Y-14.815 E0.13788
G1 X-16.058 Y-14.815 E0.01464
G1 X-12.688 Y-18.185 E0.13788
G1 X-13.194 Y-18.185 E0.01464
G1 X-16.565 Y-14.815 E0.13788
G1 X-17.071 Y-14.815 E0.01464
G1 X-13.700 Y-18.185 E0.13788
G1 X-14.206 Y-18.185 E0.01464
G1 X-17.577 Y-14.815 E0.13788
G1 X-18.083 Y-14.815 E0.01464
G1 X-14.713 Y-18.185 E0.13788
G1 X-15.219 Y-18.185 E0.01464
G1 X-18.589 Y-14.815 E0.13788
G1 X-19.095 Y-14.815 E0.01464
G1 X-15.725 Y-18.185 E0.13788
G1 X-16.231 Y-18.185 E0.01464
G1 X-19.601 Y-14.815 E0.13788
G1 X-20.107 Y-14.815 E0.01464
G1 X-16.737 Y-18.185 E0.13788
G1 X-17.243 Y-18.185 E0.01464
G1 X-20.613 Y-14.815 E0.13788
G1 X-21.120 Y-14.815 E0.01464
G1 X-17.749 Y-18.185 E0.13788
G1 X-18.255 Y-18.185 E0.01464
G1 X-21.626 Y-14.815 E0.13788
G1 X-22.132 Y-14.815 E0.01464
G1 X-18.761 Y-18.185 E0.13788
G1 X-19.268 Y-18.185 E0.01464
G1 X-22.638 Y-14.815 E0.13788
G1 X-23.144 Y-14.815 E0.01464
G1 X-19.774 Y-18.185 E0.13788
G1 X-20.280 Y-18.185 E0.01464
G1 X-23.650 Y-14.815 E0.13788
G1 X-24.156 Y-14.815 E0.01464
G1 X-20.786 Y-18.185 E0.13788
G1 X-21.292 Y-18.185 E0.01464
G1 X-24.662 Y-14.815 E0.13788
G1 X-25.168 Y-14.815 E0.01464
G1 X-21.798 Y-18.185 E0.13788
G1 X-22.304 Y-18.185 E0.01464
G1 X-25.675 Y-14.815 E0.13788
G1 X-26.181 Y-14.815 E0.01464
G1 X-22.810 Y-18.185 E0.13788
G1 X-23.316 Y-18.185 E0.01464
G1 X-26.687 Y-14.815 E0.13788
G1 X-27.193 Y-14.815 E0.01464
G1 X-23.823 Y-18.185 E0.13788
G1 X-24.329 Y-18.185 E0.01464
G1 X-27.699 Y-14.815 E0.13788
G1 X-28.205 Y-14.815 E0.01464
G1 X-24.835 Y-18.185 E0.13788
G1 X-25.341 Y-18.185 E0.01464
G1 X-28.711 Y-14.815 E0.13788
G1 X-29.217 Y-14.815 E0.01464
G1 X-25.847 Y-18.185 E0.13788
G1 X-26.353 Y-18.185 E0.01464
G1 X-29.724 Y-14.815 E0.13788
G1 X-30.230 Y-14.815 E0.01464
G1 X-26.859 Y-18.185 E0.13788
G1 X-27.365 Y-18.185 E0.01464
G1 X-30.736 Y-14.815 E0.13788
G1 X-31.242 Y-14.815 E0.01464
G1 X-27.872 Y-18.185 E0.13788
G1 X-28.378 Y-18.185 E0.01464
G1 X-31.748 Y-14.815 E0.13788
G1 X-32.254 Y-14.815 E0.01464
G1 X-28.884 Y-18.185 E0.13788
G1 X-29.390 Y-18.185 E0.01464
G1 X-32.760 Y-14.815 E0.13788
G1 X-33.266 Y-14.815 E0.01464
G1 X-29.896 Y-18.185 E0.13788
G1 X-30.402 Y-18.185 E0.01464
G1 X-33.772 Y-14.815 E0.13788
G1 X-34.279 Y-14.815 E0.01464
G1 X-30.908 Y-18.185 E0.13788
G1 X-31.414 Y-18.185 E0.01464
G1 X-34.785 Y-14.815 E0.13788
G1 X-35.291 Y-14.815 E0.01464
G1 X-31.920 Y-18.185 E0.13788
G1 X-32.427 Y-18.185 E0.01464
G1 X-35.797 Y-14.815 E0.13788
G1 X-36.303 Y-14.815 E0.01464
G1 X-32.933 Y-18.185 E0.13788
G1 X-33.439 Y-18.185 E0.01464
G1 X-36.809 Y-14.815 E0.13788
G1 X-37.315 Y-14.815 E0.01464
G1 X-33.945 Y-18.185 E0.13788
G1 X-34.451 Y-18.185 E0.01464
G1 X-37.821 Y-14.815 E0.13788
G1 X-38.185 Y-14.957 E0.01130
G1 X-34.957 Y-18.185 E0.13206
G1 X-35.463 Y-18.185 E0.01464
G1 X-38.185 Y-15.463 E0.11135
G1 X-38.185 Y-15.969 E0.01464
G1 X-35.969 Y-18.185 E0.09065
G1 X-36.476 Y-18.185 E0.01464
G1 X-38.185 Y-16.476 E0.06994
G1 X-38.185 Y-16.982 E0.01464
G1 X-36.982 Y-18.185 E0.04924
G1 X-37.488 Y-18.185 E0.01464
G1 X-38.185 Y-17.488 E0.02853
G1 X1.315 Y-14.474 F15000.000
G1 X5.026 Y-18.185 E0.15182 F4800.000
G1 X5.532 Y-18.185 E0.01464
G1 X1.315 Y-13.968 E0.17253
G1 X1.315 Y-13.462 E0.01464
G1 X6.038 Y-18.185 E0.19323
G1 X6.544 Y-18.185 E0.01464
G1 X1.315 Y-12.956 E0.21394
G1 X1.315 Y-12.449 E0.01464
G1 X7.051 Y-18.185 E0.23464
G1 X7.557 Y-18.185 E0.01464
G1 X1.315 Y-11.943 E0.25535
G1 X1.315 Y-11.437 E0.01464
