; generated by Slic3r 1.2.9 on 2017-03-10 at 16:46:42

; external perimeters extrusion width = 0.40mm
; perimeters extrusion width = 0.40mm
; infill extrusion width = 0.40mm
; solid infill extrusion width = 0.40mm
; top infill extrusion width = 0.40mm

M107
M83
T0
M116
G21 ; set units to millimeters
G90 ; use absolute coordinates
M83 ; use relative distances for extrusion
G1 E-3.20000 F3000.00000
G1 Z0.400 F15000.000
G1 X23.586 Y0.000 F15000.000
G1 Z0.300 F15000.000
G1 E3.20000 F3000.00000
G1 X23.586 Y25.950 E1.99985 F960.000
G1 X23.191 Y27.597 E0.13052
G1 X22.093 Y28.887 E0.13052
G1 X19.950 Y29.586 E0.17373
G1 X-19.950 Y29.586 E3.07491
G1 X-21.597 Y29.191 E0.13052
G1 X-22.887 Y28.093 E0.13052
G1 X-23.586 Y25.950 E0.17373
G1 X-23.586 Y-25.950 E3.99970
G1 X-23.191 Y-27.597 E0.13052
G1 X-22.093 Y-28.887 E0.13052
G1 X-19.950 Y-29.586 E0.17373
G1 X19.950 Y-29.586 E3.07491
G1 X21.597 Y-29.191 E0.13052
G1 X22.887 Y-28.093 E0.13052 F960.000
G1 X23.586 Y-25.950 E0.17373
G1 X23.586 Y-0.060 E1.99523
G1 E-3.20000 F3000.00000
G1 Z0.700 F15000.000
G1 X4.842 Y18.535 F15000.000
G1 Z0.300 F15000.000
G1 E3.20000 F3000.00000
G1 X5.057 Y18.759 E0.02390 F600.000
G1 X5.256 Y19.007 E0.02453
G1 X5.557 Y19.510 E0.04519
G1 X5.683 Y19.803 E0.02454
G1 X5.779 Y20.098 E0.02391
G1 X5.847 Y20.401 E0.02398
G1 X5.888 Y20.716 E0.02449
G1 X5.888 Y21.284 E0.04370
G1 X5.847 Y21.599 E0.02449
G1 X5.779 Y21.902 E0.02398
G1 X5.680 Y22.204 E0.02448
G1 X5.426 Y22.733 E0.04522
G1 X5.251 Y22.999 E0.02451
G1 X5.052 Y23.247 E0.02451
G1 X4.628 Y23.653 E0.04522
G1 X4.365 Y23.844 E0.02506
G1 X3.848 Y24.122 E0.04522
G1 X3.551 Y24.234 E0.02451
G1 X3.244 Y24.318 E0.02451
G1 X2.663 Y24.397 E0.04522
G1 X2.345 Y24.397 E0.02448
G1 X2.028 Y24.368 E0.02454
G1 X1.456 Y24.237 E0.04519
G1 X1.158 Y24.124 E0.02452
G1 X0.872 Y23.985 E0.02453
G1 X0.384 Y23.662 E0.04512
G1 X0.158 Y23.465 E0.02311
G1 X-0.057 Y23.241 E0.02390
G1 X-0.256 Y22.993 E0.02453
G1 X-0.557 Y22.490 E0.04519
G1 X-0.683 Y22.197 E0.02454
G1 X-0.779 Y21.902 E0.02391
G1 X-0.847 Y21.599 E0.02398
G1 X-0.888 Y21.284 E0.02449
G1 X-0.888 Y20.716 E0.04370
G1 X-0.847 Y20.401 E0.02449
G1 X-0.779 Y20.098 E0.02398
G1 X-0.680 Y19.796 E0.02448
G1 X-0.426 Y19.267 E0.04522
G1 X-0.251 Y19.001 E0.02451
G1 X-0.052 Y18.753 E0.02451
G1 X0.372 Y18.347 E0.04522
G1 X0.635 Y18.156 E0.02506
G1 X1.152 Y17.878 E0.04523
G1 X1.449 Y17.766 E0.02451
G1 X1.756 Y17.682 E0.02451
G1 X2.337 Y17.603 E0.04522
G1 X2.655 Y17.603 E0.02448 F600.000
G1 X2.972 Y17.632 E0.02454
G1 X3.544 Y17.763 E0.04519
G1 X3.842 Y17.876 E0.02452
G1 X4.128 Y18.015 E0.02453
G1 X4.616 Y18.338 E0.04512
G1 X4.797 Y18.496 E0.01849
G1 X5.141 Y18.452 F15000.000
G1 E-3.20000 F3000.00000
G1 Z0.700 F15000.000
G1 X2.663 Y-17.603 F15000.000
G1 Z0.300 F15000.000
G1 E3.20000 F3000.00000
G1 X2.345 Y-17.603 E0.02448 F600.000
G1 X2.028 Y-17.632 E0.02454
G1 X1.456 Y-17.763 E0.04519
G1 X1.158 Y-17.876 E0.02453
G1 X0.872 Y-18.015 E0.02453
G1 X0.384 Y-18.338 E0.04512
G1 X0.158 Y-18.535 E0.02311
G1 X-0.057 Y-18.759 E0.02390
G1 X-0.256 Y-19.007 E0.02453
G1 X-0.557 Y-19.510 E0.04519
G1 X-0.683 Y-19.803 E0.02454
G1 X-0.779 Y-20.098 E0.02391
G1 X-0.847 Y-20.401 E0.02398
G1 X-0.888 Y-20.716 E0.02449
G1 X-0.888 Y-21.284 E0.04370
G1 X-0.847 Y-21.599 E0.02449
G1 X-0.779 Y-21.902 E0.02398
G1 X-0.680 Y-22.204 E0.02448
G1 X-0.426 Y-22.733 E0.04522
G1 X-0.251 Y-22.999 E0.02451
G1 X-0.052 Y-23.247 E0.02451
G1 X0.372 Y-23.653 E0.04522
G1 X0.635 Y-23.844 E0.02506
G1 X1.152 Y-24.122 E0.04522
G1 X1.449 Y-24.234 E0.02451
G1 X1.756 Y-24.318 E0.02451
G1 X2.337 Y-24.397 E0.04522
G1 X2.655 Y-24.397 E0.02448 F600.000
G1 X2.972 Y-24.368 E0.02454
G1 X3.544 Y-24.237 E0.04519
G1 X3.842 Y-24.124 E0.02452
G1 X4.128 Y-23.986 E0.02451
G1 X4.601 Y-23.673 E0.04370
G1 X4.841 Y-23.466 E0.02448
G1 X5.057 Y-23.241 E0.02398
G1 X5.256 Y-22.993 E0.02453
G1 X5.557 Y-22.490 E0.04519
G1 X5.683 Y-22.197 E0.02454
G1 X5.779 Y-21.902 E0.02391
G1 X5.847 Y-21.599 E0.02398
G1 X5.888 Y-21.284 E0.02449
G1 X5.888 Y-20.716 E0.04370
G1 X5.847 Y-20.401 E0.02449
G1 X5.779 Y-20.098 E0.02398
G1 X5.680 Y-19.796 E0.02448
G1 X5.426 Y-19.267 E0.04523
G1 X5.251 Y-19.001 E0.02451
G1 X5.052 Y-18.753 E0.02451
G1 X4.628 Y-18.347 E0.04522
G1 X4.365 Y-18.156 E0.02506
G1 X3.848 Y-17.878 E0.04522
G1 X3.551 Y-17.766 E0.02451
G1 X3.244 Y-17.682 E0.02451
G1 X2.722 Y-17.611 E0.04060
G1 X2.516 Y-17.321 F15000.000
G1 X5.474 Y8.786 F15000.000
G1 X6.300 Y8.897 E0.06430 F600.000
G1 X7.014 Y9.195 E0.05953
G1 X7.647 Y9.681 E0.06156
G1 X8.136 Y10.327 E0.06243
G1 X8.433 Y11.051 E0.06028
G1 X8.535 Y11.829 E0.06054
G1 X8.422 Y12.642 E0.06324
G1 X8.126 Y13.353 E0.05936
G1 X7.639 Y13.987 E0.06156
G1 X6.994 Y14.476 E0.06243
G1 X6.270 Y14.772 E0.06028
G1 X5.491 Y14.875 E0.06054
G1 X4.678 Y14.762 E0.06324
G1 X3.967 Y14.466 E0.05936
G1 X3.334 Y13.979 E0.06156
G1 X2.845 Y13.333 E0.06243
G1 X2.548 Y12.610 E0.06028
G1 X2.446 Y11.831 E0.06054
G1 X2.559 Y11.018 E0.06324
G1 X2.855 Y10.307 E0.05936
G1 X3.341 Y9.674 E0.06156
G1 X3.986 Y9.185 E0.06231
G1 X4.695 Y8.892 E0.05913
G1 X5.414 Y8.795 E0.05593 F600.000
G1 X5.474 Y9.428 F15000.000
G1 X6.133 Y9.516 E0.05125 F600.000
G1 X6.692 Y9.749 E0.04668
G1 X7.192 Y10.133 E0.04856
G1 X7.580 Y10.645 E0.04945
G1 X7.813 Y11.215 E0.04752
G1 X7.894 Y11.827 E0.04757
G1 X7.804 Y12.474 E0.05030
G1 X7.571 Y13.032 E0.04662
G1 X7.187 Y13.532 E0.04856
G1 X6.676 Y13.919 E0.04945
G1 X6.105 Y14.153 E0.04752
G1 X5.493 Y14.233 E0.04757
G1 X4.847 Y14.144 E0.05030
G1 X4.288 Y13.911 E0.04662
G1 X3.789 Y13.527 E0.04856
G1 X3.401 Y13.016 E0.04944
G1 X3.168 Y12.445 E0.04752
G1 X3.087 Y11.833 E0.04757
G1 X3.177 Y11.187 E0.05030
G1 X3.410 Y10.628 E0.04662
G1 X3.793 Y10.128 E0.04856
G1 X4.304 Y9.741 E0.04940
G1 X4.862 Y9.511 E0.04648
G1 X5.415 Y9.436 E0.04300 F600.000
G1 X5.689 Y9.091 F15000.000
G1 X13.967 Y-2.855 F15000.000
G1 X13.334 Y-3.341 E0.06156 F600.000
G1 X12.844 Y-3.987 E0.06243
G1 X12.548 Y-4.711 E0.06028
G1 X12.446 Y-5.490 E0.06054
G1 X12.559 Y-6.303 E0.06324
G1 X12.855 Y-7.014 E0.05936
G1 X13.341 Y-7.647 E0.06156
G1 X13.987 Y-8.136 E0.06243
G1 X14.710 Y-8.432 E0.06023
G1 X15.475 Y-8.534 E0.05946 F600.000
G1 X16.300 Y-8.423 E0.06417
G1 X17.014 Y-8.126 E0.05953
G1 X17.647 Y-7.639 E0.06156
G1 X18.136 Y-6.994 E0.06243
G1 X18.433 Y-6.270 E0.06028
G1 X18.535 Y-5.491 E0.06054
G1 X18.422 Y-4.678 E0.06324
G1 X18.126 Y-3.967 E0.05936
G1 X17.639 Y-3.334 E0.06156
G1 X16.994 Y-2.845 E0.06243
G1 X16.270 Y-2.548 E0.06028
G1 X15.491 Y-2.446 E0.06054
G1 X14.678 Y-2.559 E0.06324
G1 X14.023 Y-2.832 E0.05474
G1 X14.288 Y-3.410 F15000.000
G1 X13.789 Y-3.793 E0.04856 F600.000
G1 X13.401 Y-4.305 E0.04945
G1 X13.168 Y-4.875 E0.04752
G1 X13.087 Y-5.487 E0.04757
G1 X13.177 Y-6.134 E0.05030
G1 X13.410 Y-6.692 E0.04662
G1 X13.793 Y-7.192 E0.04856
G1 X14.305 Y-7.580 E0.04945
G1 X14.875 Y-7.813 E0.04750
G1 X15.475 Y-7.893 E0.04660 F600.000
G1 X16.133 Y-7.804 E0.05120
G1 X16.692 Y-7.571 E0.04668
G1 X17.192 Y-7.187 E0.04856
G1 X17.580 Y-6.676 E0.04945
G1 X17.813 Y-6.105 E0.04752
G1 X17.894 Y-5.493 E0.04757
G1 X17.804 Y-4.847 E0.05030
G1 X17.571 Y-4.288 E0.04662
G1 X17.187 Y-3.789 E0.04856
G1 X16.676 Y-3.401 E0.04944
G1 X16.105 Y-3.168 E0.04752
G1 X15.493 Y-3.087 E0.04757
G1 X14.847 Y-3.177 E0.05030
G1 X14.344 Y-3.386 E0.04200
G1 X13.933 Y-3.225 F15000.000
G1 X-7.855 Y-18.967 F15000.000
G1 X-8.341 Y-18.334 E0.06156 F600.000
G1 X-8.987 Y-17.845 E0.06243
G1 X-9.711 Y-17.548 E0.06028
G1 X-10.490 Y-17.446 E0.06054
G1 X-11.303 Y-17.559 E0.06324
G1 X-12.014 Y-17.855 E0.05936
G1 X-12.647 Y-18.341 E0.06156
G1 X-13.136 Y-18.987 E0.06243
G1 X-13.433 Y-19.711 E0.06028
G1 X-13.535 Y-20.490 E0.06054
G1 X-13.422 Y-21.303 E0.06324
G1 X-13.126 Y-22.014 E0.05936
G1 X-12.639 Y-22.647 E0.06156
G1 X-11.994 Y-23.136 E0.06243
G1 X-11.270 Y-23.432 E0.06023
G1 X-10.506 Y-23.534 E0.05946 F600.000
G1 X-9.680 Y-23.423 E0.06418
G1 X-8.967 Y-23.126 E0.05953
G1 X-8.334 Y-22.639 E0.06156
G1 X-7.845 Y-21.994 E0.06243
G1 X-7.548 Y-21.270 E0.06028
G1 X-7.446 Y-20.491 E0.06054
G1 X-7.559 Y-19.678 E0.06324
G1 X-7.832 Y-19.023 E0.05474
G1 X-8.410 Y-19.288 F15000.000
G1 X-8.793 Y-18.789 E0.04856 F600.000
G1 X-9.305 Y-18.401 E0.04945
G1 X-9.875 Y-18.168 E0.04752
G1 X-10.487 Y-18.087 E0.04757
G1 X-11.134 Y-18.177 E0.05030
G1 X-11.692 Y-18.410 E0.04662
G1 X-12.192 Y-18.793 E0.04856
G1 X-12.580 Y-19.305 E0.04945
G1 X-12.813 Y-19.875 E0.04752
G1 X-12.894 Y-20.487 E0.04757
G1 X-12.804 Y-21.134 E0.05030
G1 X-12.571 Y-21.692 E0.04662
G1 X-12.187 Y-22.192 E0.04856
G1 X-11.676 Y-22.580 E0.04945
G1 X-11.106 Y-22.813 E0.04750
G1 X-10.506 Y-22.893 E0.04660 F600.000
G1 X-9.848 Y-22.804 E0.05120
G1 X-9.288 Y-22.571 E0.04668
G1 X-8.789 Y-22.187 E0.04856
G1 X-8.401 Y-21.676 E0.04945
G1 X-8.168 Y-21.105 E0.04752
G1 X-8.087 Y-20.493 E0.04757
G1 X-8.177 Y-19.847 E0.05030
G1 X-8.386 Y-19.344 E0.04200
G1 X-8.225 Y-18.933 F15000.000
G1 X5.535 Y18.339 F15000.000
G1 X5.281 Y18.075 E0.02827 F720.000
G1 X5.002 Y17.831 E0.02850
G1 X4.444 Y17.461 E0.05165
G1 X4.093 Y17.291 E0.03004
G1 X3.728 Y17.153 E0.03009
G1 X3.073 Y17.003 E0.05177
G1 X2.684 Y16.968 E0.03006
G1 X2.295 Y16.968 E0.03003
G1 X1.629 Y17.058 E0.05180
G1 X1.253 Y17.161 E0.03005
G1 X0.888 Y17.298 E0.03005
G1 X0.296 Y17.617 E0.05180
G1 X-0.036 Y17.858 E0.03165
G1 X-0.522 Y18.323 E0.05180
G1 X-0.766 Y18.627 E0.03005
G1 X-0.980 Y18.953 E0.03005
G1 X-1.272 Y19.559 E0.05180
G1 X-1.392 Y19.929 E0.03003
G1 X-1.474 Y20.290 E0.02849
G1 X-1.524 Y20.675 E0.02994
G1 X-1.524 Y21.325 E0.05008
G1 X-1.474 Y21.710 E0.02994
G1 X-1.392 Y22.071 E0.02849
G1 X-1.278 Y22.421 E0.02842
G1 X-1.124 Y22.780 E0.03006
G1 X-0.779 Y23.356 E0.05177
G1 X-0.535 Y23.661 E0.03009
G1 X-0.281 Y23.925 E0.02827
G1 X-0.002 Y24.169 E0.02850
G1 X0.556 Y24.539 E0.05165
G1 X0.824 Y24.669 E0.02289
G1 X0.756 Y24.964 E0.02340
G1 X-18.964 Y24.964 E1.51973
G1 X-18.964 Y-24.964 E3.84778
G1 X0.768 Y-24.964 E1.52067
G1 X0.840 Y-24.676 E0.02290
G1 X0.296 Y-24.383 E0.04766 F720.000
G1 X-0.036 Y-24.142 E0.03165
G1 X-0.522 Y-23.677 E0.05180
G1 X-0.766 Y-23.373 E0.03005
G1 X-0.980 Y-23.047 E0.03005
G1 X-1.272 Y-22.441 E0.05180
G1 X-1.392 Y-22.071 E0.03003
G1 X-1.474 Y-21.710 E0.02849
G1 X-1.524 Y-21.325 E0.02994
G1 X-1.524 Y-20.675 E0.05008
G1 X-1.474 Y-20.290 E0.02994
G1 X-1.392 Y-19.929 E0.02849
G1 X-1.278 Y-19.579 E0.02842
G1 X-1.124 Y-19.220 E0.03006
G1 X-0.779 Y-18.644 E0.05177
G1 X-0.535 Y-18.339 E0.03009
G1 X-0.281 Y-18.075 E0.02827
G1 X-0.002 Y-17.831 E0.02850
G1 X0.556 Y-17.461 E0.05165
G1 X0.907 Y-17.291 E0.03004
G1 X1.272 Y-17.153 E0.03009
G1 X1.927 Y-17.003 E0.05177
G1 X2.316 Y-16.968 E0.03006
G1 X2.705 Y-16.968 E0.03003
G1 X3.371 Y-17.058 E0.05180
G1 X3.747 Y-17.161 E0.03005
G1 X4.112 Y-17.298 E0.03005
G1 X4.704 Y-17.617 E0.05180
G1 X5.036 Y-17.858 E0.03165
G1 X5.522 Y-18.323 E0.05180
G1 X5.766 Y-18.627 E0.03005
G1 X5.980 Y-18.953 E0.03005
G1 X6.272 Y-19.559 E0.05180
G1 X6.392 Y-19.929 E0.03003
G1 X6.474 Y-20.290 E0.02849
G1 X6.524 Y-20.675 E0.02994
G1 X6.524 Y-21.325 E0.05008
G1 X6.474 Y-21.710 E0.02994
G1 X6.392 Y-22.071 E0.02849
G1 X6.278 Y-22.421 E0.02842
G1 X6.124 Y-22.780 E0.03006
G1 X5.779 Y-23.356 E0.05177
G1 X5.535 Y-23.661 E0.03009
G1 X5.279 Y-23.927 E0.02849
G1 X4.985 Y-24.181 E0.02990
G1 X4.443 Y-24.539 E0.05008
G1 X4.176 Y-24.669 E0.02283
G1 X4.244 Y-24.964 E0.02340
G1 X18.964 Y-24.964 E1.13440
G1 X18.964 Y24.964 E3.84778
G1 X4.232 Y24.964 E1.13534
G1 X4.160 Y24.676 E0.02290
G1 X4.704 Y24.383 E0.04766
G1 X5.036 Y24.142 E0.03165
G1 X5.522 Y23.677 E0.05180
G1 X5.766 Y23.373 E0.03005
G1 X5.980 Y23.047 E0.03005
G1 X6.272 Y22.441 E0.05180
G1 X6.392 Y22.071 E0.03003
G1 X6.474 Y21.710 E0.02849
G1 X6.524 Y21.325 E0.02994
G1 X6.524 Y20.675 E0.05008
G1 X6.474 Y20.290 E0.02994
G1 X6.392 Y19.929 E0.02849
G1 X6.278 Y19.579 E0.02842
G1 X6.124 Y19.220 E0.03006
G1 X5.779 Y18.644 E0.05177
G1 X5.573 Y18.386 E0.02547
G1 X5.573 Y25.600 F15000.000
G1 X-19.600 Y25.600 E1.93995 F720.000
G1 X-19.600 Y-25.600 E3.94575
G1 X19.600 Y-25.600 E3.02097
G1 X19.600 Y25.600 E3.94575
G1 X5.633 Y25.600 E1.07640 F720.000
G1 X5.373 Y25.254 F15000.000
G1 X3.884 Y24.884 F15000.000
G1 X3.352 Y24.955 E0.08701 F960.000
G1 X2.684 Y24.998 E0.10835
G1 X1.950 Y24.982 E0.11890
G1 X1.100 Y24.887 E0.13855
G1 X-1.130 Y24.579 F15000.000
G1 X-18.579 Y7.130 E1.90841 F960.000
G1 X-18.579 Y8.032 E0.06976
G1 X-2.032 Y24.579 E1.80975
G1 X-2.934 Y24.579 E0.06976
G1 X-18.579 Y8.934 E1.71109
G1 X-18.579 Y9.836 E0.06976
G1 X-3.836 Y24.579 E1.61243
G1 X-4.738 Y24.579 E0.06976
G1 X-18.579 Y10.738 E1.51377
G1 X-18.579 Y11.640 E0.06976
G1 X-5.640 Y24.579 E1.41511
G1 X-6.542 Y24.579 E0.06976
G1 X-18.579 Y12.542 E1.31645
G1 X-18.579 Y13.445 E0.06976
G1 X-7.445 Y24.579 E1.21779
G1 X-8.347 Y24.579 E0.06976
G1 X-18.579 Y14.347 E1.11913
G1 X-18.579 Y15.249 E0.06976
G1 X-9.249 Y24.579 E1.02046
G1 X-10.151 Y24.579 E0.06976
G1 X-18.579 Y16.151 E0.92180
G1 X-18.579 Y17.053 E0.06976
G1 X-11.053 Y24.579 E0.82314
G1 X-11.955 Y24.579 E0.06976
G1 X-18.579 Y17.955 E0.72448
G1 X-18.579 Y18.857 E0.06976
G1 X-12.857 Y24.579 E0.62582
G1 X-13.759 Y24.579 E0.06976
G1 X-18.579 Y19.759 E0.52716
G1 X-18.579 Y20.661 E0.06976
G1 X-14.661 Y24.579 E0.42850
G1 X-15.563 Y24.579 E0.06976
G1 X-18.579 Y21.563 E0.32984
G1 X-18.579 Y22.465 E0.06976
G1 X-16.465 Y24.579 E0.23118
G1 X-17.367 Y24.579 E0.06976
G1 X-18.579 Y23.367 E0.13252
G1 X-18.579 Y24.269 E0.06976
G1 X-18.269 Y24.579 E0.03386
G1 X-1.817 Y22.088 F15000.000
G1 X-18.579 Y5.326 E1.83324 F960.000
G1 X-18.579 Y6.228 E0.06976
G1 X-1.153 Y23.654 E1.90590
G1 X-1.909 Y21.093 F15000.000
G1 X-18.579 Y4.424 E1.82317 F960.000
G1 X-18.579 Y3.522 E0.06976
G1 X-1.836 Y20.265 E1.83120
G1 X-1.640 Y19.559 E0.05668
G1 X-18.579 Y2.620 E1.85263
G1 X-18.579 Y1.718 E0.06976
G1 X-1.353 Y18.943 E1.88400
G1 X-1.002 Y18.393 E0.05052
G1 X-18.579 Y0.816 E1.92244
G1 X-18.579 Y-0.087 E0.06976
G1 X-0.575 Y17.917 E1.96910
G1 X-0.098 Y17.493 E0.04941
G1 X-18.579 Y-0.989 E2.02131
G1 X-18.579 Y-1.891 E0.06976
G1 X0.458 Y17.146 E2.08209
G1 X1.072 Y16.858 E0.05246
G1 X-18.579 Y-2.793 E2.14927
G1 X-18.579 Y-3.695 E0.06976
G1 X1.781 Y16.665 E2.22678
G1 X2.600 Y16.582 E0.06367
G1 X-18.579 Y-4.597 E2.31637
G1 X-18.579 Y-5.499 E0.06976
G1 X3.619 Y16.699 E2.42777
G1 X5.217 Y17.395 F15000.000
G1 X-18.579 Y-6.401 E2.60260 F960.000
G1 X-18.579 Y-16.324 F15000.000
G1 X6.224 Y8.479 E2.71270 F960.000
G1 X5.283 Y8.440 E0.07280
G1 X-18.579 Y-15.422 E2.60983
G1 X-18.579 Y-14.520 E0.06976
G1 X4.529 Y8.588 E2.52735
G1 X3.891 Y8.852 E0.05341
G1 X-18.579 Y-13.618 E2.45753
G1 X-18.579 Y-12.715 E0.06976
G1 X3.371 Y9.235 E2.40074
G1 X2.917 Y9.682 E0.04933
G1 X-18.579 Y-11.813 E2.35103
G1 X-18.579 Y-10.911 E0.06976
G1 X2.528 Y10.196 E2.30854
G1 X2.263 Y10.833 E0.05335
G1 X-18.579 Y-10.009 E2.27952
G1 X-18.579 Y-9.107 E0.06976
G1 X2.109 Y11.581 E2.26265
G1 X2.126 Y12.500 E0.07111
G1 X-18.579 Y-8.205 E2.26454
G1 X-18.579 Y-7.303 E0.06976
G1 X13.303 Y24.579 E3.48697
G1 X14.205 Y24.579 E0.06976
G1 X4.816 Y15.190 E1.02686
G1 X5.742 Y15.214 E0.07162
G1 X15.107 Y24.579 E1.02427
G1 X16.009 Y24.579 E0.06976
G1 X6.486 Y15.056 E1.04154
G1 X7.125 Y14.792 E0.05342
G1 X16.911 Y24.579 E1.07037
G1 X17.813 Y24.579 E0.06976
G1 X7.638 Y14.404 E1.11290
G1 X8.086 Y13.949 E0.04933
G1 X18.579 Y24.442 E1.14765
G1 X18.579 Y23.540 E0.06976
G1 X8.467 Y13.429 E1.10593
G1 X8.732 Y12.792 E0.05335
G1 X18.579 Y22.638 E1.07692
G1 X18.579 Y21.736 E0.06976
G1 X8.878 Y12.035 E1.06100
G1 X8.847 Y11.102 E0.07220
G1 X18.579 Y20.834 E1.06439
G1 X18.579 Y19.932 E0.06976
G1 X-18.579 Y-17.226 E4.06400
G1 X-18.579 Y-18.128 E0.06976
G1 X18.579 Y19.030 E4.06400
G1 X18.579 Y18.128 E0.06976
G1 X-18.579 Y-19.030 E4.06400
G1 X-18.579 Y-19.932 E0.06976
G1 X18.579 Y17.226 E4.06400
G1 X18.579 Y16.324 E0.06976
G1 X-18.579 Y-20.834 E4.06400
G1 X-18.579 Y-21.736 E0.06976
G1 X18.579 Y15.422 E4.06400
G1 X18.579 Y14.520 E0.06976
G1 X-18.579 Y-22.638 E4.06400
G1 X-18.579 Y-23.540 E0.06976
G1 X18.579 Y13.618 E4.06400
G1 X18.579 Y12.716 E0.06976
G1 X-11.283 Y-17.147 E3.26608
G1 X-10.329 Y-17.095 E0.07390
G1 X18.579 Y11.813 E3.16172
G1 X18.579 Y10.911 E0.06976
G1 X-9.567 Y-17.235 E3.07838
G1 X-8.927 Y-17.497 E0.05348
G1 X18.579 Y10.009 E3.00838
