; generated by Slic3r 1.2.9 on 2017-03-07 at 15:05:24

; external perimeters extrusion width = 0.40mm
; perimeters extrusion width = 0.40mm
; infill extrusion width = 0.40mm
; solid infill extrusion width = 0.40mm
; top infill extrusion width = 0.40mm

M107
M83
T0
M116
G21 ; set units to millimeters
G90 ; use absolute coordinates
M83 ; use relative distances for extrusion
G1 E-3.20000 F3000.00000
G1 Z0.400 F15000.000
G1 X0.000 Y11.586 F15000.000
G1 Z0.300 F15000.000
G1 E3.20000 F3000.00000
G1 X-12.450 Y11.586 E0.95947 F960.000
G1 X-13.576 Y11.407 E0.08786
G1 X-25.957 Y7.374 E1.00353
G1 X-26.452 Y7.181 E0.04090
G1 X-27.274 Y6.707 E0.07314
G1 X-27.831 Y6.240 E0.05598
G1 X-34.240 Y-0.169 E0.69856
G1 X-34.707 Y-0.726 E0.05598
G1 X-35.181 Y-1.548 E0.07314
G1 X-35.276 Y-1.777 E0.01910
G1 X-35.522 Y-2.694 E0.07314
G1 X-35.555 Y-2.943 E0.01936
G1 X-35.586 Y-3.445 E0.03878
G1 X-35.571 Y-5.317 E0.14424
G1 X-35.532 Y-5.823 E0.03909
G1 X-35.490 Y-6.109 E0.02231
G1 X-35.350 Y-6.740 E0.04979
G1 X-35.148 Y-7.354 E0.04979
G1 X-35.012 Y-7.683 E0.02750
G1 X-34.720 Y-8.260 E0.04979
G1 X-34.364 Y-8.816 E0.05090
G1 X-34.184 Y-9.058 E0.02325
G1 X-33.780 Y-9.527 E0.04773
G1 X-33.313 Y-9.974 E0.04979
G1 X-33.037 Y-10.200 E0.02750
G1 X-32.508 Y-10.571 E0.04979
G1 X-31.945 Y-10.888 E0.04979
G1 X-31.683 Y-11.012 E0.02231
G1 X-31.081 Y-11.246 E0.04979
G1 X-30.459 Y-11.420 E0.04979
G1 X-30.109 Y-11.490 E0.02750
G1 X-29.468 Y-11.567 E0.04979
G1 X-28.999 Y-11.586 E0.03615
G1 X29.177 Y-11.581 E4.48336
G1 X29.796 Y-11.535 E0.04783 F960.000
G1 X30.095 Y-11.492 E0.02325
G1 X30.740 Y-11.350 E0.05091
G1 X31.354 Y-11.148 E0.04979
G1 X31.683 Y-11.012 E0.02750
G1 X32.236 Y-10.733 E0.04774
G1 X32.805 Y-10.373 E0.05184
G1 X33.313 Y-9.974 E0.04979
G1 X33.780 Y-9.527 E0.04980
G1 X33.974 Y-9.313 E0.02231
G1 X34.373 Y-8.805 E0.04979
G1 X34.720 Y-8.260 E0.04979
G1 X35.012 Y-7.683 E0.04979
G1 X35.246 Y-7.081 E0.04979
G1 X35.420 Y-6.459 E0.04979
G1 X35.532 Y-5.823 E0.04979
G1 X35.571 Y-5.317 E0.03909
G1 X35.586 Y-3.445 E0.14424
G1 X35.555 Y-2.943 E0.03878
G1 X35.522 Y-2.694 E0.01936
G1 X35.276 Y-1.777 E0.07314
G1 X35.181 Y-1.548 E0.01910
G1 X34.707 Y-0.726 E0.07314
G1 X34.554 Y-0.527 E0.01936
G1 X34.240 Y-0.169 E0.03665
G1 X27.831 Y6.240 E0.69856
G1 X27.473 Y6.554 E0.03665
G1 X27.274 Y6.707 E0.01936
G1 X26.452 Y7.181 E0.07314
G1 X25.957 Y7.374 E0.04090
G1 X13.576 Y11.407 E1.00353
G1 X12.450 Y11.586 E0.08786
G1 X0.060 Y11.586 E0.95484
G1 E-3.20000 F3000.00000
G1 Z0.700 F15000.000
G1 X17.840 Y0.976 F15000.000
G1 Z0.300 F15000.000
G1 E3.20000 F3000.00000
G1 X17.735 Y0.744 E0.01965 F600.000
G1 X17.654 Y0.478 E0.02141
G1 X17.599 Y0.010 E0.03630
G1 X17.615 Y-0.253 E0.02034
G1 X17.660 Y-0.503 E0.01955
G1 X17.736 Y-0.745 E0.01955
G1 X17.840 Y-0.976 E0.01955
G1 X17.971 Y-1.193 E0.01955
G1 X18.128 Y-1.393 E0.01955
G1 X18.307 Y-1.572 E0.01955
G1 X18.507 Y-1.729 E0.01955
G1 X18.724 Y-1.860 E0.01955
G1 X18.955 Y-1.964 E0.01955
G1 X19.207 Y-2.043 E0.02034
G1 X19.675 Y-2.100 E0.03630 F600.000
G1 X19.952 Y-2.086 E0.02141
G1 X20.203 Y-2.040 E0.01965
G1 X20.445 Y-1.964 E0.01955
G1 X20.676 Y-1.860 E0.01955
G1 X20.893 Y-1.729 E0.01955
G1 X21.093 Y-1.572 E0.01955
G1 X21.272 Y-1.393 E0.01955
G1 X21.429 Y-1.193 E0.01955
G1 X21.560 Y-0.976 E0.01955
G1 X21.664 Y-0.745 E0.01955
G1 X21.740 Y-0.503 E0.01955
G1 X21.785 Y-0.253 E0.01955
G1 X21.801 Y0.000 E0.01955
G1 X21.785 Y0.253 E0.01955
G1 X21.739 Y0.504 E0.01965
G1 X21.655 Y0.769 E0.02141
G1 X21.435 Y1.185 E0.03630
G1 X21.272 Y1.393 E0.02034
G1 X21.093 Y1.572 E0.01955
G1 X20.893 Y1.729 E0.01955
G1 X20.676 Y1.860 E0.01955
G1 X20.445 Y1.964 E0.01955
G1 X20.203 Y2.040 E0.01955
G1 X19.953 Y2.085 E0.01955
G1 X19.700 Y2.101 E0.01955
G1 X19.447 Y2.085 E0.01955
G1 X19.197 Y2.040 E0.01955
G1 X18.955 Y1.964 E0.01955
G1 X18.724 Y1.860 E0.01955
G1 X18.506 Y1.728 E0.01965
G1 X18.288 Y1.555 E0.02141
G1 X17.976 Y1.202 E0.03630
G1 X17.871 Y1.028 E0.01572
G1 X17.585 Y0.961 F15000.000
G1 X5.083 Y-6.964 F15000.000
G1 X25.647 Y-6.964 E1.58475 F720.000
G1 X25.412 Y-6.617 E0.03231
G1 X25.253 Y-6.317 E0.02618 F720.000
G1 X25.127 Y-6.002 E0.02618
G1 X25.036 Y-5.674 E0.02618
G1 X24.981 Y-5.339 E0.02618
G1 X24.963 Y-5.000 E0.02618
G1 X24.981 Y-4.661 E0.02618
G1 X25.036 Y-4.326 E0.02618
G1 X25.127 Y-3.998 E0.02618
G1 X25.253 Y-3.683 E0.02618
G1 X25.412 Y-3.383 E0.02618
G1 X25.617 Y-3.080 E0.02818
G1 X26.035 Y-2.638 E0.04688
G1 X26.337 Y-2.405 E0.02939
G1 X26.631 Y-2.228 E0.02641
G1 X26.939 Y-2.086 E0.02618
G1 X27.261 Y-1.977 E0.02618
G1 X27.592 Y-1.904 E0.02618
G1 X27.930 Y-1.867 E0.02618
G1 X28.270 Y-1.867 E0.02618
G1 X28.608 Y-1.904 E0.02618
G1 X28.939 Y-1.977 E0.02618
G1 X29.176 Y-2.057 E0.01926
G1 X29.336 Y-1.800 E0.02330
G1 X24.571 Y2.964 E0.51927
G1 X20.461 Y2.964 E0.31676
G1 X20.412 Y2.640 E0.02526
G1 X20.671 Y2.560 E0.02092
G1 X20.972 Y2.424 E0.02548
G1 X21.255 Y2.253 E0.02548
G1 X21.515 Y2.049 E0.02548
G1 X21.749 Y1.815 E0.02547
G1 X21.971 Y1.532 E0.02771
G1 X22.243 Y1.015 E0.04503
G1 X22.357 Y0.659 E0.02887
G1 X22.418 Y0.330 E0.02575
G1 X22.438 Y0.000 E0.02548
G1 X22.418 Y-0.330 E0.02548
G1 X22.358 Y-0.655 E0.02548
G1 X22.260 Y-0.971 E0.02547
G1 X22.124 Y-1.272 E0.02548
G1 X21.953 Y-1.555 E0.02548
G1 X21.749 Y-1.815 E0.02548
G1 X21.515 Y-2.049 E0.02547
G1 X21.255 Y-2.253 E0.02548
G1 X20.972 Y-2.424 E0.02548
G1 X20.671 Y-2.560 E0.02548
G1 X20.355 Y-2.658 E0.02548
G1 X20.026 Y-2.718 E0.02575
G1 X19.652 Y-2.738 E0.02887
G1 X19.073 Y-2.667 E0.04502
G1 X18.729 Y-2.560 E0.02771
G1 X18.428 Y-2.424 E0.02548
G1 X18.145 Y-2.253 E0.02548
G1 X17.885 Y-2.049 E0.02548
G1 X17.651 Y-1.815 E0.02548
G1 X17.447 Y-1.555 E0.02548
G1 X17.276 Y-1.272 E0.02548
G1 X17.140 Y-0.971 E0.02548
G1 X17.042 Y-0.655 E0.02548
G1 X16.982 Y-0.330 E0.02547
G1 X16.961 Y0.029 E0.02771
G1 X17.030 Y0.609 E0.04502
G1 X17.139 Y0.968 E0.02887
G1 X17.276 Y1.272 E0.02575
G1 X17.462 Y1.580 E0.02771
G1 X17.849 Y2.018 E0.04502
G1 X18.142 Y2.251 E0.02888
G1 X18.428 Y2.424 E0.02575
G1 X18.729 Y2.560 E0.02548
G1 X18.988 Y2.640 E0.02092
G1 X18.939 Y2.964 E0.02526
G1 X11.464 Y2.964 E0.57605
G1 X11.464 Y6.964 E0.30826
G1 X10.536 Y6.964 E0.07158
G1 X10.536 Y-3.036 E0.77065
G1 X1.009 Y-3.036 E0.73417
G1 X4.306 Y-6.964 E0.39524
G1 X5.023 Y-6.964 E0.05532
G1 X5.023 Y-7.600 F15000.000
G1 X27.060 Y-7.600 E1.69827 F720.000
G1 X27.126 Y-7.301 E0.02362
G1 X26.929 Y-7.209 E0.01676 F720.000
G1 X26.697 Y-7.070 E0.02087
G1 X26.481 Y-6.906 E0.02087
G1 X26.285 Y-6.720 E0.02087
G1 X26.109 Y-6.513 E0.02087
G1 X25.957 Y-6.289 E0.02087
G1 X25.831 Y-6.050 E0.02087
G1 X25.730 Y-5.798 E0.02087
G1 X25.658 Y-5.538 E0.02087
G1 X25.614 Y-5.270 E0.02087
G1 X25.599 Y-5.000 E0.02087
G1 X25.614 Y-4.730 E0.02087
G1 X25.658 Y-4.462 E0.02087
G1 X25.730 Y-4.202 E0.02087
G1 X25.831 Y-3.950 E0.02087
G1 X25.957 Y-3.711 E0.02087
G1 X26.114 Y-3.479 E0.02158
G1 X26.462 Y-3.111 E0.03906
G1 X26.696 Y-2.931 E0.02270
G1 X26.929 Y-2.791 E0.02095
G1 X27.174 Y-2.677 E0.02087
G1 X27.431 Y-2.591 E0.02087
G1 X27.695 Y-2.532 E0.02087
G1 X27.965 Y-2.503 E0.02087
G1 X28.235 Y-2.503 E0.02087
G1 X28.505 Y-2.532 E0.02087
G1 X28.769 Y-2.591 E0.02087
G1 X29.026 Y-2.677 E0.02087
G1 X29.271 Y-2.791 E0.02087
G1 X29.503 Y-2.930 E0.02087
G1 X29.719 Y-3.094 E0.02087
G1 X29.915 Y-3.280 E0.02087
G1 X30.091 Y-3.487 E0.02087
G1 X30.243 Y-3.711 E0.02087
G1 X30.369 Y-3.950 E0.02087
G1 X30.470 Y-4.202 E0.02087
G1 X30.542 Y-4.462 E0.02087
G1 X30.586 Y-4.730 E0.02087
G1 X30.601 Y-5.000 E0.02087
G1 X30.586 Y-5.270 E0.02087
G1 X30.542 Y-5.538 E0.02087
G1 X30.470 Y-5.798 E0.02087
G1 X30.369 Y-6.050 E0.02087
G1 X30.243 Y-6.289 E0.02087
G1 X30.091 Y-6.513 E0.02087
G1 X29.915 Y-6.720 E0.02087
G1 X29.719 Y-6.906 E0.02087
G1 X29.503 Y-7.070 E0.02087
G1 X29.129 Y-7.295 E0.03368
G1 X29.234 Y-7.589 E0.02405
G1 X29.508 Y-7.549 E0.02135
G1 X29.755 Y-7.488 E0.01961
G1 X30.215 Y-7.298 E0.03838
G1 X30.445 Y-7.161 E0.02060
G1 X30.649 Y-7.009 E0.01961
G1 X30.838 Y-6.838 E0.01966
G1 X31.009 Y-6.649 E0.01966
G1 X31.161 Y-6.444 E0.01966
G1 X31.293 Y-6.225 E0.01966
G1 X31.402 Y-5.995 E0.01966
G1 X31.488 Y-5.755 E0.01966
G1 X31.586 Y-5.262 E0.03871
G1 X31.600 Y-3.439 E0.14049
G1 X31.576 Y-3.260 E0.01394
G1 X31.517 Y-3.116 E0.01200
G1 X31.406 Y-2.971 E0.01404
G1 X25.029 Y3.406 E0.69503
G1 X24.884 Y3.517 E0.01404
G1 X24.740 Y3.576 E0.01200
G1 X24.560 Y3.600 E0.01404
G1 X12.100 Y3.600 E0.96020
G1 X12.100 Y7.600 E0.30826
G1 X9.900 Y7.600 E0.16954
G1 X9.900 Y-2.400 E0.77065
G1 X-0.354 Y-2.400 E0.79024
G1 X4.009 Y-7.600 E0.52313
G1 X4.963 Y-7.600 E0.07354
G1 X5.223 Y-7.254 F15000.000
G1 X27.436 Y-7.520 F15000.000
G1 X28.216 Y-7.548 E0.06017 F720.000
G1 X28.836 Y-7.516 E0.04782
G1 X30.176 Y-6.930 F15000.000
G1 X30.390 Y-6.737 E0.02219 F960.000
G1 X30.590 Y-6.504 E0.02368
G1 X30.772 Y-6.229 E0.02542
G1 X30.913 Y-5.939 E0.02482
G1 X31.017 Y-5.633 E0.02494
G1 X31.079 Y-5.314 E0.02500
G1 X31.094 Y-5.010 E0.02352
G1 X31.085 Y-4.597 E0.03180
G1 X31.081 Y-4.597 F15000.000
G1 X31.015 Y-4.003 E0.09687 F960.000
G1 X30.898 Y-3.456 E0.09048
G1 X30.620 Y-3.107 E0.07231
G1 X30.365 Y-2.830 E0.06089
G1 X29.890 Y-2.393 E0.10460
G1 X29.522 Y-2.103 E0.07593
G1 X27.842 Y-1.482 F15000.000
G1 X28.183 Y-1.142 E0.03745 F960.000
G1 X27.729 Y-0.688 E0.04987
G1 X26.716 Y-1.701 E0.11141
G1 X27.276 Y-0.235 F15000.000
G1 X20.931 Y-6.579 E0.69765 F960.000
G1 X20.024 Y-6.579 E0.07052
G1 X26.822 Y0.219 E0.74751
G1 X26.369 Y0.672 E0.04987
G1 X19.117 Y-6.579 E0.79738
G1 X18.210 Y-6.579 E0.07052
G1 X25.915 Y1.126 E0.84724
G1 X25.462 Y1.579 E0.04987
G1 X22.621 Y-1.261 E0.31235
G1 X22.823 Y-0.153 E0.08761
G1 X25.008 Y2.033 E0.24032
G1 X24.555 Y2.486 E0.04987
G1 X22.726 Y0.657 E0.20110
G1 X22.471 Y1.309 E0.05442
G1 X23.740 Y2.579 E0.13963
G1 X22.834 Y2.579 E0.07052
G1 X22.126 Y1.871 E0.07783
G1 X17.392 Y2.579 F15000.000
G1 X8.234 Y-6.579 E1.00703 F960.000
G1 X7.327 Y-6.579 E0.07052
G1 X10.485 Y-3.421 E0.34725
G1 X10.921 Y-2.985 F15000.000
G1 X16.485 Y2.579 E0.61182 F960.000
G1 X15.578 Y2.579 E0.07052
G1 X10.921 Y-2.078 E0.51209
G1 X10.921 Y-1.171 E0.07052
G1 X14.671 Y2.579 E0.41236
G1 X13.764 Y2.579 E0.07052
G1 X10.921 Y-0.264 E0.31263
G1 X10.921 Y0.643 E0.07052
G1 X12.857 Y2.579 E0.21290
G1 X11.632 Y2.261 E0.09838
G1 X10.921 Y1.550 E0.07822
G1 X9.578 Y-3.421 F15000.000
G1 X6.420 Y-6.579 E0.34725 F960.000
G1 X5.513 Y-6.579 E0.07052
G1 X8.671 Y-3.421 E0.34725
G1 X7.764 Y-3.421 E0.07052
G1 X4.606 Y-6.579 E0.34725
G1 X4.088 Y-6.191 E0.05038
G1 X6.857 Y-3.421 E0.30455
G1 X5.950 Y-3.421 E0.07052
G1 X3.674 Y-5.697 E0.25032
G1 X3.260 Y-5.204 E0.05006
G1 X5.043 Y-3.421 E0.19610
G1 X4.136 Y-3.421 E0.07052
G1 X2.846 Y-4.711 E0.14187
G1 X2.432 Y-4.218 E0.05006
G1 X3.229 Y-3.421 E0.08764
G1 X2.322 Y-3.421 E0.07052
G1 X2.019 Y-3.725 E0.03341
G1 X9.141 Y-6.579 F15000.000
G1 X16.690 Y0.970 E0.83010 F960.000
G1 X16.587 Y-0.040 E0.07895
G1 X10.048 Y-6.579 E0.71903
G1 X10.955 Y-6.579 E0.07052
G1 X16.723 Y-0.811 E0.63424
G1 X16.991 Y-1.449 E0.05384
G1 X11.862 Y-6.579 E0.56408
G1 X12.769 Y-6.579 E0.07052
G1 X17.363 Y-1.985 E0.50521
G1 X17.829 Y-2.426 E0.04988
G1 X13.676 Y-6.579 E0.45670
G1 X14.583 Y-6.579 E0.07052
G1 X18.383 Y-2.779 E0.41789
G1 X19.043 Y-3.025 E0.05480
G1 X15.490 Y-6.579 E0.39075
G1 X16.396 Y-6.579 E0.07052
G1 X19.855 Y-3.121 E0.38028
G1 X20.961 Y-2.921 E0.08742
G1 X17.303 Y-6.579 E0.40221
G1 X24.864 Y-6.274 F15000.000
G1 X24.559 Y-6.579 E0.03355 F960.000
G1 X23.652 Y-6.579 E0.07052
G1 X24.651 Y-5.580 E0.10980
G1 X24.583 Y-4.741 E0.06551
G1 X22.745 Y-6.579 E0.20215
G1 X21.838 Y-6.579 E0.07052
G1 X24.800 Y-3.617 E0.32570
G1 E-3.20000 F3000.00000
G1 Z0.700 F15000.000
G1 X11.000 Y2.647 F15000.000
G1 Z0.300 F15000.000
G1 E3.20000 F3000.00000
G1 X11.000 Y6.647 E0.30826 F960.000
G1 E-3.20000 F3000.00000
G1 Z0.700 F15000.000
G1 X-17.660 Y0.503 F15000.000
G1 Z0.300 F15000.000
G1 E3.20000 F3000.00000
G1 X-17.736 Y0.745 E0.01955 F600.000
G1 X-17.840 Y0.976 E0.01955
G1 X-17.971 Y1.193 E0.01955
G1 X-18.128 Y1.393 E0.01955
G1 X-18.314 Y1.580 E0.02034
G1 X-18.701 Y1.848 E0.03630
G1 X-18.954 Y1.964 E0.02141
G1 X-19.197 Y2.040 E0.01965
G1 X-19.447 Y2.085 E0.01955
G1 X-19.700 Y2.101 E0.01955
G1 X-19.953 Y2.085 E0.01955
G1 X-20.203 Y2.040 E0.01955
G1 X-20.446 Y1.964 E0.01965
G1 X-20.699 Y1.848 E0.02141
G1 X-21.086 Y1.580 E0.03630
G1 X-21.272 Y1.393 E0.02034
G1 X-21.429 Y1.193 E0.01955
G1 X-21.560 Y0.976 E0.01955
G1 X-21.668 Y0.736 E0.02034
G1 X-21.782 Y0.278 E0.03630
G1 X-21.801 Y0.001 E0.02141
G1 X-21.785 Y-0.253 E0.01965
G1 X-21.740 Y-0.503 E0.01955
G1 X-21.664 Y-0.745 E0.01955
G1 X-21.560 Y-0.976 E0.01955
G1 X-21.429 Y-1.193 E0.01955
G1 X-21.272 Y-1.393 E0.01955
G1 X-21.093 Y-1.572 E0.01955
G1 X-20.893 Y-1.729 E0.01955
G1 X-20.676 Y-1.860 E0.01955
G1 X-20.445 Y-1.964 E0.01955
G1 X-20.193 Y-2.043 E0.02034
G1 X-19.725 Y-2.100 E0.03630 F600.000
G1 X-19.448 Y-2.086 E0.02141
G1 X-19.197 Y-2.040 E0.01965
G1 X-18.945 Y-1.961 E0.02034
G1 X-18.528 Y-1.743 E0.03630
G1 X-18.308 Y-1.573 E0.02141
G1 X-18.128 Y-1.393 E0.01965
G1 X-17.971 Y-1.193 E0.01955
G1 X-17.840 Y-0.976 E0.01955
G1 X-17.736 Y-0.745 E0.01955
G1 X-17.660 Y-0.503 E0.01955
G1 X-17.615 Y-0.253 E0.01955
G1 X-17.599 Y-0.000 E0.01955
G1 X-17.615 Y0.253 E0.01955
G1 X-17.649 Y0.444 E0.01493
G1 X-17.481 Y0.682 F15000.000
G1 X-10.536 Y5.043 F15000.000
G1 X-10.536 Y6.964 E0.14805 F720.000
G1 X-11.464 Y6.964 E0.07158
G1 X-11.464 Y2.964 E0.30826
G1 X-18.939 Y2.964 E0.57605
G1 X-18.988 Y2.640 E0.02526
G1 X-18.726 Y2.559 E0.02120
G1 X-18.385 Y2.402 E0.02887
G1 X-17.905 Y2.070 E0.04502
G1 X-17.651 Y1.815 E0.02771
G1 X-17.447 Y1.555 E0.02548
G1 X-17.276 Y1.272 E0.02548
G1 X-17.140 Y0.971 E0.02548
G1 X-17.042 Y0.655 E0.02548
G1 X-16.982 Y0.330 E0.02548
G1 X-16.962 Y-0.000 E0.02548
G1 X-16.982 Y-0.330 E0.02548
G1 X-17.042 Y-0.655 E0.02548
G1 X-17.140 Y-0.971 E0.02548
G1 X-17.276 Y-1.272 E0.02548
G1 X-17.447 Y-1.555 E0.02548
G1 X-17.651 Y-1.815 E0.02548
G1 X-17.887 Y-2.052 E0.02575
G1 X-18.184 Y-2.281 E0.02887
G1 X-18.702 Y-2.551 E0.04502
G1 X-19.045 Y-2.658 E0.02771
G1 X-19.374 Y-2.718 E0.02575
G1 X-19.748 Y-2.738 E0.02887
G1 X-20.327 Y-2.667 E0.04502
G1 X-20.671 Y-2.560 E0.02771
G1 X-20.972 Y-2.424 E0.02548
G1 X-21.255 Y-2.253 E0.02548
G1 X-21.515 Y-2.049 E0.02548
G1 X-21.749 Y-1.815 E0.02548
G1 X-21.953 Y-1.555 E0.02548
G1 X-22.124 Y-1.272 E0.02548
G1 X-22.260 Y-0.971 E0.02548
G1 X-22.358 Y-0.655 E0.02548
G1 X-22.418 Y-0.330 E0.02548
G1 X-22.438 Y0.004 E0.02575
G1 X-22.412 Y0.377 E0.02887
G1 X-22.272 Y0.944 E0.04502
G1 X-22.124 Y1.272 E0.02771
G1 X-21.953 Y1.555 E0.02548
G1 X-21.749 Y1.815 E0.02548
G1 X-21.495 Y2.070 E0.02771
G1 X-21.015 Y2.402 E0.04502
G1 X-20.674 Y2.559 E0.02888
G1 X-20.412 Y2.640 E0.02120
G1 X-20.461 Y2.964 E0.02526
G1 X-24.571 Y2.964 E0.31676
G1 X-29.336 Y-1.800 E0.51927
G1 X-29.176 Y-2.057 E0.02330
G1 X-28.939 Y-1.977 E0.01927
G1 X-28.608 Y-1.904 E0.02618
G1 X-28.270 Y-1.867 E0.02618
G1 X-27.927 Y-1.867 E0.02641
G1 X-27.548 Y-1.911 E0.02939
G1 X-26.962 Y-2.075 E0.04688
G1 X-26.631 Y-2.228 E0.02818
G1 X-26.339 Y-2.403 E0.02618
G1 X-26.069 Y-2.609 E0.02618
G1 X-25.822 Y-2.843 E0.02618
G1 X-25.603 Y-3.101 E0.02618
G1 X-25.397 Y-3.404 E0.02818
G1 X-25.141 Y-3.956 E0.04688
G1 X-25.037 Y-4.323 E0.02939
G1 X-24.981 Y-4.661 E0.02641
G1 X-24.963 Y-5.000 E0.02618
G1 X-24.981 Y-5.339 E0.02618
G1 X-25.036 Y-5.674 E0.02618
G1 X-25.127 Y-6.002 E0.02618
G1 X-25.253 Y-6.317 E0.02618
G1 X-25.412 Y-6.617 E0.02618
G1 X-25.647 Y-6.964 E0.03231
G1 X-1.009 Y-6.964 E1.89876
G1 X-4.306 Y-3.036 E0.39524
G1 X-10.536 Y-3.036 E0.48012 F720.000
G1 X-10.536 Y4.983 E0.61798
G1 X-9.900 Y4.983 F15000.000
G1 X-9.900 Y7.600 E0.20166 F720.000
G1 X-12.100 Y7.600 E0.16954
G1 X-12.100 Y3.600 E0.30826
G1 X-24.560 Y3.600 E0.96020
G1 X-24.740 Y3.576 E0.01404
G1 X-24.884 Y3.517 E0.01200
G1 X-25.029 Y3.406 E0.01404
G1 X-31.406 Y-2.971 E0.69503
G1 X-31.517 Y-3.116 E0.01404
G1 X-31.576 Y-3.260 E0.01200
G1 X-31.600 Y-3.439 E0.01394
G1 X-31.586 Y-5.262 E0.14049
G1 X-31.488 Y-5.755 E0.03871
G1 X-31.402 Y-5.995 E0.01966
G1 X-31.293 Y-6.225 E0.01966
G1 X-31.162 Y-6.444 E0.01961
G1 X-30.838 Y-6.838 E0.03933
G1 X-30.649 Y-7.009 E0.01966
G1 X-30.444 Y-7.161 E0.01966
G1 X-30.225 Y-7.293 E0.01966
G1 X-29.995 Y-7.402 E0.01966
