; generated by Slic3r 1.2.9 on 2017-02-22 at 17:37:59

; external perimeters extrusion width = 0.40mm
; perimeters extrusion width = 0.40mm
; infill extrusion width = 0.40mm
; solid infill extrusion width = 0.40mm
; top infill extrusion width = 0.40mm

M107
M83
T0
M116
G21 ; set units to millimeters
G90 ; use absolute coordinates
M83 ; use relative distances for extrusion
G1 E-3.20000 F3000.00000
G1 Z0.400 F15000.000
G1 X28.586 Y0.000 F15000.000
G1 Z0.300 F15000.000
G1 E3.20000 F3000.00000
G1 X28.586 Y24.950 E1.92278 F960.000
G1 X28.191 Y26.597 E0.13052
G1 X27.093 Y27.887 E0.13052
G1 X24.950 Y28.586 E0.17373
G1 X-24.950 Y28.586 E3.84557
G1 X-26.597 Y28.191 E0.13052
G1 X-27.887 Y27.093 E0.13052
G1 X-28.586 Y24.950 E0.17373
G1 X-28.586 Y-24.950 E3.84557
G1 X-28.191 Y-26.597 E0.13052
G1 X-27.093 Y-27.887 E0.13052
G1 X-24.950 Y-28.586 E0.17373
G1 X24.950 Y-28.586 E3.84557
G1 X26.597 Y-28.191 E0.13052
G1 X27.887 Y-27.093 E0.13052 F960.000
G1 X28.586 Y-24.950 E0.17373
G1 X28.586 Y-0.060 E1.91816
G1 E-3.20000 F3000.00000
G1 Z0.700 F15000.000
G1 X4.188 Y15.026 F15000.000
G1 Z0.300 F15000.000
G1 E3.20000 F3000.00000
G1 X4.783 Y16.106 E0.09504 F600.000
G1 X5.103 Y17.355 E0.09937
G1 X5.103 Y18.645 E0.09937
G1 X4.797 Y19.839 E0.09504
G1 X4.165 Y21.019 E0.10313
G1 X3.279 Y21.963 E0.09981
G1 X2.190 Y22.654 E0.09937
G1 X0.958 Y23.055 E0.09981
G1 X-0.378 Y23.123 E0.10313
G1 X-1.590 Y22.892 E0.09504
G1 X-2.756 Y22.343 E0.09937
G1 X-3.750 Y21.521 E0.09937
G1 X-4.508 Y20.478 E0.09937
G1 X-4.982 Y19.279 E0.09937
G1 X-5.144 Y18.000 E0.09937
G1 X-4.982 Y16.721 E0.09937
G1 X-4.508 Y15.522 E0.09937
G1 X-3.750 Y14.479 E0.09937
G1 X-2.752 Y13.653 E0.09981
G1 X-1.534 Y13.097 E0.10313
G1 X-0.323 Y12.866 E0.09504 F600.000
G1 X0.964 Y12.947 E0.09937
G1 X2.190 Y13.346 E0.09937
G1 X3.284 Y14.040 E0.09981
G1 X4.148 Y14.981 E0.09851
G1 X3.668 Y15.399 F15000.000
G1 X4.187 Y16.342 E0.08295 F600.000
G1 X4.468 Y17.436 E0.08699
G1 X4.468 Y18.564 E0.08699
G1 X4.200 Y19.607 E0.08295
G1 X3.645 Y20.645 E0.09076
G1 X2.870 Y21.470 E0.08715
G1 X1.917 Y22.075 E0.08699
G1 X0.842 Y22.424 E0.08715
G1 X-0.334 Y22.484 E0.09076
G1 X-1.392 Y22.283 E0.08295
G1 X-2.413 Y21.802 E0.08699
G1 X-3.283 Y21.083 E0.08699
G1 X-3.946 Y20.169 E0.08699
G1 X-4.362 Y19.120 E0.08699
G1 X-4.503 Y18.000 E0.08699
G1 X-4.362 Y16.880 E0.08699
G1 X-3.946 Y15.831 E0.08699
G1 X-3.283 Y14.917 E0.08699
G1 X-2.411 Y14.197 E0.08715
G1 X-1.340 Y13.707 E0.09076
G1 X-0.283 Y13.506 E0.08295 F600.000
G1 X0.844 Y13.577 E0.08699
G1 X1.917 Y13.925 E0.08699
G1 X2.872 Y14.531 E0.08715
G1 X3.628 Y15.355 E0.08613
G1 X4.068 Y15.375 F15000.000
G1 E-3.20000 F3000.00000
G1 Z0.700 F15000.000
G1 X-16.881 Y10.394 F15000.000
G1 Z0.300 F15000.000
G1 E3.20000 F3000.00000
G1 X-17.077 Y11.157 E0.06073 F600.000
G1 X-17.457 Y11.848 E0.06073
G1 X-17.996 Y12.422 E0.06073
G1 X-18.661 Y12.845 E0.06073
G1 X-19.411 Y13.088 E0.06073
G1 X-20.197 Y13.138 E0.06073
G1 X-20.972 Y12.990 E0.06073
G1 X-21.685 Y12.654 E0.06073
G1 X-22.292 Y12.152 E0.06073
G1 X-22.755 Y11.515 E0.06073
G1 X-23.045 Y10.782 E0.06073
G1 X-23.144 Y10.000 E0.06073
G1 X-23.045 Y9.218 E0.06073
G1 X-22.755 Y8.485 E0.06073
G1 X-22.292 Y7.848 E0.06073
G1 X-21.682 Y7.344 E0.06096
G1 X-20.956 Y7.007 E0.06172
G1 X-20.197 Y6.862 E0.05949 F600.000
G1 X-19.411 Y6.912 E0.06073
G1 X-18.661 Y7.155 E0.06073
G1 X-17.996 Y7.578 E0.06073
G1 X-17.457 Y8.152 E0.06073
G1 X-17.077 Y8.843 E0.06073
G1 X-16.881 Y9.606 E0.06073
G1 X-16.881 Y10.334 E0.05611
G1 X-17.517 Y10.314 F15000.000
G1 X-17.673 Y10.921 E0.04836 F600.000
G1 X-17.975 Y11.471 E0.04836
G1 X-18.404 Y11.929 E0.04835
G1 X-18.934 Y12.265 E0.04836
G1 X-19.531 Y12.459 E0.04836
G1 X-20.157 Y12.498 E0.04836
G1 X-20.774 Y12.381 E0.04836
G1 X-21.341 Y12.114 E0.04835
G1 X-21.825 Y11.714 E0.04836
G1 X-22.194 Y11.206 E0.04836
G1 X-22.425 Y10.623 E0.04836
G1 X-22.503 Y10.000 E0.04836
G1 X-22.425 Y9.377 E0.04836
G1 X-22.194 Y8.794 E0.04836
G1 X-21.825 Y8.286 E0.04836
G1 X-21.340 Y7.886 E0.04844
G1 X-20.760 Y7.617 E0.04934
G1 X-20.157 Y7.502 E0.04726 F600.000
G1 X-19.531 Y7.541 E0.04836
G1 X-18.934 Y7.735 E0.04836
G1 X-18.404 Y8.071 E0.04836
G1 X-17.975 Y8.529 E0.04835
G1 X-17.673 Y9.079 E0.04836
G1 X-17.517 Y9.686 E0.04836
G1 X-17.517 Y10.254 E0.04373
G1 X-17.208 Y10.569 F15000.000
G1 X-19.411 Y-6.912 F15000.000
G1 X-20.197 Y-6.862 E0.06073 F600.000
G1 X-20.972 Y-7.010 E0.06073
G1 X-21.685 Y-7.346 E0.06073
G1 X-22.292 Y-7.848 E0.06073
G1 X-22.755 Y-8.485 E0.06073
G1 X-23.045 Y-9.218 E0.06073
G1 X-23.144 Y-10.000 E0.06073
G1 X-23.045 Y-10.782 E0.06073
G1 X-22.755 Y-11.515 E0.06073
G1 X-22.292 Y-12.152 E0.06073
G1 X-21.682 Y-12.656 E0.06096
G1 X-20.956 Y-12.993 E0.06172
G1 X-20.197 Y-13.138 E0.05949 F600.000
G1 X-19.411 Y-13.088 E0.06073
G1 X-18.661 Y-12.845 E0.06073
G1 X-17.996 Y-12.422 E0.06073
G1 X-17.457 Y-11.848 E0.06073
G1 X-17.077 Y-11.157 E0.06073
G1 X-16.881 Y-10.394 E0.06073
G1 X-16.881 Y-9.606 E0.06073
G1 X-17.077 Y-8.843 E0.06073
G1 X-17.457 Y-8.152 E0.06073
G1 X-17.996 Y-7.578 E0.06073
G1 X-18.661 Y-7.155 E0.06073
G1 X-19.354 Y-6.930 E0.05611
G1 X-19.531 Y-7.541 F15000.000
G1 X-20.157 Y-7.502 E0.04836 F600.000
G1 X-20.774 Y-7.619 E0.04836
G1 X-21.341 Y-7.887 E0.04835
G1 X-21.825 Y-8.286 E0.04836
G1 X-22.194 Y-8.794 E0.04836
G1 X-22.425 Y-9.377 E0.04836
G1 X-22.503 Y-10.000 E0.04836
G1 X-22.425 Y-10.623 E0.04836
G1 X-22.194 Y-11.206 E0.04836
G1 X-21.825 Y-11.714 E0.04836
G1 X-21.340 Y-12.114 E0.04844
G1 X-20.760 Y-12.383 E0.04934
G1 X-20.157 Y-12.498 E0.04726 F600.000
G1 X-19.531 Y-12.459 E0.04836
G1 X-18.934 Y-12.265 E0.04836
G1 X-18.404 Y-11.929 E0.04836
G1 X-17.975 Y-11.471 E0.04836
G1 X-17.673 Y-10.921 E0.04836
G1 X-17.517 Y-10.314 E0.04836
G1 X-17.517 Y-9.686 E0.04836
G1 X-17.673 Y-9.079 E0.04836
G1 X-17.975 Y-8.529 E0.04836
G1 X-18.404 Y-8.071 E0.04836
G1 X-18.934 Y-7.735 E0.04836
G1 X-19.474 Y-7.560 E0.04373
G1 X-19.678 Y-7.169 F15000.000
G1 X-4.475 Y-15.477 F15000.000
G1 X-4.982 Y-16.715 E0.10313 F600.000
G1 X-5.144 Y-18.000 E0.09981
G1 X-4.982 Y-19.279 E0.09937
G1 X-4.508 Y-20.478 E0.09937
G1 X-3.750 Y-21.521 E0.09937
G1 X-2.752 Y-22.347 E0.09981
G1 X-1.534 Y-22.903 E0.10313
G1 X-0.323 Y-23.134 E0.09504 F600.000
G1 X0.964 Y-23.053 E0.09937
G1 X2.190 Y-22.654 E0.09937
G1 X3.279 Y-21.963 E0.09937
G1 X4.161 Y-21.023 E0.09937
G1 X4.783 Y-19.894 E0.09937
G1 X5.103 Y-18.645 E0.09937
G1 X5.103 Y-17.355 E0.09937
G1 X4.775 Y-16.077 E0.10172
G1 X4.159 Y-14.974 E0.09735
G1 X3.279 Y-14.037 E0.09911
G1 X2.190 Y-13.346 E0.09937
G1 X0.958 Y-12.945 E0.09981
G1 X-0.378 Y-12.877 E0.10313
G1 X-1.590 Y-13.108 E0.09504
G1 X-2.756 Y-13.657 E0.09937
G1 X-3.750 Y-14.479 E0.09937
G1 X-4.439 Y-15.428 E0.09042
G1 X-3.915 Y-15.788 F15000.000
G1 X-4.361 Y-16.878 E0.09076 F600.000
G1 X-4.503 Y-18.000 E0.08715
G1 X-4.362 Y-19.120 E0.08699
G1 X-3.946 Y-20.169 E0.08699
G1 X-3.283 Y-21.083 E0.08699
G1 X-2.411 Y-21.803 E0.08715
G1 X-1.340 Y-22.293 E0.09076
G1 X-0.283 Y-22.494 E0.08295 F600.000
G1 X0.844 Y-22.423 E0.08699
G1 X1.917 Y-22.075 E0.08699
G1 X2.870 Y-21.470 E0.08699
G1 X3.643 Y-20.647 E0.08699
G1 X4.187 Y-19.658 E0.08699
G1 X4.468 Y-18.564 E0.08699
G1 X4.468 Y-17.436 E0.08699
G1 X4.180 Y-16.315 E0.08917
G1 X3.642 Y-15.352 E0.08497
G1 X2.870 Y-14.530 E0.08690
G1 X1.917 Y-13.925 E0.08699
G1 X0.842 Y-13.576 E0.08715
G1 X-0.334 Y-13.516 E0.09076
G1 X-1.392 Y-13.717 E0.08295
G1 X-2.413 Y-14.198 E0.08699
G1 X-3.283 Y-14.917 E0.08699
G1 X-3.880 Y-15.740 E0.07833
G1 X-4.315 Y-15.810 F15000.000
G1 E-3.20000 F3000.00000
G1 Z0.700 F15000.000
G1 X16.953 Y-10.766 F15000.000
G1 Z0.300 F15000.000
G1 E3.20000 F3000.00000
G1 X17.243 Y-11.512 E0.06172 F600.000
G1 X17.708 Y-12.152 E0.06096
G1 X18.318 Y-12.656 E0.06096
G1 X19.044 Y-12.993 E0.06172
G1 X19.803 Y-13.138 E0.05949 F600.000
G1 X20.589 Y-13.088 E0.06073
G1 X21.339 Y-12.845 E0.06073
G1 X22.006 Y-12.421 E0.06096
G1 X22.551 Y-11.834 E0.06172
G1 X22.923 Y-11.157 E0.05949
G1 X23.119 Y-10.394 E0.06073
G1 X23.119 Y-9.606 E0.06073
G1 X22.923 Y-8.843 E0.06073
G1 X22.543 Y-8.152 E0.06073
G1 X22.004 Y-7.578 E0.06073
G1 X21.339 Y-7.155 E0.06073
G1 X20.586 Y-6.911 E0.06096
G1 X19.787 Y-6.865 E0.06172
G1 X19.028 Y-7.010 E0.05949
G1 X18.315 Y-7.346 E0.06073
G1 X17.708 Y-7.848 E0.06073
G1 X17.245 Y-8.485 E0.06073
G1 X16.955 Y-9.218 E0.06073
G1 X16.856 Y-10.000 E0.06073
G1 X16.945 Y-10.706 E0.05486
G1 X17.574 Y-10.608 F15000.000
G1 X17.806 Y-11.205 E0.04934 F600.000
G1 X18.175 Y-11.714 E0.04844
G1 X18.660 Y-12.114 E0.04844
G1 X19.240 Y-12.383 E0.04934
G1 X19.843 Y-12.498 E0.04726 F600.000
G1 X20.469 Y-12.459 E0.04836
G1 X21.066 Y-12.265 E0.04836
G1 X21.596 Y-11.928 E0.04844
G1 X22.032 Y-11.459 E0.04934
G1 X22.327 Y-10.921 E0.04726
G1 X22.483 Y-10.314 E0.04836
G1 X22.483 Y-9.686 E0.04836
G1 X22.327 Y-9.079 E0.04836
G1 X22.025 Y-8.529 E0.04836
G1 X21.596 Y-8.071 E0.04836
G1 X21.066 Y-7.735 E0.04836
G1 X20.468 Y-7.541 E0.04844
G1 X19.829 Y-7.504 E0.04934
G1 X19.226 Y-7.619 E0.04726
G1 X18.659 Y-7.886 E0.04836
G1 X18.175 Y-8.286 E0.04836
G1 X17.806 Y-8.794 E0.04836
G1 X17.575 Y-9.377 E0.04836
G1 X17.497 Y-10.000 E0.04836
G1 X17.566 Y-10.549 E0.04263
G1 X17.299 Y-10.899 F15000.000
G1 X19.803 Y6.862 F15000.000
G1 X20.589 Y6.912 E0.06073 F600.000
G1 X21.339 Y7.155 E0.06073
G1 X22.006 Y7.579 E0.06096
G1 X22.551 Y8.166 E0.06172
G1 X22.923 Y8.843 E0.05949
G1 X23.120 Y9.609 E0.06096
G1 X23.115 Y10.410 E0.06172
G1 X22.923 Y11.157 E0.05949
G1 X22.543 Y11.848 E0.06073
G1 X22.004 Y12.422 E0.06073
G1 X21.339 Y12.845 E0.06073
G1 X20.589 Y13.088 E0.06073
G1 X19.803 Y13.138 E0.06073
G1 X19.028 Y12.990 E0.06073
G1 X18.315 Y12.654 E0.06073
G1 X17.708 Y12.152 E0.06073
G1 X17.245 Y11.515 E0.06073
G1 X16.955 Y10.782 E0.06073
G1 X16.856 Y10.000 E0.06073
G1 X16.955 Y9.218 E0.06073
G1 X17.245 Y8.485 E0.06073
G1 X17.708 Y7.848 E0.06073
G1 X18.318 Y7.344 E0.06096
G1 X19.044 Y7.007 E0.06172
G1 X19.744 Y6.874 E0.05486 F600.000
G1 X19.843 Y7.502 F15000.000
G1 X20.469 Y7.541 E0.04836 F600.000
G1 X21.066 Y7.735 E0.04836
G1 X21.596 Y8.072 E0.04844
G1 X22.032 Y8.541 E0.04934
G1 X22.327 Y9.079 E0.04726
G1 X22.484 Y9.687 E0.04844
G1 X22.480 Y10.328 E0.04934
G1 X22.327 Y10.921 E0.04726
G1 X22.025 Y11.471 E0.04835
G1 X21.596 Y11.929 E0.04836
G1 X21.066 Y12.265 E0.04836
G1 X20.469 Y12.459 E0.04835
G1 X19.843 Y12.498 E0.04836
G1 X19.226 Y12.381 E0.04836
G1 X18.659 Y12.114 E0.04836
G1 X18.175 Y11.714 E0.04836
G1 X17.806 Y11.206 E0.04836
G1 X17.575 Y10.623 E0.04836
G1 X17.497 Y10.000 E0.04836
G1 X17.575 Y9.377 E0.04836
G1 X17.806 Y8.794 E0.04836
G1 X18.175 Y8.286 E0.04836
G1 X18.660 Y7.886 E0.04844
G1 X19.240 Y7.617 E0.04934
G1 X19.784 Y7.513 E0.04263 F600.000
G1 X20.036 Y7.151 F15000.000
G1 X6.936 Y-23.964 F15000.000
G1 X23.964 Y-23.964 E1.31226 F720.000
G1 X23.964 Y23.964 E3.69365
G1 X-23.964 Y23.964 E3.69365 F720.000
G1 X-23.964 Y-23.964 E3.69365
G1 X6.876 Y-23.964 E2.37677
G1 X6.876 Y-24.600 F15000.000
G1 X24.600 Y-24.600 E1.36587 F720.000
G1 X24.600 Y24.600 E3.79162
G1 X-24.600 Y24.600 E3.79162 F720.000
G1 X-24.600 Y-24.600 E3.79162
G1 X6.816 Y-24.600 E2.42113
G1 X7.076 Y-24.254 F15000.000
G1 X2.482 Y-23.280 F15000.000
G1 X1.068 Y-23.503 E0.11028 F960.000
G1 X-0.337 Y-23.550 E0.10835
G1 X-1.673 Y-23.425 E0.10341
G1 X-2.511 Y-23.246 E0.06605
G1 X-23.306 Y-11.913 F15000.000
G1 X-23.496 Y-10.917 E0.07812 F960.000
G1 X-23.555 Y-10.011 E0.06994
G1 X-23.496 Y-9.083 E0.07171
G1 X-23.306 Y-8.087 E0.07812
G1 X-23.306 Y8.087 F15000.000
G1 X-23.496 Y9.083 E0.07812 F960.000
G1 X-23.555 Y9.989 E0.06994
G1 X-23.496 Y10.917 E0.07170
G1 X-23.306 Y11.913 E0.07812
G1 X-22.885 Y7.747 F15000.000
G1 X-23.579 Y7.053 E0.07584 F960.000
G1 X-23.579 Y6.152 E0.06959
G1 X-22.303 Y7.428 E0.13942
G1 X-21.805 Y7.025 E0.04947
G1 X-23.579 Y5.251 E0.19375
G1 X-23.579 Y4.350 E0.06959
G1 X-21.190 Y6.739 E0.26100
G1 X-20.481 Y6.547 E0.05673
G1 X-23.579 Y3.449 E0.33844
G1 X-23.579 Y2.548 E0.06959
G1 X-19.623 Y6.504 E0.43207
G1 X-18.462 Y6.764 E0.09195
G1 X-23.579 Y1.647 E0.55896
G1 X-23.579 Y0.746 E0.06959
G1 X-5.438 Y18.887 E1.98154
G1 X-5.506 Y17.918 E0.07499
G1 X-23.579 Y-0.155 E1.97416
G1 X-23.579 Y-1.056 E0.06959
G1 X-5.405 Y17.118 E1.98519
G1 X-5.225 Y16.397 E0.05741
G1 X-23.579 Y-1.957 E2.00481
G1 X-23.579 Y-2.858 E0.06959
G1 X-4.970 Y15.752 E2.03273
G1 X-4.657 Y15.163 E0.05146
G1 X-23.579 Y-3.758 E2.06687
G1 X-23.579 Y-4.659 E0.06959
G1 X-4.278 Y14.641 E2.10828
G1 X-3.870 Y14.149 E0.04942
G1 X-23.579 Y-5.560 E2.15292
G1 X-23.579 Y-6.461 E0.06959
G1 X-3.376 Y13.741 E2.20677
G1 X-2.880 Y13.336 E0.04946
G1 X-23.579 Y-7.362 E2.26097
G1 X-23.077 Y-7.762 E0.04952
G1 X-2.262 Y13.054 E2.27375
G1 X-1.643 Y12.772 E0.05252
G1 X-21.012 Y-6.597 E2.11571
G1 X-20.010 Y-6.496 E0.07779
G1 X-0.906 Y12.608 E2.08684
G1 X-0.129 Y12.484 E0.06072
G1 X-19.219 Y-6.606 E2.08519
G1 X-18.545 Y-6.833 E0.05491
G1 X0.832 Y12.544 E2.11663
G1 X2.025 Y12.836 E0.09486
G1 X-17.994 Y-7.183 E2.18673
G1 E-3.20000 F3000.00000
G1 Z0.700 F15000.000
G1 X-18.728 Y-13.322 F15000.000
G1 Z0.300 F15000.000
G1 E3.20000 F3000.00000
G1 X-23.579 Y-18.173 E0.52990 F960.000
G1 X-23.579 Y-17.272 E0.06959
G1 X-19.815 Y-13.509 E0.41114
G1 X-20.631 Y-13.424 E0.06339
G1 X-23.579 Y-16.371 E0.32197
G1 X-23.579 Y-15.471 E0.06959
G1 X-21.312 Y-13.204 E0.24760
G1 X-21.908 Y-12.899 E0.05170
G1 X-23.579 Y-14.570 E0.18254
G1 X-23.579 Y-13.669 E0.06959
G1 X-22.401 Y-12.491 E0.12868
G1 X-23.107 Y-12.295 E0.05655
G1 X-23.579 Y-12.768 E0.05160
G1 X-11.867 Y-23.579 F15000.000
G1 X-5.444 Y-17.156 E0.70162 F960.000
G1 X-5.502 Y-18.115 E0.07421
G1 X-10.966 Y-23.579 E0.59686
G1 X-10.065 Y-23.579 E0.06959
G1 X-5.401 Y-18.915 E0.50949
G1 X-5.215 Y-19.630 E0.05706
G1 X-9.164 Y-23.579 E0.43139
G1 X-8.263 Y-23.579 E0.06959
G1 X-4.959 Y-20.275 E0.36089
G1 X-4.642 Y-20.858 E0.05130
G1 X-7.362 Y-23.579 E0.29719
G1 X-6.461 Y-23.579 E0.06959
G1 X-4.262 Y-21.380 E0.24019
G1 X-3.849 Y-21.868 E0.04937
G1 X-5.560 Y-23.579 E0.18692
G1 X-4.659 Y-23.579 E0.06959
G1 X-3.356 Y-22.276 E0.14237
G1 X-2.855 Y-22.675 E0.04952
G1 X-3.759 Y-23.579 E0.09872
G1 X-5.159 Y-15.970 F15000.000
G1 X-12.768 Y-23.579 E0.83111 F960.000
G1 X-13.669 Y-23.579 E0.06959
G1 X17.501 Y7.591 E3.40474
G1 X17.112 Y8.103 E0.04967
G1 X-14.570 Y-23.579 E3.46073
G1 X-15.471 Y-23.579 E0.06959
G1 X16.794 Y8.686 E3.52439
G1 X16.565 Y9.357 E0.05481
G1 X-16.372 Y-23.579 E3.59773
G1 X-17.272 Y-23.579 E0.06959
G1 X16.470 Y10.164 E3.68581
G1 X16.667 Y11.261 E0.08609
G1 X-18.173 Y-23.579 E3.80566
G1 X-19.074 Y-23.579 E0.06959
G1 X23.579 Y19.074 E4.65914
G1 X23.579 Y19.975 E0.06959
G1 X-19.975 Y-23.579 E4.75755
G1 X-20.876 Y-23.579 E0.06959
G1 X23.579 Y20.876 E4.85596
G1 X23.579 Y21.777 E0.06959
G1 X-21.777 Y-23.579 E4.95437
G1 X-22.678 Y-23.579 E0.06959
G1 X23.579 Y22.678 E5.05278
G1 X23.559 Y23.559 E0.06806
G1 X-23.559 Y-23.559 E5.14682
G1 X-23.579 Y-22.678 E0.06806
G1 X22.678 Y23.579 E5.05278
G1 X21.777 Y23.579 E0.06959
G1 X-23.579 Y-21.777 E4.95437
G1 X-23.579 Y-20.876 E0.06959
G1 X20.876 Y23.579 E4.85596
G1 X19.975 Y23.579 E0.06959
G1 X-23.579 Y-19.975 E4.75754
G1 X-23.579 Y-19.074 E0.06959
G1 X19.074 Y23.579 E4.65913
G1 X18.173 Y23.579 E0.06959
G1 X-16.667 Y-11.261 E3.80567
G1 X-16.496 Y-10.189 E0.08385
G1 X17.272 Y23.579 E3.68857
G1 X16.371 Y23.579 E0.06959
G1 X-16.575 Y-9.367 E3.59879
G1 X-16.784 Y-8.676 E0.05581
G1 X15.471 Y23.579 E3.52326
G1 X14.570 Y23.579 E0.06959
G1 X-17.104 Y-8.094 E3.45976
G1 X-17.517 Y-7.606 E0.04937
G1 X13.669 Y23.579 E3.40647
G1 X12.768 Y23.579 E0.06959
G1 X5.193 Y16.005 E0.82737
G1 X5.489 Y17.201 E0.09517
G1 X11.867 Y23.579 E0.69670
G1 X10.966 Y23.579 E0.06959
G1 X5.489 Y18.102 E0.59829
G1 X5.401 Y18.915 E0.06321
G1 X10.065 Y23.579 E0.50941
G1 X9.164 Y23.579 E0.06959
G1 X5.217 Y19.632 E0.43111
G1 X4.951 Y20.267 E0.05315
G1 X8.263 Y23.579 E0.36180
G1 X7.362 Y23.579 E0.06959
G1 X4.637 Y20.854 E0.29768
G1 X4.271 Y21.389 E0.05006
G1 X6.461 Y23.579 E0.23926
G1 X5.560 Y23.579 E0.06959
G1 X3.835 Y21.853 E0.18851
G1 X3.377 Y22.297 E0.04921
G1 X4.659 Y23.579 E0.14006
G1 X3.758 Y23.579 E0.06959
G1 X2.826 Y22.647 E0.10185
G1 X-2.879 Y23.248 F15000.000
G1 X-16.496 Y9.631 E1.48736 F960.000
G1 X-16.538 Y10.490 E0.06639
G1 X-3.449 Y23.579 E1.42975
G1 X-4.350 Y23.579 E0.06959
