; generated by Slic3r 1.2.9 on 2017-02-27 at 16:20:24

; external perimeters extrusion width = 0.40mm
; perimeters extrusion width = 0.40mm
; infill extrusion width = 0.40mm
; solid infill extrusion width = 0.40mm
; top infill extrusion width = 0.40mm

M107
M83
T0
M116
G21 ; set units to millimeters
G90 ; use absolute coordinates
M83 ; use relative distances for extrusion
G1 E-3.20000 F3000.00000
G1 Z0.400 F15000.000
G1 X23.586 Y0.000 F15000.000
G1 Z0.300 F15000.000
G1 E3.20000 F3000.00000
G1 X23.586 Y24.950 E1.92278 F960.000
G1 X23.191 Y26.597 E0.13052
G1 X22.093 Y27.887 E0.13052
G1 X19.950 Y28.586 E0.17373
G1 X-19.950 Y28.586 E3.07491
G1 X-21.597 Y28.191 E0.13052
G1 X-22.887 Y27.093 E0.13052
G1 X-23.586 Y24.950 E0.17373
G1 X-23.586 Y-24.950 E3.84557
G1 X-23.191 Y-26.597 E0.13052
G1 X-22.093 Y-27.887 E0.13052
G1 X-19.950 Y-28.586 E0.17373
G1 X19.950 Y-28.586 E3.07491
G1 X21.597 Y-28.191 E0.13052
G1 X22.887 Y-27.093 E0.13052 F960.000
G1 X23.586 Y-24.950 E0.17373
G1 X23.586 Y-0.060 E1.91816
G1 E-3.20000 F3000.00000
G1 Z0.700 F15000.000
G1 X8.284 Y14.040 F15000.000
G1 Z0.300 F15000.000
G1 E3.20000 F3000.00000
G1 X9.188 Y15.026 E0.10313 F600.000
G1 X9.783 Y16.106 E0.09504
G1 X10.103 Y17.355 E0.09937
G1 X10.103 Y18.645 E0.09937
G1 X9.797 Y19.839 E0.09504
G1 X9.165 Y21.019 E0.10313
G1 X8.279 Y21.963 E0.09981
G1 X7.190 Y22.654 E0.09937
G1 X5.958 Y23.055 E0.09981
G1 X4.622 Y23.123 E0.10313
G1 X3.410 Y22.892 E0.09504
G1 X2.244 Y22.343 E0.09937
G1 X1.250 Y21.521 E0.09937
G1 X0.492 Y20.478 E0.09937
G1 X0.018 Y19.279 E0.09937
G1 X-0.144 Y18.000 E0.09937
G1 X0.018 Y16.721 E0.09937
G1 X0.492 Y15.522 E0.09937
G1 X1.250 Y14.479 E0.09937
G1 X2.248 Y13.653 E0.09981
G1 X3.466 Y13.097 E0.10313
G1 X4.677 Y12.866 E0.09504 F600.000
G1 X5.964 Y12.947 E0.09937
G1 X7.190 Y13.346 E0.09937
G1 X8.233 Y14.008 E0.09519
G1 X7.872 Y14.531 F15000.000
G1 X8.668 Y15.399 E0.09076 F600.000
G1 X9.187 Y16.342 E0.08295
G1 X9.468 Y17.436 E0.08699
G1 X9.468 Y18.564 E0.08699
G1 X9.200 Y19.607 E0.08295
G1 X8.645 Y20.645 E0.09076
G1 X7.870 Y21.470 E0.08715
G1 X6.917 Y22.075 E0.08699
G1 X5.842 Y22.424 E0.08715
G1 X4.666 Y22.484 E0.09076
G1 X3.608 Y22.283 E0.08295
G1 X2.587 Y21.802 E0.08699
G1 X1.717 Y21.083 E0.08699
G1 X1.054 Y20.169 E0.08699
G1 X0.638 Y19.120 E0.08699
G1 X0.497 Y18.000 E0.08699
G1 X0.638 Y16.880 E0.08699
G1 X1.054 Y15.831 E0.08699
G1 X1.717 Y14.917 E0.08699
G1 X2.589 Y14.197 E0.08715
G1 X3.660 Y13.707 E0.09076
G1 X4.717 Y13.506 E0.08295 F600.000
G1 X5.844 Y13.577 E0.08699
G1 X6.917 Y13.925 E0.08699
G1 X7.821 Y14.499 E0.08252
G1 X8.254 Y14.411 F15000.000
G1 E-3.20000 F3000.00000
G1 Z0.700 F15000.000
G1 X-11.881 Y10.394 F15000.000
G1 Z0.300 F15000.000
G1 E3.20000 F3000.00000
G1 X-12.077 Y11.157 E0.06073 F600.000
G1 X-12.457 Y11.848 E0.06073
G1 X-12.996 Y12.422 E0.06073
G1 X-13.661 Y12.845 E0.06073
G1 X-14.411 Y13.088 E0.06073
G1 X-15.197 Y13.138 E0.06073
G1 X-15.972 Y12.990 E0.06073
G1 X-16.685 Y12.654 E0.06073
G1 X-17.292 Y12.152 E0.06073
G1 X-17.755 Y11.515 E0.06073
G1 X-18.045 Y10.782 E0.06073
G1 X-18.144 Y10.000 E0.06073
G1 X-18.045 Y9.218 E0.06073
G1 X-17.755 Y8.485 E0.06073
G1 X-17.292 Y7.848 E0.06073
G1 X-16.682 Y7.344 E0.06096
G1 X-15.956 Y7.007 E0.06172
G1 X-15.197 Y6.862 E0.05949 F600.000
G1 X-14.411 Y6.912 E0.06073
G1 X-13.661 Y7.155 E0.06073
G1 X-12.996 Y7.578 E0.06073
G1 X-12.457 Y8.152 E0.06073
G1 X-12.077 Y8.843 E0.06073
G1 X-11.881 Y9.606 E0.06073
G1 X-11.881 Y10.334 E0.05611
G1 X-12.517 Y10.314 F15000.000
G1 X-12.673 Y10.921 E0.04836 F600.000
G1 X-12.975 Y11.471 E0.04836
G1 X-13.404 Y11.929 E0.04835
G1 X-13.934 Y12.265 E0.04836
G1 X-14.531 Y12.459 E0.04836
G1 X-15.157 Y12.498 E0.04836
G1 X-15.774 Y12.381 E0.04836
G1 X-16.341 Y12.114 E0.04835
G1 X-16.825 Y11.714 E0.04836
G1 X-17.194 Y11.206 E0.04836
G1 X-17.425 Y10.623 E0.04836
G1 X-17.503 Y10.000 E0.04836
G1 X-17.425 Y9.377 E0.04836
G1 X-17.194 Y8.794 E0.04836
G1 X-16.825 Y8.286 E0.04836
G1 X-16.340 Y7.886 E0.04844
G1 X-15.760 Y7.617 E0.04934
G1 X-15.157 Y7.502 E0.04726 F600.000
G1 X-14.531 Y7.541 E0.04836
G1 X-13.934 Y7.735 E0.04836
G1 X-13.404 Y8.071 E0.04836
G1 X-12.975 Y8.529 E0.04835
G1 X-12.673 Y9.079 E0.04836
G1 X-12.517 Y9.686 E0.04836
G1 X-12.517 Y10.254 E0.04373
G1 X-12.208 Y10.569 F15000.000
G1 X-14.411 Y-6.912 F15000.000
G1 X-15.197 Y-6.862 E0.06073 F600.000
G1 X-15.972 Y-7.010 E0.06073
G1 X-16.685 Y-7.346 E0.06073
G1 X-17.292 Y-7.848 E0.06073
G1 X-17.755 Y-8.485 E0.06073
G1 X-18.045 Y-9.218 E0.06073
G1 X-18.144 Y-10.000 E0.06073
G1 X-18.045 Y-10.782 E0.06073
G1 X-17.755 Y-11.515 E0.06073
G1 X-17.292 Y-12.152 E0.06073
G1 X-16.682 Y-12.656 E0.06096
G1 X-15.956 Y-12.993 E0.06172
G1 X-15.197 Y-13.138 E0.05949 F600.000
G1 X-14.411 Y-13.088 E0.06073
G1 X-13.661 Y-12.845 E0.06073
G1 X-12.996 Y-12.422 E0.06073
G1 X-12.457 Y-11.848 E0.06073
G1 X-12.077 Y-11.157 E0.06073
G1 X-11.881 Y-10.394 E0.06073
G1 X-11.881 Y-9.606 E0.06073
G1 X-12.077 Y-8.843 E0.06073
G1 X-12.457 Y-8.152 E0.06073
G1 X-12.996 Y-7.578 E0.06073
G1 X-13.661 Y-7.155 E0.06073
G1 X-14.354 Y-6.930 E0.05611
G1 X-14.531 Y-7.541 F15000.000
G1 X-15.157 Y-7.502 E0.04836 F600.000
G1 X-15.774 Y-7.619 E0.04836
G1 X-16.341 Y-7.887 E0.04835
G1 X-16.825 Y-8.286 E0.04836
G1 X-17.194 Y-8.794 E0.04836
G1 X-17.425 Y-9.377 E0.04836
G1 X-17.503 Y-10.000 E0.04836
G1 X-17.425 Y-10.623 E0.04836
G1 X-17.194 Y-11.206 E0.04836
G1 X-16.825 Y-11.714 E0.04836
G1 X-16.340 Y-12.114 E0.04844
G1 X-15.760 Y-12.383 E0.04934
G1 X-15.157 Y-12.498 E0.04726 F600.000
G1 X-14.531 Y-12.459 E0.04836
G1 X-13.934 Y-12.265 E0.04836
G1 X-13.404 Y-11.929 E0.04836
G1 X-12.975 Y-11.471 E0.04836
G1 X-12.673 Y-10.921 E0.04836
G1 X-12.517 Y-10.314 E0.04836
G1 X-12.517 Y-9.686 E0.04836
G1 X-12.673 Y-9.079 E0.04836
G1 X-12.975 Y-8.529 E0.04836
G1 X-13.404 Y-8.071 E0.04836
G1 X-13.934 Y-7.735 E0.04836
G1 X-14.474 Y-7.560 E0.04373
G1 X-14.678 Y-7.169 F15000.000
G1 X0.525 Y-15.477 F15000.000
G1 X0.018 Y-16.715 E0.10313 F600.000
G1 X-0.144 Y-18.000 E0.09981
G1 X0.018 Y-19.279 E0.09937
G1 X0.492 Y-20.478 E0.09937
G1 X1.250 Y-21.521 E0.09937
G1 X2.248 Y-22.347 E0.09981
G1 X3.466 Y-22.903 E0.10313
G1 X4.677 Y-23.134 E0.09504 F600.000
G1 X5.964 Y-23.053 E0.09937
G1 X7.190 Y-22.654 E0.09937
G1 X8.279 Y-21.963 E0.09937
G1 X9.161 Y-21.023 E0.09937
G1 X9.783 Y-19.894 E0.09937
G1 X10.103 Y-18.645 E0.09937
G1 X10.103 Y-17.355 E0.09937
G1 X9.775 Y-16.077 E0.10172
G1 X9.159 Y-14.974 E0.09735
G1 X8.279 Y-14.037 E0.09911
G1 X7.190 Y-13.346 E0.09937
G1 X5.958 Y-12.945 E0.09981
G1 X4.622 Y-12.877 E0.10313
G1 X3.410 Y-13.108 E0.09504
G1 X2.244 Y-13.657 E0.09937
G1 X1.250 Y-14.479 E0.09937
G1 X0.561 Y-15.428 E0.09042
G1 X1.085 Y-15.788 F15000.000
G1 X0.639 Y-16.878 E0.09076 F600.000
G1 X0.497 Y-18.000 E0.08715
G1 X0.638 Y-19.120 E0.08699
G1 X1.054 Y-20.169 E0.08699
G1 X1.717 Y-21.083 E0.08699
G1 X2.589 Y-21.803 E0.08715
G1 X3.660 Y-22.293 E0.09076
G1 X4.717 Y-22.494 E0.08295 F600.000
G1 X5.844 Y-22.423 E0.08699
G1 X6.917 Y-22.075 E0.08699
G1 X7.870 Y-21.470 E0.08699
G1 X8.643 Y-20.647 E0.08699
G1 X9.187 Y-19.658 E0.08699
G1 X9.468 Y-18.564 E0.08699
G1 X9.468 Y-17.436 E0.08699
G1 X9.180 Y-16.315 E0.08917
G1 X8.642 Y-15.352 E0.08497
G1 X7.870 Y-14.530 E0.08690
G1 X6.917 Y-13.925 E0.08699
G1 X5.842 Y-13.576 E0.08715
G1 X4.666 Y-13.516 E0.09076
G1 X3.608 Y-13.717 E0.08295
G1 X2.587 Y-14.198 E0.08699
G1 X1.717 Y-14.917 E0.08699
G1 X1.120 Y-15.740 E0.07833
G1 X0.685 Y-15.810 F15000.000
G1 X18.964 Y2.215 F15000.000
G1 X18.964 Y23.964 E1.67611 F720.000
G1 X-18.964 Y23.964 E2.92300 F720.000
G1 X-18.964 Y-23.964 E3.69365
G1 X18.964 Y-23.964 E2.92300
G1 X18.964 Y2.155 E2.01292
G1 X19.600 Y2.155 F15000.000
G1 X19.600 Y24.600 E1.72972 F720.000
G1 X-19.600 Y24.600 E3.02097 F720.000
G1 X-19.600 Y-24.600 E3.79162
G1 X19.600 Y-24.600 E3.02097
G1 X19.600 Y2.095 E2.05728
G1 X19.254 Y2.355 F15000.000
G1 X6.968 Y12.817 F15000.000
G1 X-13.018 Y-7.168 E2.18072 F960.000
G1 X-13.568 Y-6.819 E0.05031
G1 X5.792 Y12.541 E2.11249
G1 X4.831 Y12.481 E0.07425
G1 X-14.247 Y-6.597 E2.08170
G1 X-15.044 Y-6.494 E0.06202
G1 X4.064 Y12.614 E2.08500
G1 X3.333 Y12.782 E0.05792
G1 X-16.055 Y-6.605 E2.11553
G1 X-18.106 Y-7.756 F15000.000
G1 X2.715 Y13.065 E2.27188 F960.000
G1 X2.099 Y13.348 E0.05235
G1 X-18.579 Y-7.329 E2.25625
G1 X-18.579 Y-6.429 E0.06944
G1 X1.606 Y13.756 E2.20251
G1 X1.114 Y14.163 E0.04932
G1 X-18.579 Y-5.529 E2.14877
G1 X-18.579 Y-4.630 E0.06944
G1 X0.709 Y14.659 E2.10465
G1 X0.331 Y15.180 E0.04971
G1 X-18.579 Y-3.730 E2.06333
G1 X-18.579 Y-2.830 E0.06944
G1 X0.022 Y15.772 E2.02968
G1 X-0.233 Y16.416 E0.05350
G1 X-18.579 Y-1.930 E2.00183
G1 X-18.579 Y-1.030 E0.06944
G1 X-0.408 Y17.141 E1.98275
G1 X-0.509 Y17.940 E0.06214
G1 X-18.579 Y-0.130 E1.97173
G1 X-18.579 Y0.770 E0.06944
G1 X-0.435 Y18.914 E1.97980
G1 X-0.126 Y20.123 E0.09624
G1 X-11.721 Y8.529 E1.26512
G1 X-11.496 Y9.654 E0.08853
G1 X2.117 Y23.266 E1.48532
G1 X1.530 Y23.579 E0.05133
G1 X-11.542 Y10.507 E1.42637
G1 X-11.728 Y11.222 E0.05697
G1 X0.630 Y23.579 E1.34839
G1 X-0.270 Y23.579 E0.06944
G1 X-12.047 Y11.802 E1.28502
G1 X-12.439 Y12.310 E0.04951
G1 X-1.170 Y23.579 E1.22958
G1 X-2.070 Y23.579 E0.06944
G1 X-12.895 Y12.754 E1.18117
G1 X-13.446 Y13.103 E0.05031
G1 X-2.970 Y23.579 E1.14305
G1 X-3.870 Y23.579 E0.06944
G1 X-14.095 Y13.354 E1.11571
G1 X-14.855 Y13.494 E0.05961
G1 X-4.770 Y23.579 E1.10042
G1 X-5.670 Y23.579 E0.06944
G1 X-15.807 Y13.442 E1.10611
G1 X-17.599 Y12.550 F15000.000
G1 X-6.570 Y23.579 E1.20341 F960.000
G1 X-7.470 Y23.579 E0.06944
G1 X-18.579 Y12.470 E1.21218
G1 X-17.937 Y12.212 E0.05337
G1 X-17.636 Y12.513 E0.03289
G1 X-18.579 Y13.370 F15000.000
G1 X-8.370 Y23.579 E1.11398 F960.000
G1 X-9.270 Y23.579 E0.06944
G1 X-18.579 Y14.270 E1.01578
G1 X-18.579 Y15.170 E0.06944
G1 X-10.170 Y23.579 E0.91758
G1 X-11.070 Y23.579 E0.06944
G1 X-18.579 Y16.070 E0.81938
G1 X-18.579 Y16.970 E0.06944
G1 X-11.970 Y23.579 E0.72118
G1 X-12.870 Y23.579 E0.06944
G1 X-18.579 Y17.870 E0.62298
G1 X-18.579 Y18.770 E0.06944
G1 X-13.770 Y23.579 E0.52478
G1 X-14.669 Y23.579 E0.06944
G1 X-18.579 Y19.669 E0.42658
G1 X-18.579 Y20.569 E0.06944
G1 X-15.569 Y23.579 E0.32838
G1 X-16.469 Y23.579 E0.06944
G1 X-18.579 Y21.469 E0.23018
G1 X-18.579 Y22.369 E0.06944
G1 X-17.369 Y23.579 E0.13198
G1 X-18.269 Y23.579 E0.06944
G1 X-18.579 Y23.269 E0.03378
G1 X-17.906 Y7.743 F15000.000
G1 X-18.579 Y7.070 E0.07342 F960.000
G1 X-18.579 Y6.170 E0.06944
G1 X-17.313 Y7.436 E0.13817
G1 X-16.818 Y7.031 E0.04934
G1 X-18.579 Y5.270 E0.19211
G1 X-18.579 Y4.370 E0.06944
G1 X-16.203 Y6.746 E0.25921
G1 X-15.498 Y6.551 E0.05643
G1 X-18.579 Y3.470 E0.33613
G1 X-18.579 Y2.570 E0.06944
G1 X-14.647 Y6.502 E0.42903
G1 X-13.496 Y6.753 E0.09089
G1 X-18.579 Y1.670 E0.55462
G1 X-18.154 Y-12.304 F15000.000
G1 X-18.579 Y-12.729 E0.04634 F960.000
G1 X-18.579 Y-13.629 E0.06944
G1 X-17.423 Y-12.473 E0.12618
G1 X-16.930 Y-12.880 E0.04932
G1 X-18.579 Y-14.529 E0.17992
G1 X-18.579 Y-15.429 E0.06944
G1 X-16.341 Y-13.191 E0.24424
G1 X-15.667 Y-13.417 E0.05483
G1 X-18.579 Y-16.329 E0.31773
G1 X-18.579 Y-17.229 E0.06944
G1 X-14.861 Y-13.511 E0.40564
G1 X-13.794 Y-13.344 E0.08340
G1 X-18.579 Y-18.129 E0.52216
G1 X-18.579 Y-19.029 E0.06944
G1 X18.579 Y18.129 E4.05451
G1 X18.579 Y17.229 E0.06944
G1 X-18.579 Y-19.929 E4.05451
G1 X-18.579 Y-20.829 E0.06944
G1 X18.579 Y16.329 E4.05451
G1 X18.579 Y15.429 E0.06944
G1 X-18.579 Y-21.729 E4.05451
G1 X-18.579 Y-22.629 E0.06944
G1 X18.579 Y14.529 E4.05451
G1 X18.579 Y13.629 E0.06944
G1 X-18.579 Y-23.529 E4.05451
G1 X-17.729 Y-23.579 E0.06568
G1 X18.579 Y12.729 E3.96180
G1 X18.579 Y11.829 E0.06944
G1 X-16.829 Y-23.579 E3.86360
G1 X-15.929 Y-23.579 E0.06944
G1 X18.579 Y10.929 E3.76540
G1 X18.579 Y10.029 E0.06944
G1 X-15.029 Y-23.579 E3.66719
G1 X-14.129 Y-23.579 E0.06944
G1 X18.579 Y9.129 E3.56899
G1 X18.579 Y8.229 E0.06944
G1 X-13.229 Y-23.579 E3.47079
G1 X-12.329 Y-23.579 E0.06944
G1 X18.579 Y7.329 E3.37259
G1 X18.579 Y6.429 E0.06944
G1 X-11.429 Y-23.579 E3.27439
G1 X-10.530 Y-23.579 E0.06944
G1 X18.579 Y5.530 E3.17619
G1 X18.579 Y4.630 E0.06944
G1 X-9.630 Y-23.579 E3.07799
G1 X2.098 Y-22.651 F15000.000
G1 X1.170 Y-23.579 E0.10124 F960.000
G1 X0.270 Y-23.579 E0.06944
G1 X1.605 Y-22.244 E0.14570
G1 X1.113 Y-21.836 E0.04932
G1 X-0.630 Y-23.579 E0.19016
G1 X-1.530 Y-23.579 E0.06944
G1 X0.709 Y-21.340 E0.24426
G1 X0.330 Y-20.819 E0.04971
G1 X-2.430 Y-23.579 E0.30114
G1 X-3.330 Y-23.579 E0.06944
G1 X0.022 Y-20.227 E0.36571
G1 X-0.233 Y-19.583 E0.05350
G1 X-4.230 Y-23.579 E0.43606
G1 X-5.130 Y-23.579 E0.06944
G1 X-0.408 Y-18.857 E0.51521
G1 X-0.509 Y-18.058 E0.06214
G1 X-6.030 Y-23.579 E0.60239
G1 X-6.930 Y-23.579 E0.06944
G1 X-0.435 Y-17.084 E0.70870
G1 X-0.116 Y-15.866 E0.09715
G1 X-7.830 Y-23.579 E0.84164
G1 X-8.730 Y-23.579 E0.06944
G1 X18.579 Y3.730 E2.97979
G1 X18.579 Y2.830 E0.06944
G1 X2.909 Y-12.840 E1.70983
G1 X4.092 Y-12.557 E0.09384
G1 X18.579 Y1.930 E1.58077
G1 X18.579 Y1.030 E0.06944
G1 X5.031 Y-12.519 E1.47834
G1 X5.887 Y-12.563 E0.06613
G1 X18.579 Y0.130 E1.38494
G1 X18.579 Y-0.770 E0.06944
G1 X6.573 Y-12.777 E1.31009
G1 X7.252 Y-12.997 E0.05511
G1 X18.579 Y-1.670 E1.23597
G1 X18.579 Y-2.570 E0.06944
G1 X7.807 Y-13.342 E1.17534
G1 X8.358 Y-13.691 E0.05031
G1 X18.579 Y-3.470 E1.11527
G1 X18.579 Y-4.370 E0.06944
G1 X8.819 Y-14.130 E1.06498
G1 X9.255 Y-14.594 E0.04912
G1 X18.579 Y-5.270 E1.01742
G1 X18.579 Y-6.170 E0.06944
G1 X9.627 Y-15.122 E0.97676
G1 X9.950 Y-15.699 E0.05103
G1 X18.579 Y-7.070 E0.94158
G1 X18.579 Y-7.970 E0.06944
G1 X10.210 Y-16.339 E0.91319
G1 X10.394 Y-17.055 E0.05704
G1 X18.579 Y-8.870 E0.89312
G1 X18.579 Y-9.770 E0.06944
G1 X10.489 Y-17.860 E0.88277
G1 X10.489 Y-18.760 E0.06944
G1 X18.579 Y-10.670 E0.88277
G1 X18.579 Y-11.570 E0.06944
G1 X10.207 Y-19.941 E0.91349
G1 X7.841 Y-23.208 F15000.000
G1 X18.579 Y-12.470 E1.17171 F960.000
G1 X18.579 Y-13.370 E0.06944
G1 X8.370 Y-23.579 E1.11399
G1 X9.270 Y-23.579 E0.06944
G1 X18.579 Y-14.270 E1.01579
G1 X18.579 Y-15.170 E0.06944
G1 X10.170 Y-23.579 E0.91759
G1 X11.070 Y-23.579 E0.06944
G1 X18.579 Y-16.070 E0.81939
G1 X18.579 Y-16.970 E0.06944
G1 X11.970 Y-23.579 E0.72119
G1 X12.870 Y-23.579 E0.06944
G1 X18.579 Y-17.870 E0.62299
G1 X18.579 Y-18.769 E0.06944
G1 X13.769 Y-23.579 E0.52479
G1 X14.669 Y-23.579 E0.06944
G1 X18.579 Y-19.669 E0.42659
G1 X18.579 Y-20.569 E0.06944
G1 X15.569 Y-23.579 E0.32839
G1 X16.469 Y-23.579 E0.06944
G1 X18.579 Y-21.469 E0.23019
G1 X18.579 Y-22.369 E0.06944
G1 X17.369 Y-23.579 E0.13199
G1 X18.269 Y-23.579 E0.06944
G1 X18.579 Y-23.269 E0.03379
G1 X10.207 Y16.057 F15000.000
G1 X17.729 Y23.579 E0.82082 F960.000
G1 X18.579 Y23.529 E0.06568
G1 X-12.536 Y-7.586 E3.39512
G1 X-12.118 Y-8.068 E0.04922
G1 X18.579 Y22.629 E3.34952
G1 X18.579 Y21.729 E0.06944
G1 X-11.799 Y-8.649 E3.31469
G1 X-11.583 Y-9.333 E0.05537
G1 X18.579 Y20.829 E3.29117
G1 X18.579 Y19.929 E0.06944
G1 X-11.496 Y-10.146 E3.28160
G1 X-11.651 Y-11.201 E0.08234
G1 X18.579 Y19.029 E3.29860
G1 X16.829 Y23.579 F15000.000
G1 X10.489 Y17.238 E0.69185 F960.000
G1 X10.489 Y18.138 E0.06944
G1 X15.929 Y23.579 E0.59365
G1 X15.029 Y23.579 E0.06944
G1 X10.394 Y18.944 E0.50576
G1 X10.210 Y19.660 E0.05704
G1 X14.129 Y23.579 E0.42763
G1 X13.229 Y23.579 E0.06944
G1 X9.939 Y20.289 E0.35901
G1 X9.626 Y20.875 E0.05131
G1 X12.329 Y23.579 E0.29503
G1 X11.429 Y23.579 E0.06944
G1 X9.255 Y21.405 E0.23722
G1 X8.820 Y21.869 E0.04912
G1 X10.529 Y23.579 E0.18657
G1 X9.630 Y23.579 E0.06944
G1 X8.359 Y22.308 E0.13864
G1 X7.808 Y22.658 E0.05031
G1 X8.730 Y23.579 E0.10052
G1 E-3.20000 F3000.00000
G1 Z0.700 F15000.000
G1 X7.482 Y-23.280 F15000.000
G1 Z0.300 F15000.000
G1 E3.20000 F3000.00000
G1 X6.068 Y-23.503 E0.11028 F960.000
G1 X4.663 Y-23.550 E0.10835
G1 X3.327 Y-23.425 E0.10341
G1 X2.489 Y-23.246 E0.06605
G1 X-18.306 Y-11.913 F15000.000
G1 X-18.496 Y-10.917 E0.07812 F960.000
G1 X-18.555 Y-10.011 E0.06994
G1 X-18.496 Y-9.083 E0.07171
G1 X-18.306 Y-8.087 E0.07812
G1 X-18.306 Y8.087 F15000.000
G1 X-18.496 Y9.083 E0.07812 F960.000
G1 X-18.555 Y9.989 E0.06994
G1 X-18.496 Y10.917 E0.07170
G1 X-18.306 Y11.913 E0.07812
G1 X2.489 Y23.249 F15000.000
G1 X3.269 Y23.420 E0.06155 F960.000
G1 X4.605 Y23.544 E0.10343
