; generated by Slic3r 1.2.9 on 2017-02-28 at 17:48:06

; external perimeters extrusion width = 0.40mm
; perimeters extrusion width = 0.40mm
; infill extrusion width = 0.40mm
; solid infill extrusion width = 0.40mm
; top infill extrusion width = 0.40mm

M107
M83
T0
M116
G21 ; set units to millimeters
G90 ; use absolute coordinates
M83 ; use relative distances for extrusion
G1 E-3.20000 F3000.00000
G1 Z0.400 F15000.000
G1 X-10.729 Y25.861 F15000.000
G1 Z0.300 F15000.000
G1 E3.20000 F3000.00000
G1 X-31.343 Y17.308 E1.71992 F960.000
G1 X-32.713 Y16.312 E0.13052
G1 X-33.484 Y14.804 E0.13052
G1 X-33.586 Y13.950 E0.06630
G1 X-33.586 Y-33.450 E3.65290
G1 X-33.191 Y-35.097 E0.13052
G1 X-32.093 Y-36.387 E0.13052
G1 X-29.950 Y-37.086 E0.17373
G1 X29.950 Y-37.086 E4.61622
G1 X31.597 Y-36.691 E0.13052
G1 X32.887 Y-35.593 E0.13052 F960.000
G1 X33.586 Y-33.450 E0.17373
G1 X33.586 Y33.450 E5.15568
G1 X33.191 Y35.097 E0.13052
G1 X32.093 Y36.387 E0.13052
G1 X29.950 Y37.086 E0.17373
G1 X17.050 Y37.086 E0.99414
G1 X15.657 Y36.808 E0.10948
G1 X-10.674 Y25.884 E2.19691
G1 E-3.20000 F3000.00000
G1 Z0.700 F15000.000
G1 X17.516 Y-0.588 F15000.000
G1 Z0.300 F15000.000
G1 E3.20000 F3000.00000
G1 X17.457 Y-0.652 E0.00674 F600.000
G1 X17.077 Y-1.343 E0.06073
G1 X16.881 Y-2.106 E0.06073
G1 X16.881 Y-2.894 E0.06073
G1 X17.077 Y-3.657 E0.06073
G1 X17.457 Y-4.348 E0.06073
G1 X17.996 Y-4.922 E0.06073
G1 X18.666 Y-5.347 E0.06114
G1 X19.440 Y-5.590 E0.06252
G1 X20.197 Y-5.638 E0.05849 F600.000
G1 X20.972 Y-5.490 E0.06073
G1 X21.685 Y-5.154 E0.06073
G1 X22.292 Y-4.652 E0.06073
G1 X22.755 Y-4.015 E0.06073
G1 X23.045 Y-3.282 E0.06073
G1 X23.145 Y-2.495 E0.06114
G1 X23.034 Y-1.691 E0.06252
G1 X22.755 Y-0.985 E0.05849
G1 X22.292 Y-0.348 E0.06073
G1 X21.685 Y0.154 E0.06073
G1 X20.972 Y0.490 E0.06073
G1 X20.197 Y0.638 E0.06073
G1 X19.411 Y0.588 E0.06073
G1 X18.661 Y0.345 E0.06073
G1 X17.996 Y-0.078 E0.06073
G1 X17.557 Y-0.545 E0.04937
G1 X18.021 Y-0.980 F15000.000
G1 X17.975 Y-1.029 E0.00517 F600.000
G1 X17.673 Y-1.579 E0.04836
G1 X17.517 Y-2.186 E0.04836
G1 X17.517 Y-2.814 E0.04836
G1 X17.673 Y-3.421 E0.04836
G1 X17.975 Y-3.971 E0.04836
G1 X18.404 Y-4.429 E0.04836
G1 X18.936 Y-4.766 E0.04850
G1 X19.557 Y-4.960 E0.05014
G1 X20.157 Y-4.998 E0.04637 F600.000
G1 X20.774 Y-4.881 E0.04836
G1 X21.341 Y-4.614 E0.04835
G1 X21.825 Y-4.214 E0.04836
G1 X22.194 Y-3.706 E0.04836
G1 X22.425 Y-3.123 E0.04836
G1 X22.503 Y-2.498 E0.04850
G1 X22.415 Y-1.854 E0.05014
G1 X22.194 Y-1.294 E0.04637
G1 X21.825 Y-0.786 E0.04836
G1 X21.341 Y-0.386 E0.04836
G1 X20.774 Y-0.119 E0.04835
G1 X20.157 Y-0.002 E0.04836
G1 X19.531 Y-0.041 E0.04836
G1 X18.934 Y-0.235 E0.04836
G1 X18.404 Y-0.571 E0.04836
G1 X18.062 Y-0.936 E0.03856
G1 X17.955 Y-0.964 F15000.000
G1 E-3.20000 F3000.00000
G1 Z0.700 F15000.000
G1 X19.430 Y-19.510 F15000.000
G1 Z0.300 F15000.000
G1 E3.20000 F3000.00000
G1 X18.731 Y-19.737 E0.05662 F600.000
G1 X18.063 Y-20.151 E0.06052
G1 X17.537 Y-20.711 E0.05921
G1 X17.170 Y-21.379 E0.05880
G1 X16.980 Y-22.119 E0.05880
G1 X16.980 Y-22.881 E0.05880
G1 X17.170 Y-23.621 E0.05880
G1 X17.537 Y-24.289 E0.05880
G1 X18.060 Y-24.845 E0.05880
G1 X18.708 Y-25.257 E0.05921
G1 X19.458 Y-25.492 E0.06052
G1 X20.191 Y-25.538 E0.05661 F600.000
G1 X20.941 Y-25.395 E0.05880
G1 X21.631 Y-25.070 E0.05880
G1 X22.219 Y-24.584 E0.05880
G1 X22.667 Y-23.966 E0.05880
G1 X22.948 Y-23.257 E0.05880
G1 X23.044 Y-22.500 E0.05880
G1 X22.948 Y-21.743 E0.05880
G1 X22.667 Y-21.034 E0.05880
G1 X22.216 Y-20.412 E0.05921
G1 X21.605 Y-19.918 E0.06052
G1 X20.941 Y-19.605 E0.05661
G1 X20.191 Y-19.462 E0.05880
G1 X19.490 Y-19.506 E0.05418
G1 X19.550 Y-20.139 F15000.000
G1 X19.000 Y-20.318 E0.04450 F600.000
G1 X18.469 Y-20.647 E0.04814
G1 X18.056 Y-21.087 E0.04657
G1 X17.766 Y-21.615 E0.04643
G1 X17.616 Y-22.199 E0.04642
G1 X17.616 Y-22.801 E0.04642
G1 X17.766 Y-23.385 E0.04642
G1 X18.056 Y-23.913 E0.04642
G1 X18.468 Y-24.352 E0.04642
G1 X18.978 Y-24.675 E0.04657
G1 X19.575 Y-24.862 E0.04815
G1 X20.151 Y-24.898 E0.04450 F600.000
G1 X20.743 Y-24.786 E0.04642
G1 X21.288 Y-24.529 E0.04642
G1 X21.752 Y-24.145 E0.04642
G1 X22.106 Y-23.658 E0.04642
G1 X22.328 Y-23.098 E0.04642
G1 X22.403 Y-22.500 E0.04642
G1 X22.328 Y-21.902 E0.04642
G1 X22.106 Y-21.342 E0.04642
G1 X21.751 Y-20.853 E0.04657
G1 X21.265 Y-20.460 E0.04814
G1 X20.743 Y-20.214 E0.04450
G1 X20.151 Y-20.102 E0.04642
G1 X19.610 Y-20.136 E0.04180
G1 X19.276 Y-19.848 F15000.000
G1 X12.036 Y-10.653 F15000.000
G1 X12.036 Y-20.036 E0.72306 F720.000
G1 X8.036 Y-20.036 E0.30826
G1 X8.036 Y-32.464 E0.95783
G1 X28.964 Y-32.464 E1.61289
G1 X28.964 Y32.464 E5.00377
G1 X18.036 Y32.464 E0.84223 F720.000
G1 X18.036 Y12.964 E1.50278
G1 X8.036 Y12.964 E0.77065
G1 X8.036 Y-4.964 E1.38169
G1 X12.036 Y-4.964 E0.30826
G1 X12.036 Y-10.593 E0.43379
G1 X11.400 Y-10.593 F15000.000
G1 X11.400 Y-19.400 E0.67870 F720.000
G1 X7.400 Y-19.400 E0.30826
G1 X7.400 Y-33.100 E1.05580
G1 X29.600 Y-33.100 E1.71085
G1 X29.600 Y33.100 E5.10174
G1 X17.400 Y33.100 E0.94020 F720.000
G1 X17.400 Y13.600 E1.50278
G1 X7.400 Y13.600 E0.77065
G1 X7.400 Y-5.600 E1.47966
G1 X11.400 Y-5.600 E0.30826
G1 X11.400 Y-10.533 E0.38018
G1 X11.746 Y-10.793 F15000.000
G1 X12.421 Y-19.722 F15000.000
G1 X28.579 Y-3.564 E1.78242 F960.000
G1 X28.579 Y-2.655 E0.07097
G1 X12.421 Y-18.813 E1.78242
G1 X12.421 Y-17.903 E0.07097
G1 X28.579 Y-1.745 E1.78242
G1 X28.579 Y-0.835 E0.07097
G1 X12.421 Y-16.993 E1.78242
G1 X12.421 Y-16.083 E0.07097
G1 X28.579 Y0.075 E1.78242
G1 X28.579 Y0.985 E0.07097
G1 X12.421 Y-15.173 E1.78242
G1 X12.421 Y-14.263 E0.07097
G1 X20.727 Y-5.957 E0.91629
G1 X19.785 Y-5.990 E0.07355
G1 X12.421 Y-13.354 E0.81233
G1 X12.421 Y-12.444 E0.07097
G1 X19.034 Y-5.831 E0.72948
G1 X18.388 Y-5.567 E0.05442
G1 X12.421 Y-11.534 E0.65823
G1 X12.421 Y-10.624 E0.07097
G1 X17.831 Y-5.214 E0.59683
G1 X17.384 Y-4.752 E0.05019
G1 X12.421 Y-9.714 E0.54742
G1 X12.421 Y-8.804 E0.07097
G1 X17.003 Y-4.222 E0.50544
G1 X16.699 Y-3.617 E0.05287
G1 X12.421 Y-7.895 E0.47189
G1 X12.421 Y-6.985 E0.07097
G1 X16.513 Y-2.893 E0.45139
G1 X16.496 Y-2.000 E0.06962
G1 X12.421 Y-6.075 E0.44947
G1 X12.421 Y-5.165 E0.07097
G1 X16.911 Y-0.675 E0.49529
G1 X18.213 Y0.627 F15000.000
G1 X28.579 Y10.993 E1.14349 F960.000
G1 X28.579 Y10.083 E0.07097
G1 X19.484 Y0.988 E1.00334
G1 X20.378 Y0.972 E0.06978
G1 X28.579 Y9.173 E0.90467
G1 X28.579 Y8.263 E0.07097
G1 X21.115 Y0.799 E0.82339
G1 X21.733 Y0.508 E0.05334
G1 X28.579 Y7.354 E0.75514
G1 X28.579 Y6.444 E0.07097
G1 X22.250 Y0.115 E0.69812
G1 X22.700 Y-0.345 E0.05019
G1 X28.579 Y5.534 E0.64852
G1 X28.579 Y4.624 E0.07097
G1 X23.082 Y-0.873 E0.60640
G1 X23.340 Y-1.525 E0.05468
G1 X28.579 Y3.714 E0.57794
G1 X28.579 Y2.804 E0.07097
G1 X23.488 Y-2.287 E0.56162
G1 X23.459 Y-3.226 E0.07327
G1 X28.579 Y1.895 E0.56482
G1 X28.579 Y11.903 F15000.000
G1 X12.097 Y-4.579 E1.81814 F960.000
G1 X11.187 Y-4.579 E0.07097
G1 X28.579 Y12.813 E1.91850
G1 X28.579 Y13.722 E0.07097
G1 X10.278 Y-4.579 E2.01887
G1 X9.368 Y-4.579 E0.07097
G1 X28.579 Y14.632 E2.11924
G1 X28.579 Y15.542 E0.07097
G1 X8.458 Y-4.579 E2.21960
G1 X8.421 Y-3.706 E0.06815
G1 X28.579 Y16.452 E2.22367
G1 X28.579 Y17.362 E0.07097
G1 X8.421 Y-2.796 E2.22367
G1 X8.421 Y-1.886 E0.07097
G1 X28.579 Y18.272 E2.22367
G1 X28.579 Y19.181 E0.07097
G1 X8.421 Y-0.977 E2.22367
G1 X8.421 Y-0.067 E0.07097
G1 X28.579 Y20.091 E2.22367
G1 X28.579 Y21.001 E0.07097
G1 X8.421 Y0.843 E2.22367
G1 X8.421 Y1.753 E0.07097
G1 X28.579 Y21.911 E2.22367
G1 X28.579 Y22.821 E0.07097
G1 X8.421 Y2.663 E2.22367
G1 X8.421 Y3.573 E0.07097
G1 X17.427 Y12.579 E0.99351
G1 X16.518 Y12.579 E0.07097
G1 X8.421 Y4.482 E0.89314
G1 X8.421 Y5.392 E0.07097
G1 X15.608 Y12.579 E0.79278
G1 X14.698 Y12.579 E0.07097
G1 X8.421 Y6.302 E0.69241
G1 X8.421 Y7.212 E0.07097
G1 X13.788 Y12.579 E0.59204
G1 X12.878 Y12.579 E0.07097
G1 X8.421 Y8.122 E0.49168
G1 X8.421 Y9.032 E0.07097
G1 X11.968 Y12.579 E0.39131
G1 X11.058 Y12.579 E0.07097
G1 X8.421 Y9.941 E0.29094
G1 X8.421 Y10.851 E0.07097
G1 X10.149 Y12.579 E0.19058
G1 X9.239 Y12.579 E0.07097
G1 X8.421 Y11.761 E0.09021
G1 X18.421 Y13.573 F15000.000
G1 X28.579 Y23.731 E1.12055 F960.000
G1 X28.579 Y24.640 E0.07097
G1 X18.421 Y14.482 E1.12055
G1 X18.421 Y15.392 E0.07097
G1 X28.579 Y25.550 E1.12055
G1 X28.579 Y26.460 E0.07097
G1 X18.421 Y16.302 E1.12055
G1 X18.421 Y17.212 E0.07097
G1 X28.579 Y27.370 E1.12055
G1 X28.579 Y28.280 E0.07097
G1 X18.421 Y18.122 E1.12055
G1 X18.421 Y19.032 E0.07097
G1 X28.579 Y29.190 E1.12055
G1 X28.579 Y30.099 E0.07097
G1 X18.421 Y19.941 E1.12055
G1 X18.421 Y20.851 E0.07097
G1 X28.579 Y31.009 E1.12055
G1 X28.579 Y31.919 E0.07097
G1 X18.421 Y21.761 E1.12055
G1 X18.421 Y22.671 E0.07097
G1 X27.829 Y32.079 E1.03782
G1 X26.919 Y32.079 E0.07097
G1 X18.421 Y23.581 E0.93745
G1 X18.421 Y24.491 E0.07097
G1 X26.009 Y32.079 E0.83708
G1 X25.099 Y32.079 E0.07097
G1 X18.421 Y25.401 E0.73672
G1 X18.421 Y26.310 E0.07097
G1 X24.190 Y32.079 E0.63635
G1 X23.280 Y32.079 E0.07097
G1 X18.421 Y27.220 E0.53599
G1 X18.421 Y28.130 E0.07097
G1 X22.370 Y32.079 E0.43562
G1 X21.460 Y32.079 E0.07097
G1 X18.421 Y29.040 E0.33525
G1 X18.421 Y29.950 E0.07097
G1 X20.550 Y32.079 E0.23489
G1 X19.640 Y32.079 E0.07097
G1 X18.421 Y30.860 E0.13452
G1 X18.421 Y31.769 E0.07097
G1 X18.731 Y32.079 E0.03415
G1 X28.579 Y-9.933 F15000.000
G1 X19.395 Y-19.117 E1.01312 F960.000
G1 X20.307 Y-19.115 E0.07114
G1 X28.579 Y-10.843 E0.91251
G1 X28.579 Y-11.753 E0.07097
G1 X21.051 Y-19.281 E0.83039
G1 X21.670 Y-19.572 E0.05334
G1 X28.579 Y-12.663 E0.76214
G1 X28.579 Y-13.573 E0.07097
G1 X22.188 Y-19.964 E0.70504
G1 X22.636 Y-20.426 E0.05019
G1 X28.579 Y-14.482 E0.65560
G1 X28.579 Y-15.392 E0.07097
G1 X23.010 Y-20.961 E0.61433
G1 X23.268 Y-21.613 E0.05468
G1 X28.579 Y-16.302 E0.58586
G1 X28.579 Y-17.212 E0.07097
G1 X23.402 Y-22.389 E0.57105
G1 X23.342 Y-23.359 E0.07582
G1 X28.579 Y-18.122 E0.57771
G1 X28.579 Y-31.769 F15000.000
G1 X28.269 Y-32.079 E0.03416 F960.000
G1 X27.359 Y-32.079 E0.07097
G1 X28.579 Y-30.859 E0.13453
G1 X28.579 Y-29.950 E0.07097
G1 X26.450 Y-32.079 E0.23489
G1 X25.540 Y-32.079 E0.07097
G1 X28.579 Y-29.040 E0.33526
G1 X28.579 Y-28.130 E0.07097
G1 X24.630 Y-32.079 E0.43563
G1 X23.720 Y-32.079 E0.07097
G1 X28.579 Y-27.220 E0.53599
G1 X28.579 Y-26.310 E0.07097
G1 X22.810 Y-32.079 E0.63636
G1 X21.900 Y-32.079 E0.07097
G1 X28.579 Y-25.400 E0.73672
G1 X28.579 Y-24.491 E0.07097
G1 X20.991 Y-32.079 E0.83709
G1 X20.081 Y-32.079 E0.07097
G1 X28.579 Y-23.581 E0.93746
G1 X28.579 Y-22.671 E0.07097
G1 X19.171 Y-32.079 E1.03782
G1 X18.261 Y-32.079 E0.07097
G1 X28.579 Y-21.761 E1.13819
G1 X28.579 Y-20.851 E0.07097
G1 X17.351 Y-32.079 E1.23855
G1 X16.441 Y-32.079 E0.07097
G1 X28.579 Y-19.941 E1.33892
G1 X28.579 Y-19.032 E0.07097
G1 X15.532 Y-32.079 E1.43929
G1 X14.622 Y-32.079 E0.07097
G1 X20.872 Y-25.828 E0.68951
G1 X19.894 Y-25.897 E0.07651
G1 X13.712 Y-32.079 E0.68194
G1 X12.802 Y-32.079 E0.07097
G1 X19.125 Y-25.756 E0.69754
G1 X18.470 Y-25.501 E0.05485
G1 X11.892 Y-32.079 E0.72559
G1 X10.982 Y-32.079 E0.07097
G1 X17.913 Y-25.148 E0.76456
G1 X17.462 Y-24.690 E0.05018
G1 X10.073 Y-32.079 E0.81510
G1 X9.163 Y-32.079 E0.07097
G1 X17.082 Y-24.160 E0.87356
G1 X16.784 Y-23.548 E0.05308
G1 X8.421 Y-31.911 E0.92250
G1 X8.421 Y-31.001 E0.07097
G1 X16.598 Y-22.824 E0.90200
G1 X16.595 Y-21.917 E0.07074
G1 X8.421 Y-30.091 E0.90168
G1 X8.421 Y-29.181 E0.07097
G1 X28.579 Y-9.023 E2.22367
G1 X28.579 Y-8.114 E0.07097
G1 X8.421 Y-28.272 E2.22367
G1 X8.421 Y-27.362 E0.07097
G1 X28.579 Y-7.204 E2.22367
G1 X28.579 Y-6.294 E0.07097
G1 X8.421 Y-26.452 E2.22367
G1 X8.421 Y-25.542 E0.07097
G1 X28.579 Y-5.384 E2.22367
G1 X28.579 Y-4.474 E0.07097
G1 X8.421 Y-24.632 E2.22367
G1 X8.421 Y-23.722 E0.07097
G1 X11.722 Y-20.421 E0.36418
G1 X10.813 Y-20.421 E0.07097
G1 X8.421 Y-22.813 E0.26381
G1 X8.421 Y-21.903 E0.07097
G1 X9.903 Y-20.421 E0.16344
G1 X8.993 Y-20.421 E0.07097
G1 X8.421 Y-20.993 E0.06308
G1 E-3.20000 F3000.00000
G1 Z0.700 F15000.000
G1 X-17.806 Y-3.706 F15000.000
G1 Z0.300 F15000.000
G1 E3.20000 F3000.00000
G1 X-17.575 Y-3.123 E0.04836 F600.000
G1 X-17.497 Y-2.499 E0.04844
G1 X-17.581 Y-1.864 E0.04934
G1 X-17.806 Y-1.294 E0.04726
G1 X-18.175 Y-0.786 E0.04836
G1 X-18.659 Y-0.386 E0.04836
G1 X-19.226 Y-0.119 E0.04835
G1 X-19.843 Y-0.002 E0.04836
G1 X-20.469 Y-0.041 E0.04836
G1 X-21.066 Y-0.235 E0.04836
G1 X-21.596 Y-0.571 E0.04836
G1 X-22.025 Y-1.029 E0.04836
G1 X-22.327 Y-1.579 E0.04836
G1 X-22.483 Y-2.186 E0.04836
G1 X-22.483 Y-2.814 E0.04836
G1 X-22.331 Y-3.408 E0.04726
G1 X-22.026 Y-3.971 E0.04934
G1 X-21.596 Y-4.429 E0.04844
G1 X-21.065 Y-4.766 E0.04844
G1 X-20.455 Y-4.960 E0.04934
G1 X-19.843 Y-4.998 E0.04726 F600.000
G1 X-19.226 Y-4.881 E0.04836
G1 X-18.659 Y-4.614 E0.04835
G1 X-18.175 Y-4.214 E0.04836
G1 X-17.842 Y-3.754 E0.04373
G1 X-17.407 Y-3.681 F15000.000
G1 X-16.952 Y12.964 F15000.000
G1 X-28.964 Y12.964 E0.92573 F720.000
G1 X-28.964 Y-4.964 E1.38169
G1 X-21.965 Y-4.964 E0.53945
G1 X-22.545 Y-4.346 E0.06540
G1 X-22.927 Y-3.642 E0.06172 F720.000
G1 X-23.119 Y-2.894 E0.05949
G1 X-23.119 Y-2.106 E0.06073
G1 X-22.923 Y-1.343 E0.06073
G1 X-22.543 Y-0.652 E0.06073
G1 X-22.004 Y-0.078 E0.06073
G1 X-21.339 Y0.345 E0.06073
G1 X-20.589 Y0.588 E0.06073
G1 X-19.803 Y0.638 E0.06073
G1 X-19.028 Y0.490 E0.06073
G1 X-18.315 Y0.154 E0.06073
G1 X-17.708 Y-0.348 E0.06073
G1 X-17.245 Y-0.985 E0.06073
G1 X-16.961 Y-1.703 E0.05949
G1 X-16.856 Y-2.497 E0.06172
G1 X-16.955 Y-3.282 E0.06096
G1 X-17.245 Y-4.015 E0.06073
G1 X-17.935 Y-4.964 E0.09048
G1 X-8.036 Y-4.964 E0.76291
G1 X-8.036 Y12.964 E1.38169
G1 X-16.892 Y12.964 E0.68253
G1 X-16.892 Y13.600 F15000.000
G1 X-29.600 Y13.600 E0.97934 F720.000
G1 X-29.600 Y-5.600 E1.47966
G1 X-7.400 Y-5.600 E1.71085
G1 X-7.400 Y13.600 E1.47966
G1 X-16.832 Y13.600 E0.72689 F720.000
G1 X-17.092 Y13.254 F15000.000
G1 X-28.579 Y12.269 F15000.000
G1 X-28.269 Y12.579 E0.03444 F960.000
G1 X-27.352 Y12.579 E0.07216
G1 X-28.579 Y11.352 E0.13649
G1 X-28.579 Y10.434 E0.07216
G1 X-26.434 Y12.579 E0.23853
G1 X-25.517 Y12.579 E0.07216
G1 X-28.579 Y9.517 E0.34058
G1 X-28.579 Y8.600 E0.07216
G1 X-24.600 Y12.579 E0.44262
G1 X-23.682 Y12.579 E0.07216
G1 X-28.579 Y7.682 E0.54467
G1 X-28.579 Y6.765 E0.07216
G1 X-22.765 Y12.579 E0.64671
G1 X-21.847 Y12.579 E0.07216
G1 X-28.579 Y5.847 E0.74876
G1 X-28.579 Y4.930 E0.07216
G1 X-20.930 Y12.579 E0.85080
G1 X-20.013 Y12.579 E0.07216
G1 X-28.579 Y4.013 E0.95285
G1 X-28.579 Y3.095 E0.07216
G1 X-19.095 Y12.579 E1.05489
G1 X-18.178 Y12.579 E0.07216
G1 X-28.579 Y2.178 E1.15694
G1 X-28.579 Y1.260 E0.07216
G1 X-17.260 Y12.579 E1.25898
G1 X-16.343 Y12.579 E0.07216
G1 X-28.579 Y0.343 E1.36103
G1 X-28.579 Y-0.574 E0.07216
G1 X-15.426 Y12.579 E1.46308
G1 X-14.508 Y12.579 E0.07216
G1 X-28.579 Y-1.492 E1.56512
G1 X-28.579 Y-2.409 E0.07216
G1 X-13.591 Y12.579 E1.66717
G1 X-12.673 Y12.579 E0.07216
G1 X-28.579 Y-3.327 E1.76921
G1 X-28.579 Y-4.244 E0.07216
G1 X-11.756 Y12.579 E1.87126
G1 X-10.838 Y12.579 E0.07216
G1 X-27.996 Y-4.579 E1.90850
G1 X-27.079 Y-4.579 E0.07216
G1 X-22.984 Y-0.484 E0.45549
G1 X-22.022 Y0.478 F15000.000
G1 X-9.921 Y12.579 E1.34606 F960.000
G1 X-9.004 Y12.579 E0.07216
G1 X-20.600 Y0.982 E1.28990
G1 X-19.682 Y0.984 E0.07225
G1 X-8.421 Y12.244 E1.25252
G1 X-8.421 Y11.327 E0.07216
G1 X-18.928 Y0.820 E1.16873
G1 X-18.304 Y0.526 E0.05423
G1 X-8.421 Y10.409 E1.09934
G1 X-8.421 Y9.492 E0.07216
G1 X-17.776 Y0.137 E1.04056
G1 X-17.317 Y-0.322 E0.05102
G1 X-8.421 Y8.574 E0.98952
G1 X-8.421 Y7.657 E0.07216
G1 X-16.931 Y-0.853 E0.94658
G1 X-16.667 Y-1.507 E0.05544
G1 X-8.421 Y6.740 E0.91725
G1 X-8.421 Y5.822 E0.07216
G1 X-16.514 Y-2.270 E0.90016
G1 X-16.540 Y-3.214 E0.07424
G1 X-8.421 Y4.905 E0.90305
G1 X-8.421 Y3.987 E0.07216
G1 X-16.987 Y-4.579 E0.95285
G1 X-16.070 Y-4.579 E0.07216
G1 X-8.421 Y3.070 E0.85081
G1 X-8.421 Y2.153 E0.07216
G1 X-15.153 Y-4.579 E0.74876
G1 X-14.235 Y-4.579 E0.07216
G1 X-8.421 Y1.235 E0.64672
G1 X-8.421 Y0.318 E0.07216
G1 X-13.318 Y-4.579 E0.54467
G1 X-12.400 Y-4.579 E0.07216
G1 X-8.421 Y-0.600 E0.44263
G1 X-8.421 Y-1.517 E0.07216
G1 X-11.483 Y-4.579 E0.34058
G1 X-10.566 Y-4.579 E0.07216
G1 X-8.421 Y-2.434 E0.23854
