; generated by Slic3r 1.2.9 on 2017-02-15 at 18:05:46

; external perimeters extrusion width = 0.40mm
; perimeters extrusion width = 0.40mm
; infill extrusion width = 0.40mm
; solid infill extrusion width = 0.40mm
; top infill extrusion width = 0.40mm

M107
M83
T0
M116
G21 ; set units to millimeters
G90 ; use absolute coordinates
M83 ; use relative distances for extrusion
G1 E-3.20000 F3000.00000
G1 Z0.400 F15000.000
G1 X0.000 Y24.586 F15000.000
G1 Z0.300 F15000.000
G1 E3.20000 F3000.00000
G1 X-23.479 Y24.586 E1.80944 F960.000
G1 X-25.126 Y24.191 E0.13052
G1 X-26.050 Y23.521 E0.08796
G1 X-26.171 Y23.400 E0.01316
G1 X-27.056 Y21.956 E0.13052
G1 X-27.236 Y20.829 E0.08795
G1 X-27.236 Y-20.829 E3.21044
G1 X-26.841 Y-22.476 E0.13052
G1 X-26.171 Y-23.400 E0.08795
G1 X-26.050 Y-23.521 E0.01316
G1 X-24.606 Y-24.406 E0.13052
G1 X-23.479 Y-24.586 E0.08796
G1 X20.979 Y-24.586 E3.42622
G1 X22.626 Y-24.191 E0.13052
G1 X23.550 Y-23.521 E0.08796 F960.000
G1 X26.521 Y-20.550 E0.32377
G1 X27.406 Y-19.106 E0.13052
G1 X27.586 Y-17.979 E0.08796
G1 X27.586 Y17.979 E2.77117
G1 X27.191 Y19.626 E0.13052
G1 X26.521 Y20.550 E0.08796
G1 X23.550 Y23.521 E0.32377
G1 X22.106 Y24.406 E0.13052
G1 X20.979 Y24.586 E0.08796
G1 X0.060 Y24.586 E1.61216
G1 E-3.20000 F3000.00000
G1 Z0.700 F15000.000
G1 X-9.876 Y17.367 F15000.000
G1 Z0.300 F15000.000
G1 E3.20000 F3000.00000
G1 X-10.337 Y18.001 E0.06041 F600.000
G1 X-11.043 Y18.584 E0.07057
G1 X-11.871 Y18.974 E0.07057
G1 X-12.772 Y19.146 E0.07068
G1 X-13.711 Y19.080 E0.07256
G1 X-14.555 Y18.805 E0.06841
G1 X-15.329 Y18.315 E0.07057
G1 X-15.955 Y17.647 E0.07057
G1 X-16.397 Y16.845 E0.07057
G1 X-16.624 Y15.958 E0.07057
G1 X-16.624 Y15.042 E0.07057
G1 X-16.397 Y14.155 E0.07057
G1 X-15.955 Y13.353 E0.07057
G1 X-15.329 Y12.685 E0.07057
G1 X-14.555 Y12.195 E0.07057
G1 X-13.685 Y11.912 E0.07057
G1 X-12.799 Y11.856 E0.06841 F600.000
G1 X-11.872 Y12.025 E0.07256
G1 X-11.043 Y12.416 E0.07068
G1 X-10.337 Y12.999 E0.07057
G1 X-9.799 Y13.740 E0.07057
G1 X-9.462 Y14.591 E0.07057
G1 X-9.347 Y15.500 E0.07057
G1 X-9.462 Y16.409 E0.07057
G1 X-9.799 Y17.260 E0.07057
G1 X-9.841 Y17.318 E0.00554
G1 X-9.713 Y17.732 F15000.000
G1 E-3.20000 F3000.00000
G1 Z0.700 F15000.000
G1 X-12.771 Y-11.854 F15000.000
G1 Z0.300 F15000.000
G1 E3.20000 F3000.00000
G1 X-13.685 Y-11.912 E0.07057 F600.000
G1 X-14.555 Y-12.195 E0.07057
G1 X-15.329 Y-12.685 E0.07057
G1 X-15.955 Y-13.353 E0.07057
G1 X-16.383 Y-14.131 E0.06841
G1 X-16.624 Y-15.041 E0.07256
G1 X-16.624 Y-15.958 E0.07068
G1 X-16.397 Y-16.845 E0.07057
G1 X-15.955 Y-17.647 E0.07057
G1 X-15.329 Y-18.315 E0.07057
G1 X-14.555 Y-18.805 E0.07057
G1 X-13.685 Y-19.088 E0.07057
G1 X-12.799 Y-19.144 E0.06841 F600.000
G1 X-11.872 Y-18.975 E0.07256
G1 X-11.043 Y-18.584 E0.07068
G1 X-10.337 Y-18.001 E0.07057
G1 X-9.799 Y-17.260 E0.07057
G1 X-9.462 Y-16.409 E0.07057
G1 X-9.347 Y-15.500 E0.07057
G1 X-9.462 Y-14.591 E0.07057
G1 X-9.799 Y-13.740 E0.07057
G1 X-10.337 Y-12.999 E0.07057
G1 X-11.043 Y-12.416 E0.07057
G1 X-11.871 Y-12.026 E0.07057
G1 X-12.712 Y-11.865 E0.06595
G1 X-12.963 Y-11.504 F15000.000
G1 X-6.087 Y-6.668 F15000.000
G1 X-5.713 Y-7.145 E0.04668 F720.000
G1 X-4.931 Y-7.955 E0.08677
G1 X-4.087 Y-8.667 E0.08513
G1 X-3.167 Y-9.294 E0.08581
G1 X-2.188 Y-9.824 E0.08580
G1 X-1.160 Y-10.252 E0.08580
G1 X-0.094 Y-10.571 E0.08580
G1 X1.000 Y-10.781 E0.08580
G1 X2.101 Y-10.877 E0.08520
G1 X2.899 Y-10.877 E0.06144 F720.000
G1 X4.000 Y-10.781 E0.08520
G1 X5.094 Y-10.571 E0.08580
G1 X6.160 Y-10.252 E0.08580
G1 X7.188 Y-9.824 E0.08580
G1 X8.167 Y-9.294 E0.08580
G1 X9.087 Y-8.667 E0.08581
G1 X9.938 Y-7.949 E0.08581
G1 X10.711 Y-7.148 E0.08581
G1 X11.398 Y-6.272 E0.08581
G1 X11.993 Y-5.330 E0.08581
G1 X12.488 Y-4.333 E0.08581
G1 X12.878 Y-3.290 E0.08581
G1 X13.160 Y-2.212 E0.08581
G1 X13.330 Y-1.112 E0.08581
G1 X13.387 Y0.000 E0.08581
G1 X13.330 Y1.112 E0.08581
G1 X13.160 Y2.212 E0.08581
G1 X12.878 Y3.290 E0.08581
G1 X12.488 Y4.333 E0.08581
G1 X11.993 Y5.330 E0.08581
G1 X11.398 Y6.272 E0.08581
G1 X10.713 Y7.145 E0.08552
G1 X10.182 Y7.704 E0.05941
G1 X9.931 Y7.955 E0.02736
G1 X9.087 Y8.667 E0.08513
G1 X8.167 Y9.294 E0.08581
G1 X7.188 Y9.824 E0.08580
G1 X6.160 Y10.252 E0.08580
G1 X5.094 Y10.571 E0.08580
G1 X4.000 Y10.781 E0.08580
G1 X2.899 Y10.877 E0.08520
G1 X2.101 Y10.877 E0.06144
G1 X1.000 Y10.781 E0.08520
G1 X-0.094 Y10.571 E0.08580
G1 X-1.160 Y10.252 E0.08580
G1 X-2.188 Y9.824 E0.08580
G1 X-3.167 Y9.294 E0.08580
G1 X-4.087 Y8.667 E0.08581
G1 X-4.938 Y7.949 E0.08581
G1 X-5.711 Y7.148 E0.08581
G1 X-6.398 Y6.272 E0.08581
G1 X-6.993 Y5.330 E0.08581
G1 X-7.488 Y4.333 E0.08581
G1 X-7.878 Y3.290 E0.08581
G1 X-8.160 Y2.212 E0.08581
G1 X-8.330 Y1.112 E0.08581
G1 X-8.387 Y0.000 E0.08581
G1 X-8.330 Y-1.112 E0.08581
G1 X-8.160 Y-2.212 E0.08581
G1 X-7.878 Y-3.290 E0.08581
G1 X-7.488 Y-4.333 E0.08581
G1 X-6.993 Y-5.330 E0.08581
G1 X-6.398 Y-6.272 E0.08581
G1 X-6.124 Y-6.621 E0.03422
G1 X-5.624 Y-6.229 F15000.000
G1 X-5.232 Y-6.729 E0.04898 F720.000
G1 X-4.727 Y-7.260 E0.05647
G1 X-4.501 Y-7.486 E0.02467
G1 X-3.702 Y-8.160 E0.08055
G1 X-2.836 Y-8.751 E0.08079
G1 X-1.914 Y-9.250 E0.08079
G1 X-0.946 Y-9.652 E0.08078
G1 X0.058 Y-9.953 E0.08078
G1 X1.087 Y-10.150 E0.08078
G1 X2.129 Y-10.241 E0.08057
G1 X2.871 Y-10.241 E0.05719 F720.000
G1 X3.913 Y-10.150 E0.08057
G1 X4.942 Y-9.953 E0.08078
G1 X5.946 Y-9.652 E0.08078
G1 X6.914 Y-9.250 E0.08078
G1 X7.836 Y-8.751 E0.08079
G1 X8.702 Y-8.160 E0.08079
G1 X9.503 Y-7.484 E0.08079
G1 X10.231 Y-6.730 E0.08079
G1 X10.878 Y-5.905 E0.08079
G1 X11.438 Y-5.018 E0.08079
G1 X11.904 Y-4.079 E0.08079
G1 X12.271 Y-3.097 E0.08079
G1 X12.537 Y-2.083 E0.08080
G1 X12.697 Y-1.047 E0.08080
G1 X12.751 Y0.000 E0.08079
G1 X12.697 Y1.047 E0.08079
G1 X12.537 Y2.083 E0.08080
G1 X12.271 Y3.097 E0.08080
G1 X11.904 Y4.079 E0.08079
G1 X11.438 Y5.018 E0.08079
G1 X10.878 Y5.905 E0.08079
G1 X10.232 Y6.729 E0.08069
G1 X9.727 Y7.260 E0.05647
G1 X9.501 Y7.486 E0.02467
G1 X8.702 Y8.160 E0.08055
G1 X7.836 Y8.751 E0.08079
G1 X6.914 Y9.250 E0.08079
G1 X5.946 Y9.652 E0.08078
G1 X4.942 Y9.953 E0.08078
G1 X3.913 Y10.150 E0.08078
G1 X2.871 Y10.241 E0.08057
G1 X2.129 Y10.241 E0.05719
G1 X1.087 Y10.150 E0.08057
G1 X0.058 Y9.953 E0.08078
G1 X-0.946 Y9.652 E0.08078
G1 X-1.914 Y9.250 E0.08078
G1 X-2.836 Y8.751 E0.08079
G1 X-3.702 Y8.160 E0.08079
G1 X-4.503 Y7.484 E0.08079
G1 X-5.231 Y6.730 E0.08079
G1 X-5.878 Y5.905 E0.08079
G1 X-6.438 Y5.018 E0.08079
G1 X-6.904 Y4.079 E0.08079
G1 X-7.271 Y3.097 E0.08080
G1 X-7.537 Y2.083 E0.08080
G1 X-7.697 Y1.047 E0.08080
G1 X-7.751 Y0.000 E0.08079
G1 X-7.697 Y-1.047 E0.08079
G1 X-7.537 Y-2.083 E0.08080
G1 X-7.271 Y-3.097 E0.08080
G1 X-6.904 Y-4.079 E0.08080
G1 X-6.438 Y-5.018 E0.08079
G1 X-5.878 Y-5.905 E0.08079
G1 X-5.661 Y-6.181 E0.02708
G1 X-5.773 Y-6.600 F15000.000
G1 E-3.20000 F3000.00000
G1 Z0.700 F15000.000
G1 X19.749 Y11.493 F15000.000
G1 Z0.300 F15000.000
G1 E3.20000 F3000.00000
G1 X18.239 Y11.217 E0.11825 F720.000
G1 X17.195 Y11.282 E0.08061
G1 X16.172 Y11.615 E0.08295
G1 X15.263 Y12.192 E0.08295
G1 X14.526 Y12.976 E0.08295
G1 X14.008 Y13.919 E0.08295
G1 X13.740 Y14.962 E0.08295
G1 X13.740 Y16.042 E0.08325
G1 X14.022 Y17.107 E0.08494
G1 X14.526 Y18.024 E0.08059
G1 X15.263 Y18.808 E0.08295
G1 X16.172 Y19.385 E0.08295
G1 X16.964 Y19.643 E0.06421
G1 X16.913 Y19.964 E0.02510
G1 X11.036 Y19.964 E0.45296
G1 X11.036 Y18.071 E0.14591
G1 X7.429 Y14.464 E0.39308
G1 X-2.429 Y14.464 E0.75971
G1 X-6.036 Y18.071 E0.39308
G1 X-6.036 Y19.964 E0.14591
G1 X-11.825 Y19.964 E0.44616
G1 X-11.858 Y19.619 E0.02674
G1 X-11.673 Y19.584 E0.01448
G1 X-10.699 Y19.125 E0.08295
G1 X-9.870 Y18.439 E0.08295
G1 X-9.237 Y17.569 E0.08295
G1 X-8.841 Y16.568 E0.08295
G1 X-8.706 Y15.500 E0.08295
G1 X-8.841 Y14.432 E0.08295
G1 X-9.237 Y13.431 E0.08295
G1 X-9.870 Y12.561 E0.08295
G1 X-10.699 Y11.875 E0.08295
G1 X-11.677 Y11.415 E0.08325
G1 X-12.761 Y11.217 E0.08494
G1 X-13.805 Y11.282 E0.08059
G1 X-14.828 Y11.615 E0.08295
G1 X-15.737 Y12.192 E0.08295
G1 X-16.474 Y12.976 E0.08295
G1 X-16.992 Y13.919 E0.08295
G1 X-17.260 Y14.962 E0.08295
G1 X-17.260 Y16.038 E0.08295
G1 X-16.992 Y17.081 E0.08295
G1 X-16.474 Y18.024 E0.08295
G1 X-15.737 Y18.808 E0.08295
G1 X-14.828 Y19.385 E0.08295
G1 X-14.036 Y19.643 E0.06421
G1 X-14.087 Y19.964 E0.02510
G1 X-22.614 Y19.964 E0.65719
G1 X-22.614 Y7.536 E0.95783
G1 X-15.571 Y7.536 E0.54280
G1 X-11.964 Y3.929 E0.39308
G1 X-11.964 Y-3.929 E0.60558
G1 X-15.571 Y-7.536 E0.39308
G1 X-22.614 Y-7.536 E0.54280
G1 X-22.614 Y-19.964 E0.95783
G1 X-14.087 Y-19.964 E0.65719
G1 X-14.036 Y-19.643 E0.02510
G1 X-14.828 Y-19.385 E0.06421 F720.000
G1 X-15.737 Y-18.808 E0.08295
G1 X-16.474 Y-18.024 E0.08295
G1 X-16.992 Y-17.081 E0.08295
G1 X-17.260 Y-16.038 E0.08295
G1 X-17.260 Y-14.958 E0.08325
G1 X-16.978 Y-13.893 E0.08494
G1 X-16.474 Y-12.976 E0.08059
G1 X-15.737 Y-12.192 E0.08295
G1 X-14.828 Y-11.615 E0.08295
G1 X-13.805 Y-11.282 E0.08295
G1 X-12.730 Y-11.215 E0.08295
G1 X-11.673 Y-11.416 E0.08295
G1 X-10.699 Y-11.875 E0.08295
G1 X-9.870 Y-12.561 E0.08295
G1 X-9.237 Y-13.431 E0.08295
G1 X-8.841 Y-14.432 E0.08295
G1 X-8.706 Y-15.500 E0.08295
G1 X-8.841 Y-16.568 E0.08295
G1 X-9.237 Y-17.569 E0.08295
G1 X-9.870 Y-18.439 E0.08295
G1 X-10.699 Y-19.125 E0.08295
G1 X-11.677 Y-19.585 E0.08325
G1 X-11.852 Y-19.617 E0.01375
G1 X-11.821 Y-19.964 E0.02685
G1 X-6.036 Y-19.964 E0.44583
G1 X-6.036 Y-18.071 E0.14591
G1 X-2.429 Y-14.464 E0.39308
G1 X7.429 Y-14.464 E0.75971
G1 X11.036 Y-18.071 E0.39308
G1 X11.036 Y-19.964 E0.14591
G1 X16.913 Y-19.964 E0.45296
G1 X16.964 Y-19.643 E0.02510
G1 X16.172 Y-19.385 E0.06421
G1 X15.263 Y-18.808 E0.08295
G1 X14.526 Y-18.024 E0.08295
G1 X14.008 Y-17.081 E0.08295
G1 X13.740 Y-16.038 E0.08295
G1 X13.740 Y-14.958 E0.08325
G1 X14.022 Y-13.893 E0.08494
G1 X14.526 Y-12.976 E0.08059
G1 X15.266 Y-12.189 E0.08325
G1 X16.201 Y-11.605 E0.08494
G1 X17.195 Y-11.282 E0.08059
G1 X18.270 Y-11.215 E0.08295
G1 X19.327 Y-11.416 E0.08295
G1 X20.301 Y-11.875 E0.08295
G1 X21.130 Y-12.561 E0.08295
G1 X21.763 Y-13.431 E0.08295
G1 X22.159 Y-14.432 E0.08295
G1 X22.294 Y-15.504 E0.08325
G1 X22.148 Y-16.596 E0.08494
G1 X21.763 Y-17.569 E0.08059
G1 X21.130 Y-18.439 E0.08295
G1 X20.301 Y-19.125 E0.08295
G1 X19.323 Y-19.585 E0.08325
G1 X19.148 Y-19.617 E0.01375
G1 X19.179 Y-19.964 E0.02685
G1 X20.571 Y-19.964 E0.10726
G1 X22.964 Y-17.571 E0.26084
G1 X22.964 Y-7.536 E0.77338
G1 X20.571 Y-7.536 E0.18444
G1 X16.964 Y-3.929 E0.39308
G1 X16.964 Y3.929 E0.60558
G1 X20.571 Y7.536 E0.39308
G1 X22.964 Y7.536 E0.18444
G1 X22.964 Y17.571 E0.77338
G1 X20.571 Y19.964 E0.26084
G1 X19.175 Y19.964 E0.10759
G1 X19.142 Y19.619 E0.02674
G1 X19.327 Y19.584 E0.01448
G1 X20.301 Y19.125 E0.08295
G1 X21.130 Y18.439 E0.08295
G1 X21.763 Y17.569 E0.08295
G1 X22.159 Y16.568 E0.08295
G1 X22.294 Y15.496 E0.08325
G1 X22.148 Y14.404 E0.08494
G1 X21.763 Y13.431 E0.08059
G1 X21.130 Y12.561 E0.08295
G1 X20.301 Y11.875 E0.08295
G1 X20.060 Y11.762 E0.02047
G1 X20.060 Y11.550 E0.01629
G1 X19.808 Y11.504 E0.01981
G1 E-3.20000 F3000.00000
G1 Z0.700 F15000.000
G1 X18.229 Y-11.854 F15000.000
G1 Z0.300 F15000.000
G1 E3.20000 F3000.00000
G1 X17.315 Y-11.912 E0.07057 F600.000
G1 X16.471 Y-12.186 E0.06841
G1 X15.672 Y-12.684 E0.07256
G1 X15.045 Y-13.353 E0.07068
G1 X14.617 Y-14.131 E0.06841
G1 X14.376 Y-15.041 E0.07256
G1 X14.376 Y-15.958 E0.07068
G1 X14.603 Y-16.845 E0.07057
G1 X15.045 Y-17.647 E0.07057
G1 X15.671 Y-18.315 E0.07057
G1 X16.445 Y-18.805 E0.07057
G1 X17.315 Y-19.088 E0.07057
G1 X18.201 Y-19.144 E0.06841 F600.000
G1 X19.128 Y-18.975 E0.07257
G1 X19.957 Y-18.584 E0.07068
G1 X20.663 Y-18.001 E0.07057
G1 X21.201 Y-17.260 E0.07057
G1 X21.528 Y-16.435 E0.06841
G1 X21.653 Y-15.501 E0.07256
G1 X21.538 Y-14.591 E0.07068
G1 X21.201 Y-13.740 E0.07057
G1 X20.663 Y-12.999 E0.07057
G1 X19.957 Y-12.416 E0.07057
G1 X19.129 Y-12.026 E0.07057
G1 X18.288 Y-11.865 E0.06595
G1 X18.037 Y-11.504 F15000.000
G1 E-3.20000 F3000.00000
G1 Z0.700 F15000.000
G1 X18.201 Y11.856 F15000.000
G1 Z0.300 F15000.000
G1 E3.20000 F3000.00000
G1 X19.425 Y12.080 E0.09585 F600.000
G1 X19.425 Y12.165 E0.00655
G1 X19.957 Y12.416 E0.04536
G1 X20.663 Y12.999 E0.07057
G1 X21.201 Y13.740 E0.07057
G1 X21.528 Y14.565 E0.06841
G1 X21.653 Y15.499 E0.07256
G1 X21.538 Y16.409 E0.07068
G1 X21.201 Y17.260 E0.07057
G1 X20.663 Y18.001 E0.07057
G1 X19.957 Y18.584 E0.07057
G1 X19.129 Y18.974 E0.07057
G1 X18.229 Y19.146 E0.07057
G1 X17.315 Y19.088 E0.07057
G1 X16.445 Y18.805 E0.07057
G1 X15.671 Y18.315 E0.07057
G1 X15.045 Y17.647 E0.07057
G1 X14.617 Y16.869 E0.06841
G1 X14.376 Y15.959 E0.07256
G1 X14.376 Y15.042 E0.07068
G1 X14.603 Y14.155 E0.07057
G1 X15.045 Y13.353 E0.07057
G1 X15.671 Y12.685 E0.07057
G1 X16.445 Y12.195 E0.07057
G1 X17.315 Y11.912 E0.07057
G1 X18.142 Y11.860 E0.06379 F600.000
G1 X18.435 Y11.531 F15000.000
G1 X23.600 Y11.860 F15000.000
G1 X23.600 Y17.834 E0.46045 F720.000
G1 X20.834 Y20.600 E0.30142
G1 X10.400 Y20.600 E0.80413
G1 X10.400 Y18.334 E0.17461
G1 X7.166 Y15.100 E0.35250
G1 X-2.166 Y15.100 E0.71913
G1 X-5.400 Y18.334 E0.35250
G1 X-5.400 Y20.600 E0.17461
G1 X-23.250 Y20.600 E1.37562
G1 X-23.250 Y6.900 E1.05580
G1 X-15.834 Y6.900 E0.57149
G1 X-12.600 Y3.666 E0.35250
G1 X-12.600 Y-3.666 E0.56500
G1 X-15.834 Y-6.900 E0.35250
G1 X-23.250 Y-6.900 E0.57149
G1 X-23.250 Y-20.600 E1.05580
G1 X-5.400 Y-20.600 E1.37562
G1 X-5.400 Y-18.334 E0.17461
G1 X-2.166 Y-15.100 E0.35250 F720.000
G1 X7.166 Y-15.100 E0.71913
G1 X10.400 Y-18.334 E0.35250
G1 X10.400 Y-20.600 E0.17461
G1 X20.834 Y-20.600 E0.80413
G1 X23.600 Y-17.834 E0.30142
G1 X23.600 Y-6.900 E0.84266
G1 X20.834 Y-6.900 E0.21314
G1 X17.600 Y-3.666 E0.35250
G1 X17.600 Y3.666 E0.56500
G1 X20.834 Y6.900 E0.35250
G1 X23.600 Y6.900 E0.21314
G1 X23.600 Y11.800 E0.37759
G1 X23.254 Y12.060 F15000.000
G1 X22.307 Y13.022 F15000.000
G1 X22.549 Y14.287 E0.09924 F960.000
G1 X22.627 Y15.438 E0.08892
G1 X22.627 Y15.556 F15000.000
G1 X22.558 Y16.659 E0.08511 F960.000
G1 X22.427 Y17.349 E0.05411
G1 X22.135 Y17.790 E0.04077
G1 X21.378 Y18.676 E0.08985
G1 X20.522 Y19.455 E0.08923
G1 X20.397 Y19.544 E0.01180
G1 X20.013 Y19.630 E0.03032
G1 X18.842 Y19.822 F15000.000
G1 X18.224 Y19.874 E0.10049 F960.000
G1 X17.254 Y19.843 E0.15709
G1 X13.507 Y16.819 F15000.000
G1 X6.974 Y10.286 E0.72018 F960.000
G1 X7.588 Y9.991 E0.05313
G1 X13.355 Y15.758 E0.63564
G1 X13.392 Y14.886 E0.06803
G1 X8.178 Y9.672 E0.57473
G1 X8.729 Y9.314 E0.05123
G1 X13.578 Y14.162 E0.53446
G1 X13.843 Y13.519 E0.05427
G1 X9.270 Y8.945 E0.50417
G1 X9.763 Y8.529 E0.05029
G1 X14.166 Y12.932 E0.48537
G1 X14.580 Y12.437 E0.05031
G1 X10.247 Y8.105 E0.47761
G1 X10.695 Y7.643 E0.05012
G1 X15.020 Y11.968 E0.47682
G1 X15.565 Y11.604 E0.05109
G1 X11.122 Y7.161 E0.48982
G1 X11.521 Y6.651 E0.05048
G1 X16.130 Y11.260 E0.50806
G1 X16.817 Y11.037 E0.05624
G1 X11.893 Y6.114 E0.54271
G1 X12.245 Y5.556 E0.05138
G1 X17.570 Y10.881 E0.58694
G1 X18.431 Y10.833 E0.06724
G1 X12.556 Y4.958 E0.64759
G1 X12.853 Y4.346 E0.05305
G1 X19.544 Y11.037 E0.73760
G1 X20.446 Y11.029 E0.07030
G1 X22.107 Y12.691 E0.18316
G1 X22.579 Y12.253 E0.05015
G1 X13.322 Y2.997 E1.02041
G1 X13.100 Y3.684 E0.05630
G1 X20.657 Y11.241 E0.83300
G1 X22.579 Y11.344 F15000.000
G1 X13.511 Y2.276 E0.99963 F960.000
G1 X13.641 Y1.497 E0.06155
G1 X22.579 Y10.435 E0.98525
G1 X22.579 Y9.526 E0.07087
G1 X20.974 Y7.921 E0.17690
G1 X21.883 Y7.921 E0.07087
G1 X22.579 Y8.617 E0.07667
G1 X16.579 Y3.526 F15000.000
G1 X13.731 Y0.678 E0.31390 F960.000
G1 X13.770 Y-0.192 E0.06792
G1 X16.579 Y2.617 E0.30963
G1 X16.579 Y1.707 E0.07087
G1 X13.721 Y-1.151 E0.31504
G1 X13.573 Y-2.208 E0.08322
G1 X16.579 Y0.798 E0.33137
G1 X16.579 Y-0.111 E0.07087
G1 X13.286 Y-3.404 E0.36296
G1 X12.738 Y-4.861 F15000.000
G1 X16.579 Y-1.020 E0.42338 F960.000
G1 X11.281 Y-7.228 F15000.000
G1 X16.579 Y-1.929 E0.58406 F960.000
G1 X16.579 Y-2.839 E0.07087
G1 X5.339 Y-14.079 E1.23908
G1 X6.248 Y-14.079 E0.07087
G1 X16.579 Y-3.748 E1.13886
G1 X16.903 Y-4.333 E0.05215
G1 X7.157 Y-14.079 E1.07431
G1 X7.788 Y-14.357 E0.05375
G1 X17.357 Y-4.788 E1.05487
G1 X17.812 Y-5.242 E0.05011
G1 X8.242 Y-14.812 E1.05487
G1 X8.697 Y-15.266 E0.05011
G1 X18.266 Y-5.697 E1.05487
