; generated by Slic3r 1.2.9 on 2016-12-09 at 17:17:35

; external perimeters extrusion width = 0.50mm
; perimeters extrusion width = 0.50mm
; infill extrusion width = 0.50mm
; solid infill extrusion width = 0.50mm
; top infill extrusion width = 0.50mm

M107
;Basic settings: Layer height: {layer_height} Walls: {wall_thickness} Fill: {fill_density}
;Print time: {print_time}
;Filament used: {filament_amount}m {filament_weight}g
;Filament cost: {filament_cost}
;M190 S{print_bed_temperature} ;Uncomment to add your own bed temperature line
;M109 S{print_temperature} ;Uncomment to add your own temperature line
G21        ;metric values
G90        ;absolute positioning
M83
G10 P0 S200
T0
M116


G21 ; set units to millimeters
G90 ; use absolute coordinates
M83 ; use relative distances for extrusion
G1 E-3.20000 F3000.00000
G1 Z0.400 F9000.000
G1 X-9.207 Y9.319 F9000.000
G1 Z0.300 F9000.000
G1 E3.20000 F3000.00000
G1 X-13.975 Y4.607 E0.61507 F1200.000
G1 X-14.887 Y3.152 E0.15755
G1 X-15.086 Y1.950 E0.11180
G1 X-15.086 Y-12.450 E1.32121
G1 X-14.691 Y-14.121 E0.15755
G1 X-13.590 Y-15.439 E0.15755
G1 X-11.350 Y-16.186 E0.21667
G1 X11.350 Y-16.186 E2.08274
G1 X13.021 Y-15.791 E0.15755
G1 X14.339 Y-14.690 E0.15755 F1200.000
G1 X15.086 Y-12.450 E0.21667
G1 X15.086 Y12.450 E2.28459
G1 X14.691 Y14.121 E0.15755
G1 X13.590 Y15.439 E0.15755
G1 X11.350 Y16.186 E0.21667
G1 X4.021 Y16.186 E0.67247
G1 X2.865 Y16.002 E0.10735
G1 X-4.206 Y13.702 E0.68220
G1 X-5.675 Y12.807 E0.15789
G1 X-9.164 Y9.361 E0.44993
G1 E-3.20000 F3000.00000
G1 Z0.700 F9000.000
G1 X-1.914 Y6.186 F9000.000
G1 Z0.300 F9000.000
G1 E3.20000 F3000.00000
G1 X3.586 Y6.186 E0.50463 F900.000
G1 X3.586 Y-4.686 E0.99744
G1 X-7.286 Y-4.686 E0.99744
G1 X-7.286 Y0.814 E0.50463
G1 X-10.214 Y0.814 E0.26872
G1 X-10.214 Y-11.314 E1.11282
G1 X10.214 Y-11.314 E1.87435
G1 X10.214 Y11.314 E2.07620
G1 X4.491 Y11.314 E0.52511 F900.000
G1 X2.191 Y9.014 E0.29844
G1 X-1.914 Y9.014 E0.37668
G1 X-1.914 Y6.246 E0.25404
G1 X-2.650 Y6.246 F9000.000
G1 X-2.650 Y5.450 E0.07300 F900.000
G1 X2.850 Y5.450 E0.50463
G1 X2.850 Y-3.950 E0.86245
G1 X-6.550 Y-3.950 E0.86245
G1 X-6.550 Y1.550 E0.50463
G1 X-10.950 Y1.550 E0.40370
G1 X-10.950 Y-12.050 E1.24781
G1 X10.950 Y-12.050 E2.00934
G1 X10.950 Y12.050 E2.21119
G1 X4.186 Y12.050 E0.62056 F900.000
G1 X1.886 Y9.750 E0.29844
G1 X-2.650 Y9.750 E0.41622
G1 X-2.650 Y6.306 E0.31602
G1 X-2.304 Y6.046 F9000.000
G1 X-0.140 Y8.565 F9000.000
G1 X-1.465 Y7.240 E0.17747 F900.000
G1 X-0.997 Y6.635 E0.07244
G1 X0.934 Y8.565 E0.25845
G1 X2.007 Y8.565 E0.10163
G1 X0.077 Y6.635 E0.25845
G1 X1.150 Y6.635 E0.10163
G1 X5.381 Y10.865 E0.56638
G1 X6.454 Y10.865 E0.10163
G1 X2.224 Y6.635 E0.56638
G1 X3.297 Y6.635 E0.10163
G1 X7.528 Y10.865 E0.56638
G1 X8.601 Y10.865 E0.10163
G1 X4.035 Y6.299 E0.61135
G1 X4.035 Y5.226 E0.10163
G1 X9.674 Y10.865 E0.75507
G1 X9.765 Y9.882 E0.09343
G1 X4.035 Y4.152 E0.76721
G1 X4.035 Y3.079 E0.10163
G1 X9.765 Y8.809 E0.76721
G1 X9.765 Y7.736 E0.10163
G1 X4.035 Y2.005 E0.76721
G1 X4.035 Y0.932 E0.10163
G1 X9.765 Y6.662 E0.76721
G1 X9.765 Y5.589 E0.10163
G1 X4.035 Y-0.142 E0.76721
G1 X4.035 Y-1.215 E0.10163
G1 X9.765 Y4.515 E0.76721
G1 X9.765 Y3.442 E0.10163
G1 X4.035 Y-2.289 E0.76721
G1 X4.035 Y-3.362 E0.10163
G1 X9.765 Y2.368 E0.76721
G1 X9.765 Y1.295 E0.10163
G1 X4.035 Y-4.436 E0.76721
G1 X3.336 Y-5.135 F9000.000
G1 X-2.395 Y-10.865 E0.76721 F900.000
G1 X-1.321 Y-10.865 E0.10163
G1 X9.765 Y0.221 E1.48434
G1 X9.765 Y-0.852 E0.10163
G1 X-0.248 Y-10.865 E1.34062
G1 X0.825 Y-10.865 E0.10163
G1 X9.765 Y-1.926 E1.19690
G1 X9.765 Y-2.999 E0.10163
G1 X1.899 Y-10.865 E1.05318
G1 X2.972 Y-10.865 E0.10163
G1 X9.765 Y-4.072 E0.90946
G1 X9.765 Y-5.146 E0.10163
G1 X4.046 Y-10.865 E0.76574
G1 X5.119 Y-10.865 E0.10163
G1 X9.765 Y-6.219 E0.62202
G1 X9.765 Y-7.293 E0.10163
G1 X6.193 Y-10.865 E0.47830
G1 X7.266 Y-10.865 E0.10163
G1 X9.765 Y-8.366 E0.33458
G1 X9.765 Y-9.440 E0.10163
G1 X8.340 Y-10.865 E0.19086
G1 X9.413 Y-10.865 E0.10163
G1 X9.765 Y-10.513 E0.04714
G1 X-3.468 Y-10.865 F9000.000
G1 X2.262 Y-5.135 E0.76721 F900.000
G1 X1.189 Y-5.135 E0.10163
G1 X-4.542 Y-10.865 E0.76721
G1 X-5.615 Y-10.865 E0.10163
G1 X0.115 Y-5.135 E0.76721
G1 X-0.958 Y-5.135 E0.10163
G1 X-6.689 Y-10.865 E0.76721
G1 X-7.762 Y-10.865 E0.10163
G1 X-2.032 Y-5.135 E0.76721
G1 X-3.105 Y-5.135 E0.10163
G1 X-8.836 Y-10.865 E0.76721
G1 X-9.765 Y-10.721 E0.08906
G1 X-4.179 Y-5.135 E0.74796
G1 X-5.252 Y-5.135 E0.10163
G1 X-9.765 Y-9.648 E0.60424
G1 X-9.765 Y-8.574 E0.10163
G1 X-6.326 Y-5.135 E0.46052
G1 X-7.399 Y-5.135 E0.10163
G1 X-9.765 Y-7.501 E0.31680
G1 X-9.765 Y-6.428 E0.10163
G1 X-7.735 Y-4.397 E0.27184
G1 X-7.735 Y-3.324 E0.10163
G1 X-9.765 Y-5.354 E0.27184
G1 X-9.765 Y-4.281 E0.10163
G1 X-7.735 Y-2.250 E0.27184
G1 X-7.735 Y-1.177 E0.10163
G1 X-9.765 Y-3.207 E0.27184
G1 X-9.765 Y-2.134 E0.10163
G1 X-7.735 Y-0.103 E0.27184
G1 X-9.765 Y0.013 F9000.000
G1 X-9.413 Y0.365 E0.04714 F900.000
G1 X-8.340 Y0.365 E0.10163
G1 X-9.765 Y-1.060 E0.19086
G1 E-3.20000 F3000.00000
G1 Z0.700 F9000.000
G1 X10.664 Y1.211 F9000.000
G1 Z0.600 F9000.000
G1 E3.20000 F3000.00000
G1 X10.664 Y11.764 E0.57338 F1800.000
G1 X4.305 Y11.764 E0.34554 F1800.000
G1 X2.005 Y9.464 E0.17673
G1 X-2.364 Y9.464 E0.23738
G1 X-2.364 Y5.736 E0.20259
G1 X3.136 Y5.736 E0.29883
G1 X3.136 Y-4.236 E0.54177
G1 X-6.836 Y-4.236 E0.54177
G1 X-6.836 Y1.264 E0.29883
G1 X-10.664 Y1.264 E0.20803
G1 X-10.664 Y-11.764 E0.70789
G1 X10.664 Y-11.764 E1.15885
G1 X10.664 Y1.151 E0.70174
G1 X11.100 Y1.151 F9000.000
G1 X11.100 Y12.200 E0.60031 F1800.000
G1 X4.124 Y12.200 E0.37901 F1800.000
G1 X1.824 Y9.900 E0.17673
G1 X-2.800 Y9.900 E0.25125
G1 X-2.800 Y5.300 E0.24993
G1 X2.700 Y5.300 E0.29883
G1 X2.700 Y-3.800 E0.49443
G1 X-6.400 Y-3.800 E0.49443
G1 X-6.400 Y1.700 E0.29883
G1 X-11.100 Y1.700 E0.25536
G1 X-11.100 Y-12.200 E0.75523
G1 X11.100 Y-12.200 E1.20619
G1 X11.100 Y1.091 E0.72215
G1 X10.754 Y1.351 F9000.000
G1 X2.682 Y5.993 F9000.000
G1 X-0.531 Y9.207 E0.24833 F1800.000
G1 X-1.151 Y9.207 E0.03387
G1 X2.062 Y5.993 E0.24833
G1 X1.442 Y5.993 E0.03387
G1 X-1.771 Y9.207 E0.24833
G1 X-2.107 Y8.923 E0.02403
G1 X0.823 Y5.993 E0.22640
G1 X0.203 Y5.993 E0.03387
G1 X-2.107 Y8.303 E0.17851
G1 X-2.107 Y7.683 E0.03387
G1 X-0.417 Y5.993 E0.13062
G1 X-1.036 Y5.993 E0.03387
G1 X-2.107 Y7.064 E0.08273
G1 X-2.107 Y6.444 E0.03387
G1 X-1.656 Y5.993 E0.03483
G1 E-3.20000 F3000.00000
G1 Z1.000 F9000.000
G1 X-7.093 Y0.277 F9000.000
G1 Z0.600 F9000.000
G1 E3.20000 F3000.00000
G1 X-7.823 Y1.007 E0.05637 F1800.000
G1 X-8.443 Y1.007 E0.03387
G1 X-7.093 Y-0.343 E0.10427
G1 X-7.093 Y-0.962 E0.03387
G1 X-9.062 Y1.007 E0.15216
G1 X-9.682 Y1.007 E0.03387
G1 X-7.093 Y-1.582 E0.20005
G1 X-7.093 Y-2.202 E0.03386
G1 X-10.302 Y1.007 E0.24794
G1 X-10.407 Y0.492 E0.02871
G1 X-7.093 Y-2.821 E0.25606
G1 X-7.093 Y-3.441 E0.03387
G1 X-10.407 Y-0.128 E0.25606
G1 X-10.407 Y-0.747 E0.03387
G1 X-7.093 Y-4.061 E0.25606
G1 X-6.661 Y-4.493 F9000.000
G1 X0.353 Y-11.507 E0.54203 F1800.000
G1 X0.972 Y-11.507 E0.03387
G1 X-6.041 Y-4.493 E0.54203
G1 X-5.421 Y-4.493 E0.03387
G1 X1.592 Y-11.507 E0.54203
G1 X2.212 Y-11.507 E0.03387
G1 X-4.802 Y-4.493 E0.54203
G1 X-4.182 Y-4.493 E0.03387
G1 X2.831 Y-11.507 E0.54203
G1 X3.451 Y-11.507 E0.03387
G1 X-3.562 Y-4.493 E0.54203
G1 X-2.943 Y-4.493 E0.03387
G1 X4.071 Y-11.507 E0.54203
G1 X4.690 Y-11.507 E0.03387
G1 X-2.323 Y-4.493 E0.54203
G1 X-1.703 Y-4.493 E0.03386
G1 X5.310 Y-11.507 E0.54203
G1 X5.930 Y-11.507 E0.03387
G1 X-1.084 Y-4.493 E0.54203
G1 X-0.464 Y-4.493 E0.03387
G1 X6.549 Y-11.507 E0.54203
G1 X7.169 Y-11.507 E0.03387
G1 X0.156 Y-4.493 E0.54203
G1 X0.775 Y-4.493 E0.03387
G1 X7.789 Y-11.507 E0.54203
G1 X8.408 Y-11.507 E0.03387
G1 X1.395 Y-4.493 E0.54203
G1 X2.015 Y-4.493 E0.03387
G1 X9.028 Y-11.507 E0.54203
G1 X9.648 Y-11.507 E0.03387
G1 X2.634 Y-4.493 E0.54203
G1 X3.254 Y-4.493 E0.03387
G1 X10.267 Y-11.507 E0.54203
G1 X10.407 Y-11.026 E0.02733
G1 X3.393 Y-4.013 E0.54203
G1 X3.393 Y-3.393 E0.03387
G1 X10.407 Y-10.407 E0.54203
G1 X10.407 Y-9.787 E0.03387
G1 X3.393 Y-2.774 E0.54203
G1 X3.393 Y-2.154 E0.03387
G1 X10.407 Y-9.167 E0.54203
G1 X10.407 Y-8.548 E0.03387
G1 X3.393 Y-1.534 E0.54203
G1 X3.393 Y-0.915 E0.03387
G1 X10.407 Y-7.928 E0.54203
G1 X10.407 Y-7.308 E0.03387
G1 X3.393 Y-0.295 E0.54203
G1 X3.393 Y0.324 E0.03387
G1 X10.407 Y-6.689 E0.54203
G1 X10.407 Y-6.069 E0.03387
G1 X3.393 Y0.944 E0.54203
G1 X3.393 Y1.564 E0.03387
G1 X10.407 Y-5.449 E0.54203
G1 X10.407 Y-4.830 E0.03387
G1 X3.393 Y2.183 E0.54203
G1 X3.393 Y2.803 E0.03387
G1 X10.407 Y-4.210 E0.54203
G1 X10.407 Y-3.590 E0.03387
G1 X3.393 Y3.423 E0.54203
G1 X3.393 Y4.042 E0.03387
G1 X10.407 Y-2.971 E0.54203
G1 X10.407 Y-2.351 E0.03387
G1 X3.393 Y4.662 E0.54203
G1 X3.393 Y5.282 E0.03387
G1 X10.407 Y-1.731 E0.54203
G1 X10.407 Y-1.112 E0.03387
G1 X0.088 Y9.207 E0.79747
G1 X0.708 Y9.207 E0.03387
G1 X10.407 Y-0.492 E0.74957
G1 X10.407 Y0.128 E0.03387
G1 X1.328 Y9.207 E0.70168
G1 X1.947 Y9.207 E0.03387
G1 X10.407 Y0.747 E0.65379
G1 X10.407 Y1.367 E0.03387
G1 X2.312 Y9.461 E0.62559
G1 X2.622 Y9.771 E0.02395
G1 X10.407 Y1.987 E0.60165
G1 X10.407 Y2.606 E0.03387
G1 X2.932 Y10.081 E0.57770
G1 X3.242 Y10.391 E0.02395
G1 X10.407 Y3.226 E0.55375
G1 X10.407 Y3.846 E0.03387
G1 X3.552 Y10.701 E0.52981
G1 X3.861 Y11.011 E0.02395
G1 X10.407 Y4.465 E0.50586
G1 X10.407 Y5.085 E0.03387
G1 X4.171 Y11.320 E0.48191
G1 X4.605 Y11.507 E0.02578
G1 X10.407 Y5.705 E0.44841
G1 X10.407 Y6.324 E0.03387
G1 X5.224 Y11.507 E0.40052
G1 X5.844 Y11.507 E0.03387
G1 X10.407 Y6.944 E0.35262
G1 X10.407 Y7.564 E0.03387
G1 X6.464 Y11.507 E0.30473
G1 X7.083 Y11.507 E0.03387
G1 X10.407 Y8.183 E0.25684
G1 X10.407 Y8.803 E0.03387
G1 X7.703 Y11.507 E0.20895
G1 X8.323 Y11.507 E0.03387
G1 X10.407 Y9.423 E0.16105
G1 X10.407 Y10.042 E0.03387
G1 X8.942 Y11.507 E0.11316
G1 X9.562 Y11.507 E0.03387
G1 X10.407 Y10.662 E0.06527
G1 X10.407 Y11.282 E0.03387
G1 X10.182 Y11.507 E0.01738
G1 E-3.20000 F3000.00000
G1 Z1.000 F9000.000
G1 X-10.407 Y-1.367 F9000.000
G1 Z0.600 F9000.000
G1 E3.20000 F3000.00000
G1 X-0.267 Y-11.507 E0.78365 F1800.000
G1 X-0.887 Y-11.507 E0.03387
G1 X-10.407 Y-1.987 E0.73576
G1 X-10.407 Y-2.606 E0.03387
G1 X-1.506 Y-11.507 E0.68787
G1 X-2.126 Y-11.507 E0.03387
G1 X-10.407 Y-3.226 E0.63998
G1 X-10.407 Y-3.846 E0.03387
G1 X-2.746 Y-11.507 E0.59208
G1 X-3.365 Y-11.507 E0.03387
G1 X-10.407 Y-4.465 E0.54419
G1 X-10.407 Y-5.085 E0.03387
G1 X-3.985 Y-11.507 E0.49630
G1 X-4.605 Y-11.507 E0.03387
G1 X-10.407 Y-5.705 E0.44841
G1 X-10.407 Y-6.324 E0.03387
G1 X-5.224 Y-11.507 E0.40051
G1 X-5.844 Y-11.507 E0.03387
G1 X-10.407 Y-6.944 E0.35262
G1 X-10.407 Y-7.564 E0.03387
G1 X-6.464 Y-11.507 E0.30473
G1 X-7.083 Y-11.507 E0.03387
G1 X-10.407 Y-8.183 E0.25684
G1 X-10.407 Y-8.803 E0.03387
G1 X-7.703 Y-11.507 E0.20894
G1 X-8.323 Y-11.507 E0.03387
G1 X-10.407 Y-9.423 E0.16105
G1 X-10.407 Y-10.042 E0.03387
G1 X-8.942 Y-11.507 E0.11316
G1 X-9.562 Y-11.507 E0.03387
G1 X-10.407 Y-10.662 E0.06526
G1 X-10.407 Y-11.282 E0.03387
G1 X-10.182 Y-11.507 E0.01737
G1 E-3.20000 F3000.00000
G1 Z1.000 F9000.000
G1 X-3.844 Y-11.764 F9000.000
G1 Z0.900 F9000.000
G1 E3.20000 F3000.00000
G1 X10.664 Y-11.764 E0.78830 F1800.000
G1 X10.664 Y11.764 E1.27838
G1 X4.305 Y11.764 E0.34554 F1800.000
G1 X2.005 Y9.464 E0.17673
G1 X-2.364 Y9.464 E0.23738
G1 X-2.364 Y5.736 E0.20259
G1 X3.136 Y5.736 E0.29883
G1 X3.136 Y-4.236 E0.54177
G1 X-6.836 Y-4.236 E0.54177
G1 X-6.836 Y1.264 E0.29883
G1 X-10.664 Y1.264 E0.20803
G1 X-10.664 Y-11.764 E0.70789
G1 X-3.904 Y-11.764 E0.36729
G1 X-3.904 Y-12.200 F9000.000
G1 X11.100 Y-12.200 E0.81523 F1800.000
G1 X11.100 Y12.200 E1.32572
G1 X4.124 Y12.200 E0.37901 F1800.000
G1 X1.824 Y9.900 E0.17673
G1 X-2.800 Y9.900 E0.25125
G1 X-2.800 Y5.300 E0.24993
G1 X2.700 Y5.300 E0.29883
G1 X2.700 Y-3.800 E0.49443
G1 X-6.400 Y-3.800 E0.49443
G1 X-6.400 Y1.700 E0.29883
G1 X-11.100 Y1.700 E0.25536
G1 X-11.100 Y-12.200 E0.75523
G1 X-3.964 Y-12.200 E0.38770
G1 X-3.704 Y-11.854 F9000.000
G1 X3.393 Y-4.028 F9000.000
G1 X10.407 Y2.985 E0.54259 F1800.000
G1 X10.407 Y3.606 E0.03394
G1 X3.393 Y-3.407 E0.54259
G1 X3.393 Y-2.787 E0.03394
G1 X10.407 Y4.226 E0.54259
G1 X10.407 Y4.846 E0.03394
G1 X3.393 Y-2.167 E0.54259
G1 X3.393 Y-1.546 E0.03394
G1 X10.407 Y5.467 E0.54259
G1 X10.407 Y6.087 E0.03394
G1 X3.393 Y-0.926 E0.54259
G1 X3.393 Y-0.306 E0.03394
G1 X10.407 Y6.707 E0.54259
G1 X10.407 Y7.328 E0.03394
G1 X3.393 Y0.315 E0.54259
G1 X3.393 Y0.935 E0.03394
G1 X10.407 Y7.948 E0.54259
G1 X10.407 Y8.568 E0.03394
G1 X3.393 Y1.555 E0.54259
G1 X3.393 Y2.176 E0.03394
G1 X10.407 Y9.189 E0.54259
G1 X10.407 Y9.809 E0.03394
G1 X3.393 Y2.796 E0.54259
G1 X3.393 Y3.416 E0.03394
G1 X10.407 Y10.429 E0.54259
G1 X10.407 Y11.050 E0.03394
G1 X3.393 Y4.036 E0.54259
G1 X3.393 Y4.657 E0.03394
G1 X10.243 Y11.507 E0.52996
G1 X9.623 Y11.507 E0.03394
G1 X3.393 Y5.277 E0.48197
G1 X3.393 Y5.897 E0.03394
G1 X9.003 Y11.507 E0.43397
G1 X8.382 Y11.507 E0.03394
G1 X2.869 Y5.993 E0.42654
G1 X2.249 Y5.993 E0.03394
G1 X7.762 Y11.507 E0.42654
G1 X7.142 Y11.507 E0.03394
G1 X1.629 Y5.993 E0.42654
G1 X1.008 Y5.993 E0.03394
G1 X6.521 Y11.507 E0.42654
G1 X5.901 Y11.507 E0.03394
G1 X0.388 Y5.993 E0.42654
G1 X-0.232 Y5.993 E0.03394
G1 X5.281 Y11.507 E0.42654
G1 X4.660 Y11.507 E0.03394
G1 X-0.853 Y5.993 E0.42654
G1 X-1.473 Y5.993 E0.03394
G1 X1.740 Y9.207 E0.24859
G1 X1.120 Y9.207 E0.03394
G1 X-2.093 Y5.993 E0.24859
G1 X-2.107 Y6.601 F9000.000
G1 X0.499 Y9.207 E0.20163 F1800.000
G1 X-0.121 Y9.207 E0.03394
G1 X-2.107 Y7.221 E0.15363
G1 X-2.107 Y7.841 E0.03394
G1 X-0.741 Y9.207 E0.10564
G1 X-1.361 Y9.207 E0.03394
G1 X-2.107 Y8.461 E0.05765
G1 E-3.20000 F3000.00000
G1 Z1.300 F9000.000
G1 X-10.182 Y1.007 F9000.000
G1 Z0.900 F9000.000
G1 E3.20000 F3000.00000
G1 X-10.407 Y0.782 E0.01739 F1800.000
G1 X-10.407 Y0.161 E0.03394
G1 X-9.561 Y1.007 E0.06538
G1 X-8.941 Y1.007 E0.03394
G1 X-10.407 Y-0.459 E0.11338
G1 X-10.407 Y-1.079 E0.03394
G1 X-8.321 Y1.007 E0.16137
G1 X-7.701 Y1.007 E0.03394
G1 X-10.407 Y-1.700 E0.20936
G1 X-10.407 Y-2.320 E0.03394
G1 X-7.093 Y0.993 E0.25633
G1 X-7.093 Y0.373 E0.03394
G1 X-10.407 Y-2.940 E0.25633
G1 X-10.407 Y-3.560 E0.03394
G1 X-7.093 Y-0.247 E0.25633
G1 X-7.093 Y-0.868 E0.03394
G1 X-10.407 Y-4.181 E0.25633
G1 X-10.407 Y-4.801 E0.03394
G1 X-7.093 Y-1.488 E0.25633
G1 X-7.093 Y-2.108 E0.03394
G1 X-10.407 Y-5.421 E0.25633
G1 X-10.407 Y-6.042 E0.03394
G1 X-7.093 Y-2.729 E0.25633
G1 X-7.093 Y-3.349 E0.03394
G1 X-10.407 Y-6.662 E0.25633
G1 X-10.407 Y-7.282 E0.03394
G1 X-7.093 Y-3.969 E0.25633
G1 X-6.997 Y-4.493 E0.02916
G1 X-10.407 Y-7.903 E0.26376
G1 X-10.407 Y-8.523 E0.03394
G1 X-6.377 Y-4.493 E0.31175
G1 X-5.757 Y-4.493 E0.03394
G1 X-10.407 Y-9.143 E0.35975
G1 X-10.407 Y-9.764 E0.03394
G1 X-5.136 Y-4.493 E0.40774
G1 X-4.516 Y-4.493 E0.03394
G1 X-10.407 Y-10.384 E0.45573
G1 X-10.407 Y-11.004 E0.03394
G1 X-3.896 Y-4.493 E0.50373
G1 X-3.276 Y-4.493 E0.03394
G1 X-10.289 Y-11.507 E0.54259
G1 X-9.668 Y-11.507 E0.03394
G1 X-2.655 Y-4.493 E0.54259
G1 X-2.035 Y-4.493 E0.03394
G1 X-9.048 Y-11.507 E0.54259
G1 X-8.428 Y-11.507 E0.03394
G1 X-1.415 Y-4.493 E0.54259
G1 X-0.794 Y-4.493 E0.03394
G1 X-7.807 Y-11.507 E0.54259
G1 X-7.187 Y-11.507 E0.03394
G1 X-0.174 Y-4.493 E0.54259
G1 X0.446 Y-4.493 E0.03394
G1 X-6.567 Y-11.507 E0.54259
G1 X-5.946 Y-11.507 E0.03394
G1 X1.067 Y-4.493 E0.54259
G1 X1.687 Y-4.493 E0.03394
G1 X-5.326 Y-11.507 E0.54259
G1 X-4.706 Y-11.507 E0.03394
G1 X2.307 Y-4.493 E0.54259
G1 X2.928 Y-4.493 E0.03394
G1 X-4.085 Y-11.507 E0.54259
G1 X-3.465 Y-11.507 E0.03394
G1 X10.407 Y2.365 E1.07323
G1 X10.407 Y1.745 E0.03394
G1 X-2.845 Y-11.507 E1.02524
G1 X-2.225 Y-11.507 E0.03394
G1 X10.407 Y1.125 E0.97725
G1 X10.407 Y0.504 E0.03394
G1 X-1.604 Y-11.507 E0.92926
G1 X-0.984 Y-11.507 E0.03394
G1 X10.407 Y-0.116 E0.88126
G1 X10.407 Y-0.736 E0.03394
G1 X-0.364 Y-11.507 E0.83327
G1 X0.257 Y-11.507 E0.03394
G1 X10.407 Y-1.357 E0.78528
G1 X10.407 Y-1.977 E0.03394
G1 X0.877 Y-11.507 E0.73728
G1 X1.497 Y-11.507 E0.03394
G1 X10.407 Y-2.597 E0.68929
G1 X10.407 Y-3.218 E0.03394
G1 X2.118 Y-11.507 E0.64130
G1 X2.738 Y-11.507 E0.03394
G1 X10.407 Y-3.838 E0.59331
G1 X10.407 Y-4.458 E0.03394
