; generated by Slic3r 1.2.9 on 2016-12-12 at 15:18:05

; external perimeters extrusion width = 0.50mm
; perimeters extrusion width = 0.50mm
; infill extrusion width = 0.50mm
; solid infill extrusion width = 0.50mm
; top infill extrusion width = 0.50mm

M107
;Basic settings: Layer height: {layer_height} Walls: {wall_thickness} Fill: {fill_density}
;Print time: {print_time}
;Filament used: {filament_amount}m {filament_weight}g
;Filament cost: {filament_cost}
;M190 S{print_bed_temperature} ;Uncomment to add your own bed temperature line
;M109 S{print_temperature} ;Uncomment to add your own temperature line
G21        ;metric values
G90        ;absolute positioning
M83
G10 P0 S200
T0
M116


G21 ; set units to millimeters
G90 ; use absolute coordinates
M83 ; use relative distances for extrusion
G1 E-3.20000 F3000.00000
G1 Z0.400 F9000.000
G1 X-9.207 Y9.319 F9000.000
G1 Z0.300 F9000.000
G1 E3.20000 F3000.00000
G1 X-13.975 Y4.607 E0.61507 F1200.000
G1 X-14.887 Y3.152 E0.15755
G1 X-15.086 Y1.950 E0.11180
G1 X-15.086 Y-12.450 E1.32121
G1 X-14.691 Y-14.121 E0.15755
G1 X-13.590 Y-15.439 E0.15755
G1 X-11.350 Y-16.186 E0.21667
G1 X11.350 Y-16.186 E2.08274
G1 X13.021 Y-15.791 E0.15755
G1 X14.339 Y-14.690 E0.15755 F1200.000
G1 X15.086 Y-12.450 E0.21667
G1 X15.086 Y12.450 E2.28459
G1 X14.691 Y14.121 E0.15755
G1 X13.590 Y15.439 E0.15755
G1 X11.350 Y16.186 E0.21667
G1 X4.021 Y16.186 E0.67247
G1 X2.865 Y16.002 E0.10735
G1 X-4.206 Y13.702 E0.68220
G1 X-5.675 Y12.807 E0.15789
G1 X-9.164 Y9.361 E0.44993
G1 E-3.20000 F3000.00000
G1 Z0.700 F9000.000
G1 X-7.286 Y0.814 F9000.000
G1 Z0.300 F9000.000
G1 E3.20000 F3000.00000
G1 X-9.972 Y0.814 E0.24650 F900.000
G1 X-9.552 Y-0.027 E0.08627
G1 X-9.400 Y-1.000 E0.09039
G1 X-9.552 Y-1.973 E0.09039
G1 X-9.992 Y-2.855 E0.09039
G1 X-10.214 Y-3.082 E0.02919
G1 X-10.214 Y-11.314 E0.75529
G1 X10.214 Y-11.314 E1.87435
G1 X10.214 Y11.314 E2.07620
G1 X4.491 Y11.314 E0.52511 F900.000
G1 X4.006 Y10.830 E0.06289
G1 X3.977 Y10.648 E0.01688
G1 X3.719 Y10.001 E0.06395
G1 X3.329 Y9.428 E0.06353
G1 X2.856 Y8.978 E0.05991
G1 X2.306 Y8.635 E0.05950
G1 X1.677 Y8.402 E0.06157
G1 X0.816 Y8.304 E0.07948
G1 X-0.061 Y8.451 E0.08157
G1 X-0.863 Y8.833 E0.08157
G1 X-1.069 Y9.014 E0.02512
G1 X-1.914 Y9.014 E0.07759
G1 X-1.914 Y6.186 E0.25954
G1 X3.586 Y6.186 E0.50463
G1 X3.586 Y-4.686 E0.99744
G1 X-7.286 Y-4.686 E0.99744
G1 X-7.286 Y0.754 E0.49912
G1 X-6.550 Y0.754 F9000.000
G1 X-6.550 Y1.550 E0.07300 F900.000
G1 X-10.950 Y1.550 E0.40370
G1 X-10.950 Y0.783 E0.07037
G1 X-10.599 Y0.423 E0.04613
G1 X-10.261 Y-0.253 E0.06936
G1 X-10.145 Y-1.000 E0.06936
G1 X-10.261 Y-1.747 E0.06936
G1 X-10.599 Y-2.423 E0.06936
G1 X-10.950 Y-2.783 E0.04613
G1 X-10.950 Y-12.050 E0.85025
G1 X10.950 Y-12.050 E2.00934
G1 X10.950 Y12.050 E2.21119
G1 X4.186 Y12.050 E0.62056 F900.000
G1 X3.318 Y11.182 E0.11264
G1 X3.264 Y10.846 E0.03126
G1 X3.065 Y10.348 E0.04913
G1 X2.765 Y9.907 E0.04897
G1 X2.403 Y9.562 E0.04587
G1 X1.980 Y9.298 E0.04571
G1 X1.505 Y9.123 E0.04650
G1 X0.835 Y9.046 E0.06183
G1 X0.162 Y9.159 E0.06262
G1 X-0.454 Y9.453 E0.06262
G1 X-0.790 Y9.750 E0.04119
G1 X-2.650 Y9.750 E0.17064
G1 X-2.650 Y5.450 E0.39453
G1 X2.850 Y5.450 E0.50463
G1 X2.850 Y-3.950 E0.86245
G1 X-6.550 Y-3.950 E0.86245
G1 X-6.550 Y0.694 E0.42612
G1 X-6.896 Y0.954 F9000.000
G1 X-8.229 Y0.365 F9000.000
G1 X-9.052 Y-0.458 E0.10976 F900.000
G1 X-8.992 Y-1.467 E0.09533
G1 X-7.735 Y-0.210 E0.16767
G1 X-7.735 Y-1.279 E0.10085
G1 X-9.477 Y-3.021 E0.23235
G1 X-9.765 Y-4.379 E0.13090
G1 X-7.735 Y-2.348 E0.27080
G1 X-7.735 Y-3.418 E0.10085
G1 X-9.765 Y-5.448 E0.27080
G1 X-9.765 Y-6.517 E0.10085
G1 X-7.735 Y-4.487 E0.27080
G1 X-7.313 Y-5.135 F9000.000
G1 X-9.765 Y-7.587 E0.32703 F900.000
G1 X-9.765 Y-8.656 E0.10085
G1 X-6.244 Y-5.135 E0.46966
G1 X-5.174 Y-5.135 E0.10085
G1 X-9.765 Y-9.726 E0.61229
G1 X-9.765 Y-10.795 E0.10085
G1 X-4.105 Y-5.135 E0.75492
G1 X-3.036 Y-5.135 E0.10085
G1 X-8.766 Y-10.865 E0.76430
G1 X-7.697 Y-10.865 E0.10085
G1 X-1.966 Y-5.135 E0.76430
G1 X-0.897 Y-5.135 E0.10085
G1 X-6.627 Y-10.865 E0.76430
G1 X-5.558 Y-10.865 E0.10085
G1 X0.172 Y-5.135 E0.76430
G1 X1.242 Y-5.135 E0.10085
G1 X-4.489 Y-10.865 E0.76430
G1 X-3.419 Y-10.865 E0.10085
G1 X2.311 Y-5.135 E0.76430
G1 X3.380 Y-5.135 F9000.000
G1 X-2.350 Y-10.865 E0.76430 F900.000
G1 X-1.281 Y-10.865 E0.10085
G1 X9.765 Y0.181 E1.47325
G1 X9.765 Y-0.889 E0.10085
G1 X-0.211 Y-10.865 E1.33062
G1 X0.858 Y-10.865 E0.10085
G1 X9.765 Y-1.958 E1.18799
G1 X9.765 Y-3.028 E0.10085
G1 X1.928 Y-10.865 E1.04536
G1 X2.997 Y-10.865 E0.10085
G1 X9.765 Y-4.097 E0.90273
G1 X9.765 Y-5.166 E0.10085
G1 X4.066 Y-10.865 E0.76010
G1 X5.136 Y-10.865 E0.10085
G1 X9.765 Y-6.236 E0.61748
G1 X9.765 Y-7.305 E0.10085
G1 X6.205 Y-10.865 E0.47485
G1 X7.274 Y-10.865 E0.10085
G1 X9.765 Y-8.374 E0.33222
G1 X9.765 Y-9.444 E0.10085
G1 X8.344 Y-10.865 E0.18959
G1 X9.413 Y-10.865 E0.10085
G1 X9.765 Y-10.513 E0.04696
G1 X4.035 Y-4.480 F9000.000
G1 X9.765 Y1.250 E0.76430 F900.000
G1 X9.765 Y2.319 E0.10085
G1 X4.035 Y-3.411 E0.76430
G1 X4.035 Y-2.342 E0.10085
G1 X9.765 Y3.389 E0.76430
G1 X9.765 Y4.458 E0.10085
G1 X4.035 Y-1.272 E0.76430
G1 X4.035 Y-0.203 E0.10085
G1 X9.765 Y5.527 E0.76430
G1 X9.765 Y6.597 E0.10085
G1 X4.035 Y0.866 E0.76430
G1 X4.035 Y1.936 E0.10085
G1 X9.765 Y7.666 E0.76430
G1 X9.765 Y8.735 E0.10085
G1 X4.035 Y3.005 E0.76430
G1 X4.035 Y4.074 E0.10085
G1 X9.765 Y9.805 E0.76430
G1 X9.741 Y10.850 E0.09857
G1 X4.035 Y5.144 E0.76103
G1 X4.035 Y6.213 E0.10085
G1 X8.687 Y10.865 E0.62046
G1 X7.617 Y10.865 E0.10085
G1 X3.387 Y6.635 E0.56423
G1 X2.318 Y6.635 E0.10085
G1 X6.548 Y10.865 E0.56423
G1 X5.479 Y10.865 E0.10085
G1 X1.248 Y6.635 E0.56423
G1 X0.179 Y6.635 E0.10085
G1 X1.449 Y7.905 E0.16941
G1 X0.414 Y7.940 E0.09765
G1 X-0.890 Y6.635 E0.17402
G1 X-1.465 Y7.129 E0.07151
G1 X-0.415 Y8.179 E0.14004
G1 X-1.119 Y8.545 E0.07479
G1 X-1.465 Y8.199 E0.04618
G1 E-3.20000 F3000.00000
G1 Z0.700 F9000.000
G1 X-5.778 Y-4.236 F9000.000
G1 Z0.600 F9000.000
G1 E3.20000 F3000.00000
G1 X-6.836 Y-4.236 E0.05747 F1800.000
G1 X-6.836 Y1.264 E0.29883
G1 X-10.664 Y1.264 E0.20803
G1 X-10.664 Y0.899 E0.01984
G1 X-10.363 Y0.591 E0.02342
G1 X-9.986 Y-0.165 E0.04591
G1 X-9.856 Y-1.000 E0.04591
G1 X-9.986 Y-1.835 E0.04591
G1 X-10.363 Y-2.591 E0.04591
G1 X-10.664 Y-2.899 E0.02342
G1 X-10.664 Y-11.764 E0.48167
G1 X10.664 Y-11.764 E1.15885
G1 X10.664 Y11.764 E1.27838
G1 X4.305 Y11.764 E0.34554 F1800.000
G1 X3.585 Y11.045 E0.05526
G1 X3.541 Y10.769 E0.01521
G1 X3.319 Y10.213 E0.03250
G1 X2.984 Y9.721 E0.03235
G1 X2.579 Y9.335 E0.03039
G1 X2.107 Y9.041 E0.03024
G1 X1.572 Y8.843 E0.03100
G1 X0.828 Y8.758 E0.04067
G1 X0.076 Y8.884 E0.04144
G1 X-0.613 Y9.212 E0.04144
G1 X-0.898 Y9.464 E0.02070
G1 X-2.364 Y9.464 E0.07966
G1 X-2.364 Y5.736 E0.20259
G1 X3.136 Y5.736 E0.29883
G1 X3.136 Y-4.236 E0.54177
G1 X-5.718 Y-4.236 E0.48104
G1 X-5.718 Y-3.800 F9000.000
G1 X-6.400 Y-3.800 E0.03706 F1800.000
G1 X-6.400 Y1.700 E0.29883
G1 X-11.100 Y1.700 E0.25536
G1 X-11.100 Y0.722 E0.05314
G1 X-10.723 Y0.335 E0.02936
G1 X-10.406 Y-0.299 E0.03853
G1 X-10.296 Y-1.000 E0.03853
G1 X-10.406 Y-1.701 E0.03853
G1 X-10.723 Y-2.335 E0.03853
G1 X-11.100 Y-2.722 E0.02936
G1 X-11.100 Y-12.200 E0.51496
G1 X11.100 Y-12.200 E1.20619
G1 X11.100 Y12.200 E1.32572
G1 X4.124 Y12.200 E0.37901 F1800.000
G1 X3.178 Y11.254 E0.07271
G1 X3.118 Y10.886 E0.02025
G1 X2.932 Y10.419 E0.02730
G1 X2.650 Y10.005 E0.02724
G1 X2.311 Y9.681 E0.02547
G1 X1.914 Y9.434 E0.02541
G1 X1.470 Y9.270 E0.02572
G1 X0.839 Y9.198 E0.03448
G1 X0.208 Y9.304 E0.03479
G1 X-0.370 Y9.579 E0.03479
G1 X-0.733 Y9.900 E0.02634
G1 X-2.800 Y9.900 E0.11228
G1 X-2.800 Y5.300 E0.24993
G1 X2.700 Y5.300 E0.29883
G1 X2.700 Y-3.800 E0.49443
G1 X-5.658 Y-3.800 E0.45411
G1 X-5.918 Y-4.146 F9000.000
G1 X-6.661 Y-4.493 F9000.000
G1 X0.353 Y-11.507 E0.54203 F1800.000
G1 X0.972 Y-11.507 E0.03387
G1 X-6.041 Y-4.493 E0.54203
G1 X-5.421 Y-4.493 E0.03387
G1 X1.592 Y-11.507 E0.54203
G1 X2.212 Y-11.507 E0.03387
G1 X-4.802 Y-4.493 E0.54203
G1 X-4.182 Y-4.493 E0.03387
G1 X2.831 Y-11.507 E0.54203
G1 X3.451 Y-11.507 E0.03387
G1 X-3.562 Y-4.493 E0.54203
G1 X-2.943 Y-4.493 E0.03387
G1 X4.071 Y-11.507 E0.54203
G1 X4.690 Y-11.507 E0.03387
G1 X-2.323 Y-4.493 E0.54203
G1 X-1.703 Y-4.493 E0.03386
G1 X5.310 Y-11.507 E0.54203
G1 X5.930 Y-11.507 E0.03387
G1 X-1.084 Y-4.493 E0.54203
G1 X-0.464 Y-4.493 E0.03387
G1 X6.549 Y-11.507 E0.54203
G1 X7.169 Y-11.507 E0.03387
G1 X0.156 Y-4.493 E0.54203
G1 X0.775 Y-4.493 E0.03387
G1 X7.789 Y-11.507 E0.54203
G1 X8.408 Y-11.507 E0.03387
G1 X1.395 Y-4.493 E0.54203
G1 X2.015 Y-4.493 E0.03387
G1 X9.028 Y-11.507 E0.54203
G1 X9.648 Y-11.507 E0.03387
G1 X2.634 Y-4.493 E0.54203
G1 X3.254 Y-4.493 E0.03387
G1 X10.267 Y-11.507 E0.54203
G1 X10.407 Y-11.026 E0.02733
G1 X3.393 Y-4.013 E0.54203
G1 X3.393 Y-3.393 E0.03387
G1 X10.407 Y-10.407 E0.54203
G1 X10.407 Y-9.787 E0.03387
G1 X3.393 Y-2.774 E0.54203
G1 X3.393 Y-2.154 E0.03387
G1 X10.407 Y-9.167 E0.54203
G1 X10.407 Y-8.548 E0.03387
G1 X3.393 Y-1.534 E0.54203
G1 X3.393 Y-0.915 E0.03387
G1 X10.407 Y-7.928 E0.54203
G1 X10.407 Y-7.308 E0.03387
G1 X3.393 Y-0.295 E0.54203
G1 X3.393 Y0.324 E0.03387
G1 X10.407 Y-6.689 E0.54203
G1 X10.407 Y-6.069 E0.03387
G1 X3.393 Y0.944 E0.54203
G1 X3.393 Y1.564 E0.03387
G1 X10.407 Y-5.449 E0.54203
G1 X10.407 Y-4.830 E0.03387
G1 X3.393 Y2.183 E0.54203
G1 X3.393 Y2.803 E0.03387
G1 X10.407 Y-4.210 E0.54203
G1 X10.407 Y-3.590 E0.03387
G1 X3.393 Y3.423 E0.54203
G1 X3.393 Y4.042 E0.03387
G1 X10.407 Y-2.971 E0.54203
G1 X10.407 Y-2.351 E0.03387
G1 X3.393 Y4.662 E0.54203
G1 X3.393 Y5.282 E0.03387
G1 X10.407 Y-1.731 E0.54203
G1 X10.407 Y-1.112 E0.03387
G1 X0.791 Y8.504 E0.74319
G1 X1.347 Y8.568 E0.03060
G1 X10.407 Y-0.492 E0.70019
G1 X10.407 Y0.128 E0.03387
G1 X1.839 Y8.695 E0.66214
G1 X2.273 Y8.881 E0.02577
G1 X10.407 Y0.747 E0.62866
G1 X10.407 Y1.367 E0.03387
G1 X2.654 Y9.119 E0.59917
G1 X2.979 Y9.414 E0.02398
G1 X10.407 Y1.987 E0.57402
G1 X10.407 Y2.606 E0.03387
G1 X3.268 Y9.745 E0.55170
G1 X3.519 Y10.113 E0.02437
G1 X10.407 Y3.226 E0.53229
G1 X10.407 Y3.846 E0.03387
G1 X3.702 Y10.551 E0.51822
G1 X3.861 Y11.011 E0.02660
G1 X10.407 Y4.465 E0.50586
G1 X10.407 Y5.085 E0.03387
G1 X4.171 Y11.320 E0.48191
G1 X4.605 Y11.507 E0.02578
G1 X10.407 Y5.705 E0.44841
G1 X10.407 Y6.324 E0.03387
G1 X5.224 Y11.507 E0.40052
G1 X5.844 Y11.507 E0.03387
G1 X10.407 Y6.944 E0.35262
G1 X10.407 Y7.564 E0.03387
G1 X6.464 Y11.507 E0.30473
G1 X7.083 Y11.507 E0.03387
G1 X10.407 Y8.183 E0.25684
G1 X10.407 Y8.803 E0.03387
G1 X7.703 Y11.507 E0.20895
G1 X8.323 Y11.507 E0.03387
G1 X10.407 Y9.423 E0.16105
G1 X10.407 Y10.042 E0.03387
G1 X8.942 Y11.507 E0.11316
G1 X9.562 Y11.507 E0.03387
G1 X10.407 Y10.662 E0.06527
G1 X10.407 Y11.282 E0.03387
G1 X10.182 Y11.507 E0.01738
G1 X0.068 Y8.607 F9000.000
G1 X2.682 Y5.993 E0.20200 F1800.000
G1 X2.062 Y5.993 E0.03387
G1 X-1.151 Y9.207 E0.24833
G1 X-1.771 Y9.207 E0.03387
G1 X1.442 Y5.993 E0.24833
G1 X0.823 Y5.993 E0.03387
G1 X-2.107 Y8.923 E0.22640
G1 X-2.107 Y8.303 E0.03387
G1 X0.203 Y5.993 E0.17851
G1 X-0.417 Y5.993 E0.03387
G1 X-2.107 Y7.683 E0.13062
G1 X-2.107 Y7.064 E0.03387
G1 X-1.036 Y5.993 E0.08273
G1 X-1.656 Y5.993 E0.03387
G1 X-2.107 Y6.444 E0.03483
G1 E-3.20000 F3000.00000
G1 Z1.000 F9000.000
G1 X-7.823 Y1.007 F9000.000
G1 Z0.600 F9000.000
G1 E3.20000 F3000.00000
G1 X-7.093 Y0.277 E0.05637 F1800.000
G1 X-7.093 Y-0.343 E0.03387
G1 X-8.443 Y1.007 E0.10427
G1 X-9.062 Y1.007 E0.03387
G1 X-7.093 Y-0.962 E0.15216
G1 X-7.093 Y-1.582 E0.03387
G1 X-9.682 Y1.007 E0.20005
G1 X-10.150 Y0.855 E0.02691
G1 X-7.093 Y-2.202 E0.23627
G1 X-7.093 Y-2.821 E0.03387
G1 X-9.702 Y-0.213 E0.20158
G1 X-9.598 Y-0.936 E0.03994
G1 X-7.093 Y-3.441 E0.19356
G1 X-7.093 Y-4.061 F9000.000
G1 X-9.681 Y-1.473 E0.20002 F1800.000
G1 X-9.801 Y-1.972 E0.02809
G1 X-0.267 Y-11.507 E0.73688
G1 X-0.887 Y-11.507 E0.03387
G1 X-10.008 Y-2.385 E0.70495
G1 X-10.237 Y-2.776 E0.02474
G1 X-1.506 Y-11.507 E0.67479
G1 X-2.126 Y-11.507 E0.03387
G1 X-10.407 Y-3.226 E0.63998
G1 X-10.407 Y-3.846 E0.03387
G1 X-2.746 Y-11.507 E0.59208
G1 X-3.365 Y-11.507 E0.03387
G1 X-10.407 Y-4.465 E0.54419
G1 X-10.407 Y-5.085 E0.03387
G1 X-3.985 Y-11.507 E0.49630
G1 X-4.605 Y-11.507 E0.03387
G1 X-10.407 Y-5.705 E0.44841
G1 X-10.407 Y-6.324 E0.03387
G1 X-5.224 Y-11.507 E0.40051
G1 X-5.844 Y-11.507 E0.03387
G1 X-10.407 Y-6.944 E0.35262
G1 X-10.407 Y-7.564 E0.03387
G1 X-6.464 Y-11.507 E0.30473
G1 X-7.083 Y-11.507 E0.03387
G1 X-10.407 Y-8.183 E0.25684
G1 X-10.407 Y-8.803 E0.03387
G1 X-7.703 Y-11.507 E0.20894
G1 X-8.323 Y-11.507 E0.03387
G1 X-10.407 Y-9.423 E0.16105
G1 X-10.407 Y-10.042 E0.03387
G1 X-8.942 Y-11.507 E0.11316
G1 X-9.562 Y-11.507 E0.03387
G1 X-10.407 Y-10.662 E0.06526
G1 X-10.407 Y-11.282 E0.03387
G1 X-10.182 Y-11.507 E0.01737
G1 E-3.20000 F3000.00000
G1 Z1.000 F9000.000
G1 X-2.364 Y5.736 F9000.000
G1 Z0.900 F9000.000
G1 E3.20000 F3000.00000
G1 X3.136 Y5.736 E0.29883 F1800.000
G1 X3.136 Y-4.236 E0.54177
G1 X-6.836 Y-4.236 E0.54177
G1 X-6.836 Y1.264 E0.29883
G1 X-10.664 Y1.264 E0.20803
G1 X-10.664 Y0.899 E0.01984
G1 X-10.363 Y0.591 E0.02342
G1 X-9.986 Y-0.165 E0.04591
G1 X-9.856 Y-1.000 E0.04591
G1 X-9.986 Y-1.835 E0.04591
G1 X-10.363 Y-2.591 E0.04591
G1 X-10.664 Y-2.899 E0.02342
G1 X-10.664 Y-11.764 E0.48167
G1 X10.664 Y-11.764 E1.15885
G1 X10.664 Y11.764 E1.27838
G1 X4.305 Y11.764 E0.34554 F1800.000
G1 X3.585 Y11.045 E0.05526
G1 X3.541 Y10.769 E0.01521
G1 X3.319 Y10.213 E0.03250
G1 X2.984 Y9.721 E0.03235
G1 X2.579 Y9.335 E0.03039
G1 X2.107 Y9.041 E0.03024
G1 X1.572 Y8.843 E0.03100
G1 X0.828 Y8.758 E0.04067
G1 X0.076 Y8.884 E0.04144
G1 X-0.613 Y9.212 E0.04144
G1 X-0.898 Y9.464 E0.02070
G1 X-2.364 Y9.464 E0.07966
G1 X-2.364 Y5.796 E0.19933
G1 X-2.800 Y5.796 F9000.000
G1 X-2.800 Y5.300 E0.02693 F1800.000
G1 X2.700 Y5.300 E0.29883
G1 X2.700 Y-3.800 E0.49443
G1 X-6.400 Y-3.800 E0.49443
G1 X-6.400 Y1.700 E0.29883
G1 X-11.100 Y1.700 E0.25536
G1 X-11.100 Y0.722 E0.05314
G1 X-10.723 Y0.335 E0.02936
G1 X-10.406 Y-0.299 E0.03853
G1 X-10.296 Y-1.000 E0.03853
G1 X-10.406 Y-1.701 E0.03853
G1 X-10.723 Y-2.335 E0.03853
G1 X-11.100 Y-2.722 E0.02936
G1 X-11.100 Y-12.200 E0.51496
G1 X11.100 Y-12.200 E1.20619
G1 X11.100 Y12.200 E1.32572
G1 X4.124 Y12.200 E0.37901 F1800.000
G1 X3.178 Y11.254 E0.07271
G1 X3.118 Y10.886 E0.02025
G1 X2.932 Y10.419 E0.02730
G1 X2.650 Y10.005 E0.02724
G1 X2.311 Y9.681 E0.02547
G1 X1.914 Y9.434 E0.02541
G1 X1.470 Y9.270 E0.02572
G1 X0.839 Y9.198 E0.03448
G1 X0.208 Y9.304 E0.03479
G1 X-0.370 Y9.579 E0.03479
G1 X-0.733 Y9.900 E0.02634
G1 X-2.800 Y9.900 E0.11228
G1 X-2.800 Y5.856 E0.21974
G1 X-2.454 Y5.596 F9000.000
G1 X-1.882 Y9.207 F9000.000
G1 X-2.107 Y8.982 E0.01734 F1800.000
G1 X-2.107 Y8.363 E0.03373
G1 X-1.263 Y9.207 E0.06504
G1 X-0.783 Y9.069 E0.02727
G1 X-2.107 Y7.745 E0.10212
G1 X-2.107 Y7.126 E0.03373
G1 X-0.382 Y8.851 E0.13299
G1 X0.036 Y8.651 E0.02530
G1 X-2.107 Y6.508 E0.16530
G1 X-2.003 Y5.993 E0.02863
G1 X0.560 Y8.556 E0.19764
G1 X1.146 Y8.524 E0.03203
G1 X-1.384 Y5.993 E0.19516
G1 X-0.766 Y5.993 E0.03373
G1 X1.883 Y8.643 E0.20435
G1 X3.805 Y10.565 F9000.000
G1 X4.747 Y11.507 E0.07265 F1800.000
G1 X5.366 Y11.507 E0.03373
G1 X-0.147 Y5.993 E0.42524
G1 X0.471 Y5.993 E0.03373
G1 X5.984 Y11.507 E0.42524
G1 X6.602 Y11.507 E0.03373
G1 X1.089 Y5.993 E0.42524
G1 X1.708 Y5.993 E0.03373
G1 X7.221 Y11.507 E0.42524
G1 X7.839 Y11.507 E0.03373
G1 X2.326 Y5.993 E0.42524
G1 X2.945 Y5.993 E0.03373
G1 X8.458 Y11.507 E0.42524
G1 X9.076 Y11.507 E0.03373
G1 X3.393 Y5.824 E0.43833
G1 X3.393 Y5.205 E0.03373
G1 X9.695 Y11.507 E0.48603
G1 X10.313 Y11.507 E0.03373
G1 X3.393 Y4.587 E0.53373
G1 X3.393 Y3.969 E0.03373
G1 X10.407 Y10.982 E0.54094
G1 X10.407 Y10.363 E0.03373
G1 X3.393 Y3.350 E0.54094
G1 X3.393 Y2.732 E0.03373
G1 X10.407 Y9.745 E0.54094
G1 X10.407 Y9.126 E0.03373
G1 X3.393 Y2.113 E0.54094
G1 X3.393 Y1.495 E0.03373
G1 X10.407 Y8.508 E0.54094
G1 X10.407 Y7.889 E0.03373
G1 X3.393 Y0.876 E0.54094
G1 X3.393 Y0.258 E0.03373
G1 X10.407 Y7.271 E0.54094
G1 X10.407 Y6.653 E0.03373
G1 X3.393 Y-0.360 E0.54094
G1 X3.393 Y-0.979 E0.03373
G1 X10.407 Y6.034 E0.54094
G1 X10.407 Y5.416 E0.03373
G1 X3.393 Y-1.597 E0.54094
