; generated by Slic3r 1.2.9 on 2016-12-09 at 15:08:48

; external perimeters extrusion width = 0.50mm
; perimeters extrusion width = 0.50mm
; infill extrusion width = 0.50mm
; solid infill extrusion width = 0.50mm
; top infill extrusion width = 0.50mm

M107
;Basic settings: Layer height: {layer_height} Walls: {wall_thickness} Fill: {fill_density}
;Print time: {print_time}
;Filament used: {filament_amount}m {filament_weight}g
;Filament cost: {filament_cost}
;M190 S{print_bed_temperature} ;Uncomment to add your own bed temperature line
;M109 S{print_temperature} ;Uncomment to add your own temperature line
G21        ;metric values
G90        ;absolute positioning
M83
G10 P0 S200
T0
M116


G21 ; set units to millimeters
G90 ; use absolute coordinates
M83 ; use relative distances for extrusion
G1 E-3.20000 F3000.00000
G1 Z0.400 F9000.000
G1 X-25.259 Y23.467 F9000.000
G1 Z0.300 F9000.000
G1 E3.20000 F3000.00000
G1 X-42.887 Y4.493 E2.37623 F1200.000
G1 X-43.735 Y3.000 E0.15755
G1 X-43.886 Y1.950 E0.09729
G1 X-43.886 Y-12.450 E1.32121
G1 X-43.491 Y-14.121 E0.15755
G1 X-42.887 Y-14.993 E0.09729
G1 X-14.087 Y-45.993 E3.88229
G1 X-12.660 Y-46.948 E0.15755
G1 X-11.350 Y-47.186 E0.12217
G1 X11.350 Y-47.186 E2.08274
G1 X13.021 Y-46.791 E0.15755
G1 X14.087 Y-45.993 E0.12217 F1200.000
G1 X42.887 Y-14.993 E3.88229
G1 X43.735 Y-13.500 E0.15755
G1 X43.886 Y-12.450 E0.09729
G1 X43.886 Y43.450 E5.12885
G1 X43.491 Y45.121 E0.15755
G1 X42.390 Y46.439 E0.15755
G1 X40.150 Y47.186 E0.21667
G1 X4.021 Y47.186 E3.31488
G1 X2.865 Y47.002 E0.10735
G1 X-4.206 Y44.702 E0.68220
G1 X-5.675 Y43.807 E0.15789
G1 X-14.087 Y35.493 E1.08517
G1 X-25.218 Y23.511 E1.50056
G1 E-3.20000 F3000.00000
G1 Z0.700 F9000.000
G1 X-5.635 Y-4.686 F9000.000
G1 Z0.300 F9000.000
G1 E3.20000 F3000.00000
G1 X-7.286 Y-4.686 E0.15149 F900.000
G1 X-7.286 Y0.814 E0.50463
G1 X-10.214 Y0.814 E0.26872
G1 X-10.214 Y-11.314 E1.11282
G1 X10.214 Y-11.314 E1.87435
G1 X10.214 Y11.314 E2.07620
G1 X4.491 Y11.314 E0.52511 F900.000
G1 X2.191 Y9.014 E0.29844
G1 X-1.914 Y9.014 E0.37668
G1 X-1.914 Y6.186 E0.25954
G1 X3.586 Y6.186 E0.50463
G1 X3.586 Y-4.686 E0.99744
G1 X-5.575 Y-4.686 E0.84045
G1 X-5.575 Y-3.950 F9000.000
G1 X-6.550 Y-3.950 E0.08950 F900.000
G1 X-6.550 Y1.550 E0.50463
G1 X-10.950 Y1.550 E0.40370
G1 X-10.950 Y-12.050 E1.24781
G1 X10.950 Y-12.050 E2.00934
G1 X10.950 Y12.050 E2.21119
G1 X4.186 Y12.050 E0.62056 F900.000
G1 X1.886 Y9.750 E0.29844
G1 X-2.650 Y9.750 E0.41622
G1 X-2.650 Y5.450 E0.39453
G1 X2.850 Y5.450 E0.50463
G1 X2.850 Y-3.950 E0.86245
G1 X-5.515 Y-3.950 E0.76745
G1 X-5.775 Y-4.296 F9000.000
G1 E-3.20000 F3000.00000
G1 Z0.700 F9000.000
G1 X-7.735 Y-0.103 F9000.000
G1 Z0.300 F9000.000
G1 E3.20000 F3000.00000
G1 X-9.765 Y-2.134 E0.27184 F900.000
G1 X-9.765 Y-3.207 E0.10163
G1 X-7.735 Y-1.177 E0.27184
G1 X-7.735 Y-2.250 E0.10163
G1 X-9.765 Y-4.281 E0.27184
G1 X-9.765 Y-5.354 E0.10163
G1 X-7.735 Y-3.324 E0.27184
G1 X-7.735 Y-4.397 E0.10163
G1 X-9.765 Y-6.428 E0.27184
G1 X-9.765 Y-7.501 E0.10163
G1 X-7.399 Y-5.135 E0.31680
G1 X-6.326 Y-5.135 E0.10163
G1 X-9.765 Y-8.574 E0.46052
G1 X-9.765 Y-9.648 E0.10163
G1 X-5.252 Y-5.135 E0.60424
G1 X-4.179 Y-5.135 E0.10163
G1 X-9.765 Y-10.721 E0.74796
G1 X-8.836 Y-10.865 E0.08906
G1 X-3.105 Y-5.135 E0.76721
G1 X-2.032 Y-5.135 E0.10163
G1 X-7.762 Y-10.865 E0.76721
G1 X-6.689 Y-10.865 E0.10163
G1 X-0.958 Y-5.135 E0.76721
G1 X0.115 Y-5.135 E0.10163
G1 X-5.615 Y-10.865 E0.76721
G1 X-4.542 Y-10.865 E0.10163
G1 X1.189 Y-5.135 E0.76721
G1 X2.262 Y-5.135 E0.10163
G1 X-3.468 Y-10.865 E0.76721
G1 X3.336 Y-5.135 F9000.000
G1 X-2.395 Y-10.865 E0.76721 F900.000
G1 X-1.321 Y-10.865 E0.10163
G1 X9.765 Y0.221 E1.48434
G1 X9.765 Y-0.852 E0.10163
G1 X-0.248 Y-10.865 E1.34062
G1 X0.825 Y-10.865 E0.10163
G1 X9.765 Y-1.926 E1.19690
G1 X9.765 Y-2.999 E0.10163
G1 X1.899 Y-10.865 E1.05318
G1 X2.972 Y-10.865 E0.10163
G1 X9.765 Y-4.072 E0.90946
G1 X9.765 Y-5.146 E0.10163
G1 X4.046 Y-10.865 E0.76574
G1 X5.119 Y-10.865 E0.10163
G1 X9.765 Y-6.219 E0.62202
G1 X9.765 Y-7.293 E0.10163
G1 X6.193 Y-10.865 E0.47830
G1 X7.266 Y-10.865 E0.10163
G1 X9.765 Y-8.366 E0.33458
G1 X9.765 Y-9.440 E0.10163
G1 X8.340 Y-10.865 E0.19086
G1 X9.413 Y-10.865 E0.10163
G1 X9.765 Y-10.513 E0.04714
G1 X4.035 Y-4.436 F9000.000
G1 X9.765 Y1.295 E0.76721 F900.000
G1 X9.765 Y2.368 E0.10163
G1 X4.035 Y-3.362 E0.76721
G1 X4.035 Y-2.289 E0.10163
G1 X9.765 Y3.442 E0.76721
G1 X9.765 Y4.515 E0.10163
G1 X4.035 Y-1.215 E0.76721
G1 X4.035 Y-0.142 E0.10163
G1 X9.765 Y5.589 E0.76721
G1 X9.765 Y6.662 E0.10163
G1 X4.035 Y0.932 E0.76721
G1 X4.035 Y2.005 E0.10163
G1 X9.765 Y7.736 E0.76721
G1 X9.765 Y8.809 E0.10163
G1 X4.035 Y3.079 E0.76721
G1 X4.035 Y4.152 E0.10163
G1 X9.765 Y9.882 E0.76721
G1 X9.674 Y10.865 E0.09343
G1 X4.035 Y5.226 E0.75507
G1 X4.035 Y6.299 E0.10163
G1 X8.601 Y10.865 E0.61135
G1 X7.528 Y10.865 E0.10163
G1 X3.297 Y6.635 E0.56638
G1 X2.224 Y6.635 E0.10163
G1 X6.454 Y10.865 E0.56638
G1 X5.381 Y10.865 E0.10163
G1 X1.150 Y6.635 E0.56638
G1 X0.077 Y6.635 E0.10163
G1 X2.007 Y8.565 E0.25845
G1 X0.934 Y8.565 E0.10163
G1 X-0.997 Y6.635 E0.25845
G1 X-1.465 Y7.240 E0.07244
G1 X-0.140 Y8.565 E0.17747
G1 E-3.20000 F3000.00000
G1 Z0.700 F9000.000
G1 X-9.765 Y0.013 F9000.000
G1 Z0.300 F9000.000
G1 E3.20000 F3000.00000
G1 X-9.413 Y0.365 E0.04714 F900.000
G1 X-8.340 Y0.365 E0.10163
G1 X-9.765 Y-1.060 E0.19086
G1 E-3.20000 F3000.00000
G1 Z0.700 F9000.000
G1 X-18.586 Y-1.431 F9000.000
G1 Z0.300 F9000.000
G1 E3.20000 F3000.00000
G1 X-18.586 Y11.314 E1.16939 F900.000
G1 X-24.309 Y11.314 E0.52511 F900.000
G1 X-26.609 Y9.014 E0.29844
G1 X-30.714 Y9.014 E0.37668
G1 X-30.714 Y6.186 E0.25954
G1 X-25.214 Y6.186 E0.50463
G1 X-25.214 Y-4.686 E0.99744
G1 X-36.086 Y-4.686 E0.99744
G1 X-36.086 Y0.814 E0.50463
G1 X-39.014 Y0.814 E0.26872
G1 X-39.014 Y-11.314 E1.11282
G1 X-18.586 Y-11.314 E1.87435
G1 X-18.586 Y-1.491 E0.90130
G1 X-17.850 Y-1.491 F9000.000
G1 X-17.850 Y12.050 E1.24239 F900.000
G1 X-24.614 Y12.050 E0.62056 F900.000
G1 X-26.914 Y9.750 E0.29844
G1 X-31.450 Y9.750 E0.41622
G1 X-31.450 Y5.450 E0.39453
G1 X-25.950 Y5.450 E0.50463
G1 X-25.950 Y-3.950 E0.86245
G1 X-35.350 Y-3.950 E0.86245
G1 X-35.350 Y1.550 E0.50463
G1 X-39.750 Y1.550 E0.40370
G1 X-39.750 Y-12.050 E1.24781
G1 X-17.850 Y-12.050 E2.00934
G1 X-17.850 Y-1.551 E0.96329
G1 X-18.196 Y-1.291 F9000.000
G1 X-24.765 Y-4.436 F9000.000
G1 X-19.035 Y1.295 E0.76721 F900.000
G1 X-19.035 Y2.368 E0.10163
G1 X-24.765 Y-3.362 E0.76721
G1 X-24.765 Y-2.289 E0.10163
G1 X-19.035 Y3.442 E0.76721
G1 X-19.035 Y4.515 E0.10163
G1 X-24.765 Y-1.215 E0.76721
G1 X-24.765 Y-0.142 E0.10163
G1 X-19.035 Y5.589 E0.76721
G1 X-19.035 Y6.662 E0.10163
G1 X-24.765 Y0.932 E0.76721
G1 X-24.765 Y2.005 E0.10163
G1 X-19.035 Y7.736 E0.76721
G1 X-19.035 Y8.809 E0.10163
G1 X-24.765 Y3.079 E0.76721
G1 X-24.765 Y4.152 E0.10163
G1 X-19.035 Y9.882 E0.76721
G1 X-19.126 Y10.865 E0.09343
G1 X-24.765 Y5.226 E0.75507
G1 X-24.765 Y6.299 E0.10163
G1 X-20.199 Y10.865 E0.61135
G1 X-21.272 Y10.865 E0.10163
G1 X-25.503 Y6.635 E0.56638
G1 X-26.576 Y6.635 E0.10163
G1 X-22.346 Y10.865 E0.56638
G1 X-23.419 Y10.865 E0.10163
G1 X-27.650 Y6.635 E0.56638
G1 X-28.723 Y6.635 E0.10163
G1 X-26.793 Y8.565 E0.25845
G1 X-27.866 Y8.565 E0.10163
G1 X-29.797 Y6.635 E0.25845
G1 X-30.265 Y7.240 E0.07244
G1 X-28.940 Y8.565 E0.17747
G1 E-3.20000 F3000.00000
G1 Z0.700 F9000.000
G1 X-36.535 Y-0.103 F9000.000
G1 Z0.300 F9000.000
G1 E3.20000 F3000.00000
G1 X-38.565 Y-2.134 E0.27184 F900.000
G1 X-38.565 Y-3.207 E0.10163
G1 X-36.535 Y-1.177 E0.27184
G1 X-36.535 Y-2.250 E0.10163
G1 X-38.565 Y-4.281 E0.27184
G1 X-38.565 Y-5.354 E0.10163
G1 X-36.535 Y-3.324 E0.27184
G1 X-36.535 Y-4.397 E0.10163
G1 X-38.565 Y-6.428 E0.27184
G1 X-38.565 Y-7.501 E0.10163
G1 X-36.199 Y-5.135 E0.31680
G1 X-35.126 Y-5.135 E0.10163
G1 X-38.565 Y-8.574 E0.46052
G1 X-38.565 Y-9.648 E0.10163
G1 X-34.052 Y-5.135 E0.60424
G1 X-32.979 Y-5.135 E0.10163
G1 X-38.565 Y-10.721 E0.74796
G1 X-37.636 Y-10.865 E0.08906
G1 X-31.905 Y-5.135 E0.76721
G1 X-30.832 Y-5.135 E0.10163
G1 X-36.562 Y-10.865 E0.76721
G1 X-35.489 Y-10.865 E0.10163
G1 X-29.758 Y-5.135 E0.76721
G1 X-28.685 Y-5.135 E0.10163
G1 X-34.415 Y-10.865 E0.76721
G1 X-33.342 Y-10.865 E0.10163
G1 X-27.611 Y-5.135 E0.76721
G1 X-26.538 Y-5.135 E0.10163
G1 X-32.268 Y-10.865 E0.76721
G1 X-25.464 Y-5.135 F9000.000
G1 X-31.195 Y-10.865 E0.76721 F900.000
G1 X-30.121 Y-10.865 E0.10163
G1 X-19.035 Y0.221 E1.48434
G1 X-19.035 Y-0.852 E0.10163
G1 X-29.048 Y-10.865 E1.34062
G1 X-27.975 Y-10.865 E0.10163
G1 X-19.035 Y-1.926 E1.19690
G1 X-19.035 Y-2.999 E0.10163
G1 X-26.901 Y-10.865 E1.05318
G1 X-25.828 Y-10.865 E0.10163
G1 X-19.035 Y-4.072 E0.90946
G1 X-19.035 Y-5.146 E0.10163
G1 X-24.754 Y-10.865 E0.76574
G1 X-23.681 Y-10.865 E0.10163
G1 X-19.035 Y-6.219 E0.62202
G1 X-19.035 Y-7.293 E0.10163
G1 X-22.607 Y-10.865 E0.47830
G1 X-21.534 Y-10.865 E0.10163
G1 X-19.035 Y-8.366 E0.33458
G1 X-19.035 Y-9.440 E0.10163
G1 X-20.460 Y-10.865 E0.19086
G1 X-19.387 Y-10.865 E0.10163
G1 X-19.035 Y-10.513 E0.04714
G1 E-3.20000 F3000.00000
G1 Z0.700 F9000.000
G1 X-38.565 Y-1.060 F9000.000
G1 Z0.300 F9000.000
G1 E3.20000 F3000.00000
G1 X-37.140 Y0.365 E0.19086 F900.000
G1 X-38.213 Y0.365 E0.10163
G1 X-38.565 Y0.013 E0.04714
G1 E-3.20000 F3000.00000
G1 Z0.700 F9000.000
G1 X10.214 Y-39.400 F9000.000
G1 Z0.300 F9000.000
G1 E3.20000 F3000.00000
G1 X10.214 Y-19.686 E1.80881 F900.000
G1 X4.491 Y-19.686 E0.52511 F900.000
G1 X2.191 Y-21.986 E0.29844
G1 X-1.914 Y-21.986 E0.37668
G1 X-1.914 Y-24.814 E0.25954
G1 X3.586 Y-24.814 E0.50463
G1 X3.586 Y-35.686 E0.99744
G1 X-7.286 Y-35.686 E0.99744
G1 X-7.286 Y-30.186 E0.50463
G1 X-10.214 Y-30.186 E0.26872
G1 X-10.214 Y-42.314 E1.11282
G1 X10.214 Y-42.314 E1.87435
G1 X10.214 Y-39.460 E0.26188
G1 X10.950 Y-39.460 F9000.000
G1 X10.950 Y-18.950 E1.88181 F900.000
G1 X4.186 Y-18.950 E0.62056 F900.000
G1 X1.886 Y-21.250 E0.29844
G1 X-2.650 Y-21.250 E0.41622
G1 X-2.650 Y-25.550 E0.39453
G1 X2.850 Y-25.550 E0.50463
G1 X2.850 Y-34.950 E0.86245
G1 X-6.550 Y-34.950 E0.86245
G1 X-6.550 Y-29.450 E0.50463
G1 X-10.950 Y-29.450 E0.40370
G1 X-10.950 Y-43.050 E1.24781
G1 X10.950 Y-43.050 E2.00934
G1 X10.950 Y-39.520 E0.32387
G1 X10.604 Y-39.260 F9000.000
G1 X9.765 Y-41.513 F9000.000
G1 X9.413 Y-41.865 E0.04714 F900.000
G1 X8.340 Y-41.865 E0.10163
G1 X9.765 Y-40.440 E0.19086
G1 X9.765 Y-39.366 E0.10163
G1 X7.266 Y-41.865 E0.33458
G1 X6.193 Y-41.865 E0.10163
G1 X9.765 Y-38.293 E0.47830
G1 X9.765 Y-37.219 E0.10163
G1 X5.119 Y-41.865 E0.62202
G1 X4.046 Y-41.865 E0.10163
G1 X9.765 Y-36.146 E0.76574
G1 X9.765 Y-35.072 E0.10163
G1 X2.972 Y-41.865 E0.90946
G1 X1.899 Y-41.865 E0.10163
G1 X9.765 Y-33.999 E1.05318
G1 X9.765 Y-32.926 E0.10163
G1 X0.825 Y-41.865 E1.19690
G1 X-0.248 Y-41.865 E0.10163
G1 X9.765 Y-31.852 E1.34062
G1 X9.765 Y-30.779 E0.10163
G1 X-1.321 Y-41.865 E1.48434
G1 X-2.395 Y-41.865 E0.10163
G1 X3.336 Y-36.135 E0.76721
G1 X4.035 Y-35.436 F9000.000
G1 X9.765 Y-29.705 E0.76721 F900.000
G1 X9.765 Y-28.632 E0.10163
G1 X4.035 Y-34.362 E0.76721
G1 X4.035 Y-33.289 E0.10163
G1 X9.765 Y-27.558 E0.76721
G1 X9.765 Y-26.485 E0.10163
G1 X4.035 Y-32.215 E0.76721
G1 X4.035 Y-31.142 E0.10163
G1 X9.765 Y-25.411 E0.76721
G1 X9.765 Y-24.338 E0.10163
G1 X4.035 Y-30.068 E0.76721
G1 X4.035 Y-28.995 E0.10163
G1 X9.765 Y-23.264 E0.76721
G1 X9.765 Y-22.191 E0.10163
G1 X4.035 Y-27.921 E0.76721
G1 X4.035 Y-26.848 E0.10163
G1 X9.765 Y-21.118 E0.76721
G1 X9.674 Y-20.135 E0.09343
G1 X4.035 Y-25.774 E0.75507
G1 X4.035 Y-24.701 E0.10163
G1 X8.601 Y-20.135 E0.61135
G1 X7.528 Y-20.135 E0.10163
G1 X3.297 Y-24.365 E0.56638
G1 X2.224 Y-24.365 E0.10163
G1 X6.454 Y-20.135 E0.56638
G1 X5.381 Y-20.135 E0.10163
G1 X1.150 Y-24.365 E0.56638
G1 X0.077 Y-24.365 E0.10163
G1 X2.007 Y-22.435 E0.25845
G1 X0.934 Y-22.435 E0.10163
G1 X-0.997 Y-24.365 E0.25845
G1 X-1.465 Y-23.760 E0.07244
G1 X-0.140 Y-22.435 E0.17747
G1 E-3.20000 F3000.00000
G1 Z0.700 F9000.000
G1 X-7.735 Y-31.103 F9000.000
G1 Z0.300 F9000.000
G1 E3.20000 F3000.00000
G1 X-9.765 Y-33.134 E0.27184 F900.000
G1 X-9.765 Y-34.207 E0.10163
G1 X-7.735 Y-32.177 E0.27184
G1 X-7.735 Y-33.250 E0.10163
G1 X-9.765 Y-35.281 E0.27184
G1 X-9.765 Y-36.354 E0.10163
G1 X-7.735 Y-34.324 E0.27184
G1 X-7.735 Y-35.397 E0.10163
G1 X-9.765 Y-37.428 E0.27184
G1 X-9.765 Y-38.501 E0.10163
G1 X-7.399 Y-36.135 E0.31680
G1 X-6.326 Y-36.135 E0.10163
G1 X-9.765 Y-39.574 E0.46052
G1 X-9.765 Y-40.648 E0.10163
G1 X-5.252 Y-36.135 E0.60424
G1 X-4.179 Y-36.135 E0.10163
G1 X-9.765 Y-41.721 E0.74796
G1 X-8.836 Y-41.865 E0.08906
G1 X-3.105 Y-36.135 E0.76721
G1 X-2.032 Y-36.135 E0.10163
G1 X-7.762 Y-41.865 E0.76721
G1 X-6.689 Y-41.865 E0.10163
G1 X-0.958 Y-36.135 E0.76721
G1 X0.115 Y-36.135 E0.10163
G1 X-5.615 Y-41.865 E0.76721
G1 X-4.542 Y-41.865 E0.10163
G1 X1.189 Y-36.135 E0.76721
G1 X2.262 Y-36.135 E0.10163
G1 X-3.468 Y-41.865 E0.76721
G1 X-9.765 Y-32.060 F9000.000
G1 X-8.340 Y-30.635 E0.19086 F900.000
G1 X-9.413 Y-30.635 E0.10163
G1 X-9.765 Y-30.987 E0.04714
G1 E-3.20000 F3000.00000
G1 Z0.700 F9000.000
G1 X21.514 Y0.095 F9000.000
G1 Z0.300 F9000.000
G1 E3.20000 F3000.00000
G1 X21.514 Y0.814 E0.06596 F900.000
G1 X18.586 Y0.814 E0.26872
G1 X18.586 Y-11.314 E1.11282
G1 X39.014 Y-11.314 E1.87435
G1 X39.014 Y11.314 E2.07620
G1 X33.291 Y11.314 E0.52511 F900.000
G1 X30.991 Y9.014 E0.29844
G1 X26.886 Y9.014 E0.37668
G1 X26.886 Y6.186 E0.25954
G1 X32.386 Y6.186 E0.50463
G1 X32.386 Y-4.686 E0.99744
G1 X21.514 Y-4.686 E0.99744
G1 X21.514 Y0.035 E0.43316
G1 X22.250 Y0.035 F9000.000
G1 X22.250 Y1.550 E0.13896 F900.000
G1 X17.850 Y1.550 E0.40370
G1 X17.850 Y-12.050 E1.24781
G1 X39.750 Y-12.050 E2.00934
G1 X39.750 Y12.050 E2.21119
G1 X32.986 Y12.050 E0.62056 F900.000
G1 X30.686 Y9.750 E0.29844
G1 X26.150 Y9.750 E0.41622
G1 X26.150 Y5.450 E0.39453
G1 X31.650 Y5.450 E0.50463
G1 X31.650 Y-3.950 E0.86245
G1 X22.250 Y-3.950 E0.86245
G1 X22.250 Y-0.025 E0.36017
G1 X21.904 Y0.235 F9000.000
G1 X21.065 Y-0.103 F9000.000
G1 X19.035 Y-2.134 E0.27184 F900.000
G1 X19.035 Y-3.207 E0.10163
G1 X21.065 Y-1.177 E0.27184
G1 X21.065 Y-2.250 E0.10163
G1 X19.035 Y-4.281 E0.27184
G1 X19.035 Y-5.354 E0.10163
G1 X21.065 Y-3.324 E0.27184
G1 X21.065 Y-4.397 E0.10163
G1 X19.035 Y-6.428 E0.27184
G1 X19.035 Y-7.501 E0.10163
G1 X21.401 Y-5.135 E0.31680
G1 X22.474 Y-5.135 E0.10163
G1 X19.035 Y-8.574 E0.46052
G1 X19.035 Y-9.648 E0.10163
G1 X23.548 Y-5.135 E0.60424
G1 X24.621 Y-5.135 E0.10163
G1 X19.035 Y-10.721 E0.74796
G1 X19.964 Y-10.865 E0.08906
G1 X25.695 Y-5.135 E0.76721
G1 X26.768 Y-5.135 E0.10163
G1 X21.038 Y-10.865 E0.76721
G1 X22.111 Y-10.865 E0.10163
G1 X27.842 Y-5.135 E0.76721
G1 X28.915 Y-5.135 E0.10163
G1 X23.185 Y-10.865 E0.76721
G1 X24.258 Y-10.865 E0.10163
G1 X29.989 Y-5.135 E0.76721
G1 X31.062 Y-5.135 E0.10163
G1 X25.332 Y-10.865 E0.76721
G1 X32.136 Y-5.135 F9000.000
G1 X26.405 Y-10.865 E0.76721 F900.000
G1 X27.479 Y-10.865 E0.10163
G1 X38.565 Y0.221 E1.48434
G1 X38.565 Y-0.852 E0.10163
G1 X28.552 Y-10.865 E1.34062
G1 X29.626 Y-10.865 E0.10163
G1 X38.565 Y-1.926 E1.19690
G1 X38.565 Y-2.999 E0.10163
G1 X30.699 Y-10.865 E1.05318
G1 X31.772 Y-10.865 E0.10163
G1 X38.565 Y-4.072 E0.90946
G1 X38.565 Y-5.146 E0.10163
G1 X32.846 Y-10.865 E0.76574
G1 X33.919 Y-10.865 E0.10163
G1 X38.565 Y-6.219 E0.62202
G1 X38.565 Y-7.293 E0.10163
G1 X34.993 Y-10.865 E0.47830
G1 X36.066 Y-10.865 E0.10163
G1 X38.565 Y-8.366 E0.33458
G1 X38.565 Y-9.440 E0.10163
G1 X37.140 Y-10.865 E0.19086
G1 X38.213 Y-10.865 E0.10163
G1 X38.565 Y-10.513 E0.04714
G1 X32.835 Y-4.436 F9000.000
G1 X38.565 Y1.295 E0.76721 F900.000
G1 X38.565 Y2.368 E0.10163
G1 X32.835 Y-3.362 E0.76721
G1 X32.835 Y-2.289 E0.10163
G1 X38.565 Y3.442 E0.76721
G1 X38.565 Y4.515 E0.10163
G1 X32.835 Y-1.215 E0.76721
G1 X32.835 Y-0.142 E0.10163
G1 X38.565 Y5.589 E0.76721
G1 X38.565 Y6.662 E0.10163
G1 X32.835 Y0.932 E0.76721
G1 X32.835 Y2.005 E0.10163
G1 X38.565 Y7.736 E0.76721
G1 X38.565 Y8.809 E0.10163
G1 X32.835 Y3.079 E0.76721
G1 X32.835 Y4.152 E0.10163
G1 X38.565 Y9.882 E0.76721
G1 X38.474 Y10.865 E0.09343
G1 X32.835 Y5.226 E0.75507
G1 X32.835 Y6.299 E0.10163
G1 X37.401 Y10.865 E0.61135
G1 X36.328 Y10.865 E0.10163
