; generated by Slic3r 1.2.9 on 2016-12-12 at 18:00:21

; external perimeters extrusion width = 0.50mm
; perimeters extrusion width = 0.50mm
; infill extrusion width = 0.50mm
; solid infill extrusion width = 0.50mm
; top infill extrusion width = 0.50mm

M107
;Basic settings: Layer height: {layer_height} Walls: {wall_thickness} Fill: {fill_density}
;Print time: {print_time}
;Filament used: {filament_amount}m {filament_weight}g
;Filament cost: {filament_cost}
;M190 S{print_bed_temperature} ;Uncomment to add your own bed temperature line
;M109 S{print_temperature} ;Uncomment to add your own temperature line
G21        ;metric values
G90        ;absolute positioning
M83
G10 P0 S200
T0
M116


G21 ; set units to millimeters
G90 ; use absolute coordinates
M83 ; use relative distances for extrusion
G1 E-3.20000 F3000.00000
G1 Z0.400 F9000.000
G1 X0.000 Y16.186 F9000.000
G1 Z0.300 F9000.000
G1 E3.20000 F3000.00000
G1 X-10.379 Y16.186 E0.95230 F1200.000
G1 X-11.535 Y16.002 E0.10735
G1 X-18.606 Y13.702 E0.68220
G1 X-20.075 Y12.807 E0.15789
G1 X-28.375 Y4.607 E1.07050
G1 X-29.287 Y3.152 E0.15755
G1 X-29.486 Y1.950 E0.11180
G1 X-29.486 Y-12.450 E1.32121
G1 X-29.091 Y-14.121 E0.15755
G1 X-27.990 Y-15.439 E0.15755
G1 X-25.750 Y-16.186 E0.21667
G1 X25.750 Y-16.186 E4.72515
G1 X27.421 Y-15.791 E0.15755
G1 X28.739 Y-14.690 E0.15755 F1200.000
G1 X29.486 Y-12.450 E0.21667
G1 X29.486 Y12.450 E2.28459
G1 X29.091 Y14.121 E0.15755
G1 X27.990 Y15.439 E0.15755
G1 X25.750 Y16.186 E0.21667
G1 X0.060 Y16.186 E2.35707
G1 E-3.20000 F3000.00000
G1 Z0.700 F9000.000
G1 X-15.379 Y-11.314 F9000.000
G1 Z0.300 F9000.000
G1 E3.20000 F3000.00000
G1 X-4.186 Y-11.314 E1.02701 F900.000
G1 X-4.186 Y11.314 E2.07620
G1 X-9.909 Y11.314 E0.52511 F900.000
G1 X-10.394 Y10.830 E0.06289
G1 X-10.423 Y10.648 E0.01688
G1 X-10.681 Y10.001 E0.06395
G1 X-11.071 Y9.428 E0.06353
G1 X-11.544 Y8.978 E0.05991
G1 X-12.094 Y8.635 E0.05950
G1 X-12.723 Y8.402 E0.06157
G1 X-13.584 Y8.304 E0.07948
G1 X-14.461 Y8.451 E0.08157
G1 X-15.263 Y8.833 E0.08157
G1 X-15.469 Y9.014 E0.02512
G1 X-16.314 Y9.014 E0.07759
G1 X-16.314 Y6.186 E0.25954
G1 X-10.814 Y6.186 E0.50463
G1 X-10.814 Y-4.686 E0.99744
G1 X-21.686 Y-4.686 E0.99744
G1 X-21.686 Y0.814 E0.50463
G1 X-24.372 Y0.814 E0.24650
G1 X-23.952 Y-0.027 E0.08627
G1 X-23.800 Y-1.000 E0.09039
G1 X-23.952 Y-1.973 E0.09039
G1 X-24.392 Y-2.855 E0.09039
G1 X-24.614 Y-3.082 E0.02919
G1 X-24.614 Y-11.314 E0.75529
G1 X-15.439 Y-11.314 E0.84183
G1 X-15.439 Y-12.050 F9000.000
G1 X-3.450 Y-12.050 E1.10001 F900.000
G1 X-3.450 Y12.050 E2.21119
G1 X-10.214 Y12.050 E0.62056 F900.000
G1 X-11.082 Y11.182 E0.11264
G1 X-11.136 Y10.846 E0.03126
G1 X-11.335 Y10.348 E0.04913
G1 X-11.635 Y9.907 E0.04897
G1 X-11.997 Y9.562 E0.04587
G1 X-12.420 Y9.298 E0.04571
G1 X-12.895 Y9.123 E0.04650
G1 X-13.565 Y9.046 E0.06183
G1 X-14.238 Y9.159 E0.06262
G1 X-14.854 Y9.453 E0.06262
G1 X-15.190 Y9.750 E0.04119
G1 X-17.050 Y9.750 E0.17064
G1 X-17.050 Y5.450 E0.39453
G1 X-11.550 Y5.450 E0.50463
G1 X-11.550 Y-3.950 E0.86245
G1 X-20.950 Y-3.950 E0.86245
G1 X-20.950 Y1.550 E0.50463
G1 X-25.350 Y1.550 E0.40370
G1 X-25.350 Y0.783 E0.07037
G1 X-24.999 Y0.423 E0.04613
G1 X-24.661 Y-0.253 E0.06936
G1 X-24.545 Y-1.000 E0.06936
G1 X-24.661 Y-1.747 E0.06936
G1 X-24.999 Y-2.423 E0.06936
G1 X-25.350 Y-2.783 E0.04613
G1 X-25.350 Y-12.050 E0.85025
G1 X-15.499 Y-12.050 E0.90382
G1 X-15.239 Y-11.704 F9000.000
G1 X-12.089 Y-5.135 F9000.000
G1 X-17.819 Y-10.865 E0.76430 F900.000
G1 X-18.889 Y-10.865 E0.10085
G1 X-13.158 Y-5.135 E0.76430
G1 X-14.228 Y-5.135 E0.10085
G1 X-19.958 Y-10.865 E0.76430
G1 X-21.027 Y-10.865 E0.10085
G1 X-15.297 Y-5.135 E0.76430
G1 X-16.366 Y-5.135 E0.10085
G1 X-22.097 Y-10.865 E0.76430
G1 X-23.166 Y-10.865 E0.10085
G1 X-17.436 Y-5.135 E0.76430
G1 X-18.505 Y-5.135 E0.10085
G1 X-24.165 Y-10.795 E0.75492
G1 X-24.165 Y-9.726 E0.10085
G1 X-19.574 Y-5.135 E0.61229
G1 X-20.644 Y-5.135 E0.10085
G1 X-24.165 Y-8.656 E0.46966
G1 X-24.165 Y-7.587 E0.10085
G1 X-21.713 Y-5.135 E0.32703
G1 X-22.135 Y-4.487 F9000.000
G1 X-24.165 Y-6.517 E0.27080 F900.000
G1 X-24.165 Y-5.448 E0.10085
G1 X-22.135 Y-3.418 E0.27080
G1 X-22.135 Y-2.348 E0.10085
G1 X-24.165 Y-4.379 E0.27080
G1 X-23.877 Y-3.021 E0.13090
G1 X-22.135 Y-1.279 E0.23235
G1 X-22.135 Y-0.210 E0.10085
G1 X-23.392 Y-1.467 E0.16767
G1 X-23.452 Y-0.458 E0.09533
G1 X-22.629 Y0.365 E0.10976
G1 E-3.20000 F3000.00000
G1 Z0.700 F9000.000
G1 X-15.865 Y8.199 F9000.000
G1 Z0.300 F9000.000
G1 E3.20000 F3000.00000
G1 X-15.519 Y8.545 E0.04618 F900.000
G1 X-14.815 Y8.179 E0.07479
G1 X-15.865 Y7.129 E0.14004
G1 X-15.290 Y6.635 E0.07151
G1 X-13.986 Y7.940 E0.17402
G1 X-12.951 Y7.905 E0.09765
G1 X-14.221 Y6.635 E0.16941
G1 X-13.152 Y6.635 E0.10085
G1 X-8.921 Y10.865 E0.56423
G1 X-7.852 Y10.865 E0.10085
G1 X-12.082 Y6.635 E0.56423
G1 X-11.013 Y6.635 E0.10085
G1 X-6.783 Y10.865 E0.56423
G1 X-5.713 Y10.865 E0.10085
G1 X-10.365 Y6.213 E0.62046
G1 X-10.365 Y5.144 E0.10085
G1 X-4.659 Y10.850 E0.76103
G1 X-4.635 Y9.805 E0.09857
G1 X-10.365 Y4.074 E0.76430
G1 X-10.365 Y3.005 E0.10085
G1 X-4.635 Y8.735 E0.76430
G1 X-4.635 Y7.666 E0.10085
G1 X-10.365 Y1.936 E0.76430
G1 X-10.365 Y0.866 E0.10085
G1 X-4.635 Y6.597 E0.76430
G1 X-4.635 Y5.527 E0.10085
G1 X-10.365 Y-0.203 E0.76430
G1 X-10.365 Y-1.272 E0.10085
G1 X-4.635 Y4.458 E0.76430
G1 X-4.635 Y3.389 E0.10085
G1 X-10.365 Y-2.342 E0.76430
G1 X-10.365 Y-3.411 E0.10085
G1 X-4.635 Y2.319 E0.76430
G1 X-4.635 Y1.250 E0.10085
G1 X-10.365 Y-4.480 E0.76430
G1 X-11.020 Y-5.135 F9000.000
G1 X-16.750 Y-10.865 E0.76430 F900.000
G1 X-15.681 Y-10.865 E0.10085
G1 X-4.635 Y0.181 E1.47325
G1 X-4.635 Y-0.889 E0.10085
G1 X-14.611 Y-10.865 E1.33062
G1 X-13.542 Y-10.865 E0.10085
G1 X-4.635 Y-1.958 E1.18799
G1 X-4.635 Y-3.028 E0.10085
G1 X-12.472 Y-10.865 E1.04536
G1 X-11.403 Y-10.865 E0.10085
G1 X-4.635 Y-4.097 E0.90273
G1 X-4.635 Y-5.166 E0.10085
G1 X-10.334 Y-10.865 E0.76010
G1 X-9.264 Y-10.865 E0.10085
G1 X-4.635 Y-6.236 E0.61748
G1 X-4.635 Y-7.305 E0.10085
G1 X-8.195 Y-10.865 E0.47485
G1 X-7.126 Y-10.865 E0.10085
G1 X-4.635 Y-8.374 E0.33222
G1 X-4.635 Y-9.444 E0.10085
G1 X-6.056 Y-10.865 E0.18959
G1 X-4.987 Y-10.865 E0.10085
G1 X-4.635 Y-10.513 E0.04696
G1 E-3.20000 F3000.00000
G1 Z0.700 F9000.000
G1 X24.614 Y-4.389 F9000.000
G1 Z0.300 F9000.000
G1 E3.20000 F3000.00000
G1 X24.614 Y11.314 E1.44078 F900.000
G1 X18.891 Y11.314 E0.52511 F900.000
G1 X18.406 Y10.830 E0.06289
G1 X18.377 Y10.648 E0.01688
G1 X18.119 Y10.001 E0.06395
G1 X17.729 Y9.428 E0.06353
G1 X17.256 Y8.978 E0.05991
G1 X16.706 Y8.635 E0.05950
G1 X16.077 Y8.402 E0.06157
G1 X15.216 Y8.304 E0.07948
G1 X14.339 Y8.451 E0.08157
G1 X13.537 Y8.833 E0.08157
G1 X13.331 Y9.014 E0.02512
G1 X12.486 Y9.014 E0.07759
G1 X12.486 Y6.186 E0.25954
G1 X17.986 Y6.186 E0.50463
G1 X17.986 Y-4.686 E0.99744
G1 X7.114 Y-4.686 E0.99744
G1 X7.114 Y0.814 E0.50463
G1 X4.428 Y0.814 E0.24650
G1 X4.848 Y-0.027 E0.08627
G1 X5.000 Y-1.000 E0.09039
G1 X4.848 Y-1.973 E0.09039
G1 X4.408 Y-2.855 E0.09039
G1 X4.186 Y-3.082 E0.02919
G1 X4.186 Y-11.314 E0.75529
G1 X24.614 Y-11.314 E1.87435
G1 X24.614 Y-4.449 E0.62991
G1 X25.350 Y-4.449 F9000.000
G1 X25.350 Y12.050 E1.51378 F900.000
G1 X18.586 Y12.050 E0.62056 F900.000
G1 X17.718 Y11.182 E0.11264
G1 X17.664 Y10.846 E0.03126
G1 X17.465 Y10.348 E0.04913
G1 X17.165 Y9.907 E0.04897
G1 X16.803 Y9.562 E0.04587
G1 X16.380 Y9.298 E0.04571
G1 X15.905 Y9.123 E0.04650
G1 X15.235 Y9.046 E0.06183
G1 X14.562 Y9.159 E0.06262
G1 X13.946 Y9.453 E0.06262
G1 X13.610 Y9.750 E0.04119
G1 X11.750 Y9.750 E0.17064
G1 X11.750 Y5.450 E0.39453
G1 X17.250 Y5.450 E0.50463
G1 X17.250 Y-3.950 E0.86245
G1 X7.850 Y-3.950 E0.86245
G1 X7.850 Y1.550 E0.50463
G1 X3.450 Y1.550 E0.40370
G1 X3.450 Y0.783 E0.07037
G1 X3.801 Y0.423 E0.04613
G1 X4.139 Y-0.253 E0.06936
G1 X4.255 Y-1.000 E0.06936
G1 X4.139 Y-1.747 E0.06936
G1 X3.801 Y-2.423 E0.06936
G1 X3.450 Y-2.783 E0.04613
G1 X3.450 Y-12.050 E0.85025
G1 X25.350 Y-12.050 E2.00934
G1 X25.350 Y-4.509 E0.69190
G1 X25.004 Y-4.249 F9000.000
G1 X24.165 Y-10.513 F9000.000
G1 X23.813 Y-10.865 E0.04696 F900.000
G1 X22.744 Y-10.865 E0.10085
G1 X24.165 Y-9.444 E0.18959
G1 X24.165 Y-8.374 E0.10085
G1 X21.674 Y-10.865 E0.33222
G1 X20.605 Y-10.865 E0.10085
G1 X24.165 Y-7.305 E0.47485
G1 X24.165 Y-6.236 E0.10085
G1 X19.536 Y-10.865 E0.61748
G1 X18.466 Y-10.865 E0.10085
G1 X24.165 Y-5.166 E0.76010
G1 X24.165 Y-4.097 E0.10085
G1 X17.397 Y-10.865 E0.90273
G1 X16.328 Y-10.865 E0.10085
G1 X24.165 Y-3.028 E1.04536
G1 X24.165 Y-1.958 E0.10085
G1 X15.258 Y-10.865 E1.18799
G1 X14.189 Y-10.865 E0.10085
G1 X24.165 Y-0.889 E1.33062
G1 X24.165 Y0.181 E0.10085
G1 X13.119 Y-10.865 E1.47325
G1 X12.050 Y-10.865 E0.10085
G1 X17.780 Y-5.135 E0.76430
G1 X18.435 Y-4.480 F9000.000
G1 X24.165 Y1.250 E0.76430 F900.000
G1 X24.165 Y2.319 E0.10085
G1 X18.435 Y-3.411 E0.76430
G1 X18.435 Y-2.342 E0.10085
G1 X24.165 Y3.389 E0.76430
G1 X24.165 Y4.458 E0.10085
G1 X18.435 Y-1.272 E0.76430
G1 X18.435 Y-0.203 E0.10085
G1 X24.165 Y5.527 E0.76430
G1 X24.165 Y6.597 E0.10085
G1 X18.435 Y0.866 E0.76430
G1 X18.435 Y1.936 E0.10085
G1 X24.165 Y7.666 E0.76430
G1 X24.165 Y8.735 E0.10085
G1 X18.435 Y3.005 E0.76430
G1 X18.435 Y4.074 E0.10085
G1 X24.165 Y9.805 E0.76430
G1 X24.141 Y10.850 E0.09857
G1 X18.435 Y5.144 E0.76103
G1 X18.435 Y6.213 E0.10085
G1 X23.087 Y10.865 E0.62046
G1 X22.017 Y10.865 E0.10085
G1 X17.787 Y6.635 E0.56423
G1 X16.718 Y6.635 E0.10085
G1 X20.948 Y10.865 E0.56423
G1 X19.879 Y10.865 E0.10085
G1 X15.648 Y6.635 E0.56423
G1 X14.579 Y6.635 E0.10085
G1 X15.849 Y7.905 E0.16941
G1 X14.814 Y7.940 E0.09765
G1 X13.510 Y6.635 E0.17402
G1 X12.935 Y7.129 E0.07151
G1 X13.985 Y8.179 E0.14004
G1 X13.281 Y8.545 E0.07479
G1 X12.935 Y8.199 E0.04618
G1 E-3.20000 F3000.00000
G1 Z0.700 F9000.000
G1 X6.171 Y0.365 F9000.000
G1 Z0.300 F9000.000
G1 E3.20000 F3000.00000
G1 X5.348 Y-0.458 E0.10976 F900.000
G1 X5.408 Y-1.467 E0.09533
G1 X6.665 Y-0.210 E0.16767
G1 X6.665 Y-1.279 E0.10085
G1 X4.923 Y-3.021 E0.23235
G1 X4.635 Y-4.379 E0.13090
G1 X6.665 Y-2.348 E0.27080
G1 X6.665 Y-3.418 E0.10085
G1 X4.635 Y-5.448 E0.27080
G1 X4.635 Y-6.517 E0.10085
G1 X6.665 Y-4.487 E0.27080
G1 X7.087 Y-5.135 F9000.000
G1 X4.635 Y-7.587 E0.32703 F900.000
G1 X4.635 Y-8.656 E0.10085
G1 X8.156 Y-5.135 E0.46966
G1 X9.226 Y-5.135 E0.10085
G1 X4.635 Y-9.726 E0.61229
G1 X4.635 Y-10.795 E0.10085
G1 X10.295 Y-5.135 E0.75492
G1 X11.364 Y-5.135 E0.10085
G1 X5.634 Y-10.865 E0.76430
G1 X6.703 Y-10.865 E0.10085
G1 X12.434 Y-5.135 E0.76430
G1 X13.503 Y-5.135 E0.10085
G1 X7.773 Y-10.865 E0.76430
G1 X8.842 Y-10.865 E0.10085
G1 X14.572 Y-5.135 E0.76430
G1 X15.642 Y-5.135 E0.10085
G1 X9.911 Y-10.865 E0.76430
G1 X10.981 Y-10.865 E0.10085
G1 X16.711 Y-5.135 E0.76430
G1 E-3.20000 F3000.00000
G1 Z0.700 F9000.000
G1 X-13.821 Y5.736 F9000.000
G1 Z0.600 F9000.000
G1 E3.20000 F3000.00000
G1 X-11.264 Y5.736 E0.13889 F1800.000
G1 X-11.264 Y-4.236 E0.54177
G1 X-21.236 Y-4.236 E0.54177
G1 X-21.236 Y1.264 E0.29883
G1 X-25.064 Y1.264 E0.20803
G1 X-25.064 Y0.899 E0.01984
G1 X-24.763 Y0.591 E0.02342
G1 X-24.386 Y-0.165 E0.04591
G1 X-24.256 Y-1.000 E0.04591
G1 X-24.386 Y-1.835 E0.04591
G1 X-24.763 Y-2.591 E0.04591
G1 X-25.064 Y-2.899 E0.02342
G1 X-25.064 Y-11.764 E0.48167
G1 X-3.736 Y-11.764 E1.15885
G1 X-3.736 Y11.764 E1.27838
G1 X-10.095 Y11.764 E0.34554 F1800.000
G1 X-10.815 Y11.045 E0.05526
G1 X-10.859 Y10.769 E0.01521
G1 X-11.081 Y10.213 E0.03250
G1 X-11.416 Y9.721 E0.03235
G1 X-11.821 Y9.335 E0.03039
G1 X-12.293 Y9.041 E0.03024
G1 X-12.828 Y8.843 E0.03100
G1 X-13.572 Y8.758 E0.04067
G1 X-14.324 Y8.884 E0.04144
G1 X-15.013 Y9.212 E0.04144
G1 X-15.298 Y9.464 E0.02070
G1 X-16.764 Y9.464 E0.07966
G1 X-16.764 Y5.736 E0.20259
G1 X-13.881 Y5.736 E0.15668
G1 X-13.881 Y5.300 F9000.000
G1 X-11.700 Y5.300 E0.11849 F1800.000
G1 X-11.700 Y-3.800 E0.49443
G1 X-20.800 Y-3.800 E0.49443
G1 X-20.800 Y1.700 E0.29883
G1 X-25.500 Y1.700 E0.25536
G1 X-25.500 Y0.722 E0.05314
G1 X-25.123 Y0.335 E0.02936
G1 X-24.806 Y-0.299 E0.03853
G1 X-24.696 Y-1.000 E0.03853
G1 X-24.806 Y-1.701 E0.03853
G1 X-25.123 Y-2.335 E0.03853
G1 X-25.500 Y-2.722 E0.02936
G1 X-25.500 Y-12.200 E0.51496
G1 X-3.300 Y-12.200 E1.20619
G1 X-3.300 Y12.200 E1.32572
G1 X-10.276 Y12.200 E0.37901 F1800.000
G1 X-11.222 Y11.254 E0.07271
G1 X-11.282 Y10.886 E0.02025
G1 X-11.468 Y10.419 E0.02730
G1 X-11.750 Y10.005 E0.02724
G1 X-12.089 Y9.681 E0.02547
G1 X-12.486 Y9.434 E0.02541
G1 X-12.930 Y9.270 E0.02572
G1 X-13.561 Y9.198 E0.03448
G1 X-14.192 Y9.304 E0.03479
G1 X-14.770 Y9.579 E0.03479
G1 X-15.133 Y9.900 E0.02634
G1 X-17.200 Y9.900 E0.11228
G1 X-17.200 Y5.300 E0.24993
G1 X-13.941 Y5.300 E0.17708
G1 X-13.681 Y5.646 F9000.000
G1 X-16.507 Y6.444 F9000.000
G1 X-16.056 Y5.993 E0.03483 F1800.000
G1 X-15.436 Y5.993 E0.03387
G1 X-16.507 Y7.064 E0.08273
G1 X-16.507 Y7.683 E0.03387
G1 X-14.817 Y5.993 E0.13062
G1 X-14.197 Y5.993 E0.03387
G1 X-16.507 Y8.303 E0.17851
G1 X-16.507 Y8.923 E0.03387
G1 X-13.577 Y5.993 E0.22640
G1 X-12.958 Y5.993 E0.03387
G1 X-16.171 Y9.207 E0.24833
G1 X-15.551 Y9.207 E0.03387
G1 X-12.338 Y5.993 E0.24833
G1 X-11.718 Y5.993 E0.03387
G1 X-14.332 Y8.607 E0.20200
G1 X-4.218 Y11.507 F9000.000
G1 X-3.993 Y11.282 E0.01738 F1800.000
G1 X-3.993 Y10.662 E0.03387
G1 X-4.838 Y11.507 E0.06527
G1 X-5.458 Y11.507 E0.03387
G1 X-3.993 Y10.042 E0.11316
G1 X-3.993 Y9.423 E0.03387
G1 X-6.077 Y11.507 E0.16105
G1 X-6.697 Y11.507 E0.03387
G1 X-3.993 Y8.803 E0.20895
G1 X-3.993 Y8.183 E0.03387
G1 X-7.317 Y11.507 E0.25684
G1 X-7.936 Y11.507 E0.03387
G1 X-3.993 Y7.564 E0.30473
G1 X-3.993 Y6.944 E0.03387
G1 X-8.556 Y11.507 E0.35262
G1 X-9.176 Y11.507 E0.03387
G1 X-3.993 Y6.324 E0.40052
G1 X-3.993 Y5.705 E0.03387
G1 X-9.795 Y11.507 E0.44841
G1 X-10.229 Y11.320 E0.02578
G1 X-3.993 Y5.085 E0.48191
G1 X-3.993 Y4.465 E0.03387
G1 X-10.539 Y11.011 E0.50586
G1 X-10.698 Y10.551 E0.02660
G1 X-3.993 Y3.846 E0.51822
G1 X-3.993 Y3.226 E0.03387
G1 X-10.881 Y10.113 E0.53229
G1 X-11.132 Y9.745 E0.02437
G1 X-3.993 Y2.606 E0.55170
G1 X-3.993 Y1.987 E0.03387
G1 X-11.421 Y9.414 E0.57402
G1 X-11.746 Y9.119 E0.02398
G1 X-3.993 Y1.367 E0.59917
G1 X-3.993 Y0.747 E0.03387
G1 X-12.127 Y8.881 E0.62866
G1 X-12.561 Y8.695 E0.02577
G1 X-3.993 Y0.128 E0.66214
G1 X-3.993 Y-0.492 E0.03387
G1 X-13.053 Y8.568 E0.70019
G1 X-13.609 Y8.504 E0.03060
G1 X-3.993 Y-1.112 E0.74319
G1 X-3.993 Y-1.731 E0.03387
G1 X-11.007 Y5.282 E0.54203
G1 X-11.007 Y4.662 E0.03387
G1 X-3.993 Y-2.351 E0.54203
G1 X-3.993 Y-2.971 E0.03387
G1 X-11.007 Y4.042 E0.54203
G1 X-11.007 Y3.423 E0.03387
G1 X-3.993 Y-3.590 E0.54203
G1 X-3.993 Y-4.210 E0.03387
G1 X-11.007 Y2.803 E0.54203
G1 X-11.007 Y2.183 E0.03387
G1 X-3.993 Y-4.830 E0.54203
G1 X-3.993 Y-5.449 E0.03387
G1 X-11.007 Y1.564 E0.54203
G1 X-11.007 Y0.944 E0.03387
G1 X-3.993 Y-6.069 E0.54203
G1 X-3.993 Y-6.689 E0.03387
G1 X-11.007 Y0.324 E0.54203
G1 X-11.007 Y-0.295 E0.03387
G1 X-3.993 Y-7.308 E0.54203
G1 X-3.993 Y-7.928 E0.03387
G1 X-11.007 Y-0.915 E0.54203
G1 X-11.007 Y-1.534 E0.03387
G1 X-3.993 Y-8.548 E0.54203
G1 X-3.993 Y-9.167 E0.03387
G1 X-11.007 Y-2.154 E0.54203
G1 X-11.007 Y-2.774 E0.03387
G1 X-3.993 Y-9.787 E0.54203
G1 X-3.993 Y-10.407 E0.03387
G1 X-11.007 Y-3.393 E0.54203
G1 X-11.007 Y-4.013 E0.03387
G1 X-3.993 Y-11.026 E0.54203
G1 X-4.133 Y-11.507 E0.02733
G1 X-11.146 Y-4.493 E0.54203
G1 X-11.766 Y-4.493 E0.03387
G1 X-4.752 Y-11.507 E0.54203
G1 X-5.372 Y-11.507 E0.03387
G1 X-12.385 Y-4.493 E0.54203
G1 X-13.005 Y-4.493 E0.03387
G1 X-5.992 Y-11.507 E0.54203
G1 X-6.611 Y-11.507 E0.03387
G1 X-13.625 Y-4.493 E0.54203
G1 X-14.244 Y-4.493 E0.03387
G1 X-7.231 Y-11.507 E0.54203
G1 X-7.851 Y-11.507 E0.03387
G1 X-14.864 Y-4.493 E0.54203
G1 X-15.484 Y-4.493 E0.03387
G1 X-8.470 Y-11.507 E0.54203
G1 X-9.090 Y-11.507 E0.03387
G1 X-16.103 Y-4.493 E0.54203
G1 X-16.723 Y-4.493 E0.03386
G1 X-9.710 Y-11.507 E0.54203
G1 X-10.329 Y-11.507 E0.03387
G1 X-17.343 Y-4.493 E0.54203
G1 X-17.962 Y-4.493 E0.03387
G1 X-10.949 Y-11.507 E0.54203
G1 X-11.569 Y-11.507 E0.03387
G1 X-18.582 Y-4.493 E0.54203
G1 X-19.202 Y-4.493 E0.03387
G1 X-12.188 Y-11.507 E0.54203
G1 X-12.808 Y-11.507 E0.03387
G1 X-19.821 Y-4.493 E0.54203
G1 X-20.441 Y-4.493 E0.03387
