; generated by Slic3r 1.2.9 on 2017-01-02 at 17:11:03

; external perimeters extrusion width = 0.50mm
; perimeters extrusion width = 0.50mm
; infill extrusion width = 0.50mm
; solid infill extrusion width = 0.50mm
; top infill extrusion width = 0.50mm

M107
;Basic settings: Layer height: {layer_height} Walls: {wall_thickness} Fill: {fill_density}
;Print time: {print_time}
;Filament used: {filament_amount}m {filament_weight}g
;Filament cost: {filament_cost}
;M190 S{print_bed_temperature} ;Uncomment to add your own bed temperature line
;M109 S{print_temperature} ;Uncomment to add your own temperature line
G21        ;metric values
G90        ;absolute positioning
M83
G10 P0 S200
T0
M116


G21 ; set units to millimeters
G90 ; use absolute coordinates
M83 ; use relative distances for extrusion
G1 E-3.20000 F3000.00000
G1 Z0.400 F9000.000
G1 X-26.896 Y11.677 F9000.000
G1 Z0.300 F9000.000
G1 E3.20000 F3000.00000
G1 X-29.786 Y5.022 E0.66568 F1200.000
G1 X-30.095 Y3.534 E0.13941
G1 X-30.095 Y-17.516 E1.93135
G1 X-29.700 Y-19.187 E0.15755
G1 X-28.479 Y-20.592 E0.17079
G1 X-14.661 Y-30.114 E1.53972
G1 X-12.541 Y-30.774 E0.20369
G1 X26.359 Y-30.774 E3.56909
G1 X28.030 Y-30.379 E0.15755
G1 X29.348 Y-29.279 E0.15755 F1200.000
G1 X30.095 Y-27.038 E0.21667
G1 X30.095 Y-5.988 E1.93135
G1 X30.078 Y-5.632 E0.03272
G1 X26.833 Y28.245 E3.12244
G1 X26.281 Y29.871 E0.15755
G1 X25.059 Y31.078 E0.15755
G1 X23.114 Y31.624 E0.18538
G1 X-15.786 Y31.624 E3.56909
G1 X-17.457 Y31.229 E0.15755
G1 X-18.775 Y30.129 E0.15755
G1 X-19.212 Y29.376 E0.07988
G1 X-26.873 Y11.732 E1.76484
G1 E-3.20000 F3000.00000
G1 Z0.700 F9000.000
G1 X-7.129 Y-7.124 F9000.000
G1 Z0.300 F9000.000
G1 E3.20000 F3000.00000
G1 X-11.405 Y-7.124 E0.39234 F900.000
G1 X-11.405 Y-25.903 E1.72296
G1 X25.223 Y-25.903 E3.36071
G1 X25.223 Y-7.124 E1.72296
G1 X19.987 Y-7.124 E0.48047 F900.000
G1 X19.701 Y-7.162 E0.02645
G1 X19.507 Y-7.242 E0.01926
G1 X19.340 Y-7.370 E0.01926
G1 X19.213 Y-7.536 E0.01926
G1 X19.132 Y-7.730 E0.01926
G1 X19.095 Y-8.016 E0.02645
G1 X19.095 Y-18.930 E1.00131
G1 X17.400 Y-20.624 E0.21987
G1 X-2.582 Y-20.624 E1.83338
G1 X-4.277 Y-18.930 E0.21987
G1 X-4.277 Y-8.016 E1.00131
G1 X-4.314 Y-7.730 E0.02645
G1 X-4.394 Y-7.536 E0.01926
G1 X-4.522 Y-7.370 E0.01926
G1 X-4.689 Y-7.242 E0.01926
G1 X-4.883 Y-7.162 E0.01926
G1 X-5.169 Y-7.124 E0.02645
G1 X-7.069 Y-7.124 E0.17437
G1 X-7.069 Y-6.388 F9000.000
G1 X-12.141 Y-6.388 E0.46534 F900.000
G1 X-12.141 Y-26.638 E1.85795
G1 X25.959 Y-26.638 E3.49569
G1 X25.959 Y-6.388 E1.85795
G1 X19.939 Y-6.388 E0.55238 F900.000
G1 X19.509 Y-6.445 E0.03976
G1 X19.136 Y-6.599 E0.03703
G1 X18.816 Y-6.845 E0.03703
G1 X18.570 Y-7.165 E0.03703
G1 X18.416 Y-7.538 E0.03703
G1 X18.359 Y-7.968 E0.03976
G1 X18.359 Y-18.625 E0.97778
G1 X17.096 Y-19.888 E0.16396
G1 X-2.277 Y-19.888 E1.77746
G1 X-3.541 Y-18.625 E0.16396
G1 X-3.541 Y-7.968 E0.97778
G1 X-3.597 Y-7.538 E0.03976
G1 X-3.752 Y-7.165 E0.03703
G1 X-3.998 Y-6.845 E0.03703
G1 X-4.318 Y-6.599 E0.03703
G1 X-4.691 Y-6.445 E0.03703
G1 X-5.120 Y-6.388 E0.03976
G1 X-7.009 Y-6.388 E0.17329
G1 X-7.269 Y-6.735 F9000.000
G1 X-10.956 Y-7.925 F9000.000
G1 X-10.604 Y-7.573 E0.04646 F900.000
G1 X-9.546 Y-7.573 E0.09875
G1 X-10.956 Y-8.983 E0.18611
G1 X-10.956 Y-10.042 E0.09875
G1 X-8.488 Y-7.573 E0.32576
G1 X-7.430 Y-7.573 E0.09875
G1 X-10.956 Y-11.100 E0.46541
G1 X-10.956 Y-12.158 E0.09875
G1 X-6.371 Y-7.573 E0.60505
G1 X-5.313 Y-7.573 E0.09875
G1 X-10.956 Y-13.216 E0.74470
G1 X-10.956 Y-14.274 E0.09875
G1 X-4.726 Y-8.044 E0.82226
G1 X-4.726 Y-9.102 E0.09875
G1 X-10.956 Y-15.332 E0.82226
G1 X-10.956 Y-16.390 E0.09875
G1 X-4.726 Y-10.160 E0.82226
G1 X-4.726 Y-11.218 E0.09875
G1 X-10.956 Y-17.448 E0.82226
G1 X-10.956 Y-18.507 E0.09875
G1 X-4.726 Y-12.276 E0.82226
G1 X-4.726 Y-13.334 E0.09875
G1 X-10.956 Y-19.565 E0.82226
G1 X-10.956 Y-20.623 E0.09875
G1 X-4.726 Y-14.393 E0.82226
G1 X-4.726 Y-15.451 E0.09875
G1 X-10.956 Y-21.681 E0.82226
G1 X-10.956 Y-22.739 E0.09875
G1 X-4.726 Y-16.509 E0.82226
G1 X-4.726 Y-17.567 E0.09875
G1 X-10.956 Y-23.797 E0.82226
G1 X-10.956 Y-24.855 E0.09875
G1 X-4.726 Y-18.625 E0.82226
G1 X-4.396 Y-19.354 E0.07463
G1 X-10.496 Y-25.454 E0.80504
G1 X-9.438 Y-25.454 E0.09875
G1 X-3.867 Y-19.883 E0.73522
G1 X-3.338 Y-20.412 E0.06982
G1 X-8.380 Y-25.454 E0.66539
G1 X-7.322 Y-25.454 E0.09875
G1 X-2.809 Y-20.941 E0.59557
G1 X-1.883 Y-21.073 E0.08727
G1 X-6.264 Y-25.454 E0.57810
G1 X-5.205 Y-25.454 E0.09875
G1 X-0.825 Y-21.073 E0.57810
G1 X0.233 Y-21.073 E0.09875
G1 X-4.147 Y-25.454 E0.57810
G1 X-3.089 Y-25.454 E0.09875
G1 X1.291 Y-21.073 E0.57810
G1 X2.349 Y-21.073 E0.09875
G1 X-2.031 Y-25.454 E0.57810
G1 X-0.973 Y-25.454 E0.09875
G1 X3.407 Y-21.073 E0.57810
G1 X4.466 Y-21.073 E0.09875
G1 X0.085 Y-25.454 E0.57810
G1 X1.143 Y-25.454 E0.09875
G1 X5.524 Y-21.073 E0.57810
G1 X6.582 Y-21.073 E0.09875
G1 X2.201 Y-25.454 E0.57810
G1 X3.260 Y-25.454 E0.09875
G1 X7.640 Y-21.073 E0.57810
G1 X8.698 Y-21.073 E0.09875
G1 X4.318 Y-25.454 E0.57810
G1 X5.376 Y-25.454 E0.09875
G1 X9.756 Y-21.073 E0.57810
G1 X10.814 Y-21.073 E0.09875
G1 X6.434 Y-25.454 E0.57810
G1 X7.492 Y-25.454 E0.09875
G1 X11.872 Y-21.073 E0.57810
G1 X12.931 Y-21.073 E0.09875
G1 X8.550 Y-25.454 E0.57810
G1 X9.608 Y-25.454 E0.09875
G1 X13.989 Y-21.073 E0.57810
G1 X15.047 Y-21.073 E0.09875
G1 X10.666 Y-25.454 E0.57810
G1 X11.725 Y-25.454 E0.09875
G1 X16.105 Y-21.073 E0.57810
G1 X17.163 Y-21.073 E0.09875
G1 X12.783 Y-25.454 E0.57810
G1 X13.841 Y-25.454 E0.09875
G1 X24.774 Y-14.520 E1.44295
G1 X24.774 Y-15.578 E0.09875
G1 X14.899 Y-25.454 E1.30330
G1 X15.957 Y-25.454 E0.09875
G1 X24.774 Y-16.636 E1.16365
G1 X24.774 Y-17.695 E0.09875
G1 X17.015 Y-25.454 E1.02400
G1 X18.073 Y-25.454 E0.09875
G1 X24.774 Y-18.753 E0.88435
G1 X24.774 Y-19.811 E0.09875
G1 X19.132 Y-25.454 E0.74471
G1 X20.190 Y-25.454 E0.09875
G1 X24.774 Y-20.869 E0.60506
G1 X24.774 Y-21.927 E0.09875
G1 X21.248 Y-25.454 E0.46541
G1 X22.306 Y-25.454 E0.09875
G1 X24.774 Y-22.985 E0.32576
G1 X24.774 Y-24.043 E0.09875
G1 X23.364 Y-25.454 E0.18612
G1 X24.422 Y-25.454 E0.09875
G1 X24.774 Y-25.101 E0.04647
G1 X24.774 Y-13.462 F9000.000
G1 X19.544 Y-18.692 E0.69028 F900.000
G1 X19.544 Y-17.634 E0.09875
G1 X24.774 Y-12.404 E0.69028
G1 X24.774 Y-11.346 E0.09875
G1 X19.544 Y-16.576 E0.69028
G1 X19.544 Y-15.518 E0.09875
G1 X24.774 Y-10.288 E0.69028
G1 X24.774 Y-9.230 E0.09875
G1 X19.544 Y-14.460 E0.69028
G1 X19.544 Y-13.402 E0.09875
G1 X24.774 Y-8.171 E0.69028
G1 X24.314 Y-7.573 E0.07042
G1 X19.544 Y-12.344 E0.62957
G1 X19.544 Y-11.285 E0.09875
G1 X23.256 Y-7.573 E0.48993
G1 X22.198 Y-7.573 E0.09875
G1 X19.544 Y-10.227 E0.35028
G1 X19.544 Y-9.169 E0.09875
G1 X21.140 Y-7.573 E0.21063
G1 X20.067 Y-7.589 E0.10018
G1 X19.559 Y-8.096 E0.06695
G1 E-3.20000 F3000.00000
G1 Z0.700 F9000.000
G1 X-11.685 Y2.398 F9000.000
G1 Z0.300 F9000.000
G1 E3.20000 F3000.00000
G1 X-25.223 Y2.398 E1.24213 F900.000
G1 X-25.223 Y-16.380 E1.72296
G1 X-19.985 Y-16.380 E0.48061
G1 X-19.701 Y-16.343 E0.02630
G1 X-19.507 Y-16.262 E0.01926
G1 X-19.340 Y-16.135 E0.01926
G1 X-19.213 Y-15.968 E0.01926
G1 X-19.132 Y-15.774 E0.01926
G1 X-19.095 Y-15.488 E0.02645
G1 X-19.095 Y-4.575 E1.00131
G1 X-17.400 Y-2.880 E0.21987
G1 X2.582 Y-2.880 E1.83338
G1 X4.277 Y-4.575 E0.21987
G1 X4.277 Y-15.488 E1.00131
G1 X4.314 Y-15.774 E0.02645
G1 X4.394 Y-15.968 E0.01926
G1 X4.522 Y-16.135 E0.01926
G1 X4.689 Y-16.262 E0.01926
G1 X4.883 Y-16.343 E0.01926
G1 X5.169 Y-16.380 E0.02645
G1 X11.405 Y-16.380 E0.57222
G1 X11.405 Y2.398 E1.72296
G1 X-11.625 Y2.398 E2.11307 F900.000
G1 X-11.625 Y3.134 F9000.000
G1 X-25.959 Y3.134 E1.31513 F900.000
G1 X-25.959 Y-17.116 E1.85795
G1 X-19.937 Y-17.116 E0.55253
G1 X-19.509 Y-17.059 E0.03961
G1 X-19.136 Y-16.905 E0.03703
G1 X-18.816 Y-16.659 E0.03703
G1 X-18.570 Y-16.339 E0.03703
G1 X-18.416 Y-15.966 E0.03703
G1 X-18.359 Y-15.536 E0.03976
G1 X-18.359 Y-4.880 E0.97778
G1 X-17.096 Y-3.616 E0.16396
G1 X2.277 Y-3.616 E1.77746
G1 X3.541 Y-4.880 E0.16396
G1 X3.541 Y-15.536 E0.97778
G1 X3.597 Y-15.966 E0.03976
G1 X3.752 Y-16.339 E0.03703
G1 X3.998 Y-16.659 E0.03703
G1 X4.318 Y-16.905 E0.03703
G1 X4.691 Y-17.059 E0.03703
G1 X5.120 Y-17.116 E0.03976
G1 X12.141 Y-17.116 E0.64414
G1 X12.141 Y3.134 E1.85795
G1 X-11.565 Y3.134 E2.17506 F900.000
G1 X-11.825 Y2.788 F9000.000
G1 X-19.544 Y-4.812 F9000.000
G1 X-24.774 Y-10.042 E0.69028 F900.000
G1 X-24.774 Y-11.100 E0.09875
G1 X-19.544 Y-5.870 E0.69028
G1 X-19.544 Y-6.928 E0.09875
G1 X-24.774 Y-12.159 E0.69028
G1 X-24.774 Y-13.217 E0.09875
G1 X-19.544 Y-7.986 E0.69028
G1 X-19.544 Y-9.044 E0.09875
G1 X-24.774 Y-14.275 E0.69028
G1 X-24.774 Y-15.333 E0.09875
G1 X-19.544 Y-10.103 E0.69028
G1 X-19.544 Y-11.161 E0.09875
G1 X-24.314 Y-15.931 E0.62957
G1 X-23.256 Y-15.931 E0.09875
G1 X-19.544 Y-12.219 E0.48992
G1 X-19.544 Y-13.277 E0.09875
G1 X-22.198 Y-15.931 E0.35026
G1 X-21.140 Y-15.931 E0.09875
G1 X-19.544 Y-14.335 E0.21061
G1 X-19.559 Y-15.409 E0.10018
G1 X-20.067 Y-15.916 E0.06696
G1 X-24.774 Y1.597 F9000.000
G1 X-24.422 Y1.949 E0.04646 F900.000
G1 X-23.364 Y1.949 E0.09875
G1 X-24.774 Y0.539 E0.18611
G1 X-24.774 Y-0.519 E0.09875
G1 X-22.306 Y1.949 E0.32576
G1 X-21.248 Y1.949 E0.09875
G1 X-24.774 Y-1.577 E0.46541
G1 X-24.774 Y-2.635 E0.09875
G1 X-20.190 Y1.949 E0.60505
G1 X-19.132 Y1.949 E0.09875
G1 X-24.774 Y-3.693 E0.74470
G1 X-24.774 Y-4.752 E0.09875
G1 X-18.073 Y1.949 E0.88435
G1 X-17.015 Y1.949 E0.09875
G1 X-24.774 Y-5.810 E1.02400
G1 X-24.774 Y-6.868 E0.09875
G1 X-15.957 Y1.949 E1.16365
G1 X-14.899 Y1.949 E0.09875
G1 X-24.774 Y-7.926 E1.30329
G1 X-24.774 Y-8.984 E0.09875
G1 X-13.841 Y1.949 E1.44294
G1 X-12.783 Y1.949 E0.09875
G1 X-17.163 Y-2.431 E0.57810
G1 X-16.105 Y-2.431 E0.09875
G1 X-11.725 Y1.949 E0.57810
G1 X-10.667 Y1.949 E0.09875
G1 X-15.047 Y-2.431 E0.57810
G1 X-13.989 Y-2.431 E0.09875
G1 X-9.608 Y1.949 E0.57810
G1 X-8.550 Y1.949 E0.09875
G1 X-12.931 Y-2.431 E0.57810
G1 X-11.872 Y-2.431 E0.09875
G1 X-7.492 Y1.949 E0.57810
G1 X-6.434 Y1.949 E0.09875
G1 X-10.814 Y-2.431 E0.57810
G1 X-9.756 Y-2.431 E0.09875
G1 X-5.376 Y1.949 E0.57810
G1 X-4.318 Y1.949 E0.09875
G1 X-8.698 Y-2.431 E0.57810
G1 X-7.640 Y-2.431 E0.09875
G1 X-3.260 Y1.949 E0.57810
G1 X-2.201 Y1.949 E0.09875
G1 X-6.582 Y-2.431 E0.57810
G1 X-5.524 Y-2.431 E0.09875
G1 X-1.143 Y1.949 E0.57810
G1 X-0.085 Y1.949 E0.09875
G1 X-4.466 Y-2.431 E0.57810
G1 X-3.407 Y-2.431 E0.09875
G1 X0.973 Y1.949 E0.57810
G1 X2.031 Y1.949 E0.09875
G1 X-2.349 Y-2.431 E0.57810
G1 X-1.291 Y-2.431 E0.09875
G1 X3.089 Y1.949 E0.57810
G1 X4.147 Y1.949 E0.09875
G1 X-0.233 Y-2.431 E0.57810
G1 X0.825 Y-2.431 E0.09875
G1 X5.205 Y1.949 E0.57810
G1 X6.264 Y1.949 E0.09875
G1 X1.883 Y-2.431 E0.57810
G1 X2.809 Y-2.563 E0.08727
G1 X7.322 Y1.949 E0.59557
G1 X8.380 Y1.949 E0.09875
G1 X3.338 Y-3.093 E0.66539
G1 X3.867 Y-3.622 E0.06982
G1 X9.438 Y1.949 E0.73522
G1 X10.496 Y1.949 E0.09875
G1 X4.396 Y-4.151 E0.80504
G1 X4.726 Y-4.879 E0.07463
G1 X10.956 Y1.351 E0.82226
G1 X10.956 Y0.293 E0.09875
G1 X4.726 Y-5.937 E0.82226
G1 X4.726 Y-6.996 E0.09875
G1 X10.956 Y-0.765 E0.82226
G1 X10.956 Y-1.823 E0.09875
G1 X4.726 Y-8.054 E0.82226
G1 X4.726 Y-9.112 E0.09875
G1 X10.956 Y-2.881 E0.82226
G1 X10.956 Y-3.940 E0.09875
G1 X4.726 Y-10.170 E0.82226
G1 X4.726 Y-11.228 E0.09875
G1 X10.956 Y-4.998 E0.82226
G1 X10.956 Y-6.056 E0.09875
G1 X4.726 Y-12.286 E0.82226
G1 X4.726 Y-13.344 E0.09875
G1 X10.956 Y-7.114 E0.82226
G1 X10.956 Y-8.172 E0.09875
G1 X4.726 Y-14.402 E0.82226
G1 X4.726 Y-15.461 E0.09875
G1 X10.956 Y-9.230 E0.82226
G1 X10.956 Y-10.288 E0.09875
G1 X5.313 Y-15.931 E0.74471
G1 X6.371 Y-15.931 E0.09875
G1 X10.956 Y-11.347 E0.60506
G1 X10.956 Y-12.405 E0.09875
G1 X7.430 Y-15.931 E0.46541
G1 X8.488 Y-15.931 E0.09875
G1 X10.956 Y-13.463 E0.32576
G1 X10.956 Y-14.521 E0.09875
G1 X9.546 Y-15.931 E0.18612
G1 X10.604 Y-15.931 E0.09875
G1 X10.956 Y-15.579 E0.04647
G1 E-3.20000 F3000.00000
G1 Z0.700 F9000.000
G1 X-9.840 Y26.753 F9000.000
G1 Z0.300 F9000.000
G1 E3.20000 F3000.00000
G1 X-14.650 Y26.753 E0.44138 F900.000
G1 X-14.650 Y7.974 E1.72296
G1 X21.979 Y7.974 E3.36071
G1 X21.979 Y26.753 E1.72296
G1 X16.742 Y26.753 E0.48047 F900.000
G1 X16.456 Y26.715 E0.02645
G1 X16.262 Y26.635 E0.01926
G1 X16.096 Y26.507 E0.01926
G1 X15.968 Y26.340 E0.01926
G1 X15.887 Y26.147 E0.01926
G1 X15.850 Y25.861 E0.02645
G1 X15.850 Y14.947 E1.00131
G1 X14.155 Y13.253 E0.21987
G1 X-5.827 Y13.253 E1.83338
G1 X-7.521 Y14.947 E0.21987
G1 X-7.521 Y25.861 E1.00131
G1 X-7.559 Y26.147 E0.02645
G1 X-7.639 Y26.340 E0.01926
G1 X-7.767 Y26.507 E0.01926
G1 X-7.934 Y26.635 E0.01926
G1 X-8.128 Y26.715 E0.01926
G1 X-8.414 Y26.753 E0.02645
G1 X-9.780 Y26.753 E0.12534
G1 X-9.780 Y27.488 F9000.000
G1 X-15.386 Y27.488 E0.51438 F900.000
G1 X-15.386 Y7.238 E1.85795
G1 X22.714 Y7.238 E3.49569
G1 X22.714 Y27.488 E1.85795
G1 X16.694 Y27.488 E0.55238 F900.000
G1 X16.264 Y27.432 E0.03976
G1 X15.891 Y27.277 E0.03703
G1 X15.571 Y27.032 E0.03703
G1 X15.325 Y26.711 E0.03703
G1 X15.171 Y26.339 E0.03703
G1 X15.114 Y25.909 E0.03976
G1 X15.114 Y15.252 E0.97778
G1 X13.851 Y13.988 E0.16396
G1 X-5.522 Y13.988 E1.77746
G1 X-6.786 Y15.252 E0.16396
G1 X-6.786 Y25.909 E0.97778
G1 X-6.842 Y26.339 E0.03976
G1 X-6.997 Y26.711 E0.03703
G1 X-7.243 Y27.032 E0.03703
G1 X-7.563 Y27.277 E0.03703
G1 X-7.936 Y27.432 E0.03703
G1 X-8.365 Y27.488 E0.03976
G1 X-9.720 Y27.488 E0.12425
G1 X-9.980 Y27.142 F9000.000
G1 X-14.201 Y25.952 F9000.000
G1 X-13.849 Y26.304 E0.04646 F900.000
G1 X-12.791 Y26.304 E0.09875
G1 X-14.201 Y24.893 E0.18611
G1 X-14.201 Y23.835 E0.09875
G1 X-11.733 Y26.304 E0.32576
G1 X-10.675 Y26.304 E0.09875
G1 X-14.201 Y22.777 E0.46541
G1 X-14.201 Y21.719 E0.09875
G1 X-9.616 Y26.304 E0.60505
G1 X-8.558 Y26.304 E0.09875
G1 X-14.201 Y20.661 E0.74470
G1 X-14.201 Y19.603 E0.09875
G1 X-7.971 Y25.833 E0.82226
G1 X-7.971 Y24.775 E0.09875
G1 X-14.201 Y18.545 E0.82226
G1 X-14.201 Y17.486 E0.09875
G1 X-7.971 Y23.717 E0.82226
G1 X-7.971 Y22.659 E0.09875
G1 X-14.201 Y16.428 E0.82226
G1 X-14.201 Y15.370 E0.09875
G1 X-7.971 Y21.601 E0.82226
G1 X-7.971 Y20.542 E0.09875
G1 X-14.201 Y14.312 E0.82226
G1 X-14.201 Y13.254 E0.09875
G1 X-7.971 Y19.484 E0.82226
G1 X-7.971 Y18.426 E0.09875
G1 X-14.201 Y12.196 E0.82226
G1 X-14.201 Y11.138 E0.09875
G1 X-7.971 Y17.368 E0.82226
G1 X-7.971 Y16.310 E0.09875
G1 X-14.201 Y10.080 E0.82226
G1 X-14.201 Y9.021 E0.09875
G1 X-7.971 Y15.252 E0.82226
G1 X-7.641 Y14.523 E0.07463
G1 X-13.741 Y8.423 E0.80504
G1 X-12.683 Y8.423 E0.09875
G1 X-7.112 Y13.994 E0.73522
G1 X-6.583 Y13.465 E0.06982
G1 X-11.625 Y8.423 E0.66539
G1 X-10.567 Y8.423 E0.09875
G1 X-6.054 Y12.936 E0.59557
G1 X-5.128 Y12.804 E0.08727
G1 X-9.509 Y8.423 E0.57810
G1 X-8.450 Y8.423 E0.09875
G1 X-4.070 Y12.804 E0.57810
G1 X-3.012 Y12.804 E0.09875
G1 X-7.392 Y8.423 E0.57810
G1 X-6.334 Y8.423 E0.09875
G1 X-1.954 Y12.804 E0.57810
G1 X-0.896 Y12.804 E0.09875
G1 X-5.276 Y8.423 E0.57810
G1 X-4.218 Y8.423 E0.09875
G1 X0.162 Y12.804 E0.57810
G1 X1.221 Y12.804 E0.09875
G1 X-3.160 Y8.423 E0.57810
G1 X-2.102 Y8.423 E0.09875
G1 X2.279 Y12.804 E0.57810
G1 X3.337 Y12.804 E0.09875
G1 X-1.044 Y8.423 E0.57810
G1 X0.015 Y8.423 E0.09875
G1 X4.395 Y12.804 E0.57810
G1 X5.453 Y12.804 E0.09875
G1 X1.073 Y8.423 E0.57810
G1 X2.131 Y8.423 E0.09875
G1 X6.511 Y12.804 E0.57810
G1 X7.569 Y12.804 E0.09875
G1 X3.189 Y8.423 E0.57810
G1 X4.247 Y8.423 E0.09875
G1 X8.627 Y12.804 E0.57810
G1 X9.686 Y12.804 E0.09875
G1 X5.305 Y8.423 E0.57810
G1 X6.363 Y8.423 E0.09875
G1 X10.744 Y12.804 E0.57810
G1 X11.802 Y12.804 E0.09875
G1 X7.422 Y8.423 E0.57810
G1 X8.480 Y8.423 E0.09875
G1 X12.860 Y12.804 E0.57810
G1 X13.918 Y12.804 E0.09875
G1 X9.538 Y8.423 E0.57810
G1 X10.596 Y8.423 E0.09875
G1 X21.529 Y19.357 E1.44295
G1 X21.529 Y18.299 E0.09875
G1 X11.654 Y8.423 E1.30330
G1 X12.712 Y8.423 E0.09875
G1 X21.529 Y17.240 E1.16365
G1 X21.529 Y16.182 E0.09875
G1 X13.770 Y8.423 E1.02400
G1 X14.828 Y8.423 E0.09875
G1 X21.529 Y15.124 E0.88435
G1 X21.529 Y14.066 E0.09875
G1 X15.887 Y8.423 E0.74471
G1 X16.945 Y8.423 E0.09875
G1 X21.529 Y13.008 E0.60506
G1 X21.529 Y11.950 E0.09875
G1 X18.003 Y8.423 E0.46541
G1 X19.061 Y8.423 E0.09875
G1 X21.529 Y10.892 E0.32576
G1 X21.529 Y9.833 E0.09875
