; generated by Slic3r 1.2.9 on 2017-01-06 at 22:03:52

; external perimeters extrusion width = 0.50mm
; perimeters extrusion width = 0.50mm
; infill extrusion width = 0.50mm
; solid infill extrusion width = 0.50mm
; top infill extrusion width = 0.50mm

M107
;Basic settings: Layer height: {layer_height} Walls: {wall_thickness} Fill: {fill_density}
;Print time: {print_time}
;Filament used: {filament_amount}m {filament_weight}g
;Filament cost: {filament_cost}
;M190 S{print_bed_temperature} ;Uncomment to add your own bed temperature line
;M109 S{print_temperature} ;Uncomment to add your own temperature line
G21        ;metric values
G90        ;absolute positioning
M83
G10 P0 S200
T0
M116


G21 ; set units to millimeters
G90 ; use absolute coordinates
M83 ; use relative distances for extrusion
G1 E-3.20000 F3000.00000
G1 Z0.400 F9000.000
G1 X8.551 Y-12.593 F9000.000
G1 Z0.300 F9000.000
G1 E3.20000 F3000.00000
G1 X15.233 Y-8.056 E0.74100 F1200.000
G1 X15.941 Y-7.505 E0.08229
G1 X16.532 Y-6.914 E0.07675
G1 X18.478 Y-4.475 E0.28628
G1 X18.923 Y-3.766 E0.07675
G1 X19.188 Y-3.216 E0.05603
G1 X19.464 Y-2.426 E0.07675
G1 X20.158 Y0.615 E0.28628
G1 X20.252 Y1.447 E0.07675
G1 X20.252 Y2.057 E0.05603
G1 X20.158 Y2.889 E0.07675
G1 X19.464 Y5.931 E0.28628
G1 X19.188 Y6.720 E0.07675
G1 X18.923 Y7.270 E0.05603
G1 X18.478 Y7.979 E0.07675
G1 X16.532 Y10.418 E0.28628
G1 X15.941 Y11.010 E0.07675
G1 X15.463 Y11.390 E0.05603
G1 X14.755 Y11.835 E0.07675
G1 X11.908 Y13.206 E0.28989
G1 X-4.283 Y20.794 E1.64064
G1 X-5.037 Y21.054 E0.07316
G1 X-5.633 Y21.190 E0.05603
G1 X-6.464 Y21.283 E0.07675
G1 X-9.584 Y21.283 E0.28628
G1 X-10.415 Y21.190 E0.07675
G1 X-11.011 Y21.054 E0.05603
G1 X-11.800 Y20.777 E0.07675
G1 X-14.612 Y19.424 E0.28628
G1 X-15.320 Y18.979 E0.07675
G1 X-15.797 Y18.598 E0.05603
G1 X-16.389 Y18.006 E0.07675
G1 X-18.334 Y15.567 E0.28628
G1 X-18.779 Y14.859 E0.07675
G1 X-19.044 Y14.308 E0.05603
G1 X-19.320 Y13.519 E0.07675
G1 X-20.015 Y10.477 E0.28628
G1 X-20.108 Y9.674 E0.07413
G1 X-20.252 Y-9.006 E1.71400
G1 X-20.252 Y-9.646 E0.05866
G1 X-20.158 Y-10.477 E0.07675
G1 X-19.464 Y-13.519 E0.28628
G1 X-19.188 Y-14.308 E0.07675
G1 X-18.923 Y-14.859 E0.05603
G1 X-18.478 Y-15.567 E0.07675
G1 X-16.532 Y-18.006 E0.28628
G1 X-15.941 Y-18.598 E0.07675
G1 X-15.463 Y-18.979 E0.05603
G1 X-14.755 Y-19.424 E0.07675
G1 X-11.944 Y-20.777 E0.28628
G1 X-11.154 Y-21.054 E0.07675
G1 X-10.559 Y-21.190 E0.05603
G1 X-9.728 Y-21.283 E0.07675
G1 X-6.607 Y-21.283 E0.28628
G1 X-5.776 Y-21.190 E0.07675
G1 X-5.181 Y-21.054 E0.05603 F1200.000
G1 X-4.391 Y-20.777 E0.07675
G1 X-1.580 Y-19.424 E0.28628
G1 X-1.102 Y-19.148 E0.05059
G1 X8.502 Y-12.627 E1.06513
G1 E-3.20000 F3000.00000
G1 Z0.700 F9000.000
G1 X-5.906 Y6.002 F9000.000
G1 Z0.300 F9000.000
G1 E3.20000 F3000.00000
G1 X-5.142 Y6.634 E0.09093 F900.000
G1 X-4.560 Y7.436 E0.09093
G1 X-4.195 Y8.357 E0.09093
G1 X-4.070 Y9.343 E0.09115
G1 X-4.212 Y10.367 E0.09484
G1 X-4.560 Y11.245 E0.08668
G1 X-5.142 Y12.047 E0.09093
G1 X-5.906 Y12.678 E0.09093
G1 X-6.760 Y13.081 E0.08668
G1 X-7.773 Y13.286 E0.09484
G1 X-8.765 Y13.224 E0.09115
G1 X-9.707 Y12.918 E0.09093
G1 X-10.544 Y12.387 E0.09093
G1 X-11.221 Y11.666 E0.09075
G1 X-11.691 Y10.830 E0.08795
G1 X-11.946 Y9.836 E0.09419
G1 X-11.946 Y8.845 E0.09093
G1 X-11.712 Y7.930 E0.08668
G1 X-11.224 Y7.018 E0.09484
G1 X-10.544 Y6.294 E0.09115
G1 X-9.705 Y5.762 E0.09115
G1 X-8.719 Y5.454 E0.09484
G1 X-7.776 Y5.395 E0.08668 F900.000
G1 X-6.802 Y5.580 E0.09093
G1 X-5.960 Y5.977 E0.08542
G1 X-5.544 Y5.832 F9000.000
G1 X-9.227 Y4.842 F9000.000
G1 X-9.888 Y5.048 E0.06356 F900.000
G1 X-10.039 Y4.667 E0.03764
G1 X-9.185 Y4.255 E0.08698
G1 X-8.192 Y4.255 E0.09108
G1 X-8.179 Y4.683 E0.03924
G1 X-8.853 Y4.725 E0.06203 F900.000
G1 X-9.170 Y4.824 E0.03042
G1 X-6.304 Y4.525 F9000.000
G1 X-6.267 Y4.542 E0.00371 F900.000
G1 X-6.389 Y4.910 E0.03554 F900.000
G1 X-7.726 Y4.655 E0.12494
G1 X-7.688 Y4.255 E0.03685
G1 X-6.863 Y4.255 E0.07569
G1 X-6.358 Y4.499 E0.05150
G1 X-4.929 Y5.187 F9000.000
G1 X-4.772 Y5.262 E0.01599 F900.000
G1 X-4.282 Y5.877 E0.07208 F900.000
G1 X-4.566 Y6.156 E0.03652
G1 X-5.617 Y5.286 E0.12514
G1 X-5.406 Y4.957 E0.03586
G1 X-4.983 Y5.161 E0.04308
G1 X-3.656 Y6.662 F9000.000
G1 X-3.325 Y7.077 E0.04871 F900.000
G1 X-3.125 Y7.953 E0.08245 F900.000
G1 X-3.515 Y8.074 E0.03752
G1 X-3.910 Y7.078 E0.09829
G1 X-4.259 Y6.598 E0.05444
G1 X-3.915 Y6.337 E0.03960
G1 X-3.693 Y6.615 E0.03266
G1 X-2.899 Y9.739 F9000.000
G1 X-3.044 Y10.371 E0.05947 F900.000
G1 X-3.459 Y10.295 E0.03877
G1 X-3.328 Y9.347 E0.08783
G1 X-3.441 Y8.454 E0.08262
G1 X-3.027 Y8.380 E0.03854
G1 X-2.808 Y9.340 E0.09033
G1 X-2.886 Y9.681 E0.03205 F900.000
G1 X-3.436 Y11.743 F9000.000
G1 X-3.915 Y12.344 E0.07049 F900.000
G1 X-4.259 Y12.082 E0.03960
G1 X-3.910 Y11.602 E0.05444
G1 X-3.515 Y10.606 E0.09829
G1 X-3.125 Y10.727 E0.03752
G1 X-3.325 Y11.603 E0.08245 F900.000
G1 X-3.399 Y11.696 E0.01088
G1 X-5.435 Y13.244 F9000.000
G1 X-4.566 Y12.525 E0.10350 F900.000
G1 X-4.282 Y12.804 E0.03652
G1 X-4.772 Y13.418 E0.07208 F900.000
G1 X-5.406 Y13.724 E0.06458
G1 X-5.617 Y13.394 E0.03586
G1 X-5.482 Y13.282 E0.01614
G1 X-6.280 Y14.144 F9000.000
G1 X-6.863 Y14.425 E0.05939 F900.000
G1 X-7.690 Y14.425 E0.07586
G1 X-7.730 Y14.028 E0.03663
G1 X-6.347 Y13.747 E0.12952
G1 X-6.222 Y14.117 E0.03575
G1 X-6.226 Y14.118 E0.00038 F900.000
G1 X-9.831 Y13.651 F9000.000
G1 X-8.904 Y13.952 E0.08940 F900.000
G1 X-8.179 Y13.998 E0.06668 F900.000
G1 X-8.192 Y14.425 E0.03924
G1 X-9.185 Y14.425 E0.09108
G1 X-10.024 Y14.021 E0.08550
G1 X-9.877 Y13.654 E0.03623
G1 X-10.343 Y13.386 F9000.000
G1 X-10.208 Y13.471 E0.01465 F900.000
G1 X-10.410 Y13.835 E0.03820
G1 X-11.276 Y13.418 E0.08819
G1 X-11.898 Y12.638 E0.09156
G1 X-11.578 Y12.360 E0.03889
G1 X-11.017 Y12.958 E0.07519
G1 X-10.393 Y13.354 E0.06775 F900.000
G1 X-12.353 Y11.154 F9000.000
G1 X-11.852 Y12.045 E0.09384 F900.000
G1 X-12.189 Y12.273 E0.03736
G1 X-12.723 Y11.603 E0.07858
G1 X-12.897 Y10.844 E0.07147
G1 X-12.473 Y10.741 E0.03995
G1 X-12.381 Y11.101 E0.03409
G1 X-13.210 Y9.209 F9000.000
G1 X-13.074 Y8.614 E0.05598 F900.000
G1 X-12.682 Y8.658 E0.03619
G1 X-12.682 Y10.023 E0.12521 F900.000
G1 X-13.074 Y10.067 E0.03619
G1 X-13.240 Y9.340 E0.06837
G1 X-13.223 Y9.267 E0.00689
G1 X-12.309 Y6.558 F9000.000
G1 X-12.182 Y6.398 E0.01871 F900.000
G1 X-11.845 Y6.620 E0.03696
G1 X-12.402 Y7.661 E0.10832 F900.000
G1 X-12.473 Y7.939 E0.02636
G1 X-12.897 Y7.837 E0.03995
G1 X-12.723 Y7.077 E0.07147
G1 X-12.347 Y6.605 E0.05545
G1 X-10.754 Y5.556 F9000.000
G1 X-11.017 Y5.723 E0.02852 F900.000
G1 X-11.578 Y6.320 E0.07519
G1 X-11.898 Y6.043 E0.03889
G1 X-11.276 Y5.262 E0.09156
G1 X-10.410 Y4.845 E0.08819
G1 X-10.208 Y5.209 E0.03820
G1 X-10.704 Y5.524 E0.05388 F900.000
G1 X-11.233 Y4.425 F9000.000
G1 X-9.630 Y3.653 E0.16319 F900.000
G1 X-9.962 Y2.750 E0.08830
G1 X-9.998 Y2.419 E0.03050
G1 X-9.816 Y1.491 E0.08677
G1 X-9.249 Y2.248 E0.08677
G1 X-9.138 Y2.562 E0.03050 F900.000
G1 X-9.044 Y3.520 E0.08830
G1 X-7.004 Y3.520 E0.18722
G1 X-6.910 Y2.562 E0.08830
G1 X-6.799 Y2.248 E0.03050
G1 X-6.233 Y1.491 E0.08677
G1 X-6.050 Y2.419 E0.08677
G1 X-6.086 Y2.750 E0.03050
G1 X-6.418 Y3.653 E0.08830
G1 X-4.579 Y4.539 E0.18722
G1 X-4.080 Y3.716 E0.08830
G1 X-3.844 Y3.482 E0.03050
G1 X-3.004 Y3.046 E0.08677
G1 X-3.243 Y3.961 E0.08677
G1 X-3.419 Y4.243 E0.03050
G1 X-4.109 Y4.913 E0.08830
G1 X-2.837 Y6.509 E0.18722
G1 X-2.030 Y5.985 E0.08830
G1 X-1.716 Y5.876 E0.03050
G1 X-0.771 Y5.847 E0.08677
G1 X-1.382 Y6.568 E0.08677
G1 X-1.663 Y6.746 E0.03050
G1 X-2.576 Y7.050 E0.08830
G1 X-2.122 Y9.040 E0.18722
G1 X-1.168 Y8.918 E0.08830
G1 X-0.837 Y8.956 E0.03050
G1 X0.027 Y9.340 E0.08677
G1 X-0.837 Y9.724 E0.08677
G1 X-1.168 Y9.763 E0.03050
G1 X-2.122 Y9.641 E0.08830
G1 X-2.576 Y11.630 E0.18722
G1 X-1.663 Y11.934 E0.08830
G1 X-1.382 Y12.112 E0.03050
G1 X-0.771 Y12.833 E0.08677
G1 X-1.716 Y12.805 E0.08677
G1 X-2.030 Y12.696 E0.03050
G1 X-2.837 Y12.172 E0.08830
G1 X-4.109 Y13.767 E0.18722
G1 X-3.419 Y14.437 E0.08830
G1 X-3.243 Y14.719 E0.03050
G1 X-3.004 Y15.635 E0.08677
G1 X-3.844 Y15.199 E0.08677
G1 X-4.080 Y14.964 E0.03050
G1 X-4.579 Y14.142 E0.08830
G1 X-6.418 Y15.027 E0.18722
G1 X-6.086 Y15.931 E0.08830
G1 X-6.050 Y16.261 E0.03050
G1 X-6.233 Y17.189 E0.08677
G1 X-6.799 Y16.432 E0.08677
G1 X-6.910 Y16.119 E0.03050
G1 X-7.004 Y15.161 E0.08830
G1 X-9.044 Y15.161 E0.18722
G1 X-9.138 Y16.119 E0.08830
G1 X-9.249 Y16.432 E0.03050
G1 X-9.816 Y17.189 E0.08677
G1 X-9.998 Y16.261 E0.08677
G1 X-9.962 Y15.931 E0.03050
G1 X-9.630 Y15.027 E0.08830
G1 X-11.469 Y14.142 E0.18722
G1 X-11.969 Y14.964 E0.08830
G1 X-12.205 Y15.199 E0.03050
G1 X-13.044 Y15.635 E0.08677
G1 X-12.805 Y14.719 E0.08677
G1 X-12.629 Y14.437 E0.03050
G1 X-11.939 Y13.767 E0.08830
G1 X-13.211 Y12.172 E0.18722
G1 X-14.018 Y12.696 E0.08830
G1 X-14.332 Y12.805 E0.03050
G1 X-15.278 Y12.833 E0.08677
G1 X-14.666 Y12.112 E0.08677
G1 X-14.385 Y11.934 E0.03050
G1 X-13.472 Y11.630 E0.08830
G1 X-13.926 Y9.641 E0.18722
G1 X-14.880 Y9.763 E0.08830
G1 X-15.211 Y9.724 E0.03050
G1 X-16.075 Y9.340 E0.08677
G1 X-15.211 Y8.956 E0.08677
G1 X-14.880 Y8.918 E0.03050
G1 X-13.926 Y9.040 E0.08830
G1 X-13.472 Y7.050 E0.18722
G1 X-14.385 Y6.746 E0.08830
G1 X-14.666 Y6.568 E0.03050
G1 X-15.278 Y5.847 E0.08677
G1 X-14.332 Y5.876 E0.08677
G1 X-14.018 Y5.985 E0.03050
G1 X-13.211 Y6.509 E0.08830
G1 X-11.939 Y4.913 E0.18722
G1 X-12.629 Y4.243 E0.08830
G1 X-12.805 Y3.961 E0.03050
G1 X-13.044 Y3.046 E0.08677
G1 X-12.205 Y3.482 E0.08677
G1 X-11.969 Y3.716 E0.03050
G1 X-11.469 Y4.539 E0.08830
G1 X-11.287 Y4.451 E0.01852
G1 X-10.902 Y4.650 F9000.000
G1 E-3.20000 F3000.00000
G1 Z0.700 F9000.000
G1 X4.245 Y2.248 F9000.000
G1 Z0.300 F9000.000
G1 E3.20000 F3000.00000
G1 X4.245 Y1.257 E0.09093 F900.000
G1 X4.480 Y0.341 E0.08668
G1 X4.967 Y-0.570 E0.09484
G1 X5.647 Y-1.294 E0.09115
G1 X6.486 Y-1.827 E0.09115
G1 X7.473 Y-2.134 E0.09484
G1 X8.416 Y-2.194 E0.08668 F900.000
G1 X9.389 Y-2.008 E0.09093
G1 X10.286 Y-1.586 E0.09093
G1 X11.050 Y-0.954 E0.09093
G1 X11.632 Y-0.153 E0.09093
G1 X11.997 Y0.769 E0.09093
G1 X12.121 Y1.754 E0.09115
G1 X11.980 Y2.778 E0.09484
G1 X11.632 Y3.657 E0.08668
G1 X11.050 Y4.458 E0.09093
G1 X10.286 Y5.090 E0.09093
G1 X9.431 Y5.492 E0.08668
G1 X8.418 Y5.698 E0.09484
G1 X7.427 Y5.636 E0.09115
G1 X6.484 Y5.329 E0.09093
G1 X5.647 Y4.798 E0.09093
G1 X4.970 Y4.077 E0.09075
G1 X4.500 Y3.242 E0.08795
G1 X4.260 Y2.306 E0.08868
G1 X3.883 Y2.077 F9000.000
G1 E-3.20000 F3000.00000
G1 Z0.700 F9000.000
G1 X7.243 Y-3.333 F9000.000
G1 Z0.300 F9000.000
G1 E3.20000 F3000.00000
G1 X8.000 Y-3.333 E0.06940 F900.000
G1 X8.013 Y-2.905 E0.03924
G1 X7.338 Y-2.863 E0.06203 F900.000
G1 X6.303 Y-2.540 E0.09948
G1 X6.153 Y-2.922 E0.03764
G1 X7.007 Y-3.333 E0.08698
G1 X7.183 Y-3.333 E0.01617
G1 X8.817 Y-2.866 F9000.000
G1 X8.465 Y-2.933 E0.03279 F900.000
G1 X8.503 Y-3.333 E0.03685
G1 X9.328 Y-3.333 E0.07569
G1 X9.924 Y-3.046 E0.06072
G1 X9.803 Y-2.678 E0.03554 F900.000
G1 X8.876 Y-2.855 E0.08664
G1 X10.790 Y-2.124 F9000.000
G1 X10.575 Y-2.302 E0.02569 F900.000
G1 X10.785 Y-2.631 E0.03586
G1 X11.420 Y-2.326 E0.06458
G1 X11.909 Y-1.712 E0.07208 F900.000
G1 X11.625 Y-1.433 E0.03652
G1 X10.836 Y-2.085 E0.09395
G1 X12.532 Y0.123 F9000.000
G1 X12.282 Y-0.510 E0.06247 F900.000
G1 X11.933 Y-0.990 E0.05444
G1 X12.276 Y-1.251 E0.03960
G1 X12.867 Y-0.511 E0.08688
G1 X13.067 Y0.365 E0.08245 F900.000
G1 X12.676 Y0.486 E0.03752
G1 X12.555 Y0.179 E0.03032
G1 X13.311 Y2.070 F9000.000
G1 X13.148 Y2.783 E0.06712 F900.000
G1 X12.732 Y2.707 E0.03877
G1 X12.863 Y1.759 E0.08783
G1 X12.751 Y0.865 E0.08262
G1 X13.164 Y0.792 E0.03854
G1 X13.383 Y1.752 E0.09033
G1 X13.324 Y2.011 E0.02440 F900.000
G1 X12.143 Y4.205 F9000.000
G1 X12.282 Y4.014 E0.02167 F900.000
G1 X12.676 Y3.018 E0.09829
G1 X13.067 Y3.139 E0.03752
G1 X12.867 Y4.015 E0.08245 F900.000
G1 X12.276 Y4.755 E0.08688
G1 X11.933 Y4.494 E0.03960
G1 X12.108 Y4.254 E0.02726
G1 X10.713 Y5.692 F9000.000
G1 X11.625 Y4.937 E0.10869 F900.000
G1 X11.909 Y5.216 E0.03652
G1 X11.420 Y5.830 E0.07208 F900.000
G1 X10.785 Y6.135 E0.06458
G1 X10.574 Y5.806 E0.03586
G1 X10.666 Y5.730 E0.01095
G1 X8.695 Y6.837 F9000.000
G1 X8.501 Y6.837 E0.01774 F900.000
G1 X8.461 Y6.440 E0.03663
G1 X9.845 Y6.159 E0.12952
G1 X9.969 Y6.528 E0.03575
G1 X9.328 Y6.837 E0.06528 F900.000
G1 X8.755 Y6.837 E0.05261
G1 X7.732 Y6.837 F9000.000
G1 X7.007 Y6.837 E0.06654 F900.000
G1 X6.167 Y6.433 E0.08550
G1 X6.321 Y6.050 E0.03786
G1 X7.288 Y6.364 E0.09327
G1 X8.013 Y6.410 E0.06668 F900.000
G1 X8.000 Y6.837 E0.03924
G1 X7.792 Y6.837 E0.01904
G1 X5.777 Y5.752 F9000.000
G1 X5.984 Y5.883 E0.02248 F900.000
G1 X5.782 Y6.247 E0.03820
G1 X4.916 Y5.830 E0.08819
G1 X4.293 Y5.050 E0.09156
G1 X4.614 Y4.772 E0.03889
G1 X5.175 Y5.370 E0.07519
G1 X5.726 Y5.720 E0.05993 F900.000
G1 X3.994 Y3.842 F9000.000
G1 X4.340 Y4.457 E0.06476 F900.000
G1 X4.002 Y4.685 E0.03736
G1 X3.468 Y4.015 E0.07858
G1 X3.295 Y3.256 E0.07147
G1 X3.718 Y3.153 E0.03995
G1 X3.812 Y3.518 E0.03461
G1 X3.965 Y3.790 E0.02856 F900.000
G1 X3.510 Y1.986 F9000.000
G1 X3.510 Y2.434 E0.04117 F900.000
G1 X3.118 Y2.479 E0.03619
G1 X2.952 Y1.752 E0.06837
G1 X3.118 Y1.026 E0.06837
G1 X3.510 Y1.070 E0.03619
G1 X3.510 Y1.926 E0.07853 F900.000
G1 X3.744 Y-0.857 F9000.000
G1 X4.010 Y-1.190 E0.03908 F900.000
G1 X4.346 Y-0.968 E0.03696
G1 X3.790 Y0.073 E0.10832 F900.000
G1 X3.718 Y0.351 E0.02636
G1 X3.295 Y0.248 E0.03995
G1 X3.468 Y-0.511 E0.07147
G1 X3.707 Y-0.810 E0.03508
G1 X5.660 Y-2.684 F9000.000
G1 X5.782 Y-2.743 E0.01238 F900.000
G1 X5.984 Y-2.379 E0.03820
G1 X5.175 Y-1.866 E0.08791 F900.000
G1 X4.614 Y-1.268 E0.07519
G1 X4.293 Y-1.546 E0.03889
G1 X4.916 Y-2.326 E0.09156
G1 X5.606 Y-2.658 E0.07031
G1 X5.287 Y-3.321 F9000.000
G1 X6.561 Y-3.935 E0.12979 F900.000
G1 X6.230 Y-4.838 E0.08830
G1 X6.194 Y-5.169 E0.03050
G1 X6.376 Y-6.097 E0.08677
G1 X6.943 Y-5.340 E0.08677
G1 X7.054 Y-5.026 E0.03050 F900.000
G1 X7.147 Y-4.069 E0.08830
G1 X9.188 Y-4.069 E0.18722
G1 X9.281 Y-5.026 E0.08830
G1 X9.392 Y-5.340 E0.03050
G1 X9.959 Y-6.097 E0.08677
G1 X10.141 Y-5.169 E0.08677
G1 X10.105 Y-4.838 E0.03050
G1 X9.774 Y-3.935 E0.08830
G1 X11.612 Y-3.049 E0.18722
G1 X12.112 Y-3.872 E0.08830
G1 X12.348 Y-4.106 E0.03050
G1 X13.187 Y-4.542 E0.08677
G1 X12.949 Y-3.627 E0.08677
G1 X12.773 Y-3.345 E0.03050
G1 X12.082 Y-2.675 E0.08830
G1 X13.354 Y-1.079 E0.18722
G1 X14.162 Y-1.604 E0.08830
G1 X14.476 Y-1.712 E0.03050
G1 X15.421 Y-1.741 E0.08677
G1 X14.809 Y-1.020 E0.08677
G1 X14.528 Y-0.842 E0.03050
G1 X13.615 Y-0.538 E0.08830
G1 X14.069 Y1.452 E0.18722
G1 X15.024 Y1.330 E0.08830
G1 X15.354 Y1.368 E0.03050
G1 X16.218 Y1.752 E0.08677
G1 X15.354 Y2.136 E0.08677
G1 X15.024 Y2.175 E0.03050
G1 X14.069 Y2.053 E0.08830
G1 X13.615 Y4.042 E0.18722
G1 X14.528 Y4.346 E0.08830
G1 X14.809 Y4.524 E0.03050
G1 X15.421 Y5.245 E0.08677
G1 X14.476 Y5.216 E0.08677
G1 X14.162 Y5.108 E0.03050
G1 X13.354 Y4.583 E0.08830
G1 X12.082 Y6.179 E0.18722
G1 X12.773 Y6.849 E0.08830
G1 X12.949 Y7.131 E0.03050
G1 X13.187 Y8.046 E0.08677
G1 X12.348 Y7.610 E0.08677
G1 X12.112 Y7.376 E0.03050
G1 X11.612 Y6.554 E0.08830
G1 X9.774 Y7.439 E0.18722
G1 X10.105 Y8.343 E0.08830
G1 X10.141 Y8.673 E0.03050
G1 X9.959 Y9.601 E0.08677
G1 X9.392 Y8.844 E0.08677
G1 X9.281 Y8.531 E0.03050
G1 X9.188 Y7.573 E0.08830
G1 X7.147 Y7.573 E0.18722
G1 X7.054 Y8.531 E0.08830
G1 X6.943 Y8.844 E0.03050
G1 X6.376 Y9.601 E0.08677
G1 X6.194 Y8.673 E0.08677
G1 X6.230 Y8.343 E0.03050
G1 X6.561 Y7.439 E0.08830
G1 X4.723 Y6.554 E0.18722
G1 X4.223 Y7.376 E0.08830
G1 X3.987 Y7.610 E0.03050
G1 X3.148 Y8.046 E0.08677
G1 X3.386 Y7.131 E0.08677
G1 X3.562 Y6.849 E0.03050
G1 X4.253 Y6.179 E0.08830
G1 X2.981 Y4.583 E0.18722
G1 X2.173 Y5.108 E0.08830
G1 X1.859 Y5.216 E0.03050
G1 X0.914 Y5.245 E0.08677
G1 X1.526 Y4.524 E0.08677
G1 X1.807 Y4.346 E0.03050
G1 X2.720 Y4.042 E0.08830
G1 X2.266 Y2.053 E0.18722
G1 X1.311 Y2.175 E0.08830
G1 X0.981 Y2.136 E0.03050
G1 X0.117 Y1.752 E0.08677
G1 X0.981 Y1.368 E0.08677
G1 X1.311 Y1.330 E0.03050
G1 X2.266 Y1.452 E0.08830
G1 X2.720 Y-0.538 E0.18722
G1 X1.807 Y-0.842 E0.08830
G1 X1.526 Y-1.020 E0.03050
G1 X0.914 Y-1.741 E0.08677
G1 X1.859 Y-1.712 E0.08677
