; generated by Slic3r 1.2.9 on 2016-12-19 at 22:31:28

; external perimeters extrusion width = 0.50mm
; perimeters extrusion width = 0.50mm
; infill extrusion width = 0.50mm
; solid infill extrusion width = 0.50mm
; top infill extrusion width = 0.50mm

M107
;Basic settings: Layer height: {layer_height} Walls: {wall_thickness} Fill: {fill_density}
;Print time: {print_time}
;Filament used: {filament_amount}m {filament_weight}g
;Filament cost: {filament_cost}
;M190 S{print_bed_temperature} ;Uncomment to add your own bed temperature line
;M109 S{print_temperature} ;Uncomment to add your own temperature line
G21        ;metric values
G90        ;absolute positioning
M83
G10 P0 S200
T0
M116


G21 ; set units to millimeters
G90 ; use absolute coordinates
M83 ; use relative distances for extrusion
G1 E-3.20000 F3000.00000
G1 Z0.400 F9000.000
G1 X-21.343 Y3.528 F9000.000
G1 Z0.300 F9000.000
G1 E3.20000 F3000.00000
G1 X-24.685 Y-16.691 E1.88023 F1200.000
G1 X-24.735 Y-17.300 E0.05608
G1 X-24.735 Y-24.700 E0.67895
G1 X-24.340 Y-26.371 E0.15755
G1 X-23.240 Y-27.689 E0.15755
G1 X-20.999 Y-28.436 E0.21667
G1 X24.950 Y-28.436 E4.21589
G1 X26.621 Y-28.041 E0.15755
G1 X27.939 Y-26.940 E0.15755 F1200.000
G1 X28.686 Y-24.700 E0.21667
G1 X28.686 Y-12.130 E1.15334
G1 X28.410 Y-10.721 E0.13174
G1 X13.410 Y26.109 E3.64865
G1 X12.414 Y27.508 E0.15755
G1 X10.897 Y28.313 E0.15755
G1 X9.950 Y28.436 E0.08764
G1 X-12.550 Y28.436 E2.06439
G1 X-14.221 Y28.041 E0.15755
G1 X-15.964 Y26.217 E0.23143
G1 X-18.364 Y20.817 E0.54218
G1 X-18.636 Y19.909 E0.08697
G1 X-21.333 Y3.587 E1.51789
G1 E-3.20000 F3000.00000
G1 Z0.700 F9000.000
G1 X-9.910 Y10.435 F9000.000
G1 Z0.300 F9000.000
G1 E3.20000 F3000.00000
G1 X-9.782 Y10.222 E0.02279 F900.000
G1 X-9.463 Y9.792 E0.04907
G1 X-9.104 Y9.396 E0.04908
G1 X-8.708 Y9.037 E0.04908
G1 X-8.278 Y8.718 E0.04907
G1 X-7.819 Y8.443 E0.04908
G1 X-7.336 Y8.214 E0.04908
G1 X-6.832 Y8.034 E0.04908
G1 X-6.313 Y7.904 E0.04914
G1 X-5.763 Y7.825 E0.05094
G1 X-5.250 Y7.799 E0.04714 F900.000
G1 X-4.716 Y7.826 E0.04908
G1 X-4.187 Y7.904 E0.04907
G1 X-3.668 Y8.034 E0.04908
G1 X-3.164 Y8.214 E0.04908
G1 X-2.681 Y8.443 E0.04908
G1 X-2.222 Y8.718 E0.04908
G1 X-1.792 Y9.037 E0.04907
G1 X-1.396 Y9.396 E0.04908
G1 X-1.037 Y9.792 E0.04907
G1 X-0.718 Y10.222 E0.04908
G1 X-0.443 Y10.681 E0.04908
G1 X-0.214 Y11.164 E0.04908
G1 X-0.034 Y11.668 E0.04908
G1 X0.096 Y12.187 E0.04907
G1 X0.174 Y12.716 E0.04908
G1 X0.201 Y13.250 E0.04908
G1 X0.174 Y13.784 E0.04908
G1 X0.096 Y14.313 E0.04908
G1 X-0.034 Y14.832 E0.04907
G1 X-0.214 Y15.336 E0.04908
G1 X-0.443 Y15.819 E0.04908
G1 X-0.718 Y16.278 E0.04908
G1 X-1.037 Y16.708 E0.04908
G1 X-1.396 Y17.104 E0.04907
G1 X-1.792 Y17.463 E0.04908
G1 X-2.222 Y17.782 E0.04907
G1 X-2.681 Y18.057 E0.04907
G1 X-3.164 Y18.286 E0.04908
G1 X-3.668 Y18.466 E0.04908
G1 X-4.187 Y18.596 E0.04908
G1 X-4.716 Y18.674 E0.04907
G1 X-5.250 Y18.701 E0.04908
G1 X-5.784 Y18.674 E0.04908
G1 X-6.313 Y18.596 E0.04908
G1 X-6.832 Y18.466 E0.04907
G1 X-7.336 Y18.286 E0.04908
G1 X-7.819 Y18.057 E0.04908
G1 X-8.278 Y17.782 E0.04908
G1 X-8.708 Y17.463 E0.04907
G1 X-9.104 Y17.104 E0.04908
G1 X-9.463 Y16.708 E0.04908
G1 X-9.782 Y16.278 E0.04907
G1 X-10.057 Y15.819 E0.04908
G1 X-10.606 Y14.658 E0.11784
G1 X-10.509 Y14.658 E0.00887
G1 X-10.596 Y14.313 E0.03263
G1 X-10.674 Y13.784 E0.04908
G1 X-10.700 Y13.250 E0.04908
G1 X-10.674 Y12.716 E0.04908
G1 X-10.596 Y12.187 E0.04908
G1 X-10.509 Y11.842 E0.03263
G1 X-10.606 Y11.842 E0.00887
G1 X-10.057 Y10.681 E0.11784
G1 X-9.940 Y10.486 E0.02079
G1 X-10.030 Y10.218 F9000.000
G1 E-3.20000 F3000.00000
G1 Z0.700 F9000.000
G1 X18.143 Y-17.597 F9000.000
G1 Z0.300 F9000.000
G1 E3.20000 F3000.00000
G1 X17.664 Y-18.075 E0.06208 F900.000
G1 X17.664 Y-20.425 E0.21554
G1 X19.325 Y-22.086 E0.21553
G1 X21.675 Y-22.086 E0.21554 F900.000
G1 X23.336 Y-20.425 E0.21553
G1 X23.336 Y-18.075 E0.21554
G1 X21.675 Y-16.414 E0.21553
G1 X19.325 Y-16.414 E0.21554
G1 X18.185 Y-17.555 E0.14794
G1 X18.705 Y-18.075 F9000.000
G1 X18.400 Y-18.380 E0.03963 F900.000
G1 X18.400 Y-20.120 E0.15963
G1 X19.630 Y-21.350 E0.15961
G1 X21.370 Y-21.350 E0.15963 F900.000
G1 X22.600 Y-20.120 E0.15961
G1 X22.600 Y-18.380 E0.15963
G1 X21.370 Y-17.150 E0.15961
G1 X19.630 Y-17.150 E0.15963
G1 X18.748 Y-18.032 E0.11448
G1 X18.319 Y-17.971 F9000.000
G1 X-7.664 Y-18.075 F9000.000
G1 X-9.325 Y-16.414 E0.21553 F900.000
G1 X-11.675 Y-16.414 E0.21554
G1 X-13.336 Y-18.075 E0.21553
G1 X-13.336 Y-20.425 E0.21554
G1 X-11.675 Y-22.086 E0.21553
G1 X-9.325 Y-22.086 E0.21554 F900.000
G1 X-7.664 Y-20.425 E0.21553
G1 X-7.664 Y-18.135 E0.21004
G1 X-8.400 Y-18.380 F9000.000
G1 X-9.630 Y-17.150 E0.15961 F900.000
G1 X-11.370 Y-17.150 E0.15963
G1 X-12.600 Y-18.380 E0.15961
G1 X-12.600 Y-20.120 E0.15963
G1 X-11.370 Y-21.350 E0.15961
G1 X-9.630 Y-21.350 E0.15963 F900.000
G1 X-8.400 Y-20.120 E0.15961
G1 X-8.400 Y-18.440 E0.15412
G1 X-8.200 Y-18.034 F9000.000
G1 E-3.20000 F3000.00000
G1 Z0.700 F9000.000
G1 X8.814 Y15.536 F9000.000
G1 Z0.300 F9000.000
G1 E3.20000 F3000.00000
G1 X8.814 Y23.564 E0.73665 F900.000
G1 X3.711 Y23.564 E0.46827
G1 X3.711 Y16.086 E0.68618
G1 X6.175 Y16.086 E0.22607
G1 X7.836 Y14.425 E0.21553
G1 X7.836 Y12.075 E0.21554
G1 X6.175 Y10.414 E0.21553
G1 X3.711 Y10.414 E0.22607
G1 X3.711 Y0.753 E0.88643
G1 X4.086 Y0.847 E0.03547
G1 X4.541 Y0.914 E0.04220
G1 X5.000 Y0.937 E0.04220
G1 X5.459 Y0.914 E0.04220
G1 X5.914 Y0.847 E0.04220
G1 X6.361 Y0.735 E0.04220
G1 X6.794 Y0.580 E0.04220
G1 X7.210 Y0.384 E0.04220
G1 X7.604 Y0.147 E0.04220
G1 X7.973 Y-0.127 E0.04220
G1 X8.315 Y-0.436 E0.04229
G1 X8.627 Y-0.782 E0.04276
G1 X8.897 Y-1.146 E0.04155
G1 X9.134 Y-1.541 E0.04220
G1 X9.330 Y-1.956 E0.04220
G1 X9.485 Y-2.389 E0.04220
G1 X9.597 Y-2.836 E0.04220
G1 X9.665 Y-3.291 E0.04220
G1 X9.687 Y-3.750 E0.04220
G1 X9.665 Y-4.209 E0.04220
G1 X9.597 Y-4.664 E0.04220
G1 X9.485 Y-5.111 E0.04220
G1 X9.330 Y-5.544 E0.04220
G1 X9.134 Y-5.959 E0.04220
G1 X8.897 Y-6.354 E0.04220
G1 X8.623 Y-6.723 E0.04220
G1 X8.314 Y-7.064 E0.04220
G1 X7.973 Y-7.373 E0.04220
G1 X7.604 Y-7.647 E0.04220
G1 X7.210 Y-7.884 E0.04220
G1 X6.800 Y-8.077 E0.04155
G1 X6.362 Y-8.235 E0.04276
G1 X5.914 Y-8.347 E0.04229
G1 X5.459 Y-8.414 E0.04220
G1 X5.000 Y-8.437 E0.04220
G1 X4.541 Y-8.414 E0.04220
G1 X4.086 Y-8.347 E0.04220
G1 X3.639 Y-8.235 E0.04220
G1 X3.213 Y-8.083 E0.04155
G1 X2.791 Y-7.884 E0.04276
G1 X2.396 Y-7.647 E0.04229
G1 X2.027 Y-7.373 E0.04220
G1 X1.686 Y-7.064 E0.04220
G1 X1.377 Y-6.723 E0.04220
G1 X1.103 Y-6.354 E0.04220
G1 X0.866 Y-5.959 E0.04220
G1 X0.670 Y-5.544 E0.04220
G1 X0.515 Y-5.111 E0.04220
G1 X0.403 Y-4.664 E0.04220
G1 X0.336 Y-4.209 E0.04220
G1 X0.313 Y-3.742 E0.04289
G1 X0.339 Y-3.313 E0.03949
G1 X0.339 Y9.926 E1.21464
G1 X0.016 Y10.015 E0.03081
G1 X-0.106 Y9.813 E0.02166
G1 X-0.467 Y9.325 E0.05571
G1 X-0.875 Y8.875 E0.05569
G1 X-1.325 Y8.467 E0.05572
G1 X-1.813 Y8.106 E0.05571
G1 X-2.333 Y7.794 E0.05570
G1 X-2.882 Y7.534 E0.05571
G1 X-3.454 Y7.329 E0.05571
G1 X-4.043 Y7.182 E0.05571
G1 X-4.643 Y7.093 E0.05570
G1 X-5.250 Y7.063 E0.05571
G1 X-5.834 Y7.092 E0.05364
G1 X-6.455 Y7.181 E0.05757
G1 X-7.046 Y7.329 E0.05590
G1 X-7.618 Y7.534 E0.05571
G1 X-8.167 Y7.794 E0.05571
G1 X-8.687 Y8.106 E0.05571
G1 X-9.175 Y8.467 E0.05571
G1 X-9.625 Y8.875 E0.05570
G1 X-10.033 Y9.325 E0.05570
G1 X-10.394 Y9.813 E0.05571
G1 X-10.706 Y10.333 E0.05571
G1 X-11.768 Y12.577 E0.22774
G1 X-11.404 Y12.577 E0.03337
G1 X-11.437 Y13.250 E0.06180
G1 X-11.404 Y13.923 E0.06180
G1 X-11.768 Y13.923 E0.03337
G1 X-10.706 Y16.167 E0.22774
G1 X-10.394 Y16.687 E0.05571
G1 X-10.033 Y17.175 E0.05571
G1 X-9.625 Y17.625 E0.05570
G1 X-9.175 Y18.033 E0.05570
G1 X-8.687 Y18.394 E0.05571
G1 X-8.167 Y18.706 E0.05571
G1 X-7.618 Y18.966 E0.05571
G1 X-7.046 Y19.171 E0.05571
G1 X-6.457 Y19.318 E0.05570
G1 X-5.856 Y19.407 E0.05571
G1 X-5.250 Y19.437 E0.05571
G1 X-4.643 Y19.407 E0.05571
G1 X-4.043 Y19.318 E0.05570
G1 X-3.454 Y19.171 E0.05571
G1 X-2.882 Y18.966 E0.05571
G1 X-2.333 Y18.706 E0.05571
G1 X-1.813 Y18.394 E0.05570
G1 X-1.325 Y18.033 E0.05571
G1 X-0.875 Y17.625 E0.05572
G1 X-0.467 Y17.175 E0.05569
G1 X-0.106 Y16.687 E0.05571
G1 X0.016 Y16.485 E0.02166
G1 X0.339 Y16.574 E0.03081
G1 X0.339 Y23.564 E0.64133
G1 X-11.414 Y23.564 E1.07841
G1 X-11.414 Y18.164 E0.49545
G1 X-13.814 Y18.164 E0.22020
G1 X-13.814 Y4.064 E1.29368
G1 X-13.931 Y4.064 E0.01071
G1 X-14.220 Y2.117 E0.18066
G1 X-14.725 Y0.100 E0.19077
G1 X-15.426 Y-1.858 E0.19077
G1 X-15.814 Y-2.680 E0.08340
G1 X-15.814 Y-18.436 E1.44561
G1 X-19.864 Y-18.436 E0.37154
G1 X-19.864 Y-23.564 E0.47057
G1 X23.814 Y-23.564 E4.00750
G1 X23.814 Y-13.012 E0.96818
G1 X21.892 Y-12.324 E0.18733 F900.000
G1 X20.013 Y-11.435 E0.19076
G1 X18.229 Y-10.366 E0.19077
G1 X16.559 Y-9.128 E0.19077
G1 X15.019 Y-7.732 E0.19076
G1 X13.638 Y-6.209 E0.18855
G1 X12.384 Y-4.521 E0.19291
G1 X11.315 Y-2.738 E0.19083
G1 X10.379 Y-0.759 E0.20081
G1 X9.725 Y1.103 E0.18107
G1 X9.220 Y3.117 E0.19047
G1 X8.931 Y5.064 E0.18066
G1 X8.814 Y5.064 E0.01071
G1 X8.814 Y15.476 E0.95523
G1 X9.550 Y15.476 F9000.000
G1 X9.550 Y24.300 E0.80964 F900.000
G1 X2.975 Y24.300 E0.60326
G1 X2.975 Y14.195 E0.92715
G1 X4.130 Y15.350 E0.14988
G1 X5.870 Y15.350 E0.15962
G1 X7.100 Y14.120 E0.15962
G1 X7.100 Y12.380 E0.15963
G1 X5.870 Y11.150 E0.15962
G1 X4.130 Y11.150 E0.15962
G1 X2.975 Y12.305 E0.14988
G1 X2.975 Y-0.343 E1.16043
G1 X3.494 Y-0.098 E0.05266
G1 X3.853 Y0.030 E0.03498
G1 X4.229 Y0.125 E0.03557
G1 X4.613 Y0.182 E0.03557
G1 X5.000 Y0.201 E0.03557
G1 X5.387 Y0.182 E0.03557
G1 X5.771 Y0.125 E0.03557
G1 X6.147 Y0.030 E0.03557
G1 X6.512 Y-0.100 E0.03557
G1 X6.862 Y-0.266 E0.03557
G1 X7.195 Y-0.465 E0.03557
G1 X7.506 Y-0.696 E0.03557
G1 X7.794 Y-0.957 E0.03560
G1 X8.058 Y-1.249 E0.03613
G1 X8.285 Y-1.555 E0.03498
G1 X8.484 Y-1.888 E0.03557
G1 X8.650 Y-2.238 E0.03557
G1 X8.780 Y-2.603 E0.03557
G1 X8.875 Y-2.979 E0.03557
G1 X8.932 Y-3.363 E0.03557
G1 X8.951 Y-3.750 E0.03557
G1 X8.932 Y-4.137 E0.03557
G1 X8.875 Y-4.521 E0.03557
G1 X8.780 Y-4.897 E0.03557
G1 X8.650 Y-5.262 E0.03557
G1 X8.484 Y-5.612 E0.03557
G1 X8.285 Y-5.945 E0.03557
G1 X8.054 Y-6.256 E0.03557
G1 X7.794 Y-6.543 E0.03557
G1 X7.506 Y-6.804 E0.03557
G1 X7.195 Y-7.035 E0.03557
G1 X6.862 Y-7.234 E0.03557
G1 X6.518 Y-7.397 E0.03498
G1 X6.147 Y-7.530 E0.03613
G1 X5.771 Y-7.625 E0.03560
G1 X5.387 Y-7.682 E0.03557
G1 X5.000 Y-7.701 E0.03557
G1 X4.613 Y-7.682 E0.03557
G1 X4.229 Y-7.625 E0.03557
G1 X3.853 Y-7.530 E0.03557
G1 X3.494 Y-7.402 E0.03498
G1 X3.138 Y-7.234 E0.03613
G1 X2.805 Y-7.035 E0.03560
G1 X2.494 Y-6.804 E0.03557
G1 X2.207 Y-6.543 E0.03557
G1 X1.946 Y-6.256 E0.03557
G1 X1.715 Y-5.945 E0.03557
G1 X1.516 Y-5.612 E0.03557
G1 X1.350 Y-5.262 E0.03557
G1 X1.220 Y-4.897 E0.03557
G1 X1.125 Y-4.521 E0.03557
G1 X1.069 Y-4.137 E0.03557
G1 X1.049 Y-3.747 E0.03581
G1 X1.075 Y-3.336 E0.03783
G1 X1.075 Y24.300 E2.53560
G1 X-12.150 Y24.300 E1.21340
G1 X-12.150 Y18.900 E0.49545
G1 X-14.550 Y18.900 E0.22020
G1 X-14.550 Y4.800 E1.29368
G1 X-14.621 Y4.800 E0.00648
G1 X-14.648 Y4.245 E0.05094
G1 X-14.942 Y2.260 E0.18414
G1 X-15.430 Y0.314 E0.18414
G1 X-16.106 Y-1.576 E0.18414
G1 X-16.550 Y-2.515 E0.09525
G1 X-16.550 Y-17.700 E1.39328
G1 X-20.599 Y-17.700 E0.37154
G1 X-20.599 Y-24.300 E0.60555
G1 X24.550 Y-24.300 E4.14249
G1 X24.550 Y-12.442 E1.08800
G1 X24.064 Y-12.320 E0.04601 F900.000
G1 X22.174 Y-11.644 E0.18414
G1 X20.360 Y-10.786 E0.18413
G1 X18.638 Y-9.754 E0.18414
G1 X17.026 Y-8.558 E0.18414
G1 X15.539 Y-7.211 E0.18413
G1 X14.207 Y-5.741 E0.18196
G1 X12.996 Y-4.112 E0.18628
G1 X11.964 Y-2.390 E0.18416
G1 X11.060 Y-0.479 E0.19399
G1 X10.430 Y1.315 E0.17444
G1 X9.942 Y3.260 E0.18403
G1 X9.648 Y5.245 E0.18414
G1 X9.621 Y5.800 E0.05094
G1 X9.550 Y5.800 E0.00649
G1 X9.550 Y15.416 E0.88224
G1 X9.204 Y15.676 F9000.000
G1 X8.365 Y15.131 F9000.000
G1 X8.019 Y14.785 E0.04774 F900.000
G1 X7.481 Y15.323 E0.07418
G1 X8.365 Y16.208 E0.12192
G1 X8.365 Y17.284 E0.10491
G1 X6.943 Y15.861 E0.19611
G1 X6.405 Y16.399 E0.07418
G1 X8.365 Y18.360 E0.27029
G1 X8.365 Y19.436 E0.10491
G1 X5.464 Y16.535 E0.39997
G1 X4.388 Y16.535 E0.10491
G1 X8.365 Y20.512 E0.54834
G1 X8.365 Y21.588 E0.10491
G1 X4.160 Y17.383 E0.57981
G1 X4.160 Y18.459 E0.10491
G1 X8.365 Y22.664 E0.57981
G1 X7.740 Y23.115 E0.07515
G1 X4.160 Y19.535 E0.49364
G1 X4.160 Y20.611 E0.10491
G1 X6.664 Y23.115 E0.34528
G1 X5.588 Y23.115 E0.10491
G1 X4.160 Y21.687 E0.19691
G1 X4.160 Y22.763 E0.10491
G1 X4.512 Y23.115 E0.04854
G1 X8.371 Y11.613 F9000.000
G1 X4.155 Y7.397 E0.58129 F900.000
G1 X4.155 Y6.291 E0.10777
G1 X8.371 Y10.508 E0.58129
G1 X8.371 Y9.402 E0.10777
G1 X4.155 Y5.186 E0.58129
G1 X4.155 Y4.081 E0.10777
G1 X8.371 Y8.297 E0.58129
G1 X8.371 Y7.191 E0.10777
G1 X4.155 Y2.975 E0.58129
G1 X4.155 Y1.870 E0.10777
G1 X8.371 Y6.086 E0.58129
G1 X8.371 Y4.980 E0.10777
G1 X4.768 Y1.378 E0.49665
G1 X5.788 Y1.292 E0.09975
G1 X8.641 Y4.145 E0.39336
G1 X8.784 Y3.183 E0.09488
G1 X6.655 Y1.054 E0.29354
G1 X7.415 Y0.708 E0.08138
G1 X9.003 Y2.297 E0.21904
G1 X9.225 Y1.413 E0.08885
G1 X8.079 Y0.267 E0.15795
G1 X9.101 Y0.184 E0.09999
G1 X9.488 Y0.571 E0.05333
G1 X5.623 Y9.971 F9000.000
G1 X4.155 Y8.502 E0.20244 F900.000
G1 X4.155 Y9.608 E0.10777
G1 X4.517 Y9.971 E0.05002
G1 E-3.20000 F3000.00000
G1 Z0.700 F9000.000
G1 X0.274 Y10.325 F9000.000
G1 Z0.300 F9000.000
G1 E3.20000 F3000.00000
G1 X0.408 Y10.922 E0.05615 F600.000
G1 X0.510 Y11.513 E0.05498
G1 X0.581 Y12.096 E0.05393
G1 X0.624 Y12.676 E0.05329
G1 X0.638 Y13.247 E0.05241
G1 X0.624 Y13.833 E0.05378
G1 X0.581 Y14.404 E0.05254
G1 X0.510 Y14.987 E0.05393
G1 X0.408 Y15.578 E0.05498
G1 X0.274 Y16.175 E0.05615
G1 E-3.20000 F3000.00000
G1 Z0.700 F9000.000
G1 X9.325 Y-0.307 F9000.000
G1 Z0.300 F9000.000
G1 E3.20000 F3000.00000
G1 X9.551 Y-0.733 E0.09241 F600.000
G1 X10.012 Y-1.693 E0.20400
G1 X10.216 Y-2.188 E0.10246
G1 X10.467 Y-2.890 E0.14281
G1 X11.221 Y-3.342 F9000.000
G1 X10.107 Y-4.456 E0.14590 F900.000
G1 X9.763 Y-5.850 E0.13286
G1 X11.615 Y-3.999 E0.24238
G1 X22.564 Y-12.996 F9000.000
G1 X19.594 Y-15.965 E0.38883 F900.000
G1 X20.644 Y-15.965 E0.09720
G1 X23.337 Y-13.272 E0.35260
G1 X23.365 Y-14.294 E0.09464
G1 X21.694 Y-15.965 E0.21881
G1 X22.257 Y-16.452 E0.06891
G1 X23.365 Y-15.344 E0.14516
G1 X23.365 Y-16.394 E0.09720
G1 X22.782 Y-16.977 E0.07643
G1 E-3.20000 F3000.00000
G1 Z0.700 F9000.000
G1 X19.095 Y-22.763 F9000.000
G1 Z0.300 F9000.000
G1 E3.20000 F3000.00000
G1 X18.743 Y-23.115 E0.04610 F900.000
G1 X17.694 Y-23.115 E0.09720
G1 X18.752 Y-22.056 E0.13864
G1 X18.227 Y-21.531 E0.06873
G1 X16.644 Y-23.115 E0.20737
G1 X15.594 Y-23.115 E0.09720
G1 X17.703 Y-21.007 E0.27610
G1 X17.215 Y-20.444 E0.06891
G1 X14.544 Y-23.115 E0.34975
G1 X13.494 Y-23.115 E0.09720
G1 X17.215 Y-19.394 E0.48721
G1 X17.215 Y-18.344 E0.09720
G1 X12.444 Y-23.115 E0.62468
G1 X11.395 Y-23.115 E0.09720
G1 X21.793 Y-12.717 E1.36152
G1 X21.080 Y-12.380 E0.07300
G1 X10.345 Y-23.115 E1.40566
G1 X9.295 Y-23.115 E0.09720
G1 X20.367 Y-12.043 E1.44980
G1 X19.673 Y-11.688 E0.07224
G1 X8.245 Y-23.115 E1.49630
G1 X7.195 Y-23.115 E0.09720
G1 X19.016 Y-11.294 E1.54782
G1 X18.360 Y-10.901 E0.07085
G1 X6.146 Y-23.115 E1.59933
G1 X5.096 Y-23.115 E0.09720
G1 X17.732 Y-10.479 E1.65454
G1 X17.129 Y-10.032 E0.06948
G1 X4.046 Y-23.115 E1.71307
G1 X2.996 Y-23.115 E0.09720
G1 X16.526 Y-9.585 E1.77161
G1 X15.959 Y-9.103 E0.06896
G1 X1.946 Y-23.115 E1.83475
G1 X0.896 Y-23.115 E0.09720
G1 X15.408 Y-8.604 E1.90011
G1 X14.857 Y-8.105 E0.06881
G1 X-0.153 Y-23.115 E1.96546
G1 X-1.203 Y-23.115 E0.09720
G1 X14.348 Y-7.564 E2.03621
G1 X13.849 Y-7.014 E0.06881
G1 X-2.253 Y-23.115 E2.10831
G1 X-3.303 Y-23.115 E0.09720
G1 X13.349 Y-6.463 E2.18042
G1 X12.899 Y-5.863 E0.06943
G1 X-4.353 Y-23.115 E2.25895
G1 X-5.402 Y-23.115 E0.09720
G1 X12.452 Y-5.261 E2.33780
G1 X12.008 Y-4.655 E0.06955
G1 X-6.452 Y-23.115 E2.41716
G1 X-7.502 Y-23.115 E0.09720
G1 X7.101 Y-8.512 E1.91207
G1 X5.706 Y-8.857 E0.13297
G1 X-8.552 Y-23.115 E1.86697
G1 X-7.215 Y-20.729 F9000.000
G1 X4.651 Y-8.862 E1.55378 F900.000
G1 X3.768 Y-8.696 E0.08326
G1 X-7.215 Y-19.679 E1.43806
G1 X-7.215 Y-18.629 E0.09720
G1 X2.995 Y-8.419 E1.33685
G1 X2.312 Y-8.053 E0.07178
