; generated by Slic3r 1.2.9 on 2016-12-16 at 14:14:14

; external perimeters extrusion width = 0.50mm
; perimeters extrusion width = 0.50mm
; infill extrusion width = 0.50mm
; solid infill extrusion width = 0.50mm
; top infill extrusion width = 0.50mm

M107
;Basic settings: Layer height: {layer_height} Walls: {wall_thickness} Fill: {fill_density}
;Print time: {print_time}
;Filament used: {filament_amount}m {filament_weight}g
;Filament cost: {filament_cost}
;M190 S{print_bed_temperature} ;Uncomment to add your own bed temperature line
;M109 S{print_temperature} ;Uncomment to add your own temperature line
G21        ;metric values
G90        ;absolute positioning
M83
G10 P0 S200
T0
M116


G21 ; set units to millimeters
G90 ; use absolute coordinates
M83 ; use relative distances for extrusion
G1 E-3.20000 F3000.00000
G1 Z0.400 F9000.000
G1 X0.000 Y-19.803 F9000.000
G1 Z0.300 F9000.000
G1 E3.20000 F3000.00000
G1 X28.683 Y-19.803 E2.63166 F1200.000
G1 X29.174 Y-19.770 E0.04516
G1 X29.290 Y-19.755 E0.01077 F1200.000
G1 X30.232 Y-19.502 E0.08946
G1 X30.340 Y-19.457 E0.01077
G1 X31.184 Y-18.968 E0.08948
G1 X31.278 Y-18.897 E0.01077
G1 X31.966 Y-18.206 E0.08947
G1 X32.038 Y-18.113 E0.01077
G1 X32.446 Y-17.446 E0.07179
G1 X36.885 Y-8.106 E0.94885
G1 X37.594 Y-6.339 E0.17458
G1 X38.077 Y-4.727 E0.15447
G1 X38.367 Y-3.393 E0.12527
G1 X38.596 Y-1.724 E0.15452
G1 X38.624 Y-1.406 E0.02933
G1 X38.682 Y0.272 E0.15403
G1 X38.602 Y1.897 E0.14925
G1 X38.439 Y3.205 E0.12095
G1 X38.389 Y3.509 E0.02833
G1 X38.042 Y5.099 E0.14926
G1 X37.666 Y6.362 E0.12095
G1 X37.087 Y7.883 E0.14926
G1 X36.963 Y8.165 E0.02833
G1 X36.237 Y9.621 E0.14925
G1 X35.562 Y10.754 E0.12096
G1 X34.627 Y12.085 E0.14926
G1 X34.437 Y12.328 E0.02832
G1 X33.376 Y13.562 E0.14927
G1 X32.217 Y14.703 E0.14923
G1 X30.967 Y15.745 E0.14929
G1 X29.894 Y16.511 E0.12095
G1 X28.504 Y17.354 E0.14926
G1 X27.048 Y18.080 E0.14926
G1 X25.541 Y18.682 E0.14885
G1 X25.245 Y18.784 E0.02873
G1 X23.682 Y19.236 E0.14926
G1 X22.392 Y19.506 E0.12098
G1 X20.784 Y19.719 E0.14881
G1 X20.472 Y19.745 E0.02874
G1 X19.000 Y19.803 E0.13512
G1 X-19.000 Y19.803 E3.48652
G1 X-20.472 Y19.745 E0.13512
G1 X-22.087 Y19.557 E0.14926
G1 X-23.682 Y19.236 E0.14926
G1 X-25.245 Y18.784 E0.14926
G1 X-26.765 Y18.204 E0.14926
G1 X-28.232 Y17.501 E0.14929
G1 X-28.504 Y17.354 E0.02830
G1 X-29.894 Y16.511 E0.14922
G1 X-31.211 Y15.555 E0.14930
G1 X-32.444 Y14.494 E0.14926
G1 X-33.376 Y13.562 E0.12095
G1 X-34.437 Y12.329 E0.14926
G1 X-35.393 Y11.012 E0.14931
G1 X-36.237 Y9.621 E0.14921
G1 X-36.384 Y9.350 E0.02833
G1 X-37.086 Y7.883 E0.14921
G1 X-37.666 Y6.362 E0.14931
G1 X-38.042 Y5.099 E0.12095
G1 X-38.389 Y3.509 E0.14926
G1 X-38.439 Y3.205 E0.02833
G1 X-38.628 Y1.589 E0.14926
G1 X-38.682 Y-0.041 E0.14969
G1 X-38.596 Y-1.724 E0.15460
G1 X-38.367 Y-3.393 E0.15452
G1 X-37.996 Y-5.035 E0.15452
G1 X-37.486 Y-6.640 E0.15448
G1 X-36.885 Y-8.106 E0.14532
G1 X-32.446 Y-17.446 E0.94887
G1 X-31.966 Y-18.208 E0.08261
G1 X-31.277 Y-18.897 E0.08940
G1 X-31.184 Y-18.968 E0.01076
G1 X-30.340 Y-19.457 E0.08944
G1 X-30.232 Y-19.502 E0.01077
G1 X-29.290 Y-19.755 E0.08946
G1 X-28.683 Y-19.803 E0.05591
G1 X-0.060 Y-19.803 E2.62616
G1 E-3.20000 F3000.00000
G1 Z0.700 F9000.000
G1 X-6.613 Y-16.981 F9000.000
G1 Z0.300 F9000.000
G1 E3.20000 F3000.00000
G1 X-6.439 Y-16.561 E0.04173 F1200.000
G1 X-6.352 Y-16.234 E0.03097
G1 X-6.293 Y-15.783 E0.04174
G1 X-6.294 Y-15.446 E0.03097
G1 X-6.353 Y-14.995 E0.04173
G1 X-6.441 Y-14.669 E0.03096
G1 X-6.689 Y-14.112 E0.05591
G1 X-6.604 Y-13.636 E0.04444
G1 X-5.667 Y-12.743 E0.11875
G1 X-4.616 Y-11.556 E0.14543
G1 X-3.671 Y-10.283 E0.14546
G1 X-2.838 Y-8.935 E0.14541
G1 X-2.123 Y-7.520 E0.14544
G1 X-1.532 Y-6.049 E0.14542
G1 X-1.069 Y-4.534 E0.14540
G1 X-0.756 Y-3.092 E0.13535
G1 X-0.647 Y-2.287 E0.07460
G1 X0.647 Y-2.287 E0.11868
G1 X0.756 Y-3.092 E0.07460
G1 X1.069 Y-4.534 E0.13532
G1 X1.532 Y-6.049 E0.14542
G1 X2.123 Y-7.520 E0.14544
G1 X2.838 Y-8.935 E0.14544
G1 X3.671 Y-10.284 E0.14543
G1 X4.616 Y-11.556 E0.14546
G1 X5.667 Y-12.743 E0.14540
G1 X6.601 Y-13.633 E0.11845
G1 X6.690 Y-14.100 E0.04362
G1 X6.515 Y-14.476 E0.03799
G1 X6.359 Y-14.981 E0.04850
G1 X6.291 Y-15.532 E0.05094
G1 X6.297 Y-15.813 E0.02581
G1 X6.353 Y-16.237 E0.03923
G1 X6.440 Y-16.563 E0.03094
G1 X6.614 Y-16.982 E0.04170
G1 X6.782 Y-17.274 E0.03093
G1 X7.058 Y-17.635 E0.04169
G1 X7.297 Y-17.874 E0.03094
G1 X7.657 Y-18.151 E0.04170
G1 X7.949 Y-18.320 E0.03095
G1 X8.369 Y-18.494 E0.04173
G1 X8.695 Y-18.582 E0.03096
G1 X9.146 Y-18.642 E0.04173
G1 X9.484 Y-18.642 E0.03097
G1 X9.935 Y-18.583 E0.04173
G1 X10.261 Y-18.496 E0.03097
G1 X10.681 Y-18.322 E0.04173
G1 X10.973 Y-18.154 E0.03097
G1 X11.335 Y-17.877 E0.04173
G1 X11.573 Y-17.639 E0.03096
G1 X11.895 Y-17.203 E0.04973
G1 X12.808 Y-15.625 E0.16723
G1 X13.251 Y-14.557 E0.10611
G1 X13.339 Y-14.200 E0.03368
G1 X13.442 Y-13.143 E0.09743
G1 X13.426 Y-12.777 E0.03368
G1 X13.228 Y-11.733 E0.09743
G1 X13.109 Y-11.386 E0.03368
G1 X12.627 Y-10.440 E0.09743
G1 X12.415 Y-10.140 E0.03368
G1 X11.676 Y-9.365 E0.09826
G1 X10.723 Y-8.532 E0.11616
G1 X9.980 Y-7.754 E0.09868
G1 X9.310 Y-6.913 E0.09868
G1 X8.718 Y-6.015 E0.09868
G1 X8.223 Y-5.097 E0.09565
G1 X7.799 Y-4.109 E0.09868
G1 X7.456 Y-3.055 E0.10171
G1 X7.218 Y-2.006 E0.09868
G1 X7.075 Y-0.940 E0.09868
G1 X7.028 Y0.136 E0.09881
G1 X7.075 Y1.177 E0.09566
G1 X7.212 Y2.212 E0.09583
G1 X7.440 Y3.232 E0.09583
G1 X7.744 Y4.197 E0.09289
G1 X8.143 Y5.163 E0.09583
G1 X8.624 Y6.090 E0.09583
G1 X9.184 Y6.971 E0.09583
G1 X9.818 Y7.801 E0.09583
G1 X10.523 Y8.572 E0.09583
G1 X11.292 Y9.279 E0.09583
G1 X12.120 Y9.915 E0.09583
G1 X13.000 Y10.478 E0.09583
G1 X13.926 Y10.961 E0.09583
G1 X14.890 Y11.362 E0.09583
G1 X15.886 Y11.678 E0.09583
G1 X16.905 Y11.905 E0.09583
G1 X17.941 Y12.043 E0.09583
G1 X18.984 Y12.090 E0.09583
G1 X20.027 Y12.046 E0.09583
G1 X21.095 Y11.905 E0.09877
G1 X22.114 Y11.678 E0.09583
G1 X23.110 Y11.362 E0.09583
G1 X24.045 Y10.975 E0.09289
G1 X24.972 Y10.494 E0.09583
G1 X25.854 Y9.934 E0.09583
G1 X26.683 Y9.299 E0.09583
G1 X27.477 Y8.572 E0.09877
G1 X28.182 Y7.801 E0.09583
G1 X28.816 Y6.971 E0.09583
G1 X29.360 Y6.118 E0.09288
G1 X29.844 Y5.192 E0.09583
G1 X30.245 Y4.227 E0.09583
G1 X30.560 Y3.232 E0.09583
G1 X30.788 Y2.212 E0.09583
G1 X30.925 Y1.177 E0.09583
G1 X30.972 Y0.136 E0.09565
G1 X30.925 Y-0.940 E0.09881
G1 X30.776 Y-2.039 E0.10171
G1 X30.544 Y-3.055 E0.09565
G1 X30.213 Y-4.078 E0.09868
G1 X29.791 Y-5.068 E0.09868
G1 X29.282 Y-6.015 E0.09868
G1 X28.671 Y-6.940 E0.10171
G1 X27.998 Y-7.779 E0.09868
G1 X27.253 Y-8.555 E0.09868
G1 X26.225 Y-9.461 E0.12578
G1 X25.545 Y-10.192 E0.09156
G1 X25.327 Y-10.511 E0.03545
G1 X24.842 Y-11.518 E0.10252
G1 X24.728 Y-11.887 E0.03545
G1 X24.567 Y-12.953 E0.09896
G1 X24.557 Y-13.259 E0.02805
G1 X24.618 Y-13.948 E0.06346
G1 X24.657 Y-14.170 E0.02066
G1 X24.826 Y-14.800 E0.05992
G1 X24.904 Y-15.012 E0.02067
G1 X25.209 Y-15.654 E0.06527
G1 X26.199 Y-17.343 E0.17954
G1 X26.427 Y-17.639 E0.03429
G1 X26.665 Y-17.877 E0.03096
G1 X27.026 Y-18.154 E0.04173
G1 X27.319 Y-18.322 E0.03097
G1 X27.739 Y-18.496 E0.04174
G1 X28.065 Y-18.583 E0.03097
G1 X28.517 Y-18.642 E0.04173
G1 X28.854 Y-18.642 E0.03097
G1 X29.305 Y-18.582 E0.04173 F1200.000
G1 X29.631 Y-18.494 E0.03096
G1 X30.051 Y-18.320 E0.04173
G1 X30.343 Y-18.151 E0.03097
G1 X30.704 Y-17.873 E0.04173
G1 X30.942 Y-17.635 E0.03096
G1 X31.219 Y-17.273 E0.04173
G1 X31.387 Y-16.981 E0.03097
G1 X31.561 Y-16.561 E0.04173
G1 X31.648 Y-16.234 E0.03097
G1 X31.707 Y-15.783 E0.04174
G1 X31.706 Y-15.446 E0.03097
G1 X31.647 Y-14.995 E0.04173
G1 X31.559 Y-14.669 E0.03096
G1 X31.311 Y-14.112 E0.05591
G1 X31.396 Y-13.636 E0.04444
G1 X32.333 Y-12.743 E0.11875
G1 X33.314 Y-11.641 E0.13531
G1 X34.267 Y-10.374 E0.14545
G1 X35.108 Y-9.031 E0.14542
G1 X35.831 Y-7.620 E0.14546
G1 X36.468 Y-6.049 E0.15550
G1 X36.944 Y-4.475 E0.15087
G1 X37.263 Y-2.984 E0.13995
G1 X37.452 Y-1.521 E0.13535
G1 X37.525 Y0.170 E0.15531
G1 X37.466 Y1.594 E0.13077
G1 X37.281 Y3.114 E0.14048
G1 X36.945 Y4.717 E0.15022
G1 X36.504 Y6.183 E0.14049
G1 X35.986 Y7.510 E0.13072
G1 X35.267 Y8.981 E0.15022
G1 X34.537 Y10.205 E0.13073
G1 X33.651 Y11.454 E0.14046
G1 X32.593 Y12.703 E0.15025
G1 X31.507 Y13.783 E0.14046
G1 X30.420 Y14.703 E0.13074
G1 X29.176 Y15.597 E0.14048
G1 X27.864 Y16.384 E0.14047
G1 X26.393 Y17.103 E0.15023
G1 X25.065 Y17.621 E0.13074
G1 X23.599 Y18.062 E0.14046
G1 X21.996 Y18.398 E0.15024
G1 X20.583 Y18.575 E0.13071
G1 X19.054 Y18.642 E0.14042
G1 X17.417 Y18.575 E0.15027
G1 X15.899 Y18.381 E0.14047
G1 X14.504 Y18.088 E0.13070
G1 X12.935 Y17.621 E0.15023
G1 X11.607 Y17.103 E0.13074
G1 X10.230 Y16.435 E0.14049
G1 X8.824 Y15.597 E0.15020
G1 X7.664 Y14.769 E0.13073
G1 X6.493 Y13.783 E0.14047
G1 X5.335 Y12.625 E0.15027
G1 X4.349 Y11.454 E0.14044
G1 X3.521 Y10.294 E0.13073
G1 X2.683 Y8.887 E0.15026
G1 X2.014 Y7.510 E0.14041
G1 X1.496 Y6.183 E0.13074
G1 X1.029 Y4.614 E0.15022
G1 X0.737 Y3.219 E0.13073
G1 X0.623 Y2.537 E0.06341
G1 X-0.623 Y2.537 E0.11433
G1 X-0.737 Y3.219 E0.06341
G1 X-1.055 Y4.717 E0.14046
G1 X-1.496 Y6.183 E0.14049
G1 X-2.014 Y7.510 E0.13072
G1 X-2.763 Y9.031 E0.15551
G1 X-3.521 Y10.294 E0.13518
G1 X-4.414 Y11.538 E0.14047
G1 X-5.335 Y12.625 E0.13073
G1 X-6.414 Y13.711 E0.14047
G1 X-7.664 Y14.769 E0.15024
G1 X-8.823 Y15.597 E0.13072
G1 X-10.136 Y16.384 E0.14047
G1 X-11.607 Y17.103 E0.15023
G1 X-12.935 Y17.621 E0.13074
G1 X-14.401 Y18.062 E0.14046
G1 X-16.003 Y18.398 E0.15024
G1 X-17.523 Y18.583 E0.14047
G1 X-19.053 Y18.642 E0.14046
G1 X-20.583 Y18.575 E0.14048
G1 X-21.996 Y18.398 E0.13069
G1 X-23.599 Y18.062 E0.15022
G1 X-25.065 Y17.621 E0.14050
G1 X-26.393 Y17.103 E0.13074
G1 X-27.864 Y16.384 E0.15024
G1 X-29.176 Y15.597 E0.14046
G1 X-30.336 Y14.769 E0.13073
G1 X-31.586 Y13.710 E0.15026
G1 X-32.593 Y12.703 E0.13070
G1 X-33.586 Y11.538 E0.14047
G1 X-34.537 Y10.205 E0.15021
G1 X-35.317 Y8.887 E0.14054
G1 X-35.986 Y7.510 E0.14041
G1 X-36.504 Y6.183 E0.13074
G1 X-36.971 Y4.614 E0.15022
G1 X-37.263 Y3.219 E0.13073
G1 X-37.450 Y1.758 E0.13518
G1 X-37.525 Y0.170 E0.14585
G1 X-37.452 Y-1.521 E0.15527
G1 X-37.244 Y-3.092 E0.14544
G1 X-36.903 Y-4.640 E0.14543
G1 X-36.431 Y-6.153 E0.14540
G1 X-35.831 Y-7.620 E0.14545
G1 X-35.162 Y-8.935 E0.13533
G1 X-34.329 Y-10.284 E0.14543
G1 X-33.314 Y-11.641 E0.15551
G1 X-32.333 Y-12.743 E0.13534
G1 X-31.399 Y-13.633 E0.11845
G1 X-31.310 Y-14.100 E0.04362
G1 X-31.485 Y-14.476 E0.03799
G1 X-31.641 Y-14.981 E0.04850
G1 X-31.709 Y-15.532 E0.05094
G1 X-31.703 Y-15.813 E0.02581
G1 X-31.647 Y-16.237 E0.03923
G1 X-31.560 Y-16.563 E0.03094
G1 X-31.386 Y-16.982 E0.04170
G1 X-31.218 Y-17.274 E0.03093
G1 X-30.942 Y-17.635 E0.04169
G1 X-30.703 Y-17.874 E0.03094
G1 X-30.343 Y-18.151 E0.04170
G1 X-30.051 Y-18.320 E0.03095
G1 X-29.631 Y-18.494 E0.04173
G1 X-29.305 Y-18.582 E0.03096
G1 X-28.854 Y-18.642 E0.04173
G1 X-28.516 Y-18.642 E0.03097
G1 X-28.065 Y-18.583 E0.04173
G1 X-27.739 Y-18.496 E0.03097
G1 X-27.319 Y-18.322 E0.04173
G1 X-27.027 Y-18.154 E0.03097
G1 X-26.665 Y-17.877 E0.04173
G1 X-26.427 Y-17.639 E0.03096
G1 X-26.199 Y-17.343 E0.03429
G1 X-25.192 Y-15.625 E0.18267
G1 X-24.749 Y-14.557 E0.10611
G1 X-24.661 Y-14.200 E0.03368
G1 X-24.558 Y-13.143 E0.09743
G1 X-24.574 Y-12.777 E0.03368
G1 X-24.772 Y-11.733 E0.09743
G1 X-24.891 Y-11.386 E0.03368
G1 X-25.373 Y-10.440 E0.09743
G1 X-25.585 Y-10.140 E0.03368
G1 X-26.233 Y-9.452 E0.08673
G1 X-27.253 Y-8.555 E0.12465
G1 X-27.998 Y-7.779 E0.09868
G1 X-28.690 Y-6.913 E0.10171
G1 X-29.282 Y-6.015 E0.09868
G1 X-29.777 Y-5.097 E0.09565
G1 X-30.201 Y-4.109 E0.09868
G1 X-30.535 Y-3.087 E0.09868
G1 X-30.776 Y-2.039 E0.09868
G1 X-30.922 Y-0.973 E0.09868
G1 X-30.972 Y0.103 E0.09885
G1 X-30.928 Y1.145 E0.09570
G1 X-30.793 Y2.181 E0.09583
G1 X-30.568 Y3.201 E0.09583
G1 X-30.256 Y4.197 E0.09583
G1 X-29.857 Y5.163 E0.09583
G1 X-29.360 Y6.118 E0.09877
G1 X-28.816 Y6.971 E0.09288
G1 X-28.182 Y7.801 E0.09583
G1 X-27.454 Y8.595 E0.09877
G1 X-26.683 Y9.299 E0.09583
G1 X-25.854 Y9.934 E0.09583
G1 X-25.000 Y10.478 E0.09289
G1 X-24.074 Y10.961 E0.09583
G1 X-23.080 Y11.373 E0.09877
G1 X-22.114 Y11.678 E0.09289
G1 X-21.095 Y11.905 E0.09583
G1 X-20.059 Y12.043 E0.09583
G1 X-19.016 Y12.090 E0.09583
G1 X-17.941 Y12.043 E0.09877
G1 X-16.937 Y11.911 E0.09289
G1 X-15.917 Y11.686 E0.09583
G1 X-14.920 Y11.373 E0.09583
G1 X-13.955 Y10.975 E0.09583
G1 X-13.000 Y10.478 E0.09877
G1 X-12.120 Y9.915 E0.09583
G1 X-11.292 Y9.279 E0.09583
G1 X-10.546 Y8.595 E0.09288
G1 X-9.839 Y7.825 E0.09583
G1 X-9.184 Y6.971 E0.09877
G1 X-8.624 Y6.090 E0.09583
G1 X-8.143 Y5.163 E0.09583
G1 X-7.744 Y4.197 E0.09583
G1 X-7.432 Y3.201 E0.09583
G1 X-7.207 Y2.181 E0.09583
G1 X-7.072 Y1.145 E0.09583
G1 X-7.028 Y0.103 E0.09570
G1 X-7.078 Y-0.973 E0.09885
G1 X-7.224 Y-2.039 E0.09868
G1 X-7.465 Y-3.087 E0.09868
G1 X-7.787 Y-4.078 E0.09565
G1 X-8.209 Y-5.068 E0.09868
G1 X-8.718 Y-6.015 E0.09868
G1 X-9.310 Y-6.913 E0.09868
G1 X-10.002 Y-7.779 E0.10171
G1 X-10.747 Y-8.555 E0.09868
G1 X-11.775 Y-9.461 E0.12578
G1 X-12.455 Y-10.192 E0.09156
G1 X-12.673 Y-10.511 E0.03545
G1 X-13.158 Y-11.518 E0.10252
G1 X-13.272 Y-11.887 E0.03545
G1 X-13.433 Y-12.953 E0.09896
G1 X-13.443 Y-13.259 E0.02805
G1 X-13.382 Y-13.948 E0.06346
G1 X-13.343 Y-14.170 E0.02066
G1 X-13.174 Y-14.800 E0.05992
G1 X-13.096 Y-15.012 E0.02067
G1 X-12.791 Y-15.654 E0.06527
G1 X-11.895 Y-17.202 E0.16410
G1 X-11.573 Y-17.639 E0.04975
G1 X-11.335 Y-17.877 E0.03096
G1 X-10.974 Y-18.154 E0.04173
G1 X-10.681 Y-18.322 E0.03097
G1 X-10.261 Y-18.496 E0.04174
G1 X-9.935 Y-18.583 E0.03097
G1 X-9.483 Y-18.642 E0.04173
G1 X-9.146 Y-18.642 E0.03097
G1 X-8.695 Y-18.582 E0.04173
G1 X-8.369 Y-18.494 E0.03096
G1 X-7.949 Y-18.320 E0.04173
G1 X-7.657 Y-18.151 E0.03097
G1 X-7.296 Y-17.873 E0.04173
G1 X-7.058 Y-17.635 E0.03096
G1 X-6.781 Y-17.273 E0.04173
G1 X-6.643 Y-17.033 E0.02546
G1 E-3.20000 F3000.00000
G1 Z0.700 F9000.000
G1 X4.287 Y-9.882 F9000.000
G1 Z0.300 F9000.000
G1 E3.20000 F3000.00000
G1 X5.246 Y-11.164 E0.14686 F1200.000
G1 X6.206 Y-12.242 E0.13245
G1 X7.207 Y-13.194 E0.12681
G1 X7.508 Y-13.536 E0.04173
G1 X7.576 Y-13.947 E0.03825
G1 X7.436 Y-14.293 E0.03426
G1 X7.280 Y-14.575 E0.02961
G1 X7.140 Y-14.909 E0.03321
G1 X7.050 Y-15.299 E0.03668
G1 X7.031 Y-15.757 E0.04207
G1 X7.076 Y-16.093 E0.03113
G1 X7.138 Y-16.326 E0.02210
G1 X7.275 Y-16.657 E0.03286
G1 X7.395 Y-16.865 E0.02210
G1 X7.613 Y-17.149 E0.03286
G1 X7.783 Y-17.320 E0.02210
G1 X8.067 Y-17.538 E0.03286
G1 X8.276 Y-17.659 E0.02211
G1 X8.607 Y-17.796 E0.03288
G1 X8.840 Y-17.859 E0.02212
G1 X9.195 Y-17.906 E0.03289
G1 X9.436 Y-17.906 E0.02212
G1 X9.791 Y-17.860 E0.03289
G1 X10.024 Y-17.798 E0.02212
G1 X10.356 Y-17.661 E0.03289
G1 X10.565 Y-17.541 E0.02212
G1 X10.849 Y-17.323 E0.03289
G1 X11.020 Y-17.152 E0.02212
G1 X11.270 Y-16.813 E0.03869
G1 X12.215 Y-15.162 E0.17460
G1 X12.549 Y-14.331 E0.08212
G1 X12.612 Y-14.076 E0.02406
G1 X12.705 Y-13.124 E0.08781
G1 X12.693 Y-12.862 E0.02405
G1 X12.515 Y-11.922 E0.08781
G1 X12.430 Y-11.674 E0.02406
G1 X11.995 Y-10.821 E0.08781
G1 X11.844 Y-10.607 E0.02405
G1 X11.179 Y-9.908 E0.08852
G1 X10.214 Y-9.065 E0.11754
G1 X9.448 Y-8.264 E0.10172
G1 X8.734 Y-7.373 E0.10475
G1 X8.103 Y-6.422 E0.10475
G1 X7.546 Y-5.388 E0.10778
G1 X7.110 Y-4.368 E0.10172
G1 X6.755 Y-3.283 E0.10475
G1 X6.499 Y-2.170 E0.10475
G1 X6.344 Y-1.039 E0.10475
G1 X6.292 Y0.102 E0.10488
G1 X6.338 Y1.209 E0.10164
G1 X6.482 Y2.309 E0.10172
G1 X6.720 Y3.391 E0.10172
G1 X7.052 Y4.449 E0.10172
G1 X7.475 Y5.474 E0.10172
G1 X7.986 Y6.458 E0.10172
G1 X8.581 Y7.394 E0.10172
G1 X9.254 Y8.274 E0.10172
G1 X10.002 Y9.093 E0.10172
G1 X10.819 Y9.843 E0.10172
G1 X11.698 Y10.519 E0.10172
G1 X12.632 Y11.115 E0.10172
G1 X13.644 Y11.642 E0.10466
G1 X14.668 Y12.065 E0.10172
G1 X15.726 Y12.397 E0.10172
G1 X16.809 Y12.636 E0.10172
G1 X17.908 Y12.779 E0.10172
G1 X19.016 Y12.826 E0.10172
G1 X20.092 Y12.779 E0.09878
G1 X21.191 Y12.636 E0.10172
G1 X22.274 Y12.397 E0.10172
G1 X23.331 Y12.065 E0.10172
G1 X24.385 Y11.629 E0.10467
G1 X25.340 Y11.132 E0.09878
G1 X26.276 Y10.537 E0.10172
G1 X27.181 Y9.843 E0.10467
G1 X27.975 Y9.115 E0.09878
G1 X28.725 Y8.299 E0.10172
G1 X29.419 Y7.394 E0.10466
