; generated by Slic3r 1.2.9 on 2016-12-19 at 10:16:27

; external perimeters extrusion width = 0.50mm
; perimeters extrusion width = 0.50mm
; infill extrusion width = 0.50mm
; solid infill extrusion width = 0.50mm
; top infill extrusion width = 0.50mm

M107
;Basic settings: Layer height: {layer_height} Walls: {wall_thickness} Fill: {fill_density}
;Print time: {print_time}
;Filament used: {filament_amount}m {filament_weight}g
;Filament cost: {filament_cost}
;M190 S{print_bed_temperature} ;Uncomment to add your own bed temperature line
;M109 S{print_temperature} ;Uncomment to add your own temperature line
G21        ;metric values
G90        ;absolute positioning
M83
G10 P0 S200
T0
M116


G21 ; set units to millimeters
G90 ; use absolute coordinates
M83 ; use relative distances for extrusion
G1 E-3.20000 F3000.00000
G1 Z0.400 F9000.000
G1 X0.000 Y17.183 F9000.000
G1 Z0.300 F9000.000
G1 E3.20000 F3000.00000
G1 X-18.987 Y17.183 E1.74211 F1200.000
G1 X-19.463 Y17.153 E0.04375
G1 X-19.830 Y17.105 E0.03388
G1 X-20.670 Y16.896 E0.07950
G1 X-25.634 Y15.027 E0.48666
G1 X-27.316 Y14.331 E0.16700
G1 X-28.849 Y13.532 E0.15862
G1 X-30.305 Y12.601 E0.15857
G1 X-31.422 Y11.755 E0.12859
G1 X-32.713 Y10.605 E0.15862
G1 X-33.898 Y9.346 E0.15862
G1 X-34.968 Y7.988 E0.15867
G1 X-35.915 Y6.541 E0.15861
G1 X-36.080 Y6.258 E0.03006
G1 X-36.870 Y4.721 E0.15857
G1 X-37.523 Y3.119 E0.15867
G1 X-38.032 Y1.468 E0.15859
G1 X-38.395 Y-0.223 E0.15864
G1 X-38.608 Y-1.939 E0.15862
G1 X-38.670 Y-3.652 E0.15727
G1 X-38.594 Y-5.233 E0.14528
G1 X-38.392 Y-6.803 E0.14525
G1 X-38.064 Y-8.351 E0.14511
G1 X-37.707 Y-9.584 E0.11780
G1 X-37.041 Y-11.345 E0.17273
G1 X-36.352 Y-12.770 E0.14526
G1 X-35.552 Y-14.135 E0.14519
G1 X-34.825 Y-15.190 E0.11749
G1 X-34.399 Y-15.703 E0.06127
G1 X-34.212 Y-15.892 E0.02433
G1 X-33.389 Y-16.517 E0.09483
G1 X-33.159 Y-16.645 E0.02410
G1 X-32.197 Y-17.021 E0.09483
G1 X-31.941 Y-17.082 E0.02410
G1 X-31.077 Y-17.183 E0.07981
G1 X31.090 Y-17.183 E5.70384
G1 X31.954 Y-17.082 E0.07981
G1 X32.209 Y-17.021 E0.02410 F1200.000
G1 X33.172 Y-16.645 E0.09482
G1 X33.401 Y-16.517 E0.02410
G1 X34.224 Y-15.892 E0.09483
G1 X34.411 Y-15.703 E0.02433
G1 X34.842 Y-15.183 E0.06204
G1 X35.611 Y-14.061 E0.12477
G1 X36.451 Y-12.606 E0.15415
G1 X37.164 Y-11.083 E0.15426
G1 X37.744 Y-9.508 E0.15405
G1 X37.839 Y-9.203 E0.02926
G1 X38.257 Y-7.572 E0.15451
G1 X38.534 Y-5.919 E0.15380
G1 X38.654 Y-4.562 E0.12492
G1 X38.673 Y-2.882 E0.15416
G1 X38.549 Y-1.212 E0.15372
G1 X38.509 Y-0.890 E0.02969
G1 X38.215 Y0.764 E0.15415
G1 X37.874 Y2.082 E0.12492
G1 X37.331 Y3.667 E0.15372
G1 X36.651 Y5.208 E0.15458
G1 X35.843 Y6.682 E0.15415
G1 X34.913 Y8.082 E0.15422
G1 X33.868 Y9.396 E0.15409
G1 X33.657 Y9.635 E0.02926
G1 X32.483 Y10.837 E0.15415
G1 X31.211 Y11.935 E0.15415
G1 X29.850 Y12.920 E0.15415
G1 X28.410 Y13.786 E0.15416
G1 X27.192 Y14.395 E0.12492
G1 X25.636 Y15.028 E0.15415
G1 X20.684 Y16.896 E0.48557
G1 X19.842 Y17.105 E0.07961
G1 X19.476 Y17.153 E0.03388
G1 X19.000 Y17.183 E0.04375
G1 X0.060 Y17.183 E1.73775
G1 E-3.20000 F3000.00000
G1 Z0.700 F9000.000
G1 X6.463 Y10.115 F9000.000
G1 Z0.300 F9000.000
G1 E3.20000 F3000.00000
G1 X5.931 Y9.627 E0.06624 F1200.000
G1 X4.903 Y8.516 E0.13893
G1 X3.902 Y7.232 E0.14931
G1 X3.019 Y5.866 E0.14928
G1 X2.258 Y4.428 E0.14926
G1 X1.627 Y2.928 E0.14930
G1 X1.130 Y1.379 E0.14929
G1 X0.771 Y-0.208 E0.14928
G1 X0.648 Y-1.095 E0.08213
G1 X-0.618 Y-1.117 E0.11615
G1 X-0.883 Y0.420 E0.14314
G1 X-1.251 Y1.844 E0.13500
G1 X-1.813 Y3.440 E0.15517
G1 X-2.418 Y4.781 E0.13499
G1 X-3.185 Y6.164 E0.14509
G1 X-4.067 Y7.477 E0.14512
G1 X-5.130 Y8.791 E0.15514
G1 X-6.149 Y9.852 E0.13500
G1 X-7.335 Y10.899 E0.14508
G1 X-8.606 Y11.840 E0.14508
G1 X-10.048 Y12.723 E0.15515
G1 X-11.464 Y13.426 E0.14509
G1 X-12.936 Y14.006 E0.14513
G1 X-14.344 Y14.431 E0.13495
G1 X-16.005 Y14.800 E0.15607
G1 X-16.137 Y14.867 E0.01358
G1 X-16.876 Y15.428 E0.08514
G1 X-17.163 Y15.589 E0.03021
G1 X-17.811 Y15.850 E0.06410
G1 X-18.130 Y15.933 E0.03021
G1 X-18.823 Y16.022 E0.06410
G1 X-19.152 Y16.022 E0.03021
G1 X-19.845 Y15.933 E0.06410
G1 X-20.164 Y15.850 E0.03021
G1 X-20.812 Y15.589 E0.06410
G1 X-21.099 Y15.428 E0.03021
G1 X-21.838 Y14.867 E0.08514
G1 X-21.970 Y14.800 E0.01357
G1 X-23.677 Y14.419 E0.16044
G1 X-25.231 Y13.939 E0.14923
G1 X-26.635 Y13.370 E0.13896
G1 X-28.086 Y12.634 E0.14928
G1 X-29.466 Y11.774 E0.14928
G1 X-30.767 Y10.795 E0.14930
G1 X-32.056 Y9.627 E0.15964
G1 X-33.158 Y8.429 E0.14930
G1 X-34.150 Y7.140 E0.14930
G1 X-34.969 Y5.866 E0.13893
G1 X-35.729 Y4.428 E0.14926
G1 X-36.360 Y2.928 E0.14930
G1 X-36.858 Y1.379 E0.14929
G1 X-37.217 Y-0.208 E0.14928
G1 X-37.436 Y-1.820 E0.14924
G1 X-37.512 Y-3.443 E0.14910
G1 X-37.448 Y-5.042 E0.14683
G1 X-37.265 Y-6.521 E0.13669
G1 X-36.963 Y-7.979 E0.13662
G1 X-36.578 Y-9.311 E0.12724
G1 X-36.014 Y-10.801 E0.14616
G1 X-35.372 Y-12.146 E0.13669
G1 X-34.625 Y-13.434 E0.13667
G1 X-33.804 Y-14.626 E0.13280
G1 X-33.656 Y-14.803 E0.02116
G1 X-33.262 Y-15.200 E0.05133
G1 X-32.977 Y-15.417 E0.03284
G1 X-32.436 Y-15.720 E0.05694
G1 X-32.102 Y-15.850 E0.03284
G1 X-31.498 Y-15.994 E0.05694
G1 X-31.142 Y-16.028 E0.03284
G1 X-30.522 Y-16.000 E0.05694
G1 X-30.170 Y-15.935 E0.03284
G1 X-29.582 Y-15.739 E0.05694
G1 X-29.261 Y-15.580 E0.03284
G1 X-28.748 Y-15.230 E0.05694
G1 X-28.484 Y-14.989 E0.03284
G1 X-28.087 Y-14.512 E0.05694
G1 X-27.898 Y-14.208 E0.03284
G1 X-27.647 Y-13.640 E0.05694
G1 X-27.549 Y-13.296 E0.03284
G1 X-27.463 Y-12.588 E0.06541
G1 X-27.474 Y-9.985 E0.23883
G1 X-27.540 Y-9.485 E0.04626
G1 X-27.627 Y-9.159 E0.03097
G1 X-27.838 Y-8.649 E0.05071
G1 X-27.838 Y-8.356 E0.02685
G1 X-27.627 Y-7.845 E0.05071
G1 X-27.540 Y-7.519 E0.03097
G1 X-27.463 Y-6.851 E0.06171
G1 X-27.463 Y-0.153 E0.61454
G1 X-27.540 Y0.515 E0.06171
G1 X-27.627 Y0.841 E0.03097
G1 X-27.838 Y1.351 E0.05071
G1 X-27.838 Y1.644 E0.02685
G1 X-27.627 Y2.155 E0.05071
G1 X-27.540 Y2.481 E0.03097
G1 X-27.463 Y3.149 E0.06171
G1 X-27.463 Y3.923 E0.07105
G1 X-27.032 Y4.354 E0.05591
G1 X-10.943 Y4.354 E1.47616
G1 X-10.512 Y3.923 E0.05591
G1 X-10.512 Y3.149 E0.07105
G1 X-10.435 Y2.481 E0.06170
G1 X-10.348 Y2.155 E0.03097
G1 X-10.136 Y1.644 E0.05070
G1 X-10.136 Y1.351 E0.02685
G1 X-10.348 Y0.841 E0.05070
G1 X-10.435 Y0.515 E0.03097
G1 X-10.512 Y-0.153 E0.06170
G1 X-10.512 Y-6.851 E0.61454
G1 X-10.435 Y-7.519 E0.06170
G1 X-10.348 Y-7.845 E0.03097
G1 X-10.136 Y-8.356 E0.05070
G1 X-10.136 Y-8.649 E0.02685
G1 X-10.348 Y-9.159 E0.05070
G1 X-10.435 Y-9.485 E0.03097
G1 X-10.501 Y-9.985 E0.04626
G1 X-10.500 Y-12.766 E0.25519
G1 X-10.426 Y-13.296 E0.04904
G1 X-10.328 Y-13.640 E0.03284
G1 X-10.077 Y-14.208 E0.05694
G1 X-9.888 Y-14.512 E0.03284
G1 X-9.491 Y-14.989 E0.05694
G1 X-9.226 Y-15.230 E0.03284
G1 X-8.714 Y-15.580 E0.05694
G1 X-8.393 Y-15.739 E0.03284
G1 X-7.805 Y-15.935 E0.05694
G1 X-7.453 Y-16.000 E0.03284
G1 X-6.833 Y-16.028 E0.05694
G1 X-6.476 Y-15.994 E0.03284
G1 X-5.873 Y-15.850 E0.05694
G1 X-5.539 Y-15.720 E0.03284
G1 X-4.998 Y-15.417 E0.05694
G1 X-4.713 Y-15.200 E0.03284
G1 X-4.318 Y-14.802 E0.05146
G1 X-4.169 Y-14.622 E0.02142
G1 X-3.245 Y-13.266 E0.15058
G1 X-2.469 Y-11.888 E0.14508
G1 X-1.856 Y-10.550 E0.13506
G1 X-1.285 Y-8.959 E0.15511
G1 X-0.884 Y-7.429 E0.14505
G1 X-0.620 Y-5.927 E0.13999
G1 X0.598 Y-5.910 E0.11179
G1 X1.024 Y-7.979 E0.19379
G1 X1.410 Y-9.311 E0.12724
G1 X1.933 Y-10.706 E0.13668
G1 X2.615 Y-12.146 E0.14617
G1 X3.363 Y-13.434 E0.13667
G1 X4.184 Y-14.626 E0.13280
G1 X4.331 Y-14.803 E0.02116
G1 X4.725 Y-15.200 E0.05133
G1 X5.010 Y-15.417 E0.03284
G1 X5.552 Y-15.720 E0.05694
G1 X5.885 Y-15.850 E0.03284
G1 X6.489 Y-15.994 E0.05694
G1 X6.845 Y-16.028 E0.03284
G1 X7.465 Y-16.000 E0.05694
G1 X7.817 Y-15.935 E0.03284
G1 X8.406 Y-15.739 E0.05694
G1 X8.727 Y-15.580 E0.03284
G1 X9.239 Y-15.230 E0.05694
G1 X9.504 Y-14.989 E0.03284
G1 X9.901 Y-14.512 E0.05694
G1 X10.089 Y-14.208 E0.03284
G1 X10.340 Y-13.640 E0.05694
G1 X10.438 Y-13.296 E0.03284
G1 X10.512 Y-12.766 E0.04904
G1 X10.514 Y-9.985 E0.25519
G1 X10.448 Y-9.485 E0.04626
G1 X10.360 Y-9.159 E0.03097
G1 X10.149 Y-8.649 E0.05071
G1 X10.149 Y-8.356 E0.02685
G1 X10.360 Y-7.845 E0.05071
G1 X10.448 Y-7.519 E0.03097
G1 X10.525 Y-6.851 E0.06171
G1 X10.525 Y-0.153 E0.61454
G1 X10.448 Y0.515 E0.06171
G1 X10.360 Y0.841 E0.03097
G1 X10.149 Y1.351 E0.05071
G1 X10.149 Y1.644 E0.02685
G1 X10.360 Y2.155 E0.05071
G1 X10.448 Y2.481 E0.03097
G1 X10.525 Y3.149 E0.06171
G1 X10.525 Y3.923 E0.07105
G1 X10.956 Y4.354 E0.05591
G1 X27.044 Y4.354 E1.47616
G1 X27.475 Y3.923 E0.05591
G1 X27.475 Y3.149 E0.07105
G1 X27.552 Y2.481 E0.06170
G1 X27.640 Y2.155 E0.03097
G1 X27.851 Y1.644 E0.05070
G1 X27.851 Y1.351 E0.02685
G1 X27.640 Y0.841 E0.05070
G1 X27.552 Y0.515 E0.03097
G1 X27.475 Y-0.153 E0.06170
G1 X27.475 Y-6.851 E0.61454
G1 X27.552 Y-7.519 E0.06170
G1 X27.640 Y-7.845 E0.03097
G1 X27.851 Y-8.356 E0.05070
G1 X27.851 Y-8.649 E0.02685
G1 X27.640 Y-9.159 E0.05070
G1 X27.552 Y-9.485 E0.03097
G1 X27.475 Y-10.153 E0.06170
G1 X27.475 Y-12.588 E0.22340
G1 X27.562 Y-13.296 E0.06541
G1 X27.660 Y-13.640 E0.03284
G1 X27.911 Y-14.208 E0.05694
G1 X28.099 Y-14.512 E0.03284
G1 X28.496 Y-14.989 E0.05694
G1 X28.761 Y-15.230 E0.03284
G1 X29.273 Y-15.580 E0.05694
G1 X29.594 Y-15.739 E0.03284
G1 X30.183 Y-15.935 E0.05694
G1 X30.535 Y-16.000 E0.03284
G1 X31.155 Y-16.028 E0.05694
G1 X31.511 Y-15.994 E0.03284
G1 X32.115 Y-15.850 E0.05694 F1200.000
G1 X32.448 Y-15.720 E0.03284
G1 X32.990 Y-15.417 E0.05694
G1 X33.275 Y-15.200 E0.03284
G1 X33.670 Y-14.802 E0.05146
G1 X33.819 Y-14.622 E0.02142
G1 X34.684 Y-13.359 E0.14050
G1 X35.468 Y-11.986 E0.14508
G1 X36.132 Y-10.550 E0.14514
G1 X36.703 Y-8.959 E0.15511
G1 X37.114 Y-7.371 E0.15050
G1 X37.373 Y-5.871 E0.13965
G1 X37.503 Y-4.405 E0.13498
G1 X37.512 Y-2.824 E0.14511
G1 X37.387 Y-1.247 E0.14510
G1 X37.128 Y0.312 E0.14506
G1 X36.704 Y1.950 E0.15517
G1 X36.216 Y3.338 E0.13503
G1 X35.570 Y4.781 E0.14505
G1 X34.803 Y6.164 E0.14509
G1 X33.921 Y7.477 E0.14512
G1 X32.858 Y8.791 E0.15514
G1 X31.758 Y9.929 E0.14511
G1 X30.567 Y10.968 E0.14508
G1 X29.290 Y11.901 E0.14508
G1 X27.939 Y12.723 E0.14506
G1 X26.523 Y13.426 E0.14509
G1 X25.051 Y14.006 E0.14513
G1 X23.643 Y14.431 E0.13495
G1 X21.983 Y14.800 E0.15607
G1 X21.851 Y14.867 E0.01358
G1 X21.111 Y15.428 E0.08514
G1 X20.824 Y15.589 E0.03021
G1 X20.176 Y15.850 E0.06410
G1 X19.858 Y15.933 E0.03021
G1 X19.165 Y16.022 E0.06410
G1 X18.835 Y16.022 E0.03021
G1 X18.142 Y15.933 E0.06410
G1 X17.824 Y15.850 E0.03021
G1 X17.176 Y15.589 E0.06410
G1 X16.889 Y15.428 E0.03021
G1 X16.149 Y14.867 E0.08514
G1 X16.017 Y14.800 E0.01357
G1 X14.311 Y14.419 E0.16044
G1 X12.863 Y13.976 E0.13889
G1 X11.250 Y13.323 E0.15969
G1 X9.902 Y12.634 E0.13890
G1 X8.521 Y11.774 E0.14928
G1 X7.221 Y10.795 E0.14930
G1 X6.508 Y10.156 E0.08790
G1 X7.001 Y9.610 F9000.000
G1 X6.460 Y9.115 E0.06730 F1200.000
G1 X5.454 Y8.028 E0.13596
G1 X4.494 Y6.795 E0.14338
G1 X3.646 Y5.482 E0.14335
G1 X2.917 Y4.100 E0.14334
G1 X2.312 Y2.660 E0.14337
G1 X1.836 Y1.172 E0.14336
G1 X1.492 Y-0.353 E0.14336
G1 X1.283 Y-1.901 E0.14333
G1 X1.211 Y-3.460 E0.14323
G1 X1.271 Y-4.968 E0.13850
G1 X1.447 Y-6.388 E0.13126
G1 X1.735 Y-7.789 E0.13121
G1 X2.112 Y-9.093 E0.12451
G1 X2.645 Y-10.499 E0.13802
G1 X3.260 Y-11.791 E0.13126
G1 X3.977 Y-13.029 E0.13124
G1 X4.771 Y-14.181 E0.12841
G1 X4.876 Y-14.308 E0.01511
G1 X5.211 Y-14.645 E0.04362
G1 X5.415 Y-14.800 E0.02345
G1 X5.867 Y-15.053 E0.04756
G1 X6.105 Y-15.146 E0.02346
G1 X6.609 Y-15.266 E0.04756
G1 X6.864 Y-15.290 E0.02345
G1 X7.382 Y-15.268 E0.04756
G1 X7.633 Y-15.221 E0.02345
G1 X8.125 Y-15.057 E0.04756
G1 X8.354 Y-14.943 E0.02346
G1 X8.782 Y-14.651 E0.04756
G1 X8.971 Y-14.479 E0.02345
G1 X9.302 Y-14.081 E0.04756
G1 X9.437 Y-13.863 E0.02345
G1 X9.647 Y-13.389 E0.04756
G1 X9.717 Y-13.143 E0.02346
G1 X9.789 Y-12.563 E0.05370
G1 X9.781 Y-10.057 E0.22987
G1 X9.725 Y-9.629 E0.03963
G1 X9.662 Y-9.396 E0.02212
G1 X9.475 Y-8.944 E0.04486
G1 X9.334 Y-8.699 E0.02596
G1 X9.334 Y-8.305 E0.03617
G1 X9.475 Y-8.060 E0.02596
G1 X9.662 Y-7.608 E0.04486
G1 X9.725 Y-7.375 E0.02212
G1 X9.789 Y-6.827 E0.05066
G1 X9.789 Y-0.177 E0.61012
G1 X9.725 Y0.371 E0.05066
G1 X9.662 Y0.604 E0.02212
G1 X9.475 Y1.056 E0.04486
G1 X9.334 Y1.301 E0.02596
G1 X9.334 Y1.695 E0.03617
G1 X9.475 Y1.940 E0.02596
G1 X9.662 Y2.392 E0.04486
G1 X9.725 Y2.625 E0.02212
G1 X9.789 Y3.173 E0.05066
G1 X9.789 Y4.659 E0.13634
G1 X10.220 Y5.090 E0.05591
G1 X27.780 Y5.090 E1.61115
G1 X28.211 Y4.659 E0.05591
G1 X28.211 Y3.173 E0.13634
G1 X28.275 Y2.625 E0.05066
G1 X28.338 Y2.392 E0.02212
G1 X28.525 Y1.940 E0.04486
G1 X28.666 Y1.695 E0.02596
G1 X28.666 Y1.301 E0.03617
G1 X28.525 Y1.056 E0.02596
G1 X28.338 Y0.604 E0.04486
G1 X28.275 Y0.371 E0.02212
G1 X28.211 Y-0.177 E0.05066
G1 X28.211 Y-6.827 E0.61012
G1 X28.275 Y-7.376 E0.05066
G1 X28.338 Y-7.608 E0.02212
G1 X28.525 Y-8.060 E0.04486
G1 X28.666 Y-8.305 E0.02596
G1 X28.666 Y-8.699 E0.03617
G1 X28.525 Y-8.944 E0.02596
G1 X28.338 Y-9.396 E0.04486
G1 X28.275 Y-9.629 E0.02212
G1 X28.219 Y-10.057 E0.03963
G1 X28.211 Y-12.563 E0.22987
G1 X28.283 Y-13.143 E0.05370
G1 X28.353 Y-13.389 E0.02346
G1 X28.563 Y-13.863 E0.04756
G1 X28.698 Y-14.081 E0.02345
G1 X29.029 Y-14.479 E0.04756
G1 X29.218 Y-14.651 E0.02345
G1 X29.646 Y-14.943 E0.04756
G1 X29.875 Y-15.057 E0.02346
G1 X30.367 Y-15.221 E0.04756
G1 X30.618 Y-15.268 E0.02346
G1 X31.136 Y-15.290 E0.04756
G1 X31.391 Y-15.266 E0.02346 F1200.000
G1 X31.895 Y-15.146 E0.04756
G1 X32.133 Y-15.053 E0.02345
G1 X32.585 Y-14.800 E0.04756
G1 X32.789 Y-14.645 E0.02346
G1 X33.231 Y-14.179 E0.05896
G1 X34.069 Y-12.956 E0.13599
G1 X34.820 Y-11.637 E0.13932
G1 X35.456 Y-10.258 E0.13936
G1 X35.996 Y-8.755 E0.14649
G1 X36.382 Y-7.287 E0.13930
G1 X36.631 Y-5.868 E0.13215
G1 X36.772 Y-4.277 E0.14650
G1 X36.774 Y-2.759 E0.13934
G1 X36.655 Y-1.324 E0.13213
G1 X36.405 Y0.174 E0.13931
G1 X36.028 Y1.645 E0.13933
G1 X35.527 Y3.079 E0.13934
G1 X34.906 Y4.464 E0.13930
G1 X34.127 Y5.858 E0.14653
G1 X33.320 Y7.051 E0.13215
G1 X32.368 Y8.234 E0.13929
G1 X31.319 Y9.331 E0.13934
G1 X30.179 Y10.335 E0.13932
G1 X28.958 Y11.238 E0.13932
G1 X27.665 Y12.034 E0.13932
G1 X26.309 Y12.716 E0.13931
G1 X24.824 Y13.306 E0.14658
G1 X23.446 Y13.722 E0.13208
G1 X22.058 Y14.018 E0.13022
G1 X21.727 Y14.107 E0.03142
G1 X21.447 Y14.248 E0.02874
G1 X20.711 Y14.809 E0.08494
G1 X20.505 Y14.924 E0.02158
G1 X19.945 Y15.150 E0.05547
G1 X19.717 Y15.209 E0.02158
G1 X19.118 Y15.286 E0.05547
G1 X18.882 Y15.286 E0.02158
G1 X18.283 Y15.209 E0.05547
G1 X18.055 Y15.150 E0.02158
G1 X17.495 Y14.924 E0.05547
G1 X17.289 Y14.809 E0.02158
G1 X16.553 Y14.248 E0.08494
G1 X16.342 Y14.134 E0.02201
G1 X15.941 Y14.018 E0.03824
G1 X14.510 Y13.711 E0.13429
G1 X13.094 Y13.278 E0.13593
G1 X11.570 Y12.661 E0.15079
G1 X10.181 Y11.947 E0.14334
G1 X8.926 Y11.159 E0.13594
G1 X7.678 Y10.219 E0.14336
G1 X7.046 Y9.651 E0.07795
G1 X7.540 Y9.106 F9000.000
G1 X6.989 Y8.604 E0.06836 F1200.000
G1 X6.004 Y7.540 E0.13299
G1 X5.086 Y6.357 E0.13744
G1 X4.274 Y5.098 E0.13743
G1 X3.556 Y3.729 E0.14185
G1 X2.981 Y2.346 E0.13744
G1 X2.523 Y0.889 E0.14008
G1 X2.205 Y-0.545 E0.13477
G1 X2.015 Y-1.981 E0.13297
G1 X1.947 Y-3.477 E0.13736
G1 X2.004 Y-4.895 E0.13017
G1 X2.163 Y-6.212 E0.12176
G1 X2.435 Y-7.556 E0.12582
G1 X2.829 Y-8.916 E0.12990
G1 X3.316 Y-10.198 E0.12582
G1 X3.884 Y-11.397 E0.12176
G1 X4.591 Y-12.624 E0.12989
G1 X5.358 Y-13.737 E0.12403
G1 X5.697 Y-14.090 E0.04494
G1 X5.819 Y-14.183 E0.01407
G1 X6.182 Y-14.387 E0.03818
G1 X6.325 Y-14.443 E0.01407
G1 X6.730 Y-14.539 E0.03818
G1 X6.882 Y-14.553 E0.01407
G1 X7.298 Y-14.535 E0.03818
G1 X7.449 Y-14.507 E0.01407 F1200.000
G1 X7.844 Y-14.375 E0.03818
G1 X7.981 Y-14.307 E0.01407
G1 X8.325 Y-14.073 E0.03818
G1 X8.438 Y-13.969 E0.01407
G1 X8.704 Y-13.649 E0.03818
G1 X8.785 Y-13.519 E0.01407
G1 X8.953 Y-13.139 E0.03818
G1 X8.995 Y-12.991 E0.01407
G1 X9.048 Y-12.613 E0.03498
G1 X9.053 Y-10.201 E0.22131
G1 X9.002 Y-9.773 E0.03961
G1 X8.964 Y-9.633 E0.01327
G1 X8.814 Y-9.270 E0.03602
G1 X8.742 Y-9.145 E0.01327
G1 X8.440 Y-8.752 E0.04547
G1 X8.440 Y-8.253 E0.04582
G1 X8.742 Y-7.859 E0.04547
G1 X8.814 Y-7.734 E0.01327
G1 X8.964 Y-7.371 E0.03602
G1 X9.002 Y-7.232 E0.01327
