; generated by Slic3r 1.2.9 on 2016-12-16 at 12:26:21

; external perimeters extrusion width = 0.50mm
; perimeters extrusion width = 0.50mm
; infill extrusion width = 0.50mm
; solid infill extrusion width = 0.50mm
; top infill extrusion width = 0.50mm

M107
;Basic settings: Layer height: {layer_height} Walls: {wall_thickness} Fill: {fill_density}
;Print time: {print_time}
;Filament used: {filament_amount}m {filament_weight}g
;Filament cost: {filament_cost}
;M190 S{print_bed_temperature} ;Uncomment to add your own bed temperature line
;M109 S{print_temperature} ;Uncomment to add your own temperature line
G21        ;metric values
G90        ;absolute positioning
M83
G10 P0 S200
T0
M116


G21 ; set units to millimeters
G90 ; use absolute coordinates
M83 ; use relative distances for extrusion
G1 E-3.20000 F3000.00000
G1 Z0.400 F9000.000
G1 X0.000 Y-19.803 F9000.000
G1 Z0.300 F9000.000
G1 E3.20000 F3000.00000
G1 X28.683 Y-19.803 E2.63166 F1200.000
G1 X29.174 Y-19.770 E0.04516
G1 X29.290 Y-19.755 E0.01077 F1200.000
G1 X30.232 Y-19.502 E0.08947
G1 X30.340 Y-19.457 E0.01077
G1 X31.184 Y-18.968 E0.08947
G1 X31.277 Y-18.897 E0.01077
G1 X31.966 Y-18.206 E0.08948
G1 X32.038 Y-18.113 E0.01077
G1 X32.446 Y-17.446 E0.07179
G1 X36.885 Y-8.106 E0.94885
G1 X37.594 Y-6.339 E0.17458
G1 X38.077 Y-4.727 E0.15447
G1 X38.367 Y-3.393 E0.12527
G1 X38.596 Y-1.724 E0.15452
G1 X38.624 Y-1.406 E0.02933
G1 X38.682 Y0.272 E0.15402
G1 X38.628 Y1.589 E0.12095
G1 X38.439 Y3.205 E0.14926
G1 X38.118 Y4.800 E0.14926
G1 X38.042 Y5.099 E0.02833
G1 X37.566 Y6.654 E0.14925
G1 X36.963 Y8.165 E0.14927
G1 X36.237 Y9.621 E0.14924
G1 X35.562 Y10.754 E0.12097
G1 X35.393 Y11.012 E0.02833
G1 X34.437 Y12.329 E0.14926
G1 X33.585 Y13.335 E0.12095
G1 X32.444 Y14.494 E0.14926
G1 X31.211 Y15.555 E0.14926
G1 X30.967 Y15.745 E0.02833
G1 X29.636 Y16.679 E0.14924
G1 X28.504 Y17.354 E0.12097
G1 X27.048 Y18.080 E0.14926
G1 X25.541 Y18.682 E0.14885
G1 X25.245 Y18.784 E0.02873
G1 X23.682 Y19.236 E0.14926
G1 X22.392 Y19.506 E0.12098
G1 X20.784 Y19.719 E0.14881
G1 X20.472 Y19.745 E0.02874
G1 X19.000 Y19.803 E0.13512
G1 X-19.000 Y19.803 E3.48652
G1 X-20.472 Y19.745 E0.13512
G1 X-22.087 Y19.557 E0.14926
G1 X-23.682 Y19.236 E0.14926
G1 X-25.245 Y18.784 E0.14926
G1 X-26.765 Y18.204 E0.14926
G1 X-28.232 Y17.501 E0.14929
G1 X-28.504 Y17.354 E0.02830
G1 X-29.894 Y16.511 E0.14922
G1 X-31.211 Y15.555 E0.14929
G1 X-32.444 Y14.494 E0.14926
G1 X-33.376 Y13.562 E0.12095
G1 X-34.437 Y12.329 E0.14926
G1 X-35.393 Y11.012 E0.14928
G1 X-36.237 Y9.621 E0.14925
G1 X-36.963 Y8.165 E0.14925
G1 X-37.087 Y7.883 E0.02833
G1 X-37.666 Y6.362 E0.14926
G1 X-38.042 Y5.099 E0.12095
G1 X-38.389 Y3.509 E0.14926
G1 X-38.439 Y3.205 E0.02833
G1 X-38.628 Y1.589 E0.14925
G1 X-38.682 Y-0.042 E0.14971
G1 X-38.596 Y-1.724 E0.15458
G1 X-38.367 Y-3.393 E0.15451
G1 X-37.996 Y-5.035 E0.15453
G1 X-37.486 Y-6.641 E0.15452
G1 X-36.885 Y-8.106 E0.14528
G1 X-32.446 Y-17.446 E0.94887
G1 X-31.966 Y-18.208 E0.08261
G1 X-31.277 Y-18.897 E0.08940
G1 X-31.184 Y-18.968 E0.01076
G1 X-30.340 Y-19.457 E0.08944
G1 X-30.232 Y-19.502 E0.01077
G1 X-29.290 Y-19.755 E0.08947
G1 X-28.683 Y-19.803 E0.05591
G1 X-0.060 Y-19.803 E2.62616
G1 E-3.20000 F3000.00000
G1 Z0.700 F9000.000
G1 X-23.945 Y12.873 F9000.000
G1 Z0.300 F9000.000
G1 E3.20000 F3000.00000
G1 X-23.217 Y13.138 E0.07106 F900.000
G1 X-22.363 Y13.381 E0.08144
G1 X-21.868 Y13.569 E0.04864
G1 X-21.506 Y13.819 E0.04037
G1 X-20.598 Y14.834 E0.12486
G1 X-21.438 Y14.729 E0.07764
G1 X-22.636 Y14.478 E0.11233
G1 X-23.810 Y14.128 E0.11233
G1 X-24.950 Y13.683 E0.11233
G1 X-26.046 Y13.147 E0.11193
G1 X-27.264 Y12.422 E0.13003
G1 X-25.888 Y12.225 E0.12758
G1 X-25.450 Y12.266 E0.04037
G1 X-24.949 Y12.440 E0.04864 F900.000
G1 X-24.001 Y12.853 E0.09483
G1 E-3.20000 F3000.00000
G1 Z0.700 F9000.000
G1 X-30.845 Y6.956 F9000.000
G1 Z0.300 F9000.000
G1 E3.20000 F3000.00000
G1 X-30.600 Y7.381 E0.04504 F900.000
G1 X-30.097 Y8.124 E0.08231
G1 X-29.864 Y8.525 E0.04254
G1 X-29.746 Y8.886 E0.03483
G1 X-29.703 Y9.298 E0.03801
G1 X-29.715 Y9.546 E0.02276
G1 X-29.699 Y9.925 E0.03482
G1 X-29.992 Y10.040 E0.02893
G1 X-30.690 Y9.216 E0.09901
G1 X-31.401 Y8.220 E0.11233
G1 X-32.026 Y7.172 E0.11193
G1 X-32.566 Y6.068 E0.11275
G1 X-33.011 Y4.927 E0.11232
G1 X-33.213 Y4.248 E0.06501
G1 X-32.059 Y4.965 E0.12465
G1 X-31.749 Y5.278 E0.04037 F900.000
G1 X-31.478 Y5.733 E0.04864
G1 X-31.090 Y6.532 E0.08144
G1 X-30.875 Y6.904 E0.03944
G1 E-3.20000 F3000.00000
G1 Z0.700 F9000.000
G1 X-33.469 Y-2.992 F9000.000
G1 Z0.300 F9000.000
G1 E3.20000 F3000.00000
G1 X-33.328 Y-3.644 E0.06128 F900.000
G1 X-32.954 Y-4.855 E0.11628
G1 X-32.545 Y-5.861 E0.09962
G1 X-32.119 Y-4.563 E0.12537
G1 X-32.083 Y-4.125 E0.04037 F900.000
G1 X-32.168 Y-3.601 E0.04864
G1 X-32.385 Y-2.740 E0.08144
G1 X-32.555 Y-1.775 E0.08999
G1 X-32.646 Y-0.892 E0.08144
G1 X-32.745 Y-0.371 E0.04864
G1 X-32.929 Y0.029 E0.04037
G1 X-33.773 Y1.102 E0.12525
G1 X-33.813 Y0.118 E0.09033
G1 X-33.759 Y-1.149 E0.11637
G1 X-33.597 Y-2.406 E0.11629
G1 X-33.482 Y-2.933 E0.04951
G1 X-28.746 Y-11.035 F9000.000
G1 X-28.633 Y-11.143 E0.01436 F900.000
G1 X-28.035 Y-11.828 E0.08343
G1 X-27.696 Y-12.544 E0.07269
G1 X-27.475 Y-12.162 E0.04042
G1 X-27.307 Y-11.747 E0.04115 F900.000
G1 X-27.269 Y-11.384 E0.03344
G1 X-27.334 Y-11.025 E0.03343
G1 X-27.495 Y-10.699 E0.03343
G1 X-27.812 Y-10.350 E0.04318
G1 X-28.495 Y-9.739 E0.08415
G1 X-28.812 Y-9.421 E0.04123
G1 X-29.216 Y-9.092 E0.04773
G1 X-29.613 Y-8.904 E0.04037
G1 X-30.942 Y-8.625 E0.12457
G1 X-30.474 Y-9.251 E0.07170
G1 X-29.631 Y-10.198 E0.11629
G1 X-28.790 Y-10.994 E0.10628
G1 E-3.20000 F3000.00000
G1 Z0.700 F9000.000
G1 X-8.038 Y-8.828 F9000.000
G1 Z0.300 F9000.000
G1 E3.20000 F3000.00000
G1 X-8.384 Y-8.902 E0.03247 F900.000
G1 X-8.784 Y-9.092 E0.04061
G1 X-9.187 Y-9.421 E0.04772
G1 X-9.502 Y-9.737 E0.04093
G1 X-10.186 Y-10.348 E0.08414
G1 X-10.513 Y-10.712 E0.04495
G1 X-10.675 Y-11.056 E0.03486
G1 X-10.736 Y-11.467 E0.03813
G1 X-10.719 Y-11.660 E0.01774
G1 X-10.659 Y-11.881 E0.02099
G1 X-10.541 Y-12.135 E0.02576
G1 X-10.301 Y-12.549 E0.04389
G1 X-9.985 Y-11.856 E0.06994
G1 X-9.369 Y-11.145 E0.08628 F900.000
G1 X-8.369 Y-10.198 E0.12639
G1 X-7.526 Y-9.251 E0.11629
G1 X-7.052 Y-8.617 E0.07263
G1 X-7.980 Y-8.816 E0.08707
G1 E-3.20000 F3000.00000
G1 Z0.700 F9000.000
G1 X-4.383 Y-2.247 F9000.000
G1 Z0.300 F9000.000
G1 E3.20000 F3000.00000
G1 X-4.241 Y-1.149 E0.10158 F900.000
G1 X-4.187 Y0.118 E0.11637
G1 X-4.227 Y1.097 E0.08984
G1 X-5.072 Y0.028 E0.12500
G1 X-5.255 Y-0.371 E0.04025
G1 X-5.354 Y-0.892 E0.04864
G1 X-5.445 Y-1.775 E0.08144
G1 X-5.615 Y-2.740 E0.08999
G1 X-5.832 Y-3.601 E0.08144
G1 X-5.917 Y-4.125 E0.04864
G1 X-5.882 Y-4.553 E0.03944
G1 X-5.439 Y-5.825 E0.12352
G1 X-5.046 Y-4.855 E0.09595
G1 X-4.672 Y-3.644 E0.11629 F900.000
G1 X-4.390 Y-2.306 E0.12548
G1 E-3.20000 F3000.00000
G1 Z0.700 F9000.000
G1 X-6.840 Y6.389 F9000.000
G1 Z0.300 F9000.000
G1 E3.20000 F3000.00000
G1 X-6.522 Y5.733 E0.06691 F900.000
G1 X-6.251 Y5.278 E0.04864
G1 X-5.941 Y4.964 E0.04047
G1 X-4.786 Y4.244 E0.12484
G1 X-4.989 Y4.927 E0.06539
G1 X-5.434 Y6.068 E0.11233 F900.000
G1 X-5.972 Y7.168 E0.11233
G1 X-6.599 Y8.220 E0.11233
G1 X-7.310 Y9.216 E0.11233
G1 X-7.993 Y10.022 E0.09693
G1 X-8.295 Y9.888 E0.03031
G1 X-8.276 Y9.744 E0.01339
G1 X-8.297 Y9.298 E0.04093
G1 X-8.254 Y8.886 E0.03805
G1 X-8.136 Y8.525 E0.03483
G1 X-7.903 Y8.124 E0.04254
G1 X-7.400 Y7.381 E0.08231
G1 X-6.867 Y6.443 E0.09900
G1 E-3.20000 F3000.00000
G1 Z0.700 F9000.000
G1 X-11.869 Y13.098 F9000.000
G1 Z0.300 F9000.000
G1 E3.20000 F3000.00000
G1 X-13.050 Y13.683 E0.12087 F900.000
G1 X-14.190 Y14.128 E0.11233
G1 X-15.364 Y14.478 E0.11233
G1 X-16.558 Y14.728 E0.11193
G1 X-17.401 Y14.833 E0.07803
G1 X-16.494 Y13.819 E0.12484
G1 X-16.132 Y13.569 E0.04037
G1 X-15.637 Y13.381 E0.04864
G1 X-14.783 Y13.138 E0.08144
G1 X-13.861 Y12.803 E0.08999
G1 X-13.051 Y12.440 E0.08144
G1 X-12.550 Y12.266 E0.04864
G1 X-12.114 Y12.225 E0.04023
G1 X-10.741 Y12.426 E0.12725
G1 X-11.818 Y13.067 E0.11497 F900.000
G1 X-11.441 Y13.699 F9000.000
G1 X-11.599 Y13.793 E0.01686 F900.000
G1 X-12.754 Y14.358 E0.11792
G1 X-13.951 Y14.825 E0.11791
G1 X-15.183 Y15.191 E0.11792
G1 X-16.436 Y15.454 E0.11750
G1 X-17.716 Y15.614 E0.11833
G1 X-19.000 Y15.667 E0.11791
G1 X-20.284 Y15.614 E0.11791
G1 X-21.559 Y15.455 E0.11792
G1 X-22.817 Y15.191 E0.11792
G1 X-24.049 Y14.825 E0.11791
G1 X-25.246 Y14.358 E0.11792
G1 X-26.397 Y13.795 E0.11750
G1 X-27.505 Y13.135 E0.11833
G1 X-28.551 Y12.388 E0.11791
G1 X-29.531 Y11.558 E0.11792
G1 X-30.440 Y10.649 E0.11792
G1 X-31.271 Y9.668 E0.11792
G1 X-32.018 Y8.622 E0.11791
G1 X-32.673 Y7.522 E0.11750
G1 X-33.240 Y6.364 E0.11833
G1 X-33.707 Y5.167 E0.11791
G1 X-34.074 Y3.935 E0.11792
G1 X-34.338 Y2.677 E0.11792
G1 X-34.497 Y1.402 E0.11792
G1 X-34.550 Y0.118 E0.11789
G1 X-34.493 Y-1.212 E0.12210
G1 X-34.322 Y-2.531 E0.12207
G1 X-34.040 Y-3.831 E0.12207
G1 X-33.647 Y-5.103 E0.12207
G1 X-33.145 Y-6.340 E0.12250
G1 X-32.544 Y-7.521 E0.12165
G1 X-31.841 Y-8.651 E0.12207
G1 X-31.045 Y-9.717 E0.12207
G1 X-30.160 Y-10.711 E0.12207
G1 X-29.164 Y-11.653 E0.12581
G1 X-28.656 Y-12.234 E0.07083
G1 X-28.308 Y-12.969 E0.07460
G1 X-28.174 Y-13.771 E0.07460
G1 X-28.225 Y-14.226 E0.04198
G1 X-27.884 Y-14.338 E0.03287
G1 X-26.813 Y-12.486 E0.19631
G1 X-26.586 Y-11.926 E0.05543 F900.000
G1 X-26.527 Y-11.357 E0.05250
G1 X-26.628 Y-10.793 E0.05250
G1 X-26.881 Y-10.280 E0.05250
G1 X-27.293 Y-9.827 E0.05618
G1 X-27.989 Y-9.205 E0.08571
G1 X-28.318 Y-8.875 E0.04277
G1 X-28.820 Y-8.465 E0.05939
G1 X-29.377 Y-8.201 E0.05659
G1 X-30.504 Y-7.966 E0.10559
G1 X-30.980 Y-7.709 E0.04966
G1 X-31.367 Y-7.334 E0.04945
G1 X-31.636 Y-6.867 E0.04945
G1 X-31.768 Y-6.344 E0.04945
G1 X-31.752 Y-5.803 E0.04966
G1 X-31.393 Y-4.710 E0.10560
G1 X-31.343 Y-4.095 E0.05659
G1 X-31.447 Y-3.452 E0.05973
G1 X-31.665 Y-2.587 E0.08190
G1 X-31.826 Y-1.673 E0.08515
G1 X-31.918 Y-0.785 E0.08190
G1 X-32.039 Y-0.145 E0.05973
G1 X-32.297 Y0.415 E0.05659
G1 X-33.008 Y1.320 E0.10559
G1 X-33.208 Y1.823 E0.04966
G1 X-33.263 Y2.359 E0.04945
G1 X-33.170 Y2.890 E0.04945
G1 X-32.935 Y3.375 E0.04945
G1 X-32.574 Y3.779 E0.04965
G1 X-31.597 Y4.386 E0.10559
G1 X-31.163 Y4.824 E0.05659
G1 X-30.830 Y5.384 E0.05973
G1 X-30.440 Y6.187 E0.08190
G1 X-29.976 Y6.990 E0.08515
G1 X-29.473 Y7.733 E0.08223
G1 X-29.189 Y8.223 E0.05201
G1 X-29.023 Y8.731 E0.04908
G1 X-28.965 Y9.277 E0.05034
G1 X-28.978 Y9.548 E0.02488
G1 X-28.957 Y10.045 E0.04566
G1 X-28.788 Y10.557 E0.04945
G1 X-28.486 Y11.003 E0.04945
G1 X-28.073 Y11.349 E0.04945
G1 X-27.581 Y11.570 E0.04945
G1 X-27.045 Y11.648 E0.04966
G1 X-25.906 Y11.484 E0.10559
G1 X-25.292 Y11.541 E0.05659
G1 X-24.677 Y11.756 E0.05973
G1 X-23.862 Y12.120 E0.08190
G1 X-22.990 Y12.438 E0.08515
G1 X-22.132 Y12.682 E0.08190
G1 X-21.523 Y12.913 E0.05973
G1 X-21.016 Y13.264 E0.05659
G1 X-20.248 Y14.122 E0.10560
G1 X-19.788 Y14.406 E0.04965
G1 X-19.269 Y14.553 E0.04945
G1 X-18.731 Y14.553 E0.04945
G1 X-18.212 Y14.406 E0.04945
G1 X-17.752 Y14.122 E0.04965
G1 X-16.984 Y13.264 E0.10560
G1 X-16.477 Y12.913 E0.05659
G1 X-15.868 Y12.682 E0.05973
G1 X-15.010 Y12.438 E0.08190
G1 X-14.138 Y12.120 E0.08515
G1 X-13.323 Y11.756 E0.08190
G1 X-12.708 Y11.541 E0.05973
G1 X-12.094 Y11.484 E0.05654
G1 X-10.981 Y11.647 E0.10329
G1 X-10.471 Y11.583 E0.04714
G1 X-9.996 Y11.390 E0.04701
G1 X-9.589 Y11.080 E0.04701
G1 X-9.275 Y10.674 E0.04701
G1 X-9.078 Y10.201 E0.04701
G1 X-9.014 Y9.713 E0.04519
G1 X-9.035 Y9.277 E0.04004
G1 X-8.977 Y8.731 E0.05035
G1 X-8.811 Y8.223 E0.04908
G1 X-8.527 Y7.733 E0.05201
G1 X-8.024 Y6.990 E0.08223
G1 X-7.560 Y6.187 E0.08515
G1 X-7.170 Y5.384 E0.08190
G1 X-6.837 Y4.824 E0.05973
G1 X-6.403 Y4.385 E0.05662
G1 X-5.412 Y3.768 E0.10712
G1 X-5.046 Y3.345 E0.05132
G1 X-4.815 Y2.839 E0.05107
G1 X-4.736 Y2.291 E0.05084
G1 X-4.804 Y1.777 E0.04752
G1 X-5.004 Y1.300 E0.04743
G1 X-5.704 Y0.415 E0.10356
G1 X-5.961 Y-0.145 E0.05654
G1 X-6.082 Y-0.785 E0.05973
G1 X-6.174 Y-1.673 E0.08190
G1 X-6.335 Y-2.587 E0.08515
G1 X-6.553 Y-3.452 E0.08190
G1 X-6.657 Y-4.095 E0.05973
G1 X-6.607 Y-4.706 E0.05626
G1 X-6.307 Y-5.569 E0.08384
G1 X-6.245 Y-5.844 E0.02586
G1 X-6.222 Y-6.149 E0.02808
G1 X-6.306 Y-6.707 E0.05175
G1 X-6.558 Y-7.231 E0.05333
G1 X-6.952 Y-7.658 E0.05333
G1 X-7.458 Y-7.952 E0.05365
G1 X-8.622 Y-8.201 E0.10926
G1 X-9.180 Y-8.465 E0.05667
G1 X-9.682 Y-8.875 E0.05938
G1 X-10.008 Y-9.202 E0.04246
G1 X-10.706 Y-9.826 E0.08589
G1 X-11.133 Y-10.301 E0.05858
G1 X-11.387 Y-10.841 E0.05477
G1 X-11.476 Y-11.445 E0.05601
G1 X-11.446 Y-11.788 E0.03159
G1 X-11.353 Y-12.134 E0.03282
G1 X-11.193 Y-12.476 E0.03463
G1 X-10.131 Y-14.311 E0.19459
G1 X-9.794 Y-14.205 E0.03249
G1 X-9.825 Y-13.841 E0.03355
G1 X-9.708 Y-13.021 E0.07592
G1 X-9.359 Y-12.257 E0.07708
G1 X-8.837 Y-11.654 E0.07321
G1 X-7.840 Y-10.711 E0.12590
G1 X-6.955 Y-9.717 E0.12207
G1 X-6.159 Y-8.651 E0.12207
G1 X-5.456 Y-7.521 E0.12207
G1 X-4.853 Y-6.336 E0.12207
G1 X-4.353 Y-5.103 E0.12207
G1 X-3.960 Y-3.831 E0.12207
G1 X-3.678 Y-2.531 E0.12207
G1 X-3.507 Y-1.212 E0.12207
G1 X-3.450 Y0.118 E0.12210
G1 X-3.503 Y1.402 E0.11789
G1 X-3.662 Y2.677 E0.11792
G1 X-3.926 Y3.935 E0.11792
G1 X-4.293 Y5.167 E0.11792
G1 X-4.760 Y6.364 E0.11792
G1 X-5.325 Y7.518 E0.11792
G1 X-5.982 Y8.622 E0.11792
G1 X-6.729 Y9.668 E0.11792
G1 X-7.560 Y10.649 E0.11792
G1 X-8.469 Y11.558 E0.11792
G1 X-9.449 Y12.388 E0.11791
G1 X-10.495 Y13.135 E0.11792
G1 X-11.390 Y13.668 E0.09555
G1 X-11.602 Y13.609 F9000.000
G1 X-11.902 Y12.627 F9000.000
G1 X-12.436 Y12.790 E0.05123 F600.000
G1 X-13.645 Y13.317 E0.12102
G1 X-14.374 Y13.592 E0.07147
G1 X-15.883 Y14.043 E0.14449
G1 X-16.399 Y14.265 E0.05157
G1 X-17.623 Y14.499 F9000.000
G1 X-18.013 Y14.825 E0.04668 F600.000
G1 X-18.384 Y15.060 E0.04026
G1 X-18.679 Y15.103 E0.02736
G1 X-19.000 Y15.110 E0.02943
G1 X-19.321 Y15.103 E0.02943
G1 X-19.616 Y15.060 E0.02736
G1 X-19.987 Y14.825 E0.04026
G1 X-20.377 Y14.499 E0.04668
G1 X-21.601 Y14.265 F9000.000
G1 X-22.117 Y14.043 E0.05157 F600.000
G1 X-23.626 Y13.592 E0.14449
G1 X-24.355 Y13.317 E0.07147
G1 X-25.564 Y12.790 E0.12102
G1 X-26.100 Y12.627 E0.05143
G1 X-27.189 Y12.019 F9000.000
G1 X-27.698 Y12.019 E0.04668 F600.000
G1 X-28.146 Y11.958 E0.04152
G1 X-28.346 Y11.834 E0.02154
G1 X-28.878 Y11.391 E0.06353
G1 X-29.127 Y11.119 E0.03386
G1 X-29.379 Y10.806 E0.03684
G1 X-29.683 Y10.313 E0.05309
G1 X-30.074 Y9.361 F9000.000
G1 X-30.233 Y8.990 E0.03709 F600.000
G1 X-30.360 Y8.747 E0.02515
G1 X-31.077 Y7.672 E0.11856
G1 X-31.583 Y6.801 E0.09241
G1 X-32.174 Y5.606 E0.12229
G1 X-32.478 Y5.137 E0.05131
G1 X-32.924 Y3.971 F9000.000
G1 X-33.313 Y3.643 E0.04668 F600.000
G1 X-33.609 Y3.318 E0.04034
G1 X-33.701 Y3.035 E0.02728
G1 X-33.788 Y2.585 E0.04207
G1 X-33.820 Y2.353 E0.02147
G1 X-33.822 Y2.107 E0.02264
G1 X-33.656 Y1.700 E0.04034
G1 X-33.402 Y1.259 E0.04669
G1 X-33.425 Y0.038 F9000.000
G1 X-33.331 Y-0.217 E0.02492 F600.000
G1 X-33.254 Y-0.534 E0.02992
G1 X-33.108 Y-1.845 E0.12107
G1 X-33.037 Y-2.309 E0.04308
G1 X-32.928 Y-2.863 E0.05183
G1 X-32.617 Y-4.146 E0.12107
G1 X-32.582 Y-4.470 E0.02989
G1 X-32.585 Y-4.786 E0.02904
G1 X-32.143 Y-5.881 F9000.000
G1 X-32.231 Y-6.382 E0.04669 F600.000
G1 X-32.248 Y-6.820 E0.04027
G1 X-32.161 Y-7.052 E0.02271
G1 X-32.059 Y-7.248 E0.02028
G1 X-31.816 Y-7.652 E0.04326
G1 X-31.632 Y-7.887 E0.02739
G1 X-31.244 Y-8.091 E0.04021
G1 X-30.766 Y-8.265 E0.04669
G1 X-29.950 Y-9.209 F9000.000
G1 X-29.501 Y-9.545 E0.05137 F600.000
G1 X-28.213 Y-10.756 E0.16223
G1 X-27.974 Y-11.025 E0.03306
G1 X-27.858 Y-11.198 E0.01907
G1 X-27.760 Y-11.402 E0.02080
G1 X-27.686 Y-11.663 E0.02493
G1 E-3.20000 F3000.00000
G1 Z0.700 F9000.000
G1 X-10.343 Y-11.639 F9000.000
G1 Z0.300 F9000.000
G1 E3.20000 F3000.00000
G1 X-10.149 Y-11.215 E0.04283 F600.000
G1 X-10.031 Y-11.033 E0.01993
G1 X-9.783 Y-10.752 E0.03436
G1 X-8.499 Y-9.545 E0.16173
G1 X-8.047 Y-9.206 E0.05177
G1 X-7.203 Y-8.253 F9000.000
G1 X-6.664 Y-8.044 E0.05308 F600.000
G1 X-6.361 Y-7.875 E0.03186
G1 X-6.092 Y-7.516 E0.04111
G1 X-5.774 Y-6.901 E0.06350
G1 X-5.727 Y-6.770 E0.01282
G1 X-5.782 Y-6.174 E0.05491
G1 X-5.858 Y-5.804 E0.03465
G1 X-5.443 Y-4.695 F9000.000
