; generated by Slic3r 1.2.9 on 2016-12-16 at 11:23:40

; external perimeters extrusion width = 0.50mm
; perimeters extrusion width = 0.50mm
; infill extrusion width = 0.50mm
; solid infill extrusion width = 0.50mm
; top infill extrusion width = 0.50mm

M107
;Basic settings: Layer height: {layer_height} Walls: {wall_thickness} Fill: {fill_density}
;Print time: {print_time}
;Filament used: {filament_amount}m {filament_weight}g
;Filament cost: {filament_cost}
;M190 S{print_bed_temperature} ;Uncomment to add your own bed temperature line
;M109 S{print_temperature} ;Uncomment to add your own temperature line
G21        ;metric values
G90        ;absolute positioning
M83
G10 P0 S200
T0
M116


G21 ; set units to millimeters
G90 ; use absolute coordinates
M83 ; use relative distances for extrusion
G1 E-3.20000 F3000.00000
G1 Z0.400 F9000.000
G1 X0.000 Y-19.803 F9000.000
G1 Z0.300 F9000.000
G1 E3.20000 F3000.00000
G1 X30.390 Y-19.803 E2.78825 F1200.000
G1 X30.881 Y-19.770 E0.04517
G1 X30.997 Y-19.755 E0.01077 F1200.000
G1 X31.939 Y-19.502 E0.08946
G1 X32.047 Y-19.457 E0.01077
G1 X32.891 Y-18.968 E0.08947
G1 X32.984 Y-18.897 E0.01077
G1 X33.673 Y-18.206 E0.08948
G1 X33.744 Y-18.113 E0.01077
G1 X34.153 Y-17.446 E0.07179
G1 X38.591 Y-8.107 E0.94866
G1 X39.188 Y-6.654 E0.14420
G1 X39.304 Y-6.328 E0.03171
G1 X39.742 Y-4.902 E0.13686
G1 X40.072 Y-3.403 E0.14081
G1 X40.130 Y-3.065 E0.03145
G1 X40.320 Y-1.568 E0.13852
G1 X40.389 Y0.271 E0.16884
G1 X40.309 Y1.896 E0.14923
G1 X40.146 Y3.204 E0.12098
G1 X39.823 Y4.808 E0.15010
G1 X39.374 Y6.358 E0.14808
G1 X39.267 Y6.669 E0.03013
G1 X38.682 Y8.139 E0.14522
G1 X38.004 Y9.516 E0.14085
G1 X37.258 Y10.771 E0.13386
G1 X36.279 Y12.159 E0.15590
G1 X35.303 Y13.322 E0.13932
G1 X35.086 Y13.559 E0.02945
G1 X33.924 Y14.703 E0.14962
G1 X32.918 Y15.555 E0.12096
G1 X31.601 Y16.511 E0.14926
G1 X31.343 Y16.679 E0.02833
G1 X29.939 Y17.501 E0.14926
G1 X28.472 Y18.204 E0.14924
G1 X27.244 Y18.683 E0.12097
G1 X25.688 Y19.160 E0.14930
G1 X24.098 Y19.506 E0.14930
G1 X22.486 Y19.720 E0.14918
G1 X22.178 Y19.745 E0.02833
G1 X20.707 Y19.803 E0.13512
G1 X-20.707 Y19.803 E3.79971
G1 X-22.178 Y19.745 E0.13512
G1 X-23.794 Y19.557 E0.14926
G1 X-24.099 Y19.506 E0.02833
G1 X-25.687 Y19.160 E0.14916
G1 X-27.244 Y18.683 E0.14936
G1 X-28.754 Y18.080 E0.14926
G1 X-29.939 Y17.501 E0.12098
G1 X-31.339 Y16.682 E0.14881
G1 X-32.674 Y15.745 E0.14968
G1 X-33.924 Y14.703 E0.14928
G1 X-35.086 Y13.559 E0.14963
G1 X-36.241 Y12.210 E0.16290
G1 X-37.268 Y10.755 E0.16344
G1 X-38.024 Y9.478 E0.13616
G1 X-38.658 Y8.190 E0.13166
G1 X-38.799 Y7.869 E0.03223
G1 X-39.319 Y6.528 E0.13191
G1 X-39.759 Y5.066 E0.14007
G1 X-40.146 Y3.205 E0.17443
G1 X-40.309 Y1.896 E0.12098
G1 X-40.389 Y0.271 E0.14929
G1 X-40.327 Y-1.473 E0.16017
G1 X-40.094 Y-3.293 E0.16836
G1 X-39.735 Y-4.925 E0.15328
G1 X-39.278 Y-6.410 E0.14257
G1 X-38.666 Y-7.941 E0.15126
G1 X-34.152 Y-17.446 E0.96540
G1 X-33.672 Y-18.208 E0.08262
G1 X-32.984 Y-18.897 E0.08939
G1 X-32.891 Y-18.968 E0.01076
G1 X-32.047 Y-19.457 E0.08944
G1 X-31.939 Y-19.502 E0.01077
G1 X-30.997 Y-19.755 E0.08947
G1 X-30.390 Y-19.803 E0.05591
G1 X-0.060 Y-19.803 E2.78275
G1 E-3.20000 F3000.00000
G1 Z0.700 F9000.000
G1 X6.535 Y-4.149 F9000.000
G1 Z0.300 F9000.000
G1 E3.20000 F3000.00000
G1 X6.753 Y-4.856 E0.06786 F900.000
G1 X7.231 Y-6.033 E0.11662
G1 X7.796 Y-7.144 E0.11432
G1 X8.474 Y-8.237 E0.11805
G1 X9.232 Y-9.251 E0.11618
G1 X10.075 Y-10.198 E0.11629
G1 X11.074 Y-11.143 E0.12614
G1 X11.672 Y-11.828 E0.08343
G1 X12.011 Y-12.544 E0.07269
G1 X13.506 Y-9.960 E0.27390
G1 X13.671 Y-9.554 E0.04018
G1 X13.712 Y-9.201 E0.03265
G1 X13.655 Y-8.850 E0.03265
G1 X13.505 Y-8.527 E0.03265
G1 X13.216 Y-8.188 E0.04087
G1 X12.721 Y-7.807 E0.05733
G1 X12.326 Y-7.641 E0.03927
G1 X11.170 Y-7.435 E0.10776
G1 X10.480 Y-7.079 E0.07120
G1 X9.926 Y-6.550 E0.07037
G1 X9.542 Y-5.886 E0.07037
G1 X9.361 Y-5.140 E0.07037
G1 X9.397 Y-4.365 E0.07120
G1 X9.798 Y-3.261 E0.10776
G1 X9.850 Y-2.836 E0.03927
G1 X9.795 Y-2.336 E0.04616
G1 X9.616 Y-1.319 E0.09478
G1 X9.495 Y-0.820 E0.04710
G1 X9.300 Y-0.439 E0.03927
G1 X8.546 Y0.462 E0.10776
G1 X8.247 Y1.178 E0.07120
G1 X8.162 Y1.940 E0.07037
G1 X8.295 Y2.695 E0.07037
G1 X8.636 Y3.383 E0.07037
G1 X9.162 Y3.953 E0.07120
G1 X10.178 Y4.542 E0.10776
G1 X10.492 Y4.833 E0.03927
G1 X10.776 Y5.261 E0.04710
G1 X11.298 Y6.166 E0.09592
G1 X11.491 Y6.535 E0.03813
G1 X11.590 Y6.868 E0.03190
G1 X11.625 Y7.234 E0.03379
G1 X11.604 Y7.561 E0.03006
G1 X11.615 Y8.207 E0.05922
G1 X11.844 Y8.939 E0.07037
G1 X12.269 Y9.577 E0.07037
G1 X12.856 Y10.070 E0.07037
G1 X13.559 Y10.378 E0.07037
G1 X14.328 Y10.477 E0.07120
G1 X15.485 Y10.274 E0.10776
G1 X15.913 Y10.296 E0.03927
G1 X16.405 Y10.441 E0.04709
G1 X17.376 Y10.795 E0.09477
G1 X17.837 Y10.996 E0.04617
G1 X18.178 Y11.254 E0.03927
G1 X18.934 Y12.153 E0.10776
G1 X19.587 Y12.572 E0.07120
G1 X20.323 Y12.788 E0.07037
G1 X21.090 Y12.788 E0.07037
G1 X21.826 Y12.572 E0.07037
G1 X22.479 Y12.153 E0.07120
G1 X23.235 Y11.254 E0.10776
G1 X23.577 Y10.996 E0.03927
G1 X24.038 Y10.795 E0.04615
G1 X25.008 Y10.441 E0.09478
G1 X25.501 Y10.296 E0.04710
G1 X25.926 Y10.274 E0.03907
G1 X27.040 Y10.473 E0.10380
G1 X27.761 Y10.401 E0.06648
G1 X28.431 Y10.142 E0.06593
G1 X29.009 Y9.716 E0.06593
G1 X29.455 Y9.152 E0.06593
G1 X29.735 Y8.490 E0.06593
G1 X29.825 Y7.821 E0.06192
G1 X29.788 Y7.235 E0.05392
G1 X29.824 Y6.868 E0.03383
G1 X29.923 Y6.535 E0.03189
G1 X30.115 Y6.166 E0.03813
G1 X30.638 Y5.261 E0.09592
G1 X30.922 Y4.833 E0.04710
G1 X31.236 Y4.541 E0.03936
G1 X32.268 Y3.941 E0.10952
G1 X32.802 Y3.347 E0.07330
G1 X33.138 Y2.634 E0.07234
G1 X33.252 Y1.860 E0.07182
G1 X33.151 Y1.123 E0.06825
G1 X32.852 Y0.440 E0.06841
G1 X32.113 Y-0.440 E0.10542
G1 X31.919 Y-0.820 E0.03915
G1 X31.800 Y-1.309 E0.04616
G1 X31.620 Y-2.326 E0.09478
G1 X31.563 Y-2.836 E0.04710
G1 X31.614 Y-3.250 E0.03823
G1 X31.927 Y-4.061 E0.07976
G1 X32.023 Y-4.459 E0.03753
G1 X32.059 Y-4.911 E0.04162
G1 X31.976 Y-5.559 E0.05993
G1 X31.723 Y-6.192 E0.06256
G1 X31.319 Y-6.741 E0.06256
G1 X30.790 Y-7.171 E0.06256
G1 X30.167 Y-7.457 E0.06289
G1 X29.084 Y-7.642 E0.10080
G1 X28.693 Y-7.807 E0.03893
G1 X28.199 Y-8.187 E0.05712
G1 X27.903 Y-8.536 E0.04199
G1 X27.753 Y-8.869 E0.03355
G1 X27.697 Y-9.263 E0.03650
G1 X27.715 Y-9.459 E0.01805
G1 X27.774 Y-9.680 E0.02099
G1 X27.893 Y-9.934 E0.02576
G1 X29.406 Y-12.549 E0.27719
G1 X29.722 Y-11.856 E0.06994
G1 X30.337 Y-11.145 E0.08628 F900.000
G1 X31.338 Y-10.198 E0.12639
G1 X32.181 Y-9.251 E0.11629
G1 X32.939 Y-8.237 E0.11618
G1 X33.618 Y-7.144 E0.11804
G1 X34.185 Y-6.028 E0.11488
G1 X34.660 Y-4.858 E0.11584
G1 X35.036 Y-3.639 E0.11702
G1 X35.305 Y-2.394 E0.11688
G1 X35.466 Y-1.144 E0.11566
G1 X35.520 Y0.118 E0.11585
G1 X35.470 Y1.341 E0.11232
G1 X35.318 Y2.555 E0.11224
G1 X35.065 Y3.760 E0.11302
G1 X34.712 Y4.941 E0.11307
G1 X34.271 Y6.072 E0.11141
G1 X33.743 Y7.153 E0.11035
G1 X33.108 Y8.219 E0.11385
G1 X32.396 Y9.217 E0.11253
G1 X31.608 Y10.148 E0.11185
G1 X30.739 Y11.016 E0.11268
G1 X29.805 Y11.807 E0.11232
G1 X28.809 Y12.519 E0.11233
G1 X27.757 Y13.146 E0.11233
G1 X26.657 Y13.683 E0.11233
G1 X25.517 Y14.128 E0.11233
G1 X24.343 Y14.478 E0.11233
G1 X23.145 Y14.729 E0.11233
G1 X21.930 Y14.880 E0.11233
G1 X20.707 Y14.931 E0.11233
G1 X19.483 Y14.880 E0.11233
G1 X18.269 Y14.729 E0.11233
G1 X17.070 Y14.478 E0.11233
G1 X15.897 Y14.128 E0.11233
G1 X14.756 Y13.683 E0.11233
G1 X13.660 Y13.147 E0.11193
G1 X12.604 Y12.519 E0.11275
G1 X11.608 Y11.807 E0.11232
G1 X10.677 Y11.019 E0.11192
G1 X9.806 Y10.148 E0.11309
G1 X9.015 Y9.213 E0.11231
G1 X8.292 Y8.198 E0.11439
G1 X7.673 Y7.157 E0.11107
G1 X7.152 Y6.092 E0.10875
G1 X6.695 Y4.925 E0.11504
G1 X6.347 Y3.754 E0.11204
G1 X6.095 Y2.556 E0.11236
G1 X5.944 Y1.341 E0.11233
G1 X5.893 Y0.118 E0.11232
G1 X5.947 Y-1.139 E0.11538
G1 X6.107 Y-2.389 E0.11569
G1 X6.378 Y-3.639 E0.11731
G1 X6.517 Y-4.091 E0.04344
G1 X5.814 Y-4.308 F9000.000
G1 X6.060 Y-5.103 E0.07627 F900.000
G1 X6.561 Y-6.339 E0.12240
G1 X7.154 Y-7.505 E0.12006
G1 X7.866 Y-8.652 E0.12383
G1 X8.662 Y-9.717 E0.12199
G1 X9.547 Y-10.711 E0.12207
G1 X10.543 Y-11.653 E0.12581
G1 X11.051 Y-12.234 E0.07083
G1 X11.398 Y-12.969 E0.07460
G1 X11.533 Y-13.771 E0.07460
G1 X11.482 Y-14.226 E0.04198
G1 X11.823 Y-14.338 E0.03287
G1 X14.168 Y-10.285 E0.42968
G1 X14.391 Y-9.739 E0.05411 F900.000
G1 X14.454 Y-9.184 E0.05125
G1 X14.365 Y-8.632 E0.05125
G1 X14.130 Y-8.125 E0.05125
G1 X13.745 Y-7.675 E0.05436
G1 X13.590 Y-7.534 E0.01922
G1 X13.087 Y-7.164 E0.05733
G1 X12.537 Y-6.931 E0.05483
G1 X11.408 Y-6.730 E0.10514
G1 X10.912 Y-6.474 E0.05128
G1 X10.510 Y-6.090 E0.05098
G1 X10.232 Y-5.609 E0.05098
G1 X10.101 Y-5.069 E0.05098
G1 X10.127 Y-4.511 E0.05128
G1 X10.518 Y-3.434 E0.10514
G1 X10.591 Y-2.841 E0.05483
G1 X10.522 Y-2.218 E0.05745
G1 X10.449 Y-1.878 E0.03194
G1 X10.338 Y-1.174 E0.06534
G1 X10.189 Y-0.562 E0.05779
G1 X9.917 Y-0.030 E0.05483
G1 X9.182 Y0.849 E0.10514
G1 X8.966 Y1.364 E0.05128
G1 X8.905 Y1.916 E0.05098
G1 X9.002 Y2.464 E0.05098
G1 X9.248 Y2.962 E0.05098
G1 X9.627 Y3.372 E0.05128
G1 X10.619 Y3.947 E0.10514
G1 X11.056 Y4.354 E0.05482
G1 X11.405 Y4.878 E0.05779
G1 X11.750 Y5.501 E0.06534
G1 X11.937 Y5.800 E0.03237
G1 X12.176 Y6.257 E0.04729
G1 X12.315 Y6.726 E0.04493
G1 X12.363 Y7.222 E0.04570
G1 X12.340 Y7.578 E0.03274
G1 X12.349 Y8.089 E0.04681
G1 X12.514 Y8.619 E0.05098
G1 X12.822 Y9.082 E0.05098
G1 X13.248 Y9.439 E0.05098
G1 X13.757 Y9.662 E0.05098
G1 X14.311 Y9.733 E0.05128
G1 X15.440 Y9.535 E0.10514
G1 X16.037 Y9.566 E0.05482
G1 X16.641 Y9.743 E0.05778
G1 X17.303 Y9.998 E0.06509
G1 X17.637 Y10.106 E0.03219
G1 X18.211 Y10.357 E0.05746
G1 X18.688 Y10.717 E0.05482
G1 X19.425 Y11.594 E0.10514
G1 X19.896 Y11.896 E0.05128
G1 X20.429 Y12.052 E0.05098
G1 X20.985 Y12.052 E0.05098
G1 X21.518 Y11.896 E0.05098
G1 X21.988 Y11.594 E0.05128
G1 X22.726 Y10.717 E0.10514
G1 X23.203 Y10.357 E0.05482
G1 X23.776 Y10.106 E0.05745
G1 X24.108 Y9.999 E0.03194
G1 X24.772 Y9.743 E0.06534
G1 X25.377 Y9.566 E0.05779
G1 X25.973 Y9.535 E0.05476
G1 X27.068 Y9.731 E0.10211
G1 X27.588 Y9.679 E0.04797
G1 X28.074 Y9.491 E0.04778
G1 X28.493 Y9.182 E0.04778
G1 X28.816 Y8.774 E0.04778
G1 X29.019 Y8.294 E0.04778
G1 X29.086 Y7.795 E0.04620
G1 X29.050 Y7.222 E0.05265
G1 X29.098 Y6.726 E0.04572
G1 X29.238 Y6.257 E0.04492
G1 X29.476 Y5.800 E0.04729
G1 X29.663 Y5.501 E0.03237
G1 X30.008 Y4.878 E0.06534
G1 X30.357 Y4.354 E0.05779
G1 X30.795 Y3.946 E0.05486
G1 X31.798 Y3.363 E0.10649
G1 X32.183 Y2.936 E0.05274
G1 X32.426 Y2.419 E0.05241
G1 X32.509 Y1.856 E0.05221
G1 X32.436 Y1.324 E0.04928
G1 X32.221 Y0.832 E0.04932
G1 X31.496 Y-0.031 E0.10335
G1 X31.224 Y-0.562 E0.05478
G1 X31.077 Y-1.171 E0.05745
G1 X31.028 Y-1.516 E0.03194
G1 X30.892 Y-2.215 E0.06534
G1 X30.822 Y-2.841 E0.05779
G1 X30.895 Y-3.430 E0.05446
G1 X31.223 Y-4.281 E0.08365
G1 X31.294 Y-4.575 E0.02778
G1 X31.319 Y-4.893 E0.02930
G1 X31.258 Y-5.373 E0.04435
G1 X31.075 Y-5.832 E0.04535
G1 X30.782 Y-6.230 E0.04535
G1 X30.398 Y-6.542 E0.04535
G1 X29.948 Y-6.748 E0.04546
G1 X28.876 Y-6.931 E0.09981
G1 X28.326 Y-7.164 E0.05471
G1 X27.823 Y-7.534 E0.05733
G1 X27.669 Y-7.675 E0.01914
G1 X27.275 Y-8.139 E0.05587
G1 X27.040 Y-8.663 E0.05268
G1 X26.957 Y-9.243 E0.05380
G1 X26.987 Y-9.587 E0.03170
G1 X27.080 Y-9.933 E0.03282
G1 X27.240 Y-10.275 E0.03463
G1 X29.576 Y-14.311 E0.42789
G1 X29.913 Y-14.205 E0.03249
G1 X29.881 Y-13.841 E0.03355
G1 X29.999 Y-13.021 E0.07592
G1 X30.348 Y-12.257 E0.07708
G1 X30.870 Y-11.654 E0.07321
G1 X31.866 Y-10.711 E0.12590
G1 X32.751 Y-9.717 E0.12207
G1 X33.547 Y-8.652 E0.12199
G1 X34.259 Y-7.505 E0.12382
G1 X34.855 Y-6.333 E0.12063
G1 X35.353 Y-5.105 E0.12162
G1 X35.748 Y-3.826 E0.12282
G1 X36.031 Y-2.519 E0.12267
G1 X36.200 Y-1.207 E0.12143
G1 X36.256 Y0.117 E0.12157
G1 X36.203 Y1.402 E0.11795
G1 X36.044 Y2.676 E0.11784
G1 X35.779 Y3.941 E0.11863
G1 X35.409 Y5.181 E0.11865
G1 X34.945 Y6.368 E0.11697
G1 X34.390 Y7.503 E0.11589
G1 X33.725 Y8.622 E0.11944
G1 X32.977 Y9.670 E0.11814
G1 X32.149 Y10.646 E0.11743
G1 X31.238 Y11.558 E0.11826
G1 X30.258 Y12.388 E0.11790
G1 X29.212 Y13.135 E0.11792
G1 X28.108 Y13.793 E0.11792
G1 X26.953 Y14.358 E0.11792
G1 X25.756 Y14.825 E0.11792
G1 X24.524 Y15.191 E0.11792
G1 X23.266 Y15.455 E0.11792
G1 X21.991 Y15.614 E0.11792
G1 X20.707 Y15.667 E0.11792
G1 X19.423 Y15.614 E0.11792
G1 X18.147 Y15.455 E0.11792
G1 X16.890 Y15.191 E0.11792
G1 X15.658 Y14.825 E0.11791
G1 X14.461 Y14.358 E0.11792
G1 X13.310 Y13.795 E0.11750
G1 X12.202 Y13.135 E0.11833
G1 X11.156 Y12.388 E0.11791
G1 X10.179 Y11.561 E0.11750
G1 X9.264 Y10.646 E0.11868
G1 X8.433 Y9.665 E0.11795
G1 X7.675 Y8.599 E0.11999
G1 X7.025 Y7.507 E0.11660
G1 X6.478 Y6.388 E0.11426
G1 X5.999 Y5.164 E0.12063
G1 X5.633 Y3.935 E0.11767
G1 X5.369 Y2.677 E0.11794
G1 X5.210 Y1.402 E0.11792
G1 X5.157 Y0.117 E0.11795
G1 X5.213 Y-1.201 E0.12109
G1 X5.382 Y-2.514 E0.12145
G1 X5.665 Y-3.826 E0.12311
G1 X5.797 Y-4.251 E0.04085
G1 X6.204 Y-4.397 F9000.000
G1 X7.063 Y4.409 F9000.000
G1 X11.192 Y8.538 E0.54380 F900.000
G1 X11.170 Y7.460 E0.10039
G1 X6.676 Y2.966 E0.59193
G1 X7.931 Y3.165 E0.11831
G1 X6.461 Y1.695 E0.19358
G1 X6.367 Y0.545 E0.10750
G1 X7.730 Y1.908 E0.17954
G1 X7.884 Y1.006 E0.08523
G1 X6.363 Y-0.515 E0.20033
G1 X6.428 Y-1.507 E0.09252
G1 X8.205 Y0.270 E0.23397
G1 X8.686 Y-0.305 E0.06983
G1 X6.548 Y-2.443 E0.28153
G1 X6.736 Y-3.311 E0.08274
G1 X9.097 Y-0.950 E0.31102
G1 X9.274 Y-1.829 E0.08352
G1 X6.962 Y-4.141 E0.30460
G1 X7.221 Y-4.939 E0.07808
G1 X9.385 Y-2.774 E0.28508
G1 X8.945 Y-4.271 E0.14527
G1 X7.525 Y-5.690 E0.18696
G1 X7.864 Y-6.407 E0.07387
G1 X8.971 Y-5.300 E0.14575
G1 X9.218 Y-6.109 E0.07877
G1 X8.228 Y-7.100 E0.13048
G1 X8.632 Y-7.751 E0.07143
G1 X9.607 Y-6.777 E0.12833
G1 X10.147 Y-7.293 E0.06957
G1 X9.062 Y-8.377 E0.14289
G1 X9.514 Y-8.982 E0.07028
G1 X10.805 Y-7.691 E0.17000
G1 X11.608 Y-7.944 E0.07843
G1 X10.008 Y-9.544 E0.21070
G1 X10.520 Y-10.088 E0.06959
G1 X12.471 Y-8.137 E0.25696
G1 X13.058 Y-8.606 E0.06999
G1 X11.062 Y-10.602 E0.26291
G1 X11.582 Y-11.138 E0.06956
G1 X13.027 Y-9.693 E0.19034
G1 E-3.20000 F3000.00000
G1 Z0.700 F9000.000
G1 X9.617 Y4.850 F9000.000
G1 Z0.300 F9000.000
G1 E3.20000 F3000.00000
G1 X10.248 Y5.482 E0.08320 F900.000
G1 X7.800 Y6.201 F9000.000
G1 X14.622 Y13.024 E0.89862 F900.000
G1 X16.415 Y13.761 F9000.000
G1 X13.499 Y10.844 E0.38413 F900.000
G1 X14.575 Y10.865 E0.10026
G1 X17.858 Y14.148 E0.43247
G1 X19.129 Y14.363 E0.12008
G1 X15.499 Y10.733 E0.47814
G1 X17.046 Y11.223 E0.15111
G1 X20.280 Y14.457 E0.42596
G1 X21.340 Y14.461 E0.09877
G1 X20.116 Y13.237 E0.16127
G1 X21.138 Y13.203 E0.09523
G1 X22.331 Y14.396 E0.15714
G1 X23.265 Y14.274 E0.08775
G1 X21.948 Y12.957 E0.17349
G1 X22.591 Y12.544 E0.07119
G1 X24.138 Y14.091 E0.20375
G1 X24.966 Y13.863 E0.08001
G1 X23.108 Y12.005 E0.24480
G1 X23.613 Y11.454 E0.06962
G1 X25.760 Y13.601 E0.28279
G1 X26.519 Y13.304 E0.07595
G1 X24.333 Y11.118 E0.28795
G1 X25.111 Y10.840 E0.07692
G1 X27.232 Y12.961 E0.27941
G1 X27.920 Y12.593 E0.07268
G1 X26.124 Y10.796 E0.23664
G1 X27.270 Y10.887 E0.10711
G1 X28.582 Y12.199 E0.17279
G1 X29.202 Y11.762 E0.07059
G1 X28.130 Y10.691 E0.14114
G1 X28.827 Y10.331 E0.07302
G1 X29.801 Y11.306 E0.12836
G1 X30.368 Y10.816 E0.06974
G1 X29.398 Y9.846 E0.12769
G1 X29.851 Y9.243 E0.07025
G1 X30.896 Y10.288 E0.13759
G1 X31.424 Y9.760 E0.06955
G1 X30.165 Y8.502 E0.16573
G1 X30.268 Y7.548 E0.08932
G1 X31.912 Y9.192 E0.21655
G1 X32.367 Y8.591 E0.07022
G1 X30.348 Y6.572 E0.26589
G1 X30.725 Y5.893 E0.07234
G1 X32.802 Y7.969 E0.27349
G1 X33.195 Y7.307 E0.07176
G1 X31.122 Y5.234 E0.27307
G1 X31.680 Y4.736 E0.06967
G1 X33.562 Y6.618 E0.24793
G1 X33.904 Y5.903 E0.07378
G1 X32.348 Y4.348 E0.20491
G1 X32.886 Y3.830 E0.06957
G1 X34.200 Y5.144 E0.17313
G1 X34.461 Y4.348 E0.07800
G1 X33.312 Y3.199 E0.15133
G1 X33.601 Y2.432 E0.07635
G1 X34.686 Y3.518 E0.14300
G1 X34.870 Y2.645 E0.08306
G1 X33.672 Y1.447 E0.15775
G1 X33.078 Y-0.203 F9000.000
G1 X34.989 Y1.708 E0.25175 F900.000
G1 X35.052 Y0.715 E0.09269
G1 X32.127 Y-2.210 E0.38533
G1 X32.074 Y-3.319 E0.10344
G1 X35.044 Y-0.349 E0.39123
G1 X34.946 Y-1.503 E0.10788
G1 X32.362 Y-4.087 E0.34036
G1 X32.504 Y-5.001 E0.08611
