; generated by Slic3r 1.2.9 on 2016-12-15 at 15:23:49

; external perimeters extrusion width = 0.50mm
; perimeters extrusion width = 0.50mm
; infill extrusion width = 0.50mm
; solid infill extrusion width = 0.50mm
; top infill extrusion width = 0.50mm

M107
;Basic settings: Layer height: {layer_height} Walls: {wall_thickness} Fill: {fill_density}
;Print time: {print_time}
;Filament used: {filament_amount}m {filament_weight}g
;Filament cost: {filament_cost}
;M190 S{print_bed_temperature} ;Uncomment to add your own bed temperature line
;M109 S{print_temperature} ;Uncomment to add your own temperature line
G21        ;metric values
G90        ;absolute positioning
M83
G10 P0 S200
T0
M116


G21 ; set units to millimeters
G90 ; use absolute coordinates
M83 ; use relative distances for extrusion
G1 E-3.20000 F3000.00000
G1 Z0.400 F9000.000
G1 X0.000 Y-19.803 F9000.000
G1 Z0.300 F9000.000
G1 E3.20000 F3000.00000
G1 X30.390 Y-19.803 E2.78825 F1200.000
G1 X30.997 Y-19.755 E0.05591 F1200.000
G1 X31.939 Y-19.502 E0.08947
G1 X32.047 Y-19.457 E0.01077
G1 X32.891 Y-18.968 E0.08947
G1 X32.984 Y-18.897 E0.01077
G1 X33.673 Y-18.207 E0.08948
G1 X34.153 Y-17.446 E0.08251
G1 X38.614 Y-8.058 E0.95363
G1 X39.263 Y-6.454 E0.15882
G1 X39.742 Y-4.902 E0.14897
G1 X40.104 Y-3.239 E0.15619
G1 X40.320 Y-1.568 E0.15459
G1 X40.392 Y0.055 E0.14899
G1 X40.335 Y1.589 E0.14089
G1 X40.146 Y3.204 E0.14919
G1 X40.095 Y3.510 E0.02844
G1 X39.753 Y5.085 E0.14787
G1 X39.315 Y6.539 E0.13935
G1 X38.738 Y8.016 E0.14551
G1 X38.004 Y9.516 E0.15325
G1 X37.283 Y10.730 E0.12949
G1 X37.088 Y11.029 E0.03275
G1 X36.135 Y12.340 E0.14867
G1 X35.235 Y13.401 E0.12767
G1 X34.151 Y14.494 E0.14124
G1 X33.924 Y14.703 E0.02833
G1 X32.674 Y15.745 E0.14927
G1 X31.343 Y16.679 E0.14926
G1 X29.939 Y17.501 E0.14926
G1 X28.472 Y18.204 E0.14924
G1 X27.244 Y18.683 E0.12097
G1 X25.688 Y19.160 E0.14930
G1 X24.098 Y19.506 E0.14930
G1 X22.486 Y19.720 E0.14918
G1 X22.178 Y19.745 E0.02833
G1 X20.707 Y19.803 E0.13512
G1 X-20.707 Y19.803 E3.79971
G1 X-22.178 Y19.745 E0.13512
G1 X-23.794 Y19.557 E0.14926
G1 X-24.099 Y19.506 E0.02833
G1 X-25.687 Y19.160 E0.14916
G1 X-27.244 Y18.683 E0.14936
G1 X-28.754 Y18.080 E0.14926
G1 X-29.939 Y17.501 E0.12098
G1 X-31.339 Y16.682 E0.14881
G1 X-32.674 Y15.745 E0.14968
G1 X-33.924 Y14.703 E0.14928
G1 X-35.086 Y13.559 E0.14963
G1 X-36.241 Y12.210 E0.16290
G1 X-37.268 Y10.755 E0.16344
G1 X-38.024 Y9.478 E0.13616
G1 X-38.658 Y8.190 E0.13166
G1 X-38.799 Y7.869 E0.03223
G1 X-39.319 Y6.528 E0.13191
G1 X-39.759 Y5.066 E0.14007
G1 X-40.146 Y3.205 E0.17443
G1 X-40.309 Y1.896 E0.12098
G1 X-40.389 Y0.271 E0.14929
G1 X-40.327 Y-1.473 E0.16017
G1 X-40.094 Y-3.293 E0.16836
G1 X-39.735 Y-4.925 E0.15328
G1 X-39.278 Y-6.410 E0.14257
G1 X-38.666 Y-7.941 E0.15126
G1 X-34.152 Y-17.446 E0.96540
G1 X-33.672 Y-18.208 E0.08262
G1 X-32.984 Y-18.897 E0.08939
G1 X-32.891 Y-18.968 E0.01076
G1 X-32.047 Y-19.457 E0.08944
G1 X-31.939 Y-19.502 E0.01077
G1 X-30.997 Y-19.755 E0.08947
G1 X-30.390 Y-19.803 E0.05591
G1 X-0.060 Y-19.803 E2.78275
G1 E-3.20000 F3000.00000
G1 Z0.700 F9000.000
G1 X29.768 Y-8.243 F9000.000
G1 Z0.300 F9000.000
G1 E3.20000 F3000.00000
G1 X29.588 Y-8.323 E0.01805 F900.000
G1 X29.177 Y-8.640 E0.04758
G1 X28.734 Y-9.047 E0.05524
G1 X28.421 Y-9.407 E0.04375
G1 X28.266 Y-9.745 E0.03413
G1 X28.208 Y-10.147 E0.03722
G1 X28.225 Y-10.341 E0.01791
G1 X28.284 Y-10.562 E0.02098
G1 X28.403 Y-10.816 E0.02576
G1 X29.406 Y-12.549 E0.18369
G1 X29.722 Y-11.856 E0.06994
G1 X30.337 Y-11.145 E0.08628 F900.000
G1 X31.338 Y-10.198 E0.12639
G1 X32.181 Y-9.251 E0.11629
G1 X32.939 Y-8.237 E0.11618
G1 X33.618 Y-7.144 E0.11805
G1 X34.182 Y-6.036 E0.11409
G1 X34.664 Y-4.844 E0.11799
G1 X35.036 Y-3.639 E0.11563
G1 X35.305 Y-2.394 E0.11688
G1 X35.467 Y-1.137 E0.11630
G1 X35.520 Y0.118 E0.11523
G1 X35.470 Y1.341 E0.11232
G1 X35.318 Y2.555 E0.11224
G1 X35.065 Y3.761 E0.11306
G1 X34.718 Y4.927 E0.11163
G1 X34.264 Y6.087 E0.11433
G1 X33.736 Y7.165 E0.11006
G1 X33.109 Y8.219 E0.11256
G1 X32.388 Y9.227 E0.11370
G1 X31.608 Y10.148 E0.11073
G1 X30.739 Y11.016 E0.11269
G1 X29.805 Y11.807 E0.11232
G1 X28.809 Y12.519 E0.11233
G1 X27.757 Y13.146 E0.11233
G1 X26.657 Y13.683 E0.11233
G1 X25.517 Y14.128 E0.11233
G1 X24.343 Y14.478 E0.11233
G1 X23.149 Y14.728 E0.11193
G1 X21.930 Y14.880 E0.11275
G1 X20.707 Y14.931 E0.11232
G1 X19.483 Y14.880 E0.11233
G1 X18.269 Y14.729 E0.11233
G1 X17.070 Y14.478 E0.11233
G1 X15.897 Y14.128 E0.11233
G1 X14.756 Y13.683 E0.11233
G1 X13.660 Y13.147 E0.11193
G1 X12.604 Y12.519 E0.11275
G1 X11.608 Y11.807 E0.11232
G1 X10.674 Y11.017 E0.11228
G1 X9.797 Y10.138 E0.11388
G1 X9.014 Y9.213 E0.11124
G1 X8.316 Y8.235 E0.11024
G1 X7.685 Y7.179 E0.11286
G1 X7.142 Y6.070 E0.11325
G1 X6.695 Y4.925 E0.11276
G1 X6.347 Y3.754 E0.11211
G1 X6.095 Y2.556 E0.11236
G1 X5.944 Y1.341 E0.11233
G1 X5.893 Y0.118 E0.11232
G1 X5.947 Y-1.144 E0.11588
G1 X6.110 Y-2.406 E0.11669
G1 X6.378 Y-3.639 E0.11578
G1 X6.753 Y-4.856 E0.11684
G1 X7.231 Y-6.033 E0.11662
G1 X7.796 Y-7.144 E0.11432
G1 X8.474 Y-8.237 E0.11805
G1 X9.232 Y-9.251 E0.11618
G1 X10.075 Y-10.198 E0.11629
G1 X11.074 Y-11.143 E0.12614
G1 X11.672 Y-11.828 E0.08343
G1 X12.011 Y-12.544 E0.07269
G1 X12.995 Y-10.843 E0.18032
G1 X13.162 Y-10.433 E0.04061
G1 X13.201 Y-10.075 E0.03300
G1 X13.141 Y-9.720 E0.03300
G1 X12.986 Y-9.396 E0.03300
G1 X12.681 Y-9.049 E0.04235
G1 X12.236 Y-8.640 E0.05551
G1 X11.826 Y-8.323 E0.04758
G1 X11.430 Y-8.147 E0.03976
G1 X10.278 Y-7.926 E0.10757
G1 X9.602 Y-7.570 E0.07013
G1 X9.057 Y-7.045 E0.06941
G1 X8.678 Y-6.390 E0.06941
G1 X8.497 Y-5.656 E0.06941
G1 X8.527 Y-4.892 E0.07013
G1 X8.911 Y-3.784 E0.10758
G1 X8.956 Y-3.353 E0.03976
G1 X8.888 Y-2.843 E0.04727
G1 X8.765 Y-2.310 E0.05021
G1 X8.655 Y-1.686 E0.05810
G1 X8.588 Y-1.143 E0.05021
G1 X8.478 Y-0.640 E0.04727
G1 X8.288 Y-0.250 E0.03976
G1 X7.548 Y0.659 E0.10757
G1 X7.259 Y1.367 E0.07013
G1 X7.178 Y2.119 E0.06941
G1 X7.309 Y2.864 E0.06941
G1 X7.642 Y3.543 E0.06941
G1 X8.156 Y4.109 E0.07013
G1 X9.163 Y4.710 E0.10758
G1 X9.474 Y5.012 E0.03976
G1 X9.750 Y5.447 E0.04727
G1 X9.999 Y5.934 E0.05021
G1 X10.315 Y6.483 E0.05810
G1 X10.619 Y6.951 E0.05123
G1 X10.829 Y7.335 E0.04012
G1 X10.936 Y7.680 E0.03321
G1 X10.975 Y8.067 E0.03569
G1 X10.959 Y8.359 E0.02676
G1 X10.977 Y8.998 E0.05873
G1 X11.208 Y9.719 E0.06941
G1 X11.630 Y10.347 E0.06941
G1 X12.209 Y10.833 E0.06941
G1 X12.901 Y11.139 E0.06941
G1 X13.658 Y11.243 E0.07013
G1 X14.816 Y11.056 E0.10757
G1 X15.248 Y11.087 E0.03976
G1 X15.739 Y11.243 E0.04727
G1 X16.243 Y11.457 E0.05021
G1 X16.838 Y11.673 E0.05810
G1 X17.361 Y11.833 E0.05021
G1 X17.838 Y12.029 E0.04727
G1 X18.188 Y12.284 E0.03976
G1 X18.955 Y13.171 E0.10758
G1 X19.602 Y13.578 E0.07013
G1 X20.328 Y13.788 E0.06941
G1 X21.085 Y13.788 E0.06941
G1 X21.812 Y13.578 E0.06941
G1 X22.458 Y13.171 E0.07013
G1 X23.225 Y12.284 E0.10758
G1 X23.576 Y12.029 E0.03976
G1 X24.052 Y11.833 E0.04727
G1 X24.576 Y11.673 E0.05021
G1 X25.171 Y11.457 E0.05810
G1 X25.675 Y11.243 E0.05021
G1 X26.165 Y11.087 E0.04727
G1 X26.596 Y11.056 E0.03959
G1 X27.715 Y11.240 E0.10404
G1 X28.429 Y11.160 E0.06591
G1 X29.092 Y10.898 E0.06545
G1 X29.663 Y10.471 E0.06545
G1 X30.103 Y9.909 E0.06545
G1 X30.379 Y9.251 E0.06545
G1 X30.467 Y8.591 E0.06114
G1 X30.438 Y8.068 E0.04805
G1 X30.477 Y7.680 E0.03573
G1 X30.584 Y7.335 E0.03321
G1 X30.794 Y6.951 E0.04012
G1 X31.098 Y6.483 E0.05123
G1 X31.415 Y5.934 E0.05810
G1 X31.664 Y5.447 E0.05021
G1 X31.939 Y5.012 E0.04727
G1 X32.252 Y4.710 E0.03985
G1 X33.274 Y4.096 E0.10944
G1 X33.797 Y3.506 E0.07235
G1 X34.125 Y2.799 E0.07150
G1 X34.237 Y2.034 E0.07095
G1 X34.138 Y1.308 E0.06717
G1 X33.850 Y0.636 E0.06716
G1 X33.125 Y-0.251 E0.10509
G1 X32.936 Y-0.640 E0.03964
G1 X32.825 Y-1.143 E0.04727
G1 X32.759 Y-1.686 E0.05021
G1 X32.649 Y-2.310 E0.05810
G1 X32.526 Y-2.843 E0.05021
G1 X32.457 Y-3.353 E0.04727
G1 X32.501 Y-3.774 E0.03877
G1 X32.800 Y-4.586 E0.07943
G1 X32.890 Y-4.971 E0.03624
G1 X32.924 Y-5.412 E0.04057
G1 X32.843 Y-6.053 E0.05931
G1 X32.595 Y-6.681 E0.06200
G1 X32.197 Y-7.228 E0.06200
G1 X31.676 Y-7.658 E0.06200
G1 X31.063 Y-7.947 E0.06223
G1 X29.981 Y-8.148 E0.10097
G1 X29.822 Y-8.219 E0.01590
G1 X29.523 Y-7.547 F9000.000
G1 X29.208 Y-7.687 E0.03162 F900.000
G1 X28.703 Y-8.077 E0.05856
G1 X28.206 Y-8.533 E0.06190
G1 X27.796 Y-9.004 E0.05723
G1 X27.553 Y-9.535 E0.05361
G1 X27.468 Y-10.126 E0.05478
G1 X27.498 Y-10.469 E0.03165
G1 X27.590 Y-10.815 E0.03282
G1 X27.750 Y-11.157 E0.03463
G1 X29.576 Y-14.311 E0.33439
G1 X29.913 Y-14.205 E0.03249
G1 X29.881 Y-13.841 E0.03355
G1 X29.999 Y-13.021 E0.07592
G1 X30.348 Y-12.257 E0.07708
G1 X30.870 Y-11.654 E0.07321
G1 X31.866 Y-10.711 E0.12590
G1 X32.751 Y-9.717 E0.12207
G1 X33.547 Y-8.652 E0.12199
G1 X34.259 Y-7.505 E0.12383
G1 X34.852 Y-6.341 E0.11985
G1 X35.358 Y-5.091 E0.12378
G1 X35.748 Y-3.826 E0.12143
G1 X36.031 Y-2.519 E0.12267
G1 X36.200 Y-1.200 E0.12206
G1 X36.256 Y0.117 E0.12093
G1 X36.203 Y1.402 E0.11795
G1 X36.044 Y2.676 E0.11784
G1 X35.779 Y3.942 E0.11864
G1 X35.414 Y5.166 E0.11724
G1 X34.938 Y6.383 E0.11992
G1 X34.384 Y7.515 E0.11561
G1 X33.725 Y8.622 E0.11816
G1 X32.969 Y9.679 E0.11929
G1 X32.149 Y10.646 E0.11629
G1 X31.238 Y11.558 E0.11827
G1 X30.258 Y12.388 E0.11790
G1 X29.212 Y13.135 E0.11792
G1 X28.108 Y13.793 E0.11792
G1 X26.953 Y14.358 E0.11792
G1 X25.756 Y14.825 E0.11792
G1 X24.524 Y15.191 E0.11792
G1 X23.271 Y15.454 E0.11750
G1 X21.991 Y15.614 E0.11833
G1 X20.707 Y15.667 E0.11791
G1 X19.423 Y15.614 E0.11792
G1 X18.147 Y15.455 E0.11792
G1 X16.890 Y15.191 E0.11792
G1 X15.658 Y14.825 E0.11791
G1 X14.461 Y14.358 E0.11792
G1 X13.310 Y13.795 E0.11750
G1 X12.202 Y13.135 E0.11833
G1 X11.156 Y12.388 E0.11791
G1 X10.175 Y11.558 E0.11789
G1 X9.255 Y10.636 E0.11948
G1 X8.433 Y9.665 E0.11679
G1 X7.700 Y8.638 E0.11577
G1 X7.038 Y7.530 E0.11843
G1 X6.468 Y6.366 E0.11887
G1 X5.999 Y5.165 E0.11837
G1 X5.633 Y3.935 E0.11770
G1 X5.369 Y2.677 E0.11794
G1 X5.210 Y1.402 E0.11792
G1 X5.157 Y0.117 E0.11795
G1 X5.214 Y-1.207 E0.12160
G1 X5.384 Y-2.531 E0.12247
G1 X5.665 Y-3.826 E0.12156
G1 X6.060 Y-5.103 E0.12263
G1 X6.561 Y-6.339 E0.12240
G1 X7.154 Y-7.505 E0.12006
G1 X7.866 Y-8.652 E0.12383
G1 X8.662 Y-9.717 E0.12199
G1 X9.547 Y-10.711 E0.12207
G1 X10.543 Y-11.653 E0.12581
G1 X11.051 Y-12.234 E0.07083
G1 X11.398 Y-12.969 E0.07460
G1 X11.533 Y-13.771 E0.07460
G1 X11.482 Y-14.226 E0.04198
G1 X11.823 Y-14.338 E0.03287
G1 X13.657 Y-11.167 E0.33615
G1 X13.882 Y-10.615 E0.05470 F900.000
G1 X13.943 Y-10.053 E0.05181
G1 X13.849 Y-9.497 E0.05181
G1 X13.606 Y-8.987 E0.05181
G1 X13.208 Y-8.534 E0.05532
G1 X12.711 Y-8.077 E0.06200
G1 X12.205 Y-7.687 E0.05856
G1 X11.652 Y-7.440 E0.05561
G1 X10.524 Y-7.224 E0.10534
G1 X10.037 Y-6.967 E0.05055
G1 X9.642 Y-6.587 E0.05029
G1 X9.368 Y-6.113 E0.05029
G1 X9.236 Y-5.581 E0.05029
G1 X9.258 Y-5.030 E0.05054
G1 X9.634 Y-3.945 E0.10534
G1 X9.697 Y-3.343 E0.05561
G1 X9.612 Y-2.711 E0.05847
G1 X9.486 Y-2.163 E0.05160
G1 X9.383 Y-1.577 E0.05459
G1 X9.314 Y-1.019 E0.05160
G1 X9.178 Y-0.396 E0.05847
G1 X8.912 Y0.148 E0.05561
G1 X8.187 Y1.039 E0.10534
G1 X7.979 Y1.549 E0.05054
G1 X7.920 Y2.094 E0.05029
G1 X8.016 Y2.634 E0.05029
G1 X8.257 Y3.126 E0.05029
G1 X8.627 Y3.534 E0.05055
G1 X9.613 Y4.123 E0.10534
G1 X10.049 Y4.544 E0.05561
G1 X10.390 Y5.082 E0.05847
G1 X10.645 Y5.583 E0.05160
G1 X10.943 Y6.098 E0.05459
G1 X11.251 Y6.574 E0.05198
G1 X11.510 Y7.046 E0.04941
G1 X11.661 Y7.533 E0.04679
G1 X11.713 Y8.051 E0.04779
G1 X11.695 Y8.369 E0.02919
G1 X11.709 Y8.873 E0.04629
G1 X11.877 Y9.395 E0.05029
G1 X12.182 Y9.850 E0.05029
G1 X12.602 Y10.203 E0.05029
G1 X13.103 Y10.425 E0.05029
G1 X13.649 Y10.499 E0.05054
G1 X14.783 Y10.317 E0.10534
G1 X15.387 Y10.359 E0.05561
G1 X15.995 Y10.552 E0.05847
G1 X16.512 Y10.772 E0.05160
G1 X17.071 Y10.975 E0.05459
G1 X17.609 Y11.140 E0.05160
G1 X18.199 Y11.382 E0.05847
G1 X18.689 Y11.738 E0.05561
G1 X19.440 Y12.607 E0.10534
G1 X19.906 Y12.901 E0.05055
G1 X20.433 Y13.053 E0.05029
G1 X20.981 Y13.053 E0.05029
G1 X21.507 Y12.901 E0.05029
G1 X21.973 Y12.607 E0.05055
G1 X22.724 Y11.738 E0.10534
G1 X23.215 Y11.382 E0.05561
G1 X23.804 Y11.140 E0.05847
G1 X24.342 Y10.975 E0.05160
G1 X24.901 Y10.772 E0.05459
G1 X25.419 Y10.552 E0.05160
G1 X26.026 Y10.359 E0.05847
G1 X26.630 Y10.317 E0.05555
G1 X27.734 Y10.498 E0.10263
G1 X28.250 Y10.440 E0.04760
G1 X28.730 Y10.250 E0.04743
G1 X29.144 Y9.940 E0.04743
G1 X29.463 Y9.533 E0.04743
G1 X29.663 Y9.057 E0.04743
G1 X29.729 Y8.562 E0.04574
G1 X29.700 Y8.051 E0.04695
G1 X29.752 Y7.533 E0.04780
G1 X29.904 Y7.046 E0.04679
G1 X30.162 Y6.574 E0.04941
G1 X30.471 Y6.098 E0.05198
G1 X30.768 Y5.583 E0.05459
G1 X31.024 Y5.082 E0.05160
G1 X31.365 Y4.544 E0.05847
G1 X31.801 Y4.122 E0.05564
G1 X32.799 Y3.524 E0.10676
G1 X33.175 Y3.098 E0.05210
G1 X33.413 Y2.586 E0.05180
G1 X33.494 Y2.030 E0.05159
G1 X33.423 Y1.506 E0.04849
G1 X33.215 Y1.021 E0.04847
G1 X32.501 Y0.148 E0.10343
G1 X32.236 Y-0.396 E0.05557
G1 X32.100 Y-1.019 E0.05847
G1 X32.031 Y-1.577 E0.05160
G1 X31.927 Y-2.163 E0.05459
G1 X31.801 Y-2.711 E0.05160
G1 X31.716 Y-3.343 E0.05847
G1 X31.779 Y-3.942 E0.05526
G1 X32.094 Y-4.798 E0.08372
G1 X32.161 Y-5.084 E0.02691
G1 X32.185 Y-5.393 E0.02851
G1 X32.125 Y-5.868 E0.04392
G1 X31.945 Y-6.324 E0.04494
G1 X31.657 Y-6.720 E0.04494
G1 X31.279 Y-7.032 E0.04494
G1 X30.835 Y-7.241 E0.04502
G1 X29.761 Y-7.441 E0.10027
G1 X29.578 Y-7.522 E0.01838
G1 X29.487 Y-7.889 F9000.000
G1 X31.333 Y-8.250 F9000.000
G1 X31.520 Y-8.189 E0.01805 F600.000
G1 X31.602 Y-8.193 E0.00752
G1 X31.980 Y-8.314 E0.03643
G1 X32.412 Y-7.877 E0.05634
G1 X32.642 Y-7.609 E0.03247
G1 X33.095 Y-6.929 E0.07491
G1 X33.414 Y-6.229 E0.07062
G1 X33.564 Y-5.754 E0.04569
G1 X33.735 Y-5.101 E0.06190
G1 X34.287 Y-4.364 F9000.000
G1 X33.928 Y-4.723 E0.05035 F900.000
G1 X33.153 Y-4.373 E0.08440
G1 X34.719 Y-2.807 E0.21979
G1 X34.953 Y-1.448 E0.13684
G1 X32.915 Y-3.485 E0.28599
G1 X33.171 Y-2.104 E0.13941
G1 X35.045 Y-0.230 E0.26309
G1 X34.255 Y0.105 E0.08518
G1 X33.787 Y-0.363 E0.06573
G1 X34.244 Y0.569 F9000.000
G1 X34.335 Y0.720 E0.01615 F600.000
G1 X34.401 Y0.771 E0.00761
G1 X34.762 Y0.924 E0.03596
G1 X34.806 Y1.286 E0.03348
G1 X34.810 Y2.008 E0.06625
G1 X34.753 Y2.460 E0.04184
G1 X34.656 Y2.986 E0.04904
G1 X34.450 Y3.605 E0.05984
G1 X34.329 Y3.905 E0.02969
G1 X34.186 Y4.164 E0.02716
G1 X33.780 Y4.193 E0.03734
G1 X33.711 Y4.217 E0.00668
G1 X33.615 Y4.297 E0.01147
G1 X34.091 Y5.423 F9000.000
G1 X33.738 Y5.070 E0.04587 F900.000
G1 X33.786 Y6.161 E0.10030
G1 X32.589 Y4.963 E0.15558
G1 X32.088 Y5.505 E0.06775
G1 X33.444 Y6.860 E0.17616
G1 X33.067 Y7.525 E0.07022
G1 X31.724 Y6.183 E0.17442
G1 X31.334 Y6.834 E0.06980
G1 X32.668 Y8.168 E0.17335
G1 X32.234 Y8.776 E0.06862
G1 X30.961 Y7.503 E0.16539
G1 X30.914 Y8.497 E0.09146
G1 X31.317 Y8.901 E0.05241
G1 X31.155 Y9.470 F9000.000
G1 X30.665 Y10.198 E0.08054 F600.000
G1 X30.336 Y10.578 E0.04609
G1 X30.035 Y10.886 E0.03949
G1 X29.398 Y11.389 E0.07449
G1 X29.059 Y11.578 E0.03557
G1 X28.531 Y11.633 E0.04874
G1 X27.857 Y11.615 E0.06186
G1 X27.403 Y11.969 F9000.000
G1 X27.047 Y11.613 E0.05157 F900.000
G1 X25.879 Y11.607 E0.11967
G1 X27.232 Y12.961 E0.19613
G1 X26.443 Y13.334 E0.08941
G1 X25.044 Y11.934 E0.20286
G1 X24.173 Y12.225 E0.09406
G1 X25.608 Y13.660 E0.20788
G1 X24.722 Y13.936 E0.09508
G1 X23.436 Y12.650 E0.18632
G1 X23.417 Y13.793 E0.11717
G1 X23.788 Y14.164 E0.05374
G1 X22.595 Y13.543 F9000.000
G1 X22.483 Y13.640 E0.01354 F600.000
G1 X22.446 Y13.708 E0.00712
G1 X22.352 Y14.096 E0.03665
G1 X22.045 Y14.199 E0.02966
G1 X21.192 Y14.346 E0.07946
G1 X20.707 Y14.359 E0.04452
G1 X20.222 Y14.346 E0.04452
G1 X19.368 Y14.199 E0.07946
G1 X19.062 Y14.096 E0.02966
G1 X18.968 Y13.708 E0.03666
G1 X18.930 Y13.640 E0.00712
G1 X18.819 Y13.543 E0.01354
G1 X18.114 Y13.099 F9000.000
G1 X17.516 Y12.501 E0.08988 F900.000
G1 X17.956 Y14.146 F9000.000
G1 X15.534 Y11.724 E0.36391 F900.000
G1 X14.194 Y11.588 E0.14309
G1 X16.346 Y13.740 E0.32332
G1 X14.236 Y12.835 F9000.000
G1 X13.864 Y12.463 E0.05595 F900.000
G1 X13.523 Y11.616 F9000.000
G1 X12.782 Y11.625 E0.06801 F600.000
G1 X12.344 Y11.571 E0.04049
G1 X11.885 Y11.300 E0.04889
G1 X11.187 Y10.707 E0.08406
