; generated by Slic3r 1.2.9 on 2016-12-01 at 13:11:17

; external perimeters extrusion width = 0.50mm
; perimeters extrusion width = 0.50mm
; infill extrusion width = 0.50mm
; solid infill extrusion width = 0.50mm
; top infill extrusion width = 0.50mm

M107
;Basic settings: Layer height: {layer_height} Walls: {wall_thickness} Fill: {fill_density}
;Print time: {print_time}
;Filament used: {filament_amount}m {filament_weight}g
;Filament cost: {filament_cost}
;M190 S{print_bed_temperature} ;Uncomment to add your own bed temperature line
;M109 S{print_temperature} ;Uncomment to add your own temperature line
G21        ;metric values
G90        ;absolute positioning
M83
G10 P0 S200
T0
M116


G21 ; set units to millimeters
G90 ; use absolute coordinates
M83 ; use relative distances for extrusion
G1 E-3.20000 F3000.00000
G1 Z0.400 F9000.000
G1 X0.000 Y26.686 F9000.000
G1 Z0.300 F9000.000
G1 E3.20000 F3000.00000
G1 X-27.950 Y26.686 E2.56443 F1200.000
G1 X-29.621 Y26.291 E0.15755
G1 X-30.939 Y25.190 E0.15755
G1 X-31.686 Y22.950 E0.21667
G1 X-31.686 Y-20.979 E4.03053
G1 X-31.291 Y-22.650 E0.15755
G1 X-30.591 Y-23.621 E0.10975
G1 X-28.621 Y-25.591 E0.25571
G1 X-27.160 Y-26.494 E0.15755
G1 X-25.979 Y-26.686 E0.10975
G1 X27.950 Y-26.686 E4.94804
G1 X29.621 Y-26.291 E0.15755
G1 X30.939 Y-25.190 E0.15755 F1200.000
G1 X31.686 Y-22.950 E0.21667
G1 X31.686 Y22.950 E4.21135
G1 X31.291 Y24.621 E0.15755
G1 X30.190 Y25.939 E0.15755
G1 X27.950 Y26.686 E0.21667
G1 X0.060 Y26.686 E2.55892
G1 E-3.20000 F3000.00000
G1 Z0.700 F9000.000
G1 X0.876 Y-21.814 F9000.000
G1 Z0.300 F9000.000
G1 E3.20000 F3000.00000
G1 X26.814 Y-21.814 E2.37990 F900.000
G1 X26.814 Y21.814 E4.00296
G1 X-26.814 Y21.814 E4.92047 F900.000
G1 X-26.814 Y-20.509 E3.88318
G1 X-25.509 Y-21.814 E0.16939
G1 X0.816 Y-21.814 E2.41529
G1 X0.816 Y-22.550 F9000.000
G1 X27.550 Y-22.550 E2.45290 F900.000
G1 X27.550 Y22.550 E4.13795
G1 X-27.550 Y22.550 E5.05545 F900.000
G1 X-27.550 Y-20.814 E3.97863
G1 X-25.814 Y-22.550 E0.22531
G1 X0.756 Y-22.550 E2.43774
G1 X1.016 Y-22.204 F9000.000
G1 X26.365 Y-21.013 F9000.000
G1 X26.013 Y-21.365 E0.04573 F900.000
G1 X24.972 Y-21.365 E0.09563
G1 X26.365 Y-19.972 E0.18096
G1 X26.365 Y-18.931 E0.09563
G1 X23.931 Y-21.365 E0.31620
G1 X22.889 Y-21.365 E0.09563
G1 X26.365 Y-17.889 E0.45144
G1 X26.365 Y-16.848 E0.09563
G1 X21.848 Y-21.365 E0.58667
G1 X20.807 Y-21.365 E0.09563
G1 X26.365 Y-15.807 E0.72191
G1 X26.365 Y-14.765 E0.09563
G1 X19.765 Y-21.365 E0.85714
G1 X18.724 Y-21.365 E0.09563
G1 X26.365 Y-13.724 E0.99238
G1 X26.365 Y-12.683 E0.09563
G1 X17.683 Y-21.365 E1.12761
G1 X16.642 Y-21.365 E0.09563
G1 X26.365 Y-11.642 E1.26285
G1 X26.365 Y-10.600 E0.09563
G1 X15.600 Y-21.365 E1.39808
G1 X14.559 Y-21.365 E0.09563
G1 X26.365 Y-9.559 E1.53332
G1 X26.365 Y-8.518 E0.09563
G1 X13.518 Y-21.365 E1.66856
G1 X12.476 Y-21.365 E0.09563
G1 X26.365 Y-7.476 E1.80379
G1 X26.365 Y-6.435 E0.09563
G1 X11.435 Y-21.365 E1.93903
G1 X10.394 Y-21.365 E0.09563
G1 X26.365 Y-5.394 E2.07426
G1 X26.365 Y-4.353 E0.09563
G1 X9.353 Y-21.365 E2.20950
G1 X8.311 Y-21.365 E0.09563
G1 X26.365 Y-3.311 E2.34473
G1 X26.365 Y-2.270 E0.09563
G1 X7.270 Y-21.365 E2.47997
G1 X6.229 Y-21.365 E0.09563
G1 X26.365 Y-1.229 E2.61521
G1 X26.365 Y-0.187 E0.09563
G1 X5.187 Y-21.365 E2.75044
G1 X4.146 Y-21.365 E0.09563
G1 X26.365 Y0.854 E2.88568
G1 X26.365 Y1.895 E0.09563
G1 X3.105 Y-21.365 E3.02091
G1 X2.064 Y-21.365 E0.09563
G1 X26.365 Y2.936 E3.15615
G1 X26.365 Y3.978 E0.09563
G1 X1.022 Y-21.365 E3.29138
G1 X-0.019 Y-21.365 E0.09563
G1 X26.365 Y5.019 E3.42662
G1 X26.365 Y6.060 E0.09563
G1 X-1.060 Y-21.365 E3.56185
G1 X-2.102 Y-21.365 E0.09563
G1 X26.365 Y7.102 E3.69709
G1 X26.365 Y8.143 E0.09563
G1 X-3.143 Y-21.365 E3.83233
G1 X-4.184 Y-21.365 E0.09563
G1 X26.365 Y9.184 E3.96756
G1 X26.365 Y10.225 E0.09563
G1 X-5.225 Y-21.365 E4.10280
G1 X-6.267 Y-21.365 E0.09563
G1 X26.365 Y11.267 E4.23803
G1 X26.365 Y12.308 E0.09563
G1 X-7.308 Y-21.365 E4.37327
G1 X-8.349 Y-21.365 E0.09563
G1 X26.365 Y13.349 E4.50850
G1 X26.365 Y14.390 E0.09563
G1 X-9.390 Y-21.365 E4.64374
G1 X-10.432 Y-21.365 E0.09563
G1 X26.365 Y15.432 E4.77897
G1 X26.365 Y16.473 E0.09563
G1 X-11.473 Y-21.365 E4.91421
G1 X-12.514 Y-21.365 E0.09563
G1 X26.365 Y17.514 E5.04945
G1 X26.365 Y18.556 E0.09563
G1 X-13.556 Y-21.365 E5.18468
G1 X-14.597 Y-21.365 E0.09563
G1 X26.365 Y19.597 E5.31992
G1 X26.365 Y20.638 E0.09563
G1 X-15.638 Y-21.365 E5.45515
G1 X-16.679 Y-21.365 E0.09563
G1 X26.051 Y21.365 E5.54957
G1 X25.010 Y21.365 E0.09563
G1 X-17.721 Y-21.365 E5.54957
G1 X-18.762 Y-21.365 E0.09563
G1 X23.968 Y21.365 E5.54957
G1 X22.927 Y21.365 E0.09563
G1 X-19.803 Y-21.365 E5.54957
G1 X-20.845 Y-21.365 E0.09563
G1 X21.886 Y21.365 E5.54957
G1 X20.844 Y21.365 E0.09563
G1 X-21.886 Y-21.365 E5.54957
G1 X-22.927 Y-21.365 E0.09563
G1 X19.803 Y21.365 E5.54957
G1 X18.762 Y21.365 E0.09563
G1 X-23.968 Y-21.365 E5.54957
G1 X-25.010 Y-21.365 E0.09563
G1 X17.721 Y21.365 E5.54957
G1 X16.679 Y21.365 E0.09563
G1 X-25.718 Y-21.033 E5.50639
G1 X-26.239 Y-20.512 E0.06762
G1 X15.638 Y21.365 E5.43877
G1 X14.597 Y21.365 E0.09563
G1 X-26.365 Y-19.597 E5.31991
G1 X-26.365 Y-18.556 E0.09563
G1 X13.556 Y21.365 E5.18467
G1 X12.514 Y21.365 E0.09563
G1 X-26.365 Y-17.514 E5.04944
G1 X-26.365 Y-16.473 E0.09563
G1 X11.473 Y21.365 E4.91420
G1 X10.432 Y21.365 E0.09563
G1 X-26.365 Y-15.432 E4.77897
G1 X-26.365 Y-14.390 E0.09563
G1 X9.390 Y21.365 E4.64373
G1 X8.349 Y21.365 E0.09563
G1 X-26.365 Y-13.349 E4.50850
G1 X-26.365 Y-12.308 E0.09563
G1 X7.308 Y21.365 E4.37326
G1 X6.267 Y21.365 E0.09563
G1 X-26.365 Y-11.267 E4.23802
G1 X-26.365 Y-10.225 E0.09563
G1 X5.225 Y21.365 E4.10279
G1 X4.184 Y21.365 E0.09563
G1 X-26.365 Y-9.184 E3.96755
G1 X-26.365 Y-8.143 E0.09563
G1 X3.143 Y21.365 E3.83232
G1 X2.101 Y21.365 E0.09563
G1 X-26.365 Y-7.101 E3.69708
G1 X-26.365 Y-6.060 E0.09563
G1 X1.060 Y21.365 E3.56185
G1 X0.019 Y21.365 E0.09563
G1 X-26.365 Y-5.019 E3.42661
G1 X-26.365 Y-3.978 E0.09563
G1 X-1.022 Y21.365 E3.29137
G1 X-2.064 Y21.365 E0.09563
G1 X-26.365 Y-2.936 E3.15614
G1 X-26.365 Y-1.895 E0.09563
G1 X-3.105 Y21.365 E3.02090
G1 X-4.146 Y21.365 E0.09563
G1 X-26.365 Y-0.854 E2.88567
G1 X-26.365 Y0.188 E0.09563
G1 X-5.188 Y21.365 E2.75043
G1 X-6.229 Y21.365 E0.09563
G1 X-26.365 Y1.229 E2.61520
G1 X-26.365 Y2.270 E0.09563
G1 X-7.270 Y21.365 E2.47996
G1 X-8.311 Y21.365 E0.09563
G1 X-26.365 Y3.311 E2.34473
G1 X-26.365 Y4.353 E0.09563
G1 X-9.353 Y21.365 E2.20949
G1 X-10.394 Y21.365 E0.09563
G1 X-26.365 Y5.394 E2.07425
G1 X-26.365 Y6.435 E0.09563
G1 X-11.435 Y21.365 E1.93902
G1 X-12.476 Y21.365 E0.09563
G1 X-26.365 Y7.476 E1.80378
G1 X-26.365 Y8.518 E0.09563
G1 X-13.518 Y21.365 E1.66855
G1 X-14.559 Y21.365 E0.09563
G1 X-26.365 Y9.559 E1.53331
G1 X-26.365 Y10.600 E0.09563
G1 X-15.600 Y21.365 E1.39808
G1 X-16.642 Y21.365 E0.09563
G1 X-26.365 Y11.642 E1.26284
G1 X-26.365 Y12.683 E0.09563
G1 X-17.683 Y21.365 E1.12761
G1 X-18.724 Y21.365 E0.09563
G1 X-26.365 Y13.724 E0.99237
G1 X-26.365 Y14.765 E0.09563
G1 X-19.765 Y21.365 E0.85713
G1 X-20.807 Y21.365 E0.09563
G1 X-26.365 Y15.807 E0.72190
G1 X-26.365 Y16.848 E0.09563
G1 X-21.848 Y21.365 E0.58666
G1 X-22.889 Y21.365 E0.09563
G1 X-26.365 Y17.889 E0.45143
G1 X-26.365 Y18.931 E0.09563
G1 X-23.931 Y21.365 E0.31619
G1 X-24.972 Y21.365 E0.09563
G1 X-26.365 Y19.972 E0.18096
G1 X-26.365 Y21.013 E0.09563
G1 X-26.013 Y21.365 E0.04572
G1 E-3.20000 F3000.00000
G1 Z0.700 F9000.000
G1 X-0.313 Y22.264 F9000.000
G1 Z0.600 F9000.000
G1 E3.20000 F3000.00000
G1 X-27.264 Y22.264 E1.46432 F1800.000
G1 X-27.264 Y-20.695 E2.33412
G1 X-25.695 Y-22.264 E0.12057
G1 X27.264 Y-22.264 E2.87745
G1 X27.264 Y22.264 E2.41937
G1 X-0.253 Y22.264 E1.49512 F1800.000
G1 X-0.253 Y22.700 F9000.000
G1 X-27.700 Y22.700 E1.49125 F1800.000
G1 X-27.700 Y-20.876 E2.36759
G1 X-25.876 Y-22.700 E0.14017
G1 X27.700 Y-22.700 E2.91092
G1 X27.700 Y22.700 E2.46671
G1 X-0.193 Y22.700 E1.51553 F1800.000
G1 X-0.453 Y22.354 F9000.000
G1 X26.782 Y22.007 F9000.000
G1 X27.007 Y21.782 E0.01730 F1800.000
G1 X27.007 Y21.165 E0.03356
G1 X26.165 Y22.007 E0.06475
G1 X25.548 Y22.007 E0.03356
G1 X27.007 Y20.548 E0.11220
G1 X27.007 Y19.931 E0.03356
G1 X24.931 Y22.007 E0.15966
G1 X24.314 Y22.007 E0.03356
G1 X27.007 Y19.314 E0.20711
G1 X27.007 Y18.698 E0.03356
G1 X23.698 Y22.007 E0.25457
G1 X23.081 Y22.007 E0.03356
G1 X27.007 Y18.081 E0.30202
G1 X27.007 Y17.464 E0.03356
G1 X22.464 Y22.007 E0.34948
G1 X21.847 Y22.007 E0.03356
G1 X27.007 Y16.847 E0.39693
G1 X27.007 Y16.230 E0.03356
G1 X21.230 Y22.007 E0.44439
G1 X20.613 Y22.007 E0.03356
G1 X27.007 Y15.613 E0.49184
G1 X27.007 Y14.997 E0.03356
G1 X19.997 Y22.007 E0.53929
G1 X19.380 Y22.007 E0.03356
G1 X27.007 Y14.380 E0.58675
G1 X27.007 Y13.763 E0.03356
G1 X18.763 Y22.007 E0.63420
G1 X18.146 Y22.007 E0.03356
G1 X27.007 Y13.146 E0.68166
G1 X27.007 Y12.529 E0.03356
G1 X17.529 Y22.007 E0.72911
G1 X16.913 Y22.007 E0.03356
G1 X27.007 Y11.913 E0.77657
G1 X27.007 Y11.296 E0.03356
G1 X16.296 Y22.007 E0.82402
G1 X15.679 Y22.007 E0.03356
G1 X27.007 Y10.679 E0.87148
G1 X27.007 Y10.062 E0.03356
G1 X15.062 Y22.007 E0.91893
G1 X14.445 Y22.007 E0.03356
G1 X27.007 Y9.445 E0.96638
G1 X27.007 Y8.828 E0.03356
G1 X13.828 Y22.007 E1.01384
G1 X13.212 Y22.007 E0.03356
G1 X27.007 Y8.212 E1.06129
G1 X27.007 Y7.595 E0.03356
G1 X12.595 Y22.007 E1.10875
G1 X11.978 Y22.007 E0.03356
G1 X27.007 Y6.978 E1.15620
G1 X27.007 Y6.361 E0.03356
G1 X11.361 Y22.007 E1.20366
G1 X10.744 Y22.007 E0.03356
G1 X27.007 Y5.744 E1.25111
G1 X27.007 Y5.127 E0.03356
G1 X10.127 Y22.007 E1.29856
G1 X9.511 Y22.007 E0.03356
G1 X27.007 Y4.511 E1.34602
G1 X27.007 Y3.894 E0.03356
G1 X8.894 Y22.007 E1.39347
G1 X8.277 Y22.007 E0.03356
G1 X27.007 Y3.277 E1.44093
G1 X27.007 Y2.660 E0.03356
G1 X7.660 Y22.007 E1.48838
G1 X7.043 Y22.007 E0.03356
G1 X27.007 Y2.043 E1.53584
G1 X27.007 Y1.427 E0.03356
G1 X6.427 Y22.007 E1.58329
G1 X5.810 Y22.007 E0.03356
G1 X27.007 Y0.810 E1.63075
G1 X27.007 Y0.193 E0.03356
G1 X5.193 Y22.007 E1.67820
G1 X4.576 Y22.007 E0.03356
G1 X27.007 Y-0.424 E1.72565
G1 X27.007 Y-1.041 E0.03356
G1 X3.959 Y22.007 E1.77311
G1 X3.342 Y22.007 E0.03356
G1 X27.007 Y-1.658 E1.82056
G1 X27.007 Y-2.274 E0.03356
G1 X2.726 Y22.007 E1.86802
G1 X2.109 Y22.007 E0.03356
G1 X27.007 Y-2.891 E1.91547
G1 X27.007 Y-3.508 E0.03356
G1 X1.492 Y22.007 E1.96293
G1 X0.875 Y22.007 E0.03356
G1 X27.007 Y-4.125 E2.01038
G1 X27.007 Y-4.742 E0.03356
G1 X0.258 Y22.007 E2.05784
G1 X-0.359 Y22.007 E0.03356
G1 X27.007 Y-5.359 E2.10529
G1 X27.007 Y-5.975 E0.03356
G1 X-0.975 Y22.007 E2.15274
G1 X-1.592 Y22.007 E0.03356
G1 X27.007 Y-6.592 E2.20020
G1 X27.007 Y-7.209 E0.03356
G1 X-2.209 Y22.007 E2.24765
G1 X-2.826 Y22.007 E0.03356
G1 X27.007 Y-7.826 E2.29511
G1 X27.007 Y-8.443 E0.03356
G1 X-3.443 Y22.007 E2.34256
G1 X-4.059 Y22.007 E0.03356
G1 X27.007 Y-9.059 E2.39002
G1 X27.007 Y-9.676 E0.03356
G1 X-4.676 Y22.007 E2.43747
G1 X-5.293 Y22.007 E0.03356
G1 X27.007 Y-10.293 E2.48492
G1 X27.007 Y-10.910 E0.03356
G1 X-5.910 Y22.007 E2.53238
G1 X-6.527 Y22.007 E0.03356
G1 X27.007 Y-11.527 E2.57983
G1 X27.007 Y-12.144 E0.03356
G1 X-7.144 Y22.007 E2.62729
G1 X-7.760 Y22.007 E0.03356
G1 X27.007 Y-12.760 E2.67474
G1 X27.007 Y-13.377 E0.03356
G1 X-8.377 Y22.007 E2.72220
G1 X-8.994 Y22.007 E0.03356
G1 X27.007 Y-13.994 E2.76965
G1 X27.007 Y-14.611 E0.03356
G1 X-9.611 Y22.007 E2.81711
G1 X-10.228 Y22.007 E0.03356
G1 X27.007 Y-15.228 E2.86456
G1 X27.007 Y-15.844 E0.03356
G1 X-10.844 Y22.007 E2.91201
G1 X-11.461 Y22.007 E0.03356
G1 X27.007 Y-16.461 E2.95947
G1 X27.007 Y-17.078 E0.03356
G1 X-12.078 Y22.007 E3.00692
G1 X-12.695 Y22.007 E0.03356
G1 X27.007 Y-17.695 E3.05438
G1 X27.007 Y-18.312 E0.03356
G1 X-13.312 Y22.007 E3.10183
G1 X-13.929 Y22.007 E0.03356
G1 X27.007 Y-18.929 E3.14929
G1 X27.007 Y-19.545 E0.03356
G1 X-14.545 Y22.007 E3.19674
G1 X-15.162 Y22.007 E0.03356
G1 X27.007 Y-20.162 E3.24420
G1 X27.007 Y-20.779 E0.03356
G1 X-15.779 Y22.007 E3.29165
G1 X-16.396 Y22.007 E0.03356
G1 X27.007 Y-21.396 E3.33910
G1 X26.983 Y-21.990 E0.03232
G1 X-17.013 Y22.007 E3.38478
G1 X-17.630 Y22.007 E0.03356
G1 X26.384 Y-22.007 E3.38608
G1 X25.767 Y-22.007 E0.03356
G1 X-18.246 Y22.007 E3.38608
G1 X-18.863 Y22.007 E0.03356
G1 X25.150 Y-22.007 E3.38608
G1 X24.533 Y-22.007 E0.03356
G1 X-19.480 Y22.007 E3.38608
G1 X-20.097 Y22.007 E0.03356
G1 X23.916 Y-22.007 E3.38608
G1 X23.299 Y-22.007 E0.03356
G1 X-20.714 Y22.007 E3.38608
G1 X-21.330 Y22.007 E0.03356
G1 X22.683 Y-22.007 E3.38608
G1 X22.066 Y-22.007 E0.03356
G1 X-21.947 Y22.007 E3.38608
G1 X-22.564 Y22.007 E0.03356
G1 X21.449 Y-22.007 E3.38608
G1 X20.832 Y-22.007 E0.03356
G1 X-23.181 Y22.007 E3.38608
G1 X-23.798 Y22.007 E0.03356
G1 X20.215 Y-22.007 E3.38608
G1 X19.598 Y-22.007 E0.03356
G1 X-24.415 Y22.007 E3.38608
G1 X-25.031 Y22.007 E0.03356
G1 X18.982 Y-22.007 E3.38608
G1 X18.365 Y-22.007 E0.03356
G1 X-25.648 Y22.007 E3.38608
G1 X-26.265 Y22.007 E0.03356
G1 X17.748 Y-22.007 E3.38608
G1 X17.131 Y-22.007 E0.03356
G1 X-26.882 Y22.007 E3.38608
G1 X-27.007 Y21.514 E0.02762
G1 X16.514 Y-22.007 E3.34822
G1 X15.898 Y-22.007 E0.03356
G1 X-27.007 Y20.898 E3.30076
G1 X-27.007 Y20.281 E0.03356
G1 X15.281 Y-22.007 E3.25331
G1 X14.664 Y-22.007 E0.03356
G1 X-27.007 Y19.664 E3.20585
G1 X-27.007 Y19.047 E0.03356
G1 X14.047 Y-22.007 E3.15840
G1 X13.430 Y-22.007 E0.03356
G1 X-27.007 Y18.430 E3.11094
G1 X-27.007 Y17.813 E0.03356
G1 X12.813 Y-22.007 E3.06349
G1 X12.197 Y-22.007 E0.03356
G1 X-27.007 Y17.197 E3.01604
G1 X-27.007 Y16.580 E0.03356
G1 X11.580 Y-22.007 E2.96858
G1 X10.963 Y-22.007 E0.03356
G1 X-27.007 Y15.963 E2.92113
G1 X-27.007 Y15.346 E0.03356
G1 X10.346 Y-22.007 E2.87367
G1 X9.729 Y-22.007 E0.03356
G1 X-27.007 Y14.729 E2.82622
G1 X-27.007 Y14.112 E0.03356
G1 X9.112 Y-22.007 E2.77876
G1 X8.496 Y-22.007 E0.03356
G1 X-27.007 Y13.496 E2.73131
G1 X-27.007 Y12.879 E0.03356
G1 X7.879 Y-22.007 E2.68386
G1 X7.262 Y-22.007 E0.03356
G1 X-27.007 Y12.262 E2.63640
G1 X-27.007 Y11.645 E0.03356
G1 X6.645 Y-22.007 E2.58895
G1 X6.028 Y-22.007 E0.03356
G1 X-27.007 Y11.028 E2.54149
G1 X-27.007 Y10.412 E0.03356
G1 X5.412 Y-22.007 E2.49404
G1 X4.795 Y-22.007 E0.03356
G1 X-27.007 Y9.795 E2.44658
G1 X-27.007 Y9.178 E0.03356
G1 X4.178 Y-22.007 E2.39913
G1 X3.561 Y-22.007 E0.03356
G1 X-27.007 Y8.561 E2.35167
G1 X-27.007 Y7.944 E0.03356
G1 X2.944 Y-22.007 E2.30422
G1 X2.327 Y-22.007 E0.03356
G1 X-27.007 Y7.327 E2.25677
G1 X-27.007 Y6.711 E0.03356
G1 X1.711 Y-22.007 E2.20931
G1 X1.094 Y-22.007 E0.03356
G1 X-27.007 Y6.094 E2.16186
G1 X-27.007 Y5.477 E0.03356
G1 X0.477 Y-22.007 E2.11440
G1 X-0.140 Y-22.007 E0.03356
G1 X-27.007 Y4.860 E2.06695
G1 X-27.007 Y4.243 E0.03356
G1 X-0.757 Y-22.007 E2.01949
G1 X-1.374 Y-22.007 E0.03356
G1 X-27.007 Y3.626 E1.97204
G1 X-27.007 Y3.010 E0.03356
G1 X-1.990 Y-22.007 E1.92458
G1 X-2.607 Y-22.007 E0.03356
G1 X-27.007 Y2.393 E1.87713
G1 X-27.007 Y1.776 E0.03356
G1 X-3.224 Y-22.007 E1.82968
G1 X-3.841 Y-22.007 E0.03356
G1 X-27.007 Y1.159 E1.78222
G1 X-27.007 Y0.542 E0.03356
G1 X-4.458 Y-22.007 E1.73477
G1 X-5.074 Y-22.007 E0.03356
G1 X-27.007 Y-0.074 E1.68731
G1 X-27.007 Y-0.691 E0.03356
G1 X-5.691 Y-22.007 E1.63986
G1 X-6.308 Y-22.007 E0.03356
G1 X-27.007 Y-1.308 E1.59240
G1 X-27.007 Y-1.925 E0.03356
G1 X-6.925 Y-22.007 E1.54495
G1 X-7.542 Y-22.007 E0.03356
G1 X-27.007 Y-2.542 E1.49750
G1 X-27.007 Y-3.159 E0.03356
G1 X-8.159 Y-22.007 E1.45004
G1 X-8.775 Y-22.007 E0.03356
G1 X-27.007 Y-3.775 E1.40259
G1 X-27.007 Y-4.392 E0.03356
G1 X-9.392 Y-22.007 E1.35513
G1 X-10.009 Y-22.007 E0.03356
G1 X-27.007 Y-5.009 E1.30768
G1 X-27.007 Y-5.626 E0.03356
G1 X-10.626 Y-22.007 E1.26022
G1 X-11.243 Y-22.007 E0.03356
G1 X-27.007 Y-6.243 E1.21277
G1 X-27.007 Y-6.860 E0.03356
G1 X-11.860 Y-22.007 E1.16531
G1 X-12.476 Y-22.007 E0.03356
G1 X-27.007 Y-7.476 E1.11786
G1 X-27.007 Y-8.093 E0.03356
G1 X-13.093 Y-22.007 E1.07041
G1 X-13.710 Y-22.007 E0.03356
G1 X-27.007 Y-8.710 E1.02295
G1 X-27.007 Y-9.327 E0.03356
G1 X-14.327 Y-22.007 E0.97550
G1 X-14.944 Y-22.007 E0.03356
G1 X-27.007 Y-9.944 E0.92804
G1 X-27.007 Y-10.560 E0.03356
G1 X-15.560 Y-22.007 E0.88059
G1 X-16.177 Y-22.007 E0.03356
G1 X-27.007 Y-11.177 E0.83313
G1 X-27.007 Y-11.794 E0.03356
