; generated by Slic3r 1.2.9 on 2016-12-14 at 14:57:39

; external perimeters extrusion width = 0.50mm
; perimeters extrusion width = 0.50mm
; infill extrusion width = 0.50mm
; solid infill extrusion width = 0.50mm
; top infill extrusion width = 0.50mm

M107
;Basic settings: Layer height: {layer_height} Walls: {wall_thickness} Fill: {fill_density}
;Print time: {print_time}
;Filament used: {filament_amount}m {filament_weight}g
;Filament cost: {filament_cost}
;M190 S{print_bed_temperature} ;Uncomment to add your own bed temperature line
;M109 S{print_temperature} ;Uncomment to add your own temperature line
G21        ;metric values
G90        ;absolute positioning
M83
G10 P0 S200
T0
M116


G21 ; set units to millimeters
G90 ; use absolute coordinates
M83 ; use relative distances for extrusion
G1 E-3.20000 F3000.00000
G1 Z0.400 F9000.000
G1 X3.581 Y-15.258 F9000.000
G1 Z0.300 F9000.000
G1 E3.20000 F3000.00000
G1 X4.458 Y-15.036 E0.08297 F1200.000
G1 X5.504 Y-14.685 E0.10125
G1 X6.835 Y-14.114 E0.13287
G1 X8.109 Y-13.424 E0.13291
G1 X9.313 Y-12.618 E0.13293
G1 X10.437 Y-11.705 E0.13289
G1 X11.473 Y-10.692 E0.13289
G1 X12.410 Y-9.588 E0.13291
G1 X13.242 Y-8.402 E0.13291
G1 X13.961 Y-7.144 E0.13291
G1 X14.560 Y-5.826 E0.13291
G1 X15.036 Y-4.457 E0.13290
G1 X15.383 Y-3.051 E0.13291
G1 X15.599 Y-1.619 E0.13290
G1 X15.682 Y-0.173 E0.13290
G1 X15.631 Y1.275 E0.13290
G1 X15.446 Y2.712 E0.13291
G1 X15.130 Y4.126 E0.13292
G1 X14.685 Y5.504 E0.13289
G1 X14.114 Y6.835 E0.13290
G1 X13.423 Y8.109 E0.13292
G1 X12.618 Y9.313 E0.13289
G1 X11.705 Y10.437 E0.13291
G1 X10.692 Y11.473 E0.13290
G1 X9.588 Y12.410 E0.13290
G1 X8.402 Y13.242 E0.13291
G1 X8.109 Y13.424 E0.03166
G1 X6.836 Y14.114 E0.13290
G1 X5.504 Y14.685 E0.13291
G1 X4.126 Y15.130 E0.13289
G1 X2.712 Y15.446 E0.13292
G1 X1.275 Y15.631 E0.13291
G1 X-0.173 Y15.682 E0.13290
G1 X-1.618 Y15.599 E0.13287
G1 X-3.051 Y15.383 E0.13294
G1 X-4.457 Y15.036 E0.13290
G1 X-5.826 Y14.560 E0.13291
G1 X-7.144 Y13.961 E0.13290
G1 X-8.402 Y13.242 E0.13288
G1 X-9.588 Y12.410 E0.13293
G1 X-10.692 Y11.473 E0.13291
G1 X-11.705 Y10.437 E0.13289
G1 X-12.618 Y9.313 E0.13289
G1 X-13.423 Y8.109 E0.13289
G1 X-14.114 Y6.835 E0.13294
G1 X-14.685 Y5.504 E0.13290
G1 X-15.130 Y4.126 E0.13290
G1 X-15.446 Y2.712 E0.13291
G1 X-15.599 Y1.619 E0.10127
G1 X-15.681 Y0.179 E0.13235
G1 X-15.682 Y-0.172 E0.03213
G1 X-15.631 Y-1.275 E0.10135
G1 X-15.446 Y-2.712 E0.13290
G1 X-15.130 Y-4.126 E0.13290
G1 X-14.685 Y-5.504 E0.13295
G1 X-14.114 Y-6.835 E0.13286
G1 X-13.423 Y-8.109 E0.13294
G1 X-12.618 Y-9.313 E0.13287
G1 X-11.705 Y-10.437 E0.13291
G1 X-10.692 Y-11.473 E0.13290
G1 X-9.588 Y-12.410 E0.13291
G1 X-8.402 Y-13.242 E0.13291
G1 X-7.144 Y-13.961 E0.13290
G1 X-5.826 Y-14.560 E0.13291
G1 X-4.458 Y-15.036 E0.13286
G1 X-3.042 Y-15.384 E0.13381
G1 X-2.705 Y-15.447 E0.03142
G1 X-1.499 Y-15.614 E0.11174
G1 X0.043 Y-15.685 E0.14156
G1 X1.523 Y-15.611 E0.13603 F1200.000
G1 X2.704 Y-15.448 E0.10935
G1 X3.523 Y-15.272 E0.07687
G1 E-3.20000 F3000.00000
G1 Z0.700 F9000.000
G1 X1.732 Y-5.921 F9000.000
G1 Z0.300 F9000.000
G1 E3.20000 F3000.00000
G1 X1.939 Y-5.882 E0.01932 F900.000
G1 X3.321 Y-5.229 E0.14029
G1 X4.516 Y-4.241 E0.14225
G1 X5.429 Y-2.984 E0.14248
G1 X6.000 Y-1.541 E0.14248
G1 X6.195 Y-0.002 E0.14228
G1 X5.999 Y1.546 E0.14320
G1 X5.432 Y2.977 E0.14117
G1 X4.513 Y4.243 E0.14358
G1 X3.323 Y5.228 E0.14174
G1 X1.915 Y5.892 E0.14281
G1 X0.389 Y6.183 E0.14254
G1 X-1.161 Y6.085 E0.14248
G1 X-2.636 Y5.606 E0.14230
G1 X-3.935 Y4.784 E0.14110
G1 X-5.033 Y3.608 E0.14758
G1 X-5.768 Y2.256 E0.14120
G1 X-6.147 Y0.764 E0.14123
G1 X-6.146 Y-0.778 E0.14144
G1 X-5.760 Y-2.281 E0.14237
G1 X-5.012 Y-3.641 E0.14248
G1 X-3.949 Y-4.773 E0.14245
G1 X-2.641 Y-5.603 E0.14213
G1 X-1.176 Y-6.082 E0.14145
G1 X0.365 Y-6.183 E0.14167 F900.000
G1 X1.673 Y-5.933 E0.12220
G1 X1.535 Y-5.210 F9000.000
G1 X1.709 Y-5.177 E0.01629 F900.000
G1 X2.924 Y-4.603 E0.12326
G1 X3.975 Y-3.733 E0.12524
G1 X4.779 Y-2.627 E0.12543
G1 X5.282 Y-1.356 E0.12543
G1 X5.453 Y-0.002 E0.12522
G1 X5.281 Y1.362 E0.12615
G1 X4.783 Y2.620 E0.12414
G1 X3.973 Y3.736 E0.12653
G1 X2.926 Y4.602 E0.12469
G1 X1.686 Y5.187 E0.12576
G1 X0.342 Y5.443 E0.12547
G1 X-1.022 Y5.357 E0.12543
G1 X-2.321 Y4.935 E0.12529
G1 X-3.462 Y4.212 E0.12395
G1 X-4.432 Y3.174 E0.13032
G1 X-5.078 Y1.986 E0.12415
G1 X-5.411 Y0.672 E0.12431
G1 X-5.410 Y-0.684 E0.12448
G1 X-5.071 Y-2.008 E0.12534
G1 X-4.412 Y-3.206 E0.12543
G1 X-3.476 Y-4.202 E0.12540
G1 X-2.325 Y-4.933 E0.12512
G1 X-1.035 Y-5.354 E0.12449
G1 X0.319 Y-5.443 E0.12454 F900.000
G1 X1.476 Y-5.222 E0.10804
G1 X1.651 Y-5.345 F9000.000
G1 E-3.20000 F3000.00000
G1 Z0.700 F9000.000
G1 X-7.516 Y7.760 F9000.000
G1 Z0.300 F9000.000
G1 E3.20000 F3000.00000
G1 X-7.991 Y7.285 E0.06162 F900.000
G1 X-8.629 Y6.516 E0.09164
G1 X-9.193 Y5.692 E0.09164
G1 X-9.680 Y4.820 E0.09164
G1 X-10.083 Y3.906 E0.09164
G1 X-10.399 Y2.965 E0.09111
G1 X-10.629 Y1.987 E0.09219
G1 X-10.767 Y0.998 E0.09161
G1 X-10.813 Y-0.000 E0.09164
G1 X-10.767 Y-0.998 E0.09164
G1 X-10.629 Y-1.987 E0.09164
G1 X-10.400 Y-2.959 E0.09164
G1 X-10.083 Y-3.906 E0.09164
G1 X-9.680 Y-4.820 E0.09164
G1 X-9.193 Y-5.692 E0.09164
G1 X-8.629 Y-6.516 E0.09164
G1 X-7.991 Y-7.285 E0.09164
G1 X-7.285 Y-7.991 E0.09164
G1 X-6.516 Y-8.629 E0.09164
G1 X-5.692 Y-9.193 E0.09164
G1 X-4.820 Y-9.680 E0.09164
G1 X-3.906 Y-10.083 E0.09164
G1 X-2.960 Y-10.400 E0.09157
G1 X-1.980 Y-10.630 E0.09239
G1 X-0.999 Y-10.767 E0.09087
G1 X0.004 Y-10.813 E0.09213
G1 X0.997 Y-10.767 E0.09116
G1 X1.979 Y-10.630 E0.09100 F900.000
G1 X2.960 Y-10.400 E0.09242
G1 X3.906 Y-10.083 E0.09157
G1 X4.820 Y-9.680 E0.09164
G1 X5.692 Y-9.193 E0.09164
G1 X6.516 Y-8.629 E0.09164
G1 X7.285 Y-7.991 E0.09164
G1 X7.991 Y-7.285 E0.09164
G1 X8.629 Y-6.516 E0.09164
G1 X9.193 Y-5.692 E0.09164
G1 X9.679 Y-4.820 E0.09164
G1 X10.083 Y-3.906 E0.09164
G1 X10.400 Y-2.959 E0.09164
G1 X10.629 Y-1.987 E0.09164
G1 X10.767 Y-0.998 E0.09164
G1 X10.813 Y-0.000 E0.09164
G1 X10.767 Y0.998 E0.09164
G1 X10.629 Y1.987 E0.09164
G1 X10.400 Y2.959 E0.09164
G1 X10.083 Y3.906 E0.09164
G1 X9.679 Y4.820 E0.09164
G1 X9.193 Y5.692 E0.09164
G1 X8.629 Y6.516 E0.09164
G1 X7.991 Y7.285 E0.09164
G1 X7.285 Y7.991 E0.09164
G1 X6.516 Y8.629 E0.09164
G1 X5.692 Y9.193 E0.09164
G1 X4.820 Y9.680 E0.09164
G1 X3.906 Y10.083 E0.09164
G1 X2.959 Y10.400 E0.09164
G1 X1.987 Y10.629 E0.09164
G1 X0.998 Y10.767 E0.09164
G1 X0.000 Y10.813 E0.09164
G1 X-0.998 Y10.767 E0.09164
G1 X-1.987 Y10.629 E0.09164
G1 X-2.959 Y10.400 E0.09164
G1 X-3.906 Y10.083 E0.09164
G1 X-4.820 Y9.679 E0.09164
G1 X-5.692 Y9.193 E0.09164
G1 X-6.516 Y8.629 E0.09164
G1 X-7.285 Y7.991 E0.09164
G1 X-7.474 Y7.802 E0.02451
G1 X-7.994 Y8.322 F9000.000
G1 X-8.535 Y7.781 E0.07025 F900.000
G1 X-9.217 Y6.960 E0.09788
G1 X-9.820 Y6.080 E0.09788
G1 X-10.339 Y5.148 E0.09788
G1 X-10.770 Y4.172 E0.09788
G1 X-11.107 Y3.166 E0.09734
G1 X-11.353 Y2.122 E0.09843
G1 X-11.500 Y1.066 E0.09787
G1 X-11.550 Y-0.000 E0.09788
G1 X-11.500 Y-1.066 E0.09788
G1 X-11.353 Y-2.122 E0.09788
G1 X-11.109 Y-3.161 E0.09788
G1 X-10.770 Y-4.172 E0.09788
G1 X-10.339 Y-5.148 E0.09788
G1 X-9.820 Y-6.080 E0.09788
G1 X-9.217 Y-6.960 E0.09788
G1 X-8.535 Y-7.781 E0.09788
G1 X-7.781 Y-8.535 E0.09788
G1 X-6.960 Y-9.217 E0.09788
G1 X-6.080 Y-9.820 E0.09788
G1 X-5.148 Y-10.339 E0.09788
G1 X-4.172 Y-10.770 E0.09788
G1 X-3.161 Y-11.108 E0.09782
G1 X-2.115 Y-11.354 E0.09864
G1 X-1.066 Y-11.500 E0.09710
G1 X0.005 Y-11.550 E0.09838
G1 X1.065 Y-11.500 E0.09738
G1 X2.114 Y-11.354 E0.09722 F900.000
G1 X3.161 Y-11.108 E0.09867
G1 X4.172 Y-10.770 E0.09782
G1 X5.148 Y-10.339 E0.09788
G1 X6.080 Y-9.820 E0.09788
G1 X6.960 Y-9.217 E0.09788
G1 X7.781 Y-8.535 E0.09788
G1 X8.535 Y-7.781 E0.09788
G1 X9.217 Y-6.960 E0.09788
G1 X9.820 Y-6.080 E0.09788
G1 X10.339 Y-5.148 E0.09788
G1 X10.770 Y-4.172 E0.09788
G1 X11.109 Y-3.161 E0.09788
G1 X11.353 Y-2.122 E0.09788
G1 X11.500 Y-1.066 E0.09788
G1 X11.550 Y-0.000 E0.09788
G1 X11.500 Y1.066 E0.09788
G1 X11.353 Y2.122 E0.09788
G1 X11.109 Y3.161 E0.09788
G1 X10.770 Y4.172 E0.09788
G1 X10.339 Y5.148 E0.09788
G1 X9.820 Y6.080 E0.09788
G1 X9.217 Y6.960 E0.09788
G1 X8.535 Y7.781 E0.09788
G1 X7.781 Y8.535 E0.09788
G1 X6.960 Y9.217 E0.09788
G1 X6.080 Y9.820 E0.09788
G1 X5.148 Y10.339 E0.09788
G1 X4.172 Y10.770 E0.09788
G1 X3.161 Y11.109 E0.09788
G1 X2.122 Y11.353 E0.09788
G1 X1.066 Y11.500 E0.09788
G1 X0.000 Y11.550 E0.09788
G1 X-1.066 Y11.500 E0.09788
G1 X-2.122 Y11.353 E0.09788
G1 X-3.161 Y11.109 E0.09788
G1 X-4.172 Y10.770 E0.09788
G1 X-5.148 Y10.339 E0.09788
G1 X-6.080 Y9.820 E0.09788
G1 X-6.960 Y9.217 E0.09788
G1 X-7.781 Y8.535 E0.09788
G1 X-7.951 Y8.365 E0.02213
G1 X-7.890 Y7.936 F9000.000
G1 X-6.554 Y7.838 F9000.000
G1 X-7.838 Y6.554 E0.17070 F900.000
G1 X-9.579 Y3.747 F9000.000
G1 X-3.747 Y9.579 E0.77548 F900.000
G1 X-2.178 Y10.082 E0.15489
G1 X-10.081 Y2.178 E1.05088
G1 X-10.305 Y0.888 E0.12312
G1 X-0.888 Y10.305 E1.25217
G1 X-1.484 Y6.511 F9000.000
G1 X2.163 Y10.159 E0.48493 F900.000
G1 X3.021 Y9.950 E0.08296
G1 X-0.332 Y6.598 E0.44570
G1 X0.692 Y6.555 E0.09633
G1 X3.819 Y9.682 E0.41575
G1 X4.560 Y9.357 E0.07609
G1 X1.587 Y6.385 E0.39528
G1 X2.381 Y6.112 E0.07887
G1 X5.256 Y8.987 E0.38227
G1 X5.909 Y8.574 E0.07266
G1 X3.105 Y5.770 E0.37281
G1 X3.764 Y5.363 E0.07283
G1 X6.523 Y8.122 E0.36681
G1 X7.085 Y7.618 E0.07098
G1 X4.348 Y4.881 E0.36398
G1 X4.901 Y4.368 E0.07092
G1 X7.618 Y7.085 E0.36126
G1 X8.122 Y6.523 E0.07098
G1 X5.350 Y3.751 E0.36866
G1 X5.798 Y3.133 E0.07176
G1 X8.574 Y5.909 E0.36916
G1 X8.987 Y5.256 E0.07266
G1 X6.104 Y2.373 E0.38325
G1 X6.407 Y1.610 E0.07722
G1 X9.357 Y4.560 E0.39232
G1 X9.682 Y3.819 E0.07609
G1 X6.543 Y0.680 E0.41742
G1 X6.631 Y-0.298 E0.09229
G1 X9.950 Y3.021 E0.44125
G1 X10.159 Y2.163 E0.08296
G1 X6.477 Y-1.518 E0.48950
G1 X5.926 Y-3.136 F9000.000
G1 X10.300 Y1.239 E0.58164 F900.000
G1 X7.838 Y-6.554 F9000.000
G1 X6.554 Y-7.838 E0.17072 F900.000
G1 X3.747 Y-9.579 F9000.000
G1 X9.579 Y-3.747 E0.77549 F900.000
G1 X10.082 Y-2.178 E0.15489
G1 X2.178 Y-10.081 E1.05088
G1 X0.888 Y-10.306 E0.12313
G1 X10.305 Y-0.888 E1.25218
G1 X10.360 Y0.232 E0.10545
G1 X-0.232 Y-10.360 E1.40832
G1 X-1.239 Y-10.300 E0.09481
G1 X3.177 Y-5.884 E0.58717
G1 X1.549 Y-6.447 F9000.000
G1 X-2.163 Y-10.158 E0.49348 F900.000
G1 X-3.021 Y-9.950 E0.08298
G1 X0.309 Y-6.620 E0.44274
G1 X-0.691 Y-6.554 E0.09423
G1 X-3.819 Y-9.682 E0.41593
G1 X-4.560 Y-9.357 E0.07609
G1 X-1.582 Y-6.379 E0.39602
G1 X-2.386 Y-6.117 E0.07949
G1 X-5.256 Y-8.987 E0.38163
G1 X-5.909 Y-8.574 E0.07266
G1 X-3.106 Y-5.771 E0.37278
G1 X-3.758 Y-5.357 E0.07262
G1 X-6.523 Y-8.122 E0.36773
G1 X-7.085 Y-7.618 E0.07098
G1 X-4.362 Y-4.895 E0.36207
G1 X-4.878 Y-4.345 E0.07091
G1 X-7.618 Y-7.085 E0.36430
G1 X-8.122 Y-6.523 E0.07098
G1 X-5.383 Y-3.784 E0.36427
G1 X-5.761 Y-3.096 E0.07380
G1 X-8.574 Y-5.909 E0.37409
G1 X-8.987 Y-5.256 E0.07266
G1 X-6.139 Y-2.408 E0.37867
G1 X-6.370 Y-1.573 E0.08143
G1 X-9.357 Y-4.560 E0.39716
G1 X-9.682 Y-3.819 E0.07609
G1 X-6.588 Y-0.725 E0.41138
G1 X-6.596 Y0.333 E0.09951
G1 X-9.950 Y-3.021 E0.44594
G1 X-10.159 Y-2.163 E0.08296
G1 X-6.459 Y1.536 E0.49189
G1 X-5.886 Y3.175 F9000.000
G1 X-10.300 Y-1.239 E0.58688 F900.000
G1 X-10.360 Y-0.232 E0.09478
G1 X0.232 Y10.360 E1.40835
G1 X1.239 Y10.300 E0.09478
G1 X-3.073 Y5.989 E0.57327
G1 E-3.20000 F3000.00000
G1 Z0.700 F9000.000
G1 X-2.536 Y5.137 F9000.000
G1 Z0.600 F9000.000
G1 E3.20000 F3000.00000
G1 X-3.618 Y4.455 E0.06947 F1800.000
G1 X-4.559 Y3.474 E0.07386
G1 X-4.716 Y3.257 E0.01454
G1 X-5.281 Y2.230 E0.06369
G1 X-5.368 Y2.016 E0.01255
G1 X-5.699 Y0.689 E0.07434
G1 X-5.696 Y-0.721 E0.07659
G1 X-5.338 Y-2.114 E0.07811
G1 X-4.645 Y-3.375 E0.07820
G1 X-3.660 Y-4.424 E0.07817
G1 X-2.453 Y-5.191 E0.07771
G1 X-1.114 Y-5.631 E0.07658
G1 X0.293 Y-5.732 E0.07664 F1800.000
G1 X1.701 Y-5.478 E0.07773
G1 X1.887 Y-5.411 E0.01075
G1 X3.079 Y-4.846 E0.07165
G1 X4.185 Y-3.930 E0.07804
G1 X5.031 Y-2.766 E0.07820
G1 X5.561 Y-1.428 E0.07820
G1 X5.741 Y-0.002 E0.07809
G1 X5.557 Y1.443 E0.07912
G1 X5.039 Y2.750 E0.07640
G1 X4.178 Y3.938 E0.07971
G1 X3.087 Y4.841 E0.07698
G1 X1.775 Y5.460 E0.07882
G1 X0.361 Y5.730 E0.07824
G1 X-1.076 Y5.640 E0.07820
G1 X-2.485 Y5.169 E0.08073
G1 X-2.256 Y4.798 F9000.000
G1 X-3.340 Y4.115 E0.06963 F1800.000
G1 X-4.224 Y3.193 E0.06937
G1 X-4.348 Y3.023 E0.01144
G1 X-4.887 Y2.042 E0.06081
G1 X-4.953 Y1.881 E0.00949
G1 X-5.263 Y0.636 E0.06971
G1 X-5.260 Y-0.666 E0.07070
G1 X-4.930 Y-1.952 E0.07216
G1 X-4.290 Y-3.117 E0.07222
G1 X-3.380 Y-4.085 E0.07220
G1 X-2.265 Y-4.794 E0.07177
G1 X-1.029 Y-5.200 E0.07070
G1 X0.270 Y-5.293 E0.07075 F1800.000
G1 X1.588 Y-5.056 E0.07277
G1 X2.843 Y-4.476 E0.07514
G1 X3.865 Y-3.630 E0.07210
G1 X4.647 Y-2.554 E0.07222
G1 X5.136 Y-1.319 E0.07222
G1 X5.302 Y-0.002 E0.07210
G1 X5.132 Y1.333 E0.07314
G1 X4.655 Y2.539 E0.07044
G1 X3.858 Y3.637 E0.07373
G1 X2.851 Y4.470 E0.07100
G1 X1.639 Y5.043 E0.07283
G1 X0.333 Y5.292 E0.07224
G1 X-0.994 Y5.208 E0.07222
G1 X-2.199 Y4.817 E0.06887
G1 X-2.593 Y5.013 F9000.000
G1 E-3.20000 F3000.00000
G1 Z1.000 F9000.000
G1 X11.241 Y-0.489 F9000.000
G1 Z0.600 F9000.000
G1 E3.20000 F3000.00000
G1 X11.264 Y-0.000 E0.02661 F1800.000
G1 X11.216 Y1.039 E0.05653
G1 X11.072 Y2.070 E0.05653
G1 X10.834 Y3.082 E0.05653
G1 X10.503 Y4.069 E0.05653
G1 X10.083 Y5.021 E0.05653
G1 X9.576 Y5.930 E0.05653
G1 X8.989 Y6.788 E0.05653
G1 X8.324 Y7.588 E0.05653
G1 X7.588 Y8.324 E0.05653
G1 X6.788 Y8.989 E0.05653
G1 X5.930 Y9.576 E0.05653
G1 X5.021 Y10.083 E0.05653
G1 X4.069 Y10.503 E0.05653
G1 X3.082 Y10.834 E0.05653
G1 X2.070 Y11.072 E0.05653
G1 X1.039 Y11.216 E0.05653
G1 X-0.000 Y11.264 E0.05653
G1 X-1.039 Y11.216 E0.05653
G1 X-2.070 Y11.072 E0.05653
G1 X-3.082 Y10.834 E0.05653
G1 X-4.069 Y10.503 E0.05653
G1 X-5.021 Y10.083 E0.05653
G1 X-5.930 Y9.576 E0.05653
G1 X-6.788 Y8.989 E0.05653
G1 X-7.588 Y8.324 E0.05653
G1 X-8.324 Y7.588 E0.05653
G1 X-8.989 Y6.788 E0.05653
G1 X-9.577 Y5.930 E0.05653
G1 X-10.083 Y5.021 E0.05653
G1 X-10.503 Y4.069 E0.05653
G1 X-10.834 Y3.082 E0.05653
G1 X-11.067 Y2.091 E0.05533
G1 X-11.216 Y1.039 E0.05775
G1 X-11.264 Y-0.000 E0.05649
G1 X-11.216 Y-1.039 E0.05653
G1 X-11.072 Y-2.070 E0.05653
G1 X-10.834 Y-3.082 E0.05653
G1 X-10.510 Y-4.048 E0.05533
G1 X-10.082 Y-5.021 E0.05775
G1 X-9.577 Y-5.930 E0.05649
G1 X-8.989 Y-6.788 E0.05653
G1 X-8.324 Y-7.588 E0.05653
G1 X-7.588 Y-8.324 E0.05653
G1 X-6.788 Y-8.989 E0.05653
G1 X-5.930 Y-9.577 E0.05653
G1 X-5.021 Y-10.083 E0.05653
G1 X-4.069 Y-10.503 E0.05653
G1 X-3.083 Y-10.833 E0.05647
G1 X-2.047 Y-11.076 E0.05781
G1 X-1.042 Y-11.215 E0.05513
G1 X0.016 Y-11.263 E0.05756
G1 X1.036 Y-11.216 E0.05549
G1 X2.046 Y-11.076 E0.05541 F1800.000
G1 X3.083 Y-10.833 E0.05786
G1 X4.069 Y-10.503 E0.05647
G1 X5.021 Y-10.083 E0.05653
G1 X5.930 Y-9.577 E0.05653
G1 X6.788 Y-8.989 E0.05653
G1 X7.588 Y-8.324 E0.05653
G1 X8.324 Y-7.588 E0.05653
G1 X8.989 Y-6.788 E0.05653
G1 X9.577 Y-5.930 E0.05653
G1 X10.083 Y-5.021 E0.05653
G1 X10.503 Y-4.069 E0.05653
G1 X10.834 Y-3.082 E0.05653
G1 X11.072 Y-2.070 E0.05653
G1 X11.216 Y-1.039 E0.05653
G1 X11.238 Y-0.549 E0.02666
G1 X11.673 Y-0.569 F9000.000
G1 X11.700 Y-0.000 E0.03096 F1800.000
G1 X11.650 Y1.080 E0.05872
G1 X11.500 Y2.150 E0.05872
G1 X11.253 Y3.202 E0.05872
G1 X10.910 Y4.226 E0.05872
G1 X10.473 Y5.215 E0.05872
G1 X9.947 Y6.159 E0.05872
G1 X9.337 Y7.051 E0.05872
G1 X8.646 Y7.882 E0.05872
G1 X7.882 Y8.646 E0.05872
G1 X7.051 Y9.337 E0.05872
G1 X6.159 Y9.947 E0.05872
G1 X5.215 Y10.473 E0.05872
G1 X4.226 Y10.910 E0.05872
G1 X3.202 Y11.253 E0.05872
G1 X2.150 Y11.500 E0.05872
G1 X1.080 Y11.650 E0.05872
G1 X-0.000 Y11.700 E0.05872
G1 X-1.080 Y11.650 E0.05872
G1 X-2.150 Y11.500 E0.05872
G1 X-3.202 Y11.253 E0.05872
G1 X-4.226 Y10.910 E0.05872
G1 X-5.215 Y10.473 E0.05872
G1 X-6.159 Y9.947 E0.05872
G1 X-7.051 Y9.337 E0.05872
G1 X-7.882 Y8.646 E0.05872
G1 X-8.646 Y7.882 E0.05872
G1 X-9.337 Y7.051 E0.05872
G1 X-9.947 Y6.159 E0.05872
G1 X-10.473 Y5.215 E0.05872
G1 X-10.910 Y4.226 E0.05872
G1 X-11.253 Y3.202 E0.05872
G1 X-11.495 Y2.172 E0.05750
G1 X-11.650 Y1.079 E0.05994
G1 X-11.700 Y-0.000 E0.05870
G1 X-11.650 Y-1.080 E0.05872
G1 X-11.500 Y-2.150 E0.05872
G1 X-11.253 Y-3.202 E0.05872
