; generated by Slic3r 1.2.9 on 2016-11-30 at 11:39:46

; external perimeters extrusion width = 0.50mm
; perimeters extrusion width = 0.50mm
; infill extrusion width = 0.50mm
; solid infill extrusion width = 0.50mm
; top infill extrusion width = 0.50mm

M107
;Basic settings: Layer height: {layer_height} Walls: {wall_thickness} Fill: {fill_density}
;Print time: {print_time}
;Filament used: {filament_amount}m {filament_weight}g
;Filament cost: {filament_cost}
;M190 S{print_bed_temperature} ;Uncomment to add your own bed temperature line
;M109 S{print_temperature} ;Uncomment to add your own temperature line
G21        ;metric values
G90        ;absolute positioning
M83
G10 P0 S200
T0
M116


G21 ; set units to millimeters
G90 ; use absolute coordinates
M83 ; use relative distances for extrusion
G1 E-3.20000 F3000.00000
G1 Z0.400 F9000.000
G1 X-8.148 Y14.112 F9000.000
G1 Z0.300 F9000.000
G1 E3.20000 F3000.00000
G1 X-21.599 Y6.346 E1.42510 F1200.000
G1 X-22.849 Y5.168 E0.15755
G1 X-23.467 Y3.111 E0.19713
G1 X-23.467 Y-3.111 E0.57081
G1 X-23.072 Y-4.782 E0.15755
G1 X-21.599 Y-6.346 E0.19712
G1 X12.475 Y-26.019 E3.60999
G1 X14.120 Y-26.512 E0.15755
G1 X16.211 Y-26.019 E0.19713
G1 X21.599 Y-22.908 E0.57081 F1200.000
G1 X22.849 Y-21.731 E0.15755
G1 X23.467 Y-19.673 E0.19713
G1 X23.467 Y19.673 E3.60999
G1 X23.072 Y21.344 E0.15755
G1 X21.599 Y22.908 E0.19713
G1 X16.211 Y26.019 E0.57081
G1 X14.566 Y26.512 E0.15755
G1 X12.475 Y26.019 E0.19713
G1 X-8.096 Y14.142 E2.17938
G1 E-3.20000 F3000.00000
G1 Z0.700 F9000.000
G1 X7.916 Y3.535 F9000.000
G1 Z0.300 F9000.000
G1 E3.20000 F3000.00000
G1 X7.190 Y2.214 E0.13830 F900.000
G1 X6.815 Y0.754 E0.13830
G1 X6.815 Y-0.754 E0.13830
G1 X7.190 Y-2.214 E0.13830
G1 X7.916 Y-3.535 E0.13831
G1 X8.948 Y-4.634 E0.13831
G1 X10.221 Y-5.441 E0.13831
G1 X11.654 Y-5.907 E0.13830
G1 X13.138 Y-6.000 E0.13638 F900.000
G1 X14.639 Y-5.720 E0.14011
G1 X16.003 Y-5.077 E0.13837
G1 X17.165 Y-4.117 E0.13830
G1 X18.051 Y-2.897 E0.13831
G1 X18.606 Y-1.496 E0.13830
G1 X18.795 Y-0.000 E0.13831
G1 X18.606 Y1.496 E0.13831
G1 X18.051 Y2.897 E0.13830
G1 X17.165 Y4.117 E0.13830
G1 X16.003 Y5.077 E0.13831
G1 X14.639 Y5.719 E0.13831
G1 X13.159 Y6.002 E0.13830
G1 X11.654 Y5.907 E0.13830
G1 X10.221 Y5.441 E0.13830
G1 X8.948 Y4.634 E0.13831
G1 X7.957 Y3.578 E0.13280
G1 X7.517 Y3.560 F9000.000
G1 X4.467 Y0.722 F9000.000
G1 X4.467 Y-1.318 E0.18712 F900.000
G1 X4.865 Y-1.548 E0.04222
G1 X6.075 Y-2.732 E0.15536
G1 X6.805 Y-3.938 E0.12931
G1 X7.179 Y-3.722 E0.03966
G1 X6.500 Y-2.487 E0.12931 F900.000
G1 X6.079 Y-0.847 E0.15536
G1 X6.079 Y0.847 E0.15536
G1 X6.500 Y2.487 E0.15536
G1 X7.179 Y3.722 E0.12931
G1 X6.805 Y3.938 E0.03966
G1 X6.075 Y2.732 E0.12931
G1 X4.865 Y1.548 E0.15536
G1 X4.467 Y1.318 E0.04222
G1 X4.467 Y0.782 E0.04914
G1 E-3.20000 F3000.00000
G1 Z0.700 F9000.000
G1 X-8.437 Y8.320 F9000.000
G1 Z0.300 F9000.000
G1 E3.20000 F3000.00000
G1 X-18.595 Y2.455 E1.07621 F900.000
G1 X-18.595 Y1.636 E0.07518
G1 X-3.357 Y1.636 E1.39818
G1 X-4.332 Y2.514 E0.12049
G1 X-5.269 Y3.925 E0.15536 F900.000
G1 X-5.826 Y5.524 E0.15536
G1 X-5.968 Y7.211 E0.15536
G1 X-5.686 Y8.881 E0.15536
G1 X-5.281 Y9.790 E0.09134
G1 X-5.519 Y10.005 E0.02942
G1 X-8.385 Y8.350 E0.30366
G1 E-3.20000 F3000.00000
G1 Z0.700 F9000.000
G1 X-13.140 Y-1.636 F9000.000
G1 Z0.300 F9000.000
G1 E3.20000 F3000.00000
G1 X-18.595 Y-1.636 E0.50051 F900.000
G1 X-18.595 Y-2.455 E0.07518
G1 X-5.519 Y-10.005 E1.38538
G1 X-5.281 Y-9.790 E0.02942
G1 X-5.686 Y-8.881 E0.09134 F900.000
G1 X-5.968 Y-7.211 E0.15536
G1 X-5.826 Y-5.522 E0.15554
G1 X-5.257 Y-3.906 E0.15716
G1 X-4.332 Y-2.514 E0.15331
G1 X-3.357 Y-1.636 E0.12049
G1 X-13.080 Y-1.636 E0.89216
G1 E-3.20000 F3000.00000
G1 Z0.700 F9000.000
G1 X18.595 Y-15.437 F9000.000
G1 Z0.300 F9000.000
G1 E3.20000 F3000.00000
G1 X18.595 Y-3.918 E1.05693 F900.000
G1 X18.290 Y-3.819 E0.02942
G1 X17.705 Y-4.624 E0.09135
G1 X16.401 Y-5.703 E0.15536
G1 X14.867 Y-6.425 E0.15554
G1 X13.183 Y-6.740 E0.15716
G1 X11.515 Y-6.635 E0.15331
G1 X9.905 Y-6.112 E0.15536
G1 X8.475 Y-5.205 E0.15536
G1 X7.210 Y-3.858 E0.16952
G1 X6.908 Y-4.033 E0.03210
G1 X7.442 Y-5.802 E0.16952
G1 X7.513 Y-7.495 E0.15554
G1 X7.150 Y-9.170 E0.15716
G1 X6.408 Y-10.666 E0.15331
G1 X5.301 Y-11.948 E0.15536
G1 X3.911 Y-12.915 E0.15536
G1 X2.322 Y-13.505 E0.15554
G1 X1.330 Y-13.606 E0.09143
G1 X1.263 Y-13.920 E0.02948
G1 X13.416 Y-20.937 E1.28752
G1 X13.335 Y-20.410 E0.04892
G1 X13.433 Y-19.566 E0.07787 F900.000
G1 X13.749 Y-18.779 E0.07787
G1 X14.261 Y-18.102 E0.07787
G1 X14.933 Y-17.584 E0.07787
G1 X15.718 Y-17.261 E0.07787
G1 X16.560 Y-17.156 E0.07787
G1 X17.400 Y-17.276 E0.07787
G1 X18.179 Y-17.613 E0.07787
G1 X18.595 Y-17.946 E0.04892
G1 X18.595 Y-15.497 E0.22468
G1 E-3.20000 F3000.00000
G1 Z0.700 F9000.000
G1 X16.937 Y17.210 F9000.000
G1 Z0.300 F9000.000
G1 E3.20000 F3000.00000
G1 X16.560 Y17.156 E0.03494 F900.000
G1 X15.718 Y17.261 E0.07787
G1 X14.933 Y17.584 E0.07787
G1 X14.261 Y18.102 E0.07787
G1 X13.749 Y18.779 E0.07787
G1 X13.433 Y19.566 E0.07787
G1 X13.335 Y20.410 E0.07787
G1 X13.416 Y20.937 E0.04892
G1 X1.267 Y13.922 E1.28711
G1 X1.333 Y13.609 E0.02942
G1 X2.324 Y13.505 E0.09135
G1 X3.911 Y12.915 E0.15536
G1 X5.301 Y11.948 E0.15536
G1 X6.408 Y10.666 E0.15536
G1 X7.160 Y9.150 E0.15536
G1 X7.512 Y7.493 E0.15536
G1 X7.442 Y5.802 E0.15536
G1 X6.908 Y4.033 E0.16952
G1 X7.210 Y3.858 E0.03210
G1 X8.475 Y5.205 E0.16952
G1 X9.905 Y6.112 E0.15536
G1 X11.515 Y6.635 E0.15536
G1 X13.205 Y6.742 E0.15536
G1 X14.869 Y6.424 E0.15536
G1 X16.401 Y5.703 E0.15536
G1 X17.705 Y4.624 E0.15536
G1 X18.290 Y3.819 E0.09135
G1 X18.595 Y3.918 E0.02942
G1 X18.595 Y17.946 E1.28712 F900.000
G1 X18.179 Y17.613 E0.04892
G1 X17.400 Y17.276 E0.07787
G1 X16.996 Y17.218 E0.03743
G1 X16.892 Y17.946 F9000.000
G1 X16.553 Y17.898 E0.03140 F900.000
G1 X15.907 Y17.978 E0.05979
G1 X15.304 Y18.226 E0.05979
G1 X14.788 Y18.624 E0.05979
G1 X14.395 Y19.144 E0.05979
G1 X14.152 Y19.749 E0.05979
G1 X14.077 Y20.396 E0.05979
G1 X14.176 Y21.040 E0.05979
G1 X14.440 Y21.636 E0.05979
G1 X14.789 Y22.064 E0.05069
G1 X14.343 Y22.322 E0.04724
G1 X-19.331 Y2.880 E3.56761
G1 X-19.331 Y0.900 E0.18164
G1 X-1.291 Y0.900 E1.65518
G1 X-1.209 Y1.236 E0.03175
G1 X-2.651 Y1.990 E0.14933
G1 X-3.771 Y2.999 E0.13831
G1 X-4.605 Y4.254 E0.13831
G1 X-5.101 Y5.678 E0.13831
G1 X-5.227 Y7.180 E0.13830
G1 X-4.976 Y8.666 E0.13831
G1 X-4.363 Y10.043 E0.13830
G1 X-3.426 Y11.225 E0.13830
G1 X-2.226 Y12.136 E0.13831
G1 X-0.836 Y12.720 E0.13830
G1 X0.655 Y12.940 E0.13830
G1 X2.154 Y12.783 E0.13831
G1 X3.567 Y12.257 E0.13830
G1 X4.805 Y11.397 E0.13831
G1 X5.790 Y10.256 E0.13830
G1 X6.460 Y8.906 E0.13830
G1 X6.774 Y7.431 E0.13830
G1 X6.710 Y5.925 E0.13830
G1 X6.275 Y4.482 E0.13830
G1 X5.494 Y3.193 E0.13830
G1 X4.417 Y2.138 E0.13831
G1 X3.111 Y1.385 E0.13830
G1 X2.742 Y1.281 E0.03515
G1 X2.795 Y0.900 E0.03533
G1 X3.731 Y0.900 E0.08592
G1 X3.731 Y-0.900 E0.16515
G1 X2.779 Y-0.900 E0.08739
G1 X2.726 Y-1.281 E0.03526
G1 X3.130 Y-1.395 E0.03851
G1 X4.417 Y-2.138 E0.13638
G1 X5.494 Y-3.193 E0.13830
G1 X6.275 Y-4.482 E0.13831
G1 X6.710 Y-5.925 E0.13830
G1 X6.774 Y-7.432 E0.13837
G1 X6.451 Y-8.925 E0.14011
G1 X5.790 Y-10.256 E0.13638
G1 X4.805 Y-11.397 E0.13830
G1 X3.567 Y-12.257 E0.13831
G1 X2.154 Y-12.783 E0.13837
G1 X0.634 Y-12.937 E0.14011
G1 X-0.836 Y-12.720 E0.13638
G1 X-2.226 Y-12.136 E0.13830
G1 X-3.426 Y-11.225 E0.13830
G1 X-4.363 Y-10.043 E0.13831
G1 X-4.976 Y-8.666 E0.13830
G1 X-5.227 Y-7.180 E0.13830
G1 X-5.101 Y-5.677 E0.13837
G1 X-4.594 Y-4.237 E0.14011
G1 X-3.771 Y-2.999 E0.13638
G1 X-2.651 Y-1.990 E0.13831
G1 X-1.209 Y-1.236 E0.14933
G1 X-1.291 Y-0.900 E0.03175
G1 X-19.331 Y-0.900 E1.65518
G1 X-19.331 Y-2.880 E0.18164
G1 X14.343 Y-22.322 E3.56761
G1 X14.789 Y-22.064 E0.04724
G1 X14.440 Y-21.636 E0.05069 F900.000
G1 X14.176 Y-21.040 E0.05979
G1 X14.077 Y-20.396 E0.05979
G1 X14.152 Y-19.749 E0.05979
G1 X14.395 Y-19.144 E0.05979
G1 X14.788 Y-18.624 E0.05979
G1 X15.304 Y-18.226 E0.05979
G1 X15.907 Y-17.978 E0.05979
G1 X16.553 Y-17.898 E0.05979
G1 X17.198 Y-17.990 E0.05979
G1 X17.796 Y-18.249 E0.05979
G1 X18.305 Y-18.656 E0.05979
G1 X18.689 Y-19.183 E0.05979
G1 X18.885 Y-19.699 E0.05069
G1 X19.331 Y-19.442 E0.04724
G1 X19.331 Y19.442 E3.56761
G1 X18.885 Y19.699 E0.04724
G1 X18.689 Y19.183 E0.05069
G1 X18.305 Y18.656 E0.05979
G1 X17.796 Y18.249 E0.05979
G1 X17.198 Y17.990 E0.05979
G1 X16.952 Y17.955 E0.02288
G1 X16.765 Y17.629 F9000.000
G1 E-3.20000 F3000.00000
G1 Z0.700 F9000.000
G1 X2.356 Y-1.035 F9000.000
G1 Z0.300 F9000.000
G1 E3.20000 F3000.00000
G1 X1.610 Y-0.939 E0.06902 F900.000
G1 X0.204 Y-0.924 E0.12904
G1 X-0.845 Y-1.039 E0.09678
G1 E-3.20000 F3000.00000
G1 Z0.700 F9000.000
G1 X-0.845 Y1.039 F9000.000
G1 Z0.300 F9000.000
G1 E3.20000 F3000.00000
G1 X0.182 Y0.927 E0.09483 F900.000
G1 X1.608 Y0.939 E0.13084
G1 X2.372 Y1.036 E0.07066
G1 X5.717 Y1.622 F9000.000
G1 X5.273 Y0.852 E0.17025 F600.000
G1 X5.273 Y-0.852 E0.32638
G1 X5.717 Y-1.622 E0.17025
G1 X7.883 Y-5.843 F9000.000
G1 X8.225 Y-5.501 E0.04501 F900.000
G1 X8.866 Y-5.915 E0.07090
G1 X7.929 Y-6.852 E0.12322
G1 X7.919 Y-7.916 E0.09898
G1 X9.511 Y-6.324 E0.20938
G1 X10.239 Y-6.650 E0.07417
G1 X7.628 Y-9.261 E0.34334
G1 X6.611 Y-11.332 F9000.000
G1 X11.034 Y-6.909 E0.58162 F900.000
G1 X11.897 Y-7.100 E0.08219
G1 X3.968 Y-15.029 E1.04266
G1 X4.636 Y-15.415 E0.07176
G1 X12.889 Y-7.162 E1.08520
G1 X14.036 Y-7.070 E0.10701
G1 X5.305 Y-15.801 E1.14815
G1 X5.973 Y-16.187 E0.07176
G1 X15.399 Y-6.761 E1.23947
G1 X18.140 Y-5.074 F9000.000
G1 X6.642 Y-16.573 E1.51200 F900.000
G1 X7.310 Y-16.959 E0.07176
G1 X18.146 Y-6.123 E1.42491
G1 X18.146 Y-7.177 E0.09803
G1 X7.978 Y-17.345 E1.33702
G1 X8.647 Y-17.731 E0.07176
G1 X18.146 Y-8.231 E1.24913
G1 X18.146 Y-9.285 E0.09803
G1 X9.315 Y-18.116 E1.16124
G1 X9.984 Y-18.502 E0.07176
G1 X18.146 Y-10.340 E1.07336
G1 X18.146 Y-11.394 E0.09803
G1 X10.652 Y-18.888 E0.98547
G1 X13.518 Y-18.131 F9000.000
G1 X11.989 Y-19.660 E0.20110 F900.000
G1 X11.320 Y-19.274 E0.07176
G1 X18.146 Y-12.448 E0.89758
G1 X18.146 Y-13.502 E0.09803
G1 X14.324 Y-17.324 E0.50257
G1 X15.944 Y-16.759 F9000.000
G1 X18.146 Y-14.557 E0.28960 F900.000
G1 X18.146 Y-15.611 E0.09803
G1 X16.975 Y-16.782 E0.15398
G1 X17.799 Y-17.013 E0.07953
G1 X18.146 Y-16.665 E0.04567
G1 X5.315 Y-12.628 F9000.000
G1 X3.300 Y-14.643 E0.26506 F900.000
G1 X2.631 Y-14.258 E0.07176
G1 X3.140 Y-13.749 E0.06688
G1 X18.593 Y-3.530 F9000.000
G1 X18.944 Y-1.694 E0.17154 F600.000
G1 X18.944 Y1.694 F9000.000
G1 X18.593 Y3.530 E0.17154 F600.000
G1 X18.146 Y5.393 F9000.000
G1 X17.800 Y5.046 E0.04522 F900.000
G1 X17.227 Y5.520 E0.06866
G1 X18.146 Y6.439 E0.12004
G1 X18.146 Y7.486 E0.09667
G1 X16.654 Y5.994 E0.19486
G1 X15.962 Y6.349 E0.07181
G1 X18.146 Y8.533 E0.28521
G1 X18.146 Y9.580 E0.09667
G1 X15.250 Y6.684 E0.37818
G1 X14.453 Y6.934 E0.07714
G1 X18.146 Y10.627 E0.48227
G1 X18.146 Y11.674 E0.09667
G1 X13.574 Y7.102 E0.59709
G1 X12.588 Y7.163 E0.09118
G1 X18.146 Y12.721 E0.72579
G1 X18.146 Y13.768 E0.09667
G1 X11.471 Y7.093 E0.87168
G1 X10.008 Y6.677 E0.14046
G1 X18.146 Y14.815 E1.06274
G1 X18.146 Y15.862 E0.09667
G1 X7.890 Y5.605 E1.33934
G1 X7.935 Y6.698 E0.10099
G1 X18.146 Y16.909 E1.33336
G1 X16.920 Y16.729 E0.11448
G1 X7.897 Y7.706 E1.17822
G1 X7.713 Y8.570 E0.08151
G1 X15.942 Y16.798 E1.07448
G1 X15.155 Y17.058 E0.07653
G1 X7.484 Y9.388 E1.00159
G1 X7.137 Y10.088 E0.07212
G1 X14.488 Y17.439 E0.95992
G1 X13.917 Y17.915 E0.06863
G1 X6.790 Y10.787 E0.93074
G1 X6.317 Y11.361 E0.06867
G1 X13.466 Y18.511 E0.93363
G1 X13.135 Y19.227 E0.07283
G1 X5.832 Y11.923 E0.95376
G1 X5.290 Y12.428 E0.06840
G1 X12.823 Y19.962 E0.98371
G1 X10.346 Y18.532 F9000.000
G1 X4.672 Y12.858 E0.74090 F900.000
G1 X4.055 Y13.287 E0.06945
G1 X7.869 Y17.101 E0.49808
G1 X5.392 Y15.671 F9000.000
G1 X3.296 Y13.575 E0.27373 F900.000
G1 X2.915 Y14.241 E0.07085
G1 X2.533 Y13.859 E0.04992
G1 X0.932 Y13.727 F9000.000
G1 X-0.833 Y13.112 E0.17154 F600.000
G1 X-3.767 Y11.418 F9000.000
G1 X-5.182 Y10.197 E0.17154 F600.000
G1 X-8.375 Y7.723 F9000.000
G1 X-14.013 Y2.085 E0.78429 F900.000
G1 X-12.898 Y2.085 E0.10970
G1 X-6.184 Y8.799 E0.93391
G1 X-6.411 Y7.456 E0.13390
G1 X-11.782 Y2.085 E0.74720
G1 X-10.667 Y2.085 E0.10970
G1 X-6.339 Y6.413 E0.60201
G1 X-6.220 Y5.417 E0.09864
G1 X-9.552 Y2.085 E0.46351
G1 X-8.437 Y2.085 E0.10970
G1 X-5.932 Y4.590 E0.34844
G1 X-5.635 Y3.771 E0.08562
G1 X-7.321 Y2.085 E0.23462
G1 X-6.206 Y2.085 E0.10970
G1 X-5.189 Y3.101 E0.14141
G1 X-5.091 Y2.085 E0.10046
G1 X-4.744 Y2.431 E0.04820
G1 X-11.013 Y6.200 F9000.000
G1 X-15.128 Y2.085 E0.57237 F900.000
G1 X-16.243 Y2.085 E0.10970
G1 X-13.652 Y4.676 E0.36046
G1 X-16.291 Y3.153 F9000.000
G1 X-16.674 Y2.770 E0.05328 F900.000
G1 X-17.014 Y2.440 F9000.000
G1 X-18.228 Y2.114 E0.11527 F600.000
G1 E-3.20000 F3000.00000
G1 Z0.700 F9000.000
G1 X-18.228 Y-2.114 F9000.000
G1 Z0.300 F9000.000
G1 E3.20000 F3000.00000
G1 X-17.014 Y-2.440 E0.11527 F600.000
G1 X-16.143 Y-2.085 F9000.000
G1 X-16.503 Y-2.445 E0.04956 F900.000
G1 X-16.289 Y-3.334 E0.08889
G1 X-15.040 Y-2.085 E0.17178
G1 X-13.937 Y-2.085 E0.10724
G1 X-15.590 Y-3.737 E0.22730
G1 X-14.891 Y-4.141 E0.07851
G1 X-12.835 Y-2.085 E0.28281
G1 X-11.732 Y-2.085 E0.10724
G1 X-14.192 Y-4.545 E0.33832
G1 X-13.493 Y-4.948 E0.07851
G1 X-10.629 Y-2.085 E0.39384
G1 X-9.527 Y-2.085 E0.10724
G1 X-12.794 Y-5.352 E0.44935
G1 X-12.095 Y-5.756 E0.07851
G1 X-8.424 Y-2.085 E0.50487
G1 X-7.321 Y-2.085 E0.10724
G1 X-11.395 Y-6.159 E0.56038
G1 X-10.696 Y-6.563 E0.07851
G1 X-6.218 Y-2.085 E0.61589
G1 X-5.116 Y-2.085 E0.10725
G1 X-9.997 Y-6.966 E0.67141
G1 X-9.298 Y-7.370 E0.07851
G1 X-5.778 Y-3.850 E0.48417
G1 X-6.285 Y-5.460 F9000.000
G1 X-8.599 Y-7.774 E0.31821 F900.000
G1 X-7.900 Y-8.177 E0.07851
G1 X-6.387 Y-6.664 E0.20816
G1 X-6.317 Y-7.697 E0.10073
G1 X-7.201 Y-8.581 E0.12154
G1 X-6.502 Y-8.985 E0.07851
G1 X-6.158 Y-8.640 E0.04733
G1 X-5.182 Y-10.197 F9000.000
G1 X-3.767 Y-11.418 E0.17154 F600.000
G1 X-0.833 Y-13.112 F9000.000
G1 X0.928 Y-13.726 E0.17117 F600.000
G1 E-3.20000 F3000.00000
G1 Z0.700 F9000.000
G1 X0.740 Y1.117 F9000.000
G1 Z0.600 F9000.000
G1 E3.20000 F3000.00000
G1 X1.636 Y1.128 E0.04872 F1800.000
G1 X3.053 Y1.524 E0.07990
G1 X4.325 Y2.259 E0.07984
G1 X5.375 Y3.287 E0.07984
G1 X6.137 Y4.544 E0.07984
G1 X6.561 Y5.951 E0.07984
G1 X6.623 Y7.419 E0.07984
G1 X6.317 Y8.856 E0.07984
G1 X5.664 Y10.172 E0.07984
G1 X4.704 Y11.285 E0.07984
G1 X3.497 Y12.123 E0.07984
G1 X2.120 Y12.636 E0.07984
G1 X0.658 Y12.789 E0.07984
G1 X-0.795 Y12.575 E0.07984
G1 X-2.150 Y12.005 E0.07984
G1 X-3.321 Y11.117 E0.07984
G1 X-4.203 Y10.004 E0.07717
G1 X-4.831 Y8.624 E0.08238
G1 X-5.076 Y7.174 E0.07990
G1 X-4.953 Y5.709 E0.07984
G1 X-4.470 Y4.322 E0.07984
G1 X-3.657 Y3.098 E0.07984
G1 X-2.565 Y2.114 E0.07984
G1 X-1.262 Y1.433 E0.07984
G1 X0.120 Y1.109 E0.07717 F1800.000
G1 X0.680 Y1.116 E0.03040
G1 X0.944 Y0.773 F9000.000
G1 E-3.20000 F3000.00000
G1 Z1.000 F9000.000
G1 X-5.103 Y10.765 F9000.000
G1 Z0.600 F9000.000
G1 E3.20000 F3000.00000
G1 X-19.045 Y2.715 E0.87473 F1800.000
G1 X-19.045 Y1.186 E0.08309
G1 X-2.158 Y1.186 E0.91754
G1 X-2.109 Y1.385 E0.01113
G1 X-2.815 Y1.754 E0.04329 F1800.000
G1 X-3.989 Y2.811 E0.08582
G1 X-4.863 Y4.126 E0.08582
G1 X-5.383 Y5.618 E0.08582
G1 X-5.515 Y7.192 E0.08582
G1 X-5.251 Y8.752 E0.08598
G1 X-4.577 Y10.232 E0.08836
G1 X-3.715 Y11.321 E0.07545
G1 X-3.856 Y11.484 E0.01175
G1 X-5.051 Y10.795 E0.07497
G1 E-3.20000 F3000.00000
G1 Z1.000 F9000.000
G1 X-2.719 Y-1.703 F9000.000
G1 Z0.600 F9000.000
G1 E3.20000 F3000.00000
G1 X-2.107 Y-1.385 E0.03746 F1800.000
G1 X-2.156 Y-1.186 E0.01114
G1 X-19.045 Y-1.186 E0.91765
G1 X-19.045 Y-2.715 E0.08309
G1 X-3.856 Y-11.484 E0.95296
G1 X-3.715 Y-11.321 E0.01175
G1 X-4.609 Y-10.193 E0.07822 F1800.000
G1 X-5.251 Y-8.750 E0.08582
G1 X-5.515 Y-7.192 E0.08582
G1 X-5.382 Y-5.615 E0.08598
G1 X-4.835 Y-4.084 E0.08836
G1 X-3.989 Y-2.811 E0.08305
G1 X-2.772 Y-1.731 E0.08840
G1 X-2.565 Y-2.114 F9000.000
G1 X-3.657 Y-3.098 E0.07985 F1800.000
G1 X-4.443 Y-4.281 E0.07717
G1 X-4.953 Y-5.708 E0.08238
G1 X-5.076 Y-7.174 E0.07990
G1 X-4.831 Y-8.623 E0.07984
G1 X-4.233 Y-9.965 E0.07984
G1 X-3.321 Y-11.117 E0.07984
