; generated by Slic3r 1.2.9 on 2016-12-02 at 12:38:45

; external perimeters extrusion width = 0.50mm
; perimeters extrusion width = 0.50mm
; infill extrusion width = 0.50mm
; solid infill extrusion width = 0.50mm
; top infill extrusion width = 0.50mm

M107
;Basic settings: Layer height: {layer_height} Walls: {wall_thickness} Fill: {fill_density}
;Print time: {print_time}
;Filament used: {filament_amount}m {filament_weight}g
;Filament cost: {filament_cost}
;M190 S{print_bed_temperature} ;Uncomment to add your own bed temperature line
;M109 S{print_temperature} ;Uncomment to add your own temperature line
G21        ;metric values
G90        ;absolute positioning
M83
G10 P0 S200
T0
M116


G21 ; set units to millimeters
G90 ; use absolute coordinates
M83 ; use relative distances for extrusion
G1 E-3.20000 F3000.00000
G1 Z0.400 F9000.000
G1 X-8.148 Y14.112 F9000.000
G1 Z0.300 F9000.000
G1 E3.20000 F3000.00000
G1 X-21.599 Y6.346 E1.42511 F1200.000
G1 X-22.849 Y5.168 E0.15755
G1 X-23.467 Y3.111 E0.19711
G1 X-23.467 Y-3.111 E0.57081
G1 X-23.072 Y-4.782 E0.15755
G1 X-21.599 Y-6.346 E0.19713
G1 X12.475 Y-26.019 E3.60999
G1 X14.120 Y-26.512 E0.15755
G1 X16.211 Y-26.019 E0.19713
G1 X21.599 Y-22.908 E0.57081 F1200.000
G1 X22.849 Y-21.731 E0.15755
G1 X23.467 Y-19.673 E0.19713
G1 X23.467 Y19.673 E3.60999
G1 X23.072 Y21.344 E0.15755
G1 X21.599 Y22.908 E0.19713
G1 X16.211 Y26.019 E0.57081
G1 X14.566 Y26.512 E0.15755
G1 X12.475 Y26.019 E0.19713
G1 X-8.096 Y14.142 E2.17939
G1 E-3.20000 F3000.00000
G1 Z0.700 F9000.000
G1 X8.115 Y12.463 F9000.000
G1 Z0.300 F9000.000
G1 E3.20000 F3000.00000
G1 X8.115 Y11.537 E0.08498 F900.000
G1 X8.346 Y10.640 E0.08498
G1 X8.792 Y9.828 E0.08498
G1 X9.426 Y9.153 E0.08498
G1 X10.208 Y8.657 E0.08498
G1 X11.089 Y8.370 E0.08498
G1 X12.013 Y8.312 E0.08498 F900.000
G1 X12.923 Y8.486 E0.08498
G1 X13.761 Y8.880 E0.08498
G1 X14.475 Y9.471 E0.08498
G1 X15.019 Y10.220 E0.08498
G1 X15.360 Y11.081 E0.08498
G1 X15.476 Y12.000 E0.08498
G1 X15.360 Y12.919 E0.08498
G1 X15.019 Y13.780 E0.08498
G1 X14.475 Y14.529 E0.08498
G1 X13.761 Y15.120 E0.08498
G1 X12.923 Y15.514 E0.08498
G1 X12.013 Y15.688 E0.08498
G1 X11.089 Y15.630 E0.08498
G1 X10.208 Y15.343 E0.08498
G1 X9.426 Y14.847 E0.08498
G1 X8.792 Y14.172 E0.08498
G1 X8.346 Y13.360 E0.08498
G1 X8.130 Y12.521 E0.07948
G1 X8.851 Y12.370 F9000.000
G1 X8.851 Y11.630 E0.06793 F900.000
G1 X9.035 Y10.913 E0.06793
G1 X9.392 Y10.264 E0.06793
G1 X9.898 Y9.724 E0.06793
G1 X10.524 Y9.328 E0.06793
G1 X11.228 Y9.099 E0.06793
G1 X11.967 Y9.052 E0.06793 F900.000
G1 X12.694 Y9.191 E0.06793
G1 X13.364 Y9.506 E0.06793
G1 X13.934 Y9.978 E0.06793
G1 X14.369 Y10.577 E0.06793
G1 X14.642 Y11.265 E0.06793
G1 X14.735 Y12.000 E0.06793
G1 X14.642 Y12.735 E0.06793
G1 X14.369 Y13.423 E0.06793
G1 X13.934 Y14.022 E0.06793
G1 X13.364 Y14.494 E0.06793
G1 X12.694 Y14.809 E0.06793
G1 X11.967 Y14.948 E0.06793
G1 X11.228 Y14.901 E0.06793
G1 X10.524 Y14.672 E0.06793
G1 X9.898 Y14.276 E0.06793
G1 X9.392 Y13.736 E0.06793
G1 X9.035 Y13.087 E0.06793
G1 X8.866 Y12.428 E0.06242
G1 X8.489 Y12.200 F9000.000
G1 X3.359 Y9.107 F9000.000
G1 X2.754 Y9.808 E0.08498 F900.000
G1 X1.993 Y10.337 E0.08498
G1 X1.125 Y10.660 E0.08498
G1 X0.204 Y10.756 E0.08498
G1 X-0.713 Y10.621 E0.08498
G1 X-1.566 Y10.262 E0.08498
G1 X-2.304 Y9.702 E0.08498
G1 X-2.880 Y8.976 E0.08498
G1 X-3.256 Y8.130 E0.08498
G1 X-3.411 Y7.217 E0.08498
G1 X-3.333 Y6.294 E0.08498
G1 X-3.029 Y5.419 E0.08498
G1 X-2.516 Y4.648 E0.08498
G1 X-1.828 Y4.028 E0.08498
G1 X-1.007 Y3.599 E0.08498
G1 X-0.105 Y3.387 E0.08498 F900.000
G1 X0.821 Y3.407 E0.08498
G1 X1.713 Y3.656 E0.08498
G1 X2.515 Y4.119 E0.08498
G1 X3.177 Y4.767 E0.08498
G1 X3.657 Y5.559 E0.08498
G1 X3.924 Y6.446 E0.08498
G1 X3.963 Y7.371 E0.08498
G1 X3.771 Y8.277 E0.08498
G1 X3.385 Y9.053 E0.07948
G1 X2.741 Y8.697 F9000.000
G1 X2.257 Y9.257 E0.06793 F900.000
G1 X1.649 Y9.680 E0.06793
G1 X0.956 Y9.938 E0.06793
G1 X0.219 Y10.015 E0.06793
G1 X-0.513 Y9.907 E0.06793
G1 X-1.196 Y9.620 E0.06793
G1 X-1.785 Y9.172 E0.06793
G1 X-2.245 Y8.592 E0.06793
G1 X-2.546 Y7.916 E0.06793
G1 X-2.670 Y7.186 E0.06793
G1 X-2.608 Y6.448 E0.06793
G1 X-2.364 Y5.749 E0.06793
G1 X-1.955 Y5.132 E0.06793
G1 X-1.405 Y4.637 E0.06793
G1 X-0.748 Y4.294 E0.06793
G1 X-0.028 Y4.125 E0.06793 F900.000
G1 X0.713 Y4.140 E0.06793
G1 X1.426 Y4.339 E0.06793
G1 X2.067 Y4.710 E0.06793
G1 X2.596 Y5.228 E0.06793
G1 X2.979 Y5.861 E0.06793
G1 X3.193 Y6.570 E0.06793
G1 X3.224 Y7.309 E0.06793
G1 X3.070 Y8.034 E0.06793
G1 X2.768 Y8.643 E0.06242
G1 X2.904 Y9.062 F9000.000
G1 E-3.20000 F3000.00000
G1 Z0.700 F9000.000
G1 X0.821 Y-3.407 F9000.000
G1 Z0.300 F9000.000
G1 E3.20000 F3000.00000
G1 X-0.105 Y-3.387 E0.08498 F900.000
G1 X-1.007 Y-3.599 E0.08498
G1 X-1.828 Y-4.028 E0.08498
G1 X-2.516 Y-4.648 E0.08498
G1 X-3.029 Y-5.419 E0.08498
G1 X-3.333 Y-6.294 E0.08498
G1 X-3.411 Y-7.217 E0.08498
G1 X-3.256 Y-8.130 E0.08498
G1 X-2.880 Y-8.976 E0.08498
G1 X-2.304 Y-9.702 E0.08498
G1 X-1.566 Y-10.262 E0.08498
G1 X-0.713 Y-10.621 E0.08498
G1 X0.204 Y-10.756 E0.08498 F900.000
G1 X1.125 Y-10.660 E0.08498
G1 X1.993 Y-10.337 E0.08498
G1 X2.754 Y-9.808 E0.08498
G1 X3.359 Y-9.107 E0.08498
G1 X3.771 Y-8.277 E0.08498
G1 X3.963 Y-7.371 E0.08498
G1 X3.924 Y-6.446 E0.08498
G1 X3.657 Y-5.559 E0.08498
G1 X3.177 Y-4.767 E0.08498
G1 X2.515 Y-4.119 E0.08498
G1 X1.713 Y-3.656 E0.08498
G1 X0.879 Y-3.423 E0.07948
G1 X0.713 Y-4.140 F9000.000
G1 X-0.028 Y-4.125 E0.06793 F900.000
G1 X-0.748 Y-4.294 E0.06793
G1 X-1.405 Y-4.637 E0.06793
G1 X-1.955 Y-5.132 E0.06793
G1 X-2.364 Y-5.749 E0.06793
G1 X-2.608 Y-6.448 E0.06793
G1 X-2.670 Y-7.186 E0.06793
G1 X-2.546 Y-7.916 E0.06793
G1 X-2.245 Y-8.592 E0.06793
G1 X-1.785 Y-9.172 E0.06793
G1 X-1.196 Y-9.620 E0.06793
G1 X-0.513 Y-9.907 E0.06793
G1 X0.219 Y-10.015 E0.06793 F900.000
G1 X0.956 Y-9.938 E0.06793
G1 X1.649 Y-9.680 E0.06793
G1 X2.257 Y-9.257 E0.06793
G1 X2.741 Y-8.697 E0.06793
G1 X3.070 Y-8.034 E0.06793
G1 X3.224 Y-7.309 E0.06793
G1 X3.193 Y-6.570 E0.06793
G1 X2.979 Y-5.861 E0.06793
G1 X2.596 Y-5.228 E0.06793
G1 X2.067 Y-4.710 E0.06793
G1 X1.426 Y-4.339 E0.06793
G1 X0.770 Y-4.156 E0.06242
G1 X0.550 Y-3.775 F9000.000
G1 X8.792 Y-9.828 F9000.000
G1 X8.346 Y-10.640 E0.08498 F900.000
G1 X8.115 Y-11.537 E0.08498
G1 X8.115 Y-12.463 E0.08498
G1 X8.346 Y-13.360 E0.08498
G1 X8.792 Y-14.172 E0.08498
G1 X9.426 Y-14.847 E0.08498
G1 X10.208 Y-15.343 E0.08498
G1 X11.089 Y-15.630 E0.08498
G1 X12.013 Y-15.688 E0.08498 F900.000
G1 X12.923 Y-15.514 E0.08498
G1 X13.761 Y-15.120 E0.08498
G1 X14.475 Y-14.529 E0.08498
G1 X15.019 Y-13.780 E0.08498
G1 X15.360 Y-12.919 E0.08498
G1 X15.476 Y-12.000 E0.08498
G1 X15.360 Y-11.081 E0.08498
G1 X15.019 Y-10.220 E0.08498
G1 X14.475 Y-9.471 E0.08498
G1 X13.761 Y-8.880 E0.08498
G1 X12.923 Y-8.486 E0.08498
G1 X12.013 Y-8.312 E0.08498
G1 X11.089 Y-8.370 E0.08498
G1 X10.208 Y-8.657 E0.08498
G1 X9.426 Y-9.153 E0.08498
G1 X8.833 Y-9.784 E0.07948
G1 X9.392 Y-10.264 F9000.000
G1 X9.035 Y-10.913 E0.06793 F900.000
G1 X8.851 Y-11.630 E0.06793
G1 X8.851 Y-12.370 E0.06793
G1 X9.035 Y-13.087 E0.06793
G1 X9.392 Y-13.736 E0.06793
G1 X9.898 Y-14.276 E0.06793
G1 X10.524 Y-14.672 E0.06793
G1 X11.228 Y-14.901 E0.06793
G1 X11.967 Y-14.948 E0.06793 F900.000
G1 X12.694 Y-14.809 E0.06793
G1 X13.364 Y-14.494 E0.06793
G1 X13.934 Y-14.022 E0.06793
G1 X14.369 Y-13.423 E0.06793
G1 X14.642 Y-12.735 E0.06793
G1 X14.735 Y-12.000 E0.06793
G1 X14.642 Y-11.265 E0.06793
G1 X14.369 Y-10.577 E0.06793
G1 X13.934 Y-9.978 E0.06793
G1 X13.364 Y-9.506 E0.06793
G1 X12.694 Y-9.191 E0.06793
G1 X11.967 Y-9.052 E0.06793
G1 X11.228 Y-9.099 E0.06793
G1 X10.524 Y-9.328 E0.06793
G1 X9.898 Y-9.724 E0.06793
G1 X9.433 Y-10.220 E0.06242
G1 X8.992 Y-10.239 F9000.000
G1 X-3.422 Y-11.215 F9000.000
G1 X13.230 Y-20.830 E1.76423 F900.000
G1 X13.088 Y-20.076 E0.07034
G1 X13.165 Y-19.206 E0.08016 F900.000
G1 X13.474 Y-18.389 E0.08016
G1 X13.993 Y-17.686 E0.08015
G1 X14.683 Y-17.150 E0.08015
G1 X15.492 Y-16.821 E0.08015
G1 X16.360 Y-16.723 E0.08016
G1 X17.222 Y-16.863 E0.08016
G1 X18.014 Y-17.232 E0.08016
G1 X18.595 Y-17.732 E0.07034
G1 X18.595 Y17.732 E3.25383
G1 X18.014 Y17.232 E0.07034
G1 X17.222 Y16.863 E0.08015
G1 X16.360 Y16.723 E0.08016
G1 X15.492 Y16.821 E0.08016
G1 X14.683 Y17.150 E0.08015
G1 X13.993 Y17.686 E0.08016
G1 X13.474 Y18.389 E0.08015
G1 X13.165 Y19.206 E0.08016
G1 X13.088 Y20.076 E0.08015
G1 X13.230 Y20.830 E0.07034
G1 X-18.595 Y2.455 E3.37175
G1 X-18.595 Y1.636 E0.07518
G1 X4.467 Y1.636 E2.11597
G1 X4.467 Y-1.636 E0.30014
G1 X-18.595 Y-1.636 E2.11597
G1 X-18.595 Y-2.455 E0.07518
G1 X-3.474 Y-11.185 E1.60202
G1 X-3.842 Y-11.822 F9000.000
G1 X14.343 Y-22.322 E1.92662 F900.000
G1 X14.890 Y-22.006 E0.05795
G1 X14.252 Y-21.300 E0.08733 F900.000
G1 X13.954 Y-20.699 E0.06154
G1 X13.830 Y-20.040 E0.06154
G1 X13.889 Y-19.372 E0.06154
G1 X14.126 Y-18.744 E0.06154
G1 X14.524 Y-18.205 E0.06154
G1 X15.054 Y-17.793 E0.06154
G1 X15.675 Y-17.540 E0.06154
G1 X16.342 Y-17.465 E0.06154
G1 X17.004 Y-17.573 E0.06154
G1 X17.612 Y-17.856 E0.06154
G1 X18.120 Y-18.293 E0.06154
G1 X18.491 Y-18.852 E0.06154
G1 X18.784 Y-19.758 E0.08733
G1 X19.331 Y-19.442 E0.05795
G1 X19.331 Y19.442 E3.56761
G1 X18.784 Y19.758 E0.05795
G1 X18.491 Y18.852 E0.08733
G1 X18.120 Y18.293 E0.06154
G1 X17.612 Y17.856 E0.06154
G1 X17.004 Y17.573 E0.06154
G1 X16.342 Y17.465 E0.06154
G1 X15.675 Y17.540 E0.06154
G1 X15.054 Y17.793 E0.06154
G1 X14.524 Y18.205 E0.06154
G1 X14.126 Y18.744 E0.06154
G1 X13.889 Y19.372 E0.06154
G1 X13.830 Y20.040 E0.06154
G1 X13.954 Y20.699 E0.06154
G1 X14.252 Y21.300 E0.06154
G1 X14.890 Y22.006 E0.08733
G1 X14.343 Y22.322 E0.05795
G1 X-19.331 Y2.880 E3.56761
G1 X-19.331 Y0.900 E0.18164
G1 X3.731 Y0.900 E2.11597
G1 X3.731 Y-0.900 E0.16515
G1 X-19.331 Y-0.900 E2.11597
G1 X-19.331 Y-2.880 E0.18164
G1 X-3.894 Y-11.792 E1.63548
G1 X-3.496 Y-11.622 F9000.000
G1 X-17.014 Y-2.440 F9000.000
G1 X-18.228 Y-2.114 E0.11527 F600.000
G1 E-3.20000 F3000.00000
G1 Z0.700 F9000.000
G1 X-18.228 Y2.114 F9000.000
G1 Z0.300 F9000.000
G1 E3.20000 F3000.00000
G1 X-17.014 Y2.440 E0.11527 F600.000
G1 X-16.291 Y3.153 F9000.000
G1 X-16.674 Y2.770 E0.05052 F900.000
G1 X-16.301 Y2.085 E0.07272
G1 X-13.789 Y4.597 E0.33141
G1 X-11.286 Y6.042 F9000.000
G1 X-15.244 Y2.085 E0.52197 F900.000
G1 E-3.20000 F3000.00000
G1 Z0.700 F9000.000
G1 X-15.183 Y-2.085 F9000.000
G1 Z0.300 F9000.000
G1 E3.20000 F3000.00000
G1 X-16.380 Y-3.282 E0.15785 F900.000
G1 X-15.709 Y-3.669 E0.07221
G1 X-14.125 Y-2.085 E0.20891
G1 X-13.068 Y-2.085 E0.09864
G1 X-15.039 Y-4.056 E0.25997
G1 X-14.368 Y-4.443 E0.07221
G1 X-12.010 Y-2.085 E0.31103
G1 X-10.953 Y-2.085 E0.09864
G1 X-13.698 Y-4.830 E0.36209
G1 X-13.027 Y-5.217 E0.07221
G1 X-9.895 Y-2.085 E0.41315
G1 X-8.838 Y-2.085 E0.09864
G1 X-12.357 Y-5.604 E0.46421
G1 X-11.686 Y-5.991 E0.07221
G1 X-7.780 Y-2.085 E0.51527
G1 X-6.722 Y-2.085 E0.09864
G1 X-11.016 Y-6.378 E0.56633
G1 X-10.345 Y-6.765 E0.07221
G1 X-5.665 Y-2.085 E0.61739
G1 X-4.607 Y-2.085 E0.09864
G1 X-9.675 Y-7.153 E0.66845
G1 X-9.005 Y-7.540 E0.07221
G1 X-3.550 Y-2.085 E0.71951
G1 X-2.492 Y-2.085 E0.09864
G1 X-8.334 Y-7.927 E0.77057
G1 X1.158 Y-11.125 F9000.000
G1 X-0.288 Y-12.572 E0.19084 F900.000
G1 X-0.959 Y-12.185 E0.07221
G1 X0.058 Y-11.168 E0.13416
G1 X-0.836 Y-11.004 E0.08478
G1 X-1.629 Y-11.798 E0.10466
G1 X-2.300 Y-11.411 E0.07221
G1 X-1.580 Y-10.691 E0.09489
G1 X-2.208 Y-10.261 E0.07095
G1 X-2.970 Y-11.023 E0.10060
G1 X-3.641 Y-10.636 E0.07221
G1 X-2.757 Y-9.753 E0.11659
G1 X-3.225 Y-9.163 E0.07021
G1 X-4.311 Y-10.249 E0.14335
G1 X-4.982 Y-9.862 E0.07221
G1 X-3.557 Y-8.437 E0.18798
G1 X-3.777 Y-7.600 E0.08072
G1 X-5.652 Y-9.475 E0.24731
G1 X-6.323 Y-9.088 E0.07221
G1 X-3.822 Y-6.588 E0.32981
G1 X-3.491 Y-5.199 E0.13317
G1 X-6.993 Y-8.701 E0.46194
G1 X-7.664 Y-8.314 E0.07221
G1 X-1.435 Y-2.085 E0.82163
G1 X-1.585 Y-3.292 E0.11350
G1 X-0.377 Y-2.085 E0.15928
G1 X-0.175 Y-2.940 E0.08196
G1 X0.681 Y-2.085 E0.11278
G1 X1.738 Y-2.085 E0.09864
G1 X0.840 Y-2.983 E0.11850
G1 X1.666 Y-3.214 E0.08006
G1 X2.796 Y-2.085 E0.14895
G1 X3.853 Y-2.085 E0.09864
G1 X2.361 Y-3.577 E0.19685
G1 X2.970 Y-4.026 E0.07054
G1 X18.146 Y11.151 E2.00187
G1 X18.146 Y10.093 E0.09864
G1 X3.503 Y-4.550 E1.93156
G1 X3.902 Y-5.209 E0.07182
G1 X18.146 Y9.036 E1.87894
G1 X18.146 Y7.978 E0.09864
G1 X4.207 Y-5.961 E1.83865
G1 X4.384 Y-6.842 E0.08377
G1 X18.146 Y6.920 E1.81529
G1 X18.146 Y5.863 E0.09864
G1 X4.337 Y-7.947 E1.82154
G1 X0.382 Y-12.959 F9000.000
G1 X18.146 Y4.805 E2.34319 F900.000
G1 X18.146 Y3.748 E0.09864
G1 X1.053 Y-13.346 E2.25475
G1 X1.723 Y-13.733 E0.07221
G1 X18.146 Y2.690 E2.16632
G1 X18.146 Y1.633 E0.09864
G1 X2.393 Y-14.120 E2.07788
G1 X11.044 Y-16.045 F9000.000
G1 X9.098 Y-17.991 E0.25673 F900.000
G1 X8.428 Y-17.604 E0.07221
G1 X10.246 Y-15.786 E0.23988
G1 X9.572 Y-15.402 E0.07233
G1 X7.757 Y-17.217 E0.23942
G1 X7.087 Y-16.830 E0.07221
G1 X8.981 Y-14.936 E0.24988
G1 X8.469 Y-14.390 E0.06978
G1 X6.416 Y-16.443 E0.27076
G1 X5.746 Y-16.056 E0.07221
G1 X8.090 Y-13.712 E0.30919
G1 X7.808 Y-12.936 E0.07697
G1 X5.075 Y-15.669 E0.36043
G1 X4.405 Y-15.282 E0.07221
G1 X7.666 Y-12.020 E0.43016
G1 X7.784 Y-10.845 E0.11020
G1 X3.734 Y-14.894 E0.53416
G1 X3.064 Y-14.507 E0.07221
G1 X18.146 Y0.575 E1.98944
G1 X18.146 Y-0.483 E0.09864
G1 X10.645 Y-7.983 E0.98940
G1 X11.822 Y-7.864 E0.11034
G1 X18.146 Y-1.540 E0.83416
G1 X18.146 Y-2.598 E0.09864
G1 X12.726 Y-8.018 E0.71496
G1 X13.489 Y-8.313 E0.07627
G1 X18.146 Y-3.655 E0.61434
G1 X18.146 Y-4.713 E0.09864
G1 X14.154 Y-8.705 E0.52659
G1 X14.733 Y-9.184 E0.07006
G1 X18.146 Y-5.770 E0.45025
G1 X18.146 Y-6.828 E0.09864
G1 X15.185 Y-9.789 E0.39062
G1 X15.554 Y-10.478 E0.07285
G1 X18.146 Y-7.885 E0.34190
G1 X18.146 Y-8.943 E0.09864
G1 X15.818 Y-11.271 E0.30707
G1 X15.921 Y-12.226 E0.08955
G1 X18.146 Y-10.001 E0.29347
G1 X18.146 Y-11.058 E0.09864
G1 X15.675 Y-13.529 E0.32597
G1 X13.266 Y-15.939 F9000.000
G1 X10.439 Y-18.765 E0.37285 F900.000
G1 X9.769 Y-18.378 E0.07221
G1 X12.018 Y-16.129 E0.29674
G1 X12.920 Y-18.400 F9000.000
G1 X11.780 Y-19.540 E0.15031 F900.000
G1 X11.110 Y-19.152 E0.07221
G1 X18.146 Y-12.116 E0.92818
G1 X18.146 Y-13.173 E0.09864
G1 X14.763 Y-16.556 E0.44623
G1 X16.095 Y-16.282 E0.12684
G1 X18.146 Y-14.231 E0.27054
G1 X18.146 Y-15.288 E0.09864
G1 X17.034 Y-16.401 E0.14674
G1 X17.799 Y-16.693 E0.07641
G1 X18.146 Y-16.346 E0.04579
G1 X8.350 Y9.815 F9000.000
G1 X4.217 Y5.682 E0.54517 F900.000
G1 X4.401 Y6.923 E0.11703
G1 X7.975 Y10.497 E0.47146
G1 X7.742 Y11.322 E0.07990
G1 X4.287 Y7.867 E0.45565
G1 X4.023 Y8.660 E0.07797
G1 X7.666 Y12.304 E0.48057
G1 X7.896 Y13.591 E0.12198
G1 X3.656 Y9.352 E0.55921
G1 X3.166 Y9.919 E0.06994
G1 X12.705 Y19.457 E1.25815
G1 X11.234 Y19.044 E0.14253
G1 X2.587 Y10.397 E1.14060
G1 X1.926 Y10.793 E0.07189
G1 X8.731 Y17.599 E0.89772
G1 X10.166 Y15.861 F9000.000
G1 X12.946 Y18.641 E0.36680 F900.000
G1 X13.315 Y17.953 E0.07288
G1 X11.477 Y16.114 E0.24249
G1 X12.454 Y16.034 E0.09147
G1 X13.781 Y17.361 E0.17508
G1 X14.376 Y16.899 E0.07030
G1 X13.269 Y15.791 E0.14613
G1 X13.977 Y15.442 E0.07366
G1 X15.087 Y16.552 E0.14641
G1 X15.929 Y16.336 E0.08106
G1 X14.556 Y14.963 E0.18111
G1 X15.049 Y14.398 E0.06991
G1 X16.994 Y16.343 E0.25656
G1 X18.146 Y16.438 E0.10787
G1 X15.462 Y13.755 E0.35402
G1 X15.762 Y12.997 E0.07600
G1 X18.146 Y15.381 E0.31446
G1 X18.146 Y14.323 E0.09864
G1 X15.901 Y12.078 E0.29621
G1 X15.815 Y10.935 E0.10689
G1 X18.146 Y13.266 E0.30747
G1 X18.146 Y12.208 E0.09864
G1 X4.916 Y-1.022 E1.74515
G1 X4.916 Y0.035 E0.09864
G1 X12.865 Y7.985 E1.04858
G1 X11.713 Y7.891 E0.10781
G1 X4.916 Y1.093 E0.89663
G1 X4.850 Y2.085 E0.09271
G1 X10.800 Y8.035 E0.78480
G1 X10.021 Y8.313 E0.07715
G1 X3.793 Y2.085 E0.82157
G1 X2.735 Y2.085 E0.09864
G1 X9.374 Y8.724 E0.87573
G1 X8.824 Y9.232 E0.06980
G1 X1.677 Y2.085 E0.94269
G1 X1.660 Y3.125 E0.09705
G1 X0.620 Y2.085 E0.13723
G1 X0.423 Y2.946 E0.08237
G1 X-0.438 Y2.085 E0.11357
G1 X-1.495 Y2.085 E0.09864
G1 X-0.524 Y3.056 E0.12817
G1 X-1.320 Y3.317 E0.07819
G1 X-2.553 Y2.085 E0.16258
G1 X-3.610 Y2.085 E0.09864
G1 X-2.015 Y3.680 E0.21047
G1 X-2.572 Y4.180 E0.06985
G1 X-4.668 Y2.085 E0.27643
G1 X-5.725 Y2.085 E0.09864
