; generated by Slic3r 1.2.9 on 2016-12-06 at 12:44:05

; external perimeters extrusion width = 0.50mm
; perimeters extrusion width = 0.50mm
; infill extrusion width = 0.50mm
; solid infill extrusion width = 0.50mm
; top infill extrusion width = 0.50mm

M107
;Basic settings: Layer height: {layer_height} Walls: {wall_thickness} Fill: {fill_density}
;Print time: {print_time}
;Filament used: {filament_amount}m {filament_weight}g
;Filament cost: {filament_cost}
;M190 S{print_bed_temperature} ;Uncomment to add your own bed temperature line
;M109 S{print_temperature} ;Uncomment to add your own temperature line
G21        ;metric values
G90        ;absolute positioning
M83
G10 P0 S200
T0
M116


G21 ; set units to millimeters
G90 ; use absolute coordinates
M83 ; use relative distances for extrusion
G1 E-2.00000 F3000.00000
G1 Z0.400 F9000.000
G1 X-0.158 Y33.794 F9000.000
G1 Z0.300 F9000.000
G1 E2.00000 F3000.00000
G1 X-23.317 Y33.686 E2.12496 F1200.000
G1 X-24.987 Y33.283 E0.15755
G1 X-26.522 Y31.841 E0.19327
G1 X-37.672 Y12.841 E2.02127
G1 X-38.186 Y10.950 E0.17976
G1 X-38.186 Y-10.950 E2.00934
G1 X-37.672 Y-12.841 E0.17976
G1 X-26.522 Y-31.841 E2.02127
G1 X-25.336 Y-33.082 E0.15755
G1 X-23.317 Y-33.686 E0.19327
G1 X13.213 Y-33.856 E3.35170
G1 X15.098 Y-33.355 E0.17896
G1 X35.588 Y-21.526 E2.17077 F1200.000
G1 X36.838 Y-20.348 E0.15755
G1 X37.455 Y-18.291 E0.19713
G1 X37.455 Y18.291 E3.35633
G1 X37.061 Y19.962 E0.15755
G1 X35.588 Y21.526 E0.19713
G1 X15.098 Y33.355 E2.17077
G1 X13.213 Y33.856 E0.17896
G1 X-0.098 Y33.794 E1.22124
G1 E-2.00000 F3000.00000
G1 Z0.700 F9000.000
G1 X8.210 Y19.405 F9000.000
G1 Z0.300 F9000.000
G1 E2.00000 F3000.00000
G1 X-17.305 Y4.674 E2.70319 F900.000
G1 X-17.383 Y5.287 E0.05673
G1 X-17.489 Y5.556 E0.02652
G1 X-17.659 Y5.790 E0.02654
G1 X-17.882 Y5.974 E0.02652
G1 X-18.144 Y6.097 E0.02654
G1 X-18.428 Y6.151 E0.02654
G1 X-18.716 Y6.133 E0.02652
G1 X-18.991 Y6.044 E0.02652
G1 X-19.235 Y5.889 E0.02655
G1 X-19.433 Y5.678 E0.02652
G1 X-19.573 Y5.425 E0.02654
G1 X-19.645 Y5.145 E0.02653
G1 X-19.645 Y4.855 E0.02653
G1 X-19.573 Y4.575 E0.02653
G1 X-19.433 Y4.322 E0.02654
G1 X-19.084 Y3.950 E0.04680
G1 X-26.959 Y3.950 E0.72257
G1 X-26.959 Y-3.950 E0.72483
G1 X-19.795 Y-3.950 E0.65735
G1 X-20.038 Y-4.391 E0.04621
G1 X-20.141 Y-4.793 E0.03803
G1 X-20.141 Y-5.207 E0.03802
G1 X-20.037 Y-5.609 E0.03805
G1 X-19.838 Y-5.972 E0.03803
G1 X-19.554 Y-6.274 E0.03803
G1 X-19.204 Y-6.496 E0.03803
G1 X-18.810 Y-6.624 E0.03800
G1 X-18.396 Y-6.650 E0.03808
G1 X-17.989 Y-6.573 E0.03801
G1 X-17.614 Y-6.396 E0.03803
G1 X-17.295 Y-6.132 E0.03803
G1 X-17.051 Y-5.797 E0.03803
G1 X-16.898 Y-5.411 E0.03803
G1 X-16.839 Y-4.943 E0.04334 F900.000
G1 X18.706 Y-25.464 E3.76579
G1 X26.950 Y-20.705 E0.87343
G1 X26.950 Y20.705 E3.79933
G1 X18.706 Y25.464 E0.87343
G1 X8.262 Y19.435 E1.10646
G1 X7.864 Y19.605 F9000.000
G1 E-2.00000 F3000.00000
G1 Z0.700 F9000.000
G1 X-33.314 Y-9.814 F9000.000
G1 Z0.300 F9000.000
G1 E2.00000 F3000.00000
G1 X-22.164 Y-9.814 E1.02302 F900.000
G1 X-22.164 Y-28.814 E1.74326
G1 X-2.836 Y-28.814 E1.77342
G1 X-2.836 Y-14.603 E1.30390
G1 X12.642 Y-23.539 E1.63982 F900.000
G1 X13.944 Y-28.397 E0.46140
G1 X18.129 Y-25.981 E0.44335
G1 X-16.345 Y-6.077 E3.65235
G1 X-16.754 Y-6.640 E0.06379
G1 X-17.217 Y-7.022 E0.05508
G1 X-17.760 Y-7.278 E0.05508
G1 X-18.349 Y-7.390 E0.05506
G1 X-18.949 Y-7.353 E0.05513
G1 X-19.520 Y-7.167 E0.05506
G1 X-20.027 Y-6.845 E0.05508
G1 X-20.438 Y-6.408 E0.05508
G1 X-20.727 Y-5.882 E0.05508
G1 X-20.876 Y-5.300 E0.05510
G1 X-20.876 Y-4.686 E0.05638
G1 X-27.695 Y-4.686 E0.62563
G1 X-27.695 Y4.686 E0.85982
G1 X-20.380 Y4.686 E0.67115
G1 X-20.380 Y5.238 E0.05064
G1 X-20.262 Y5.698 E0.04359
G1 X-20.033 Y6.114 E0.04359
G1 X-19.708 Y6.460 E0.04357
G1 X-19.307 Y6.715 E0.04360
G1 X-18.855 Y6.862 E0.04358
G1 X-18.381 Y6.891 E0.04358
G1 X-17.914 Y6.802 E0.04359
G1 X-17.484 Y6.600 E0.04360
G1 X-17.119 Y6.297 E0.04357
G1 X-16.777 Y5.828 E0.05326
G1 X18.129 Y25.981 E3.69811
G1 X13.944 Y28.397 E0.44335
G1 X12.642 Y23.539 E0.46140
G1 X-2.836 Y14.603 E1.63982
G1 X-2.836 Y28.814 E1.30390
G1 X-22.164 Y28.814 E1.77342
G1 X-22.164 Y9.814 E1.74326
G1 X-33.314 Y9.814 E1.02302
G1 X-33.314 Y-9.754 E1.79544
G1 E-2.00000 F3000.00000
G1 Z0.700 F9000.000
G1 X27.686 Y-0.641 F9000.000
G1 Z0.300 F9000.000
G1 E2.00000 F3000.00000
G1 X27.686 Y-20.463 E1.81873 F900.000
G1 X31.870 Y-18.047 E0.44335
G1 X28.314 Y-14.491 E0.46140 F900.000
G1 X28.314 Y14.491 E2.65913
G1 X31.870 Y18.047 E0.46140
G1 X27.686 Y20.463 E0.44335
G1 X27.686 Y-0.581 E1.93077
G1 X29.050 Y-0.581 F9000.000
G1 X29.050 Y14.186 E1.35488 F900.000
G1 X33.068 Y18.205 E0.52141
G1 X13.482 Y29.513 E2.07511
G1 X12.011 Y24.024 E0.52141
G1 X-2.100 Y15.877 E1.49496
G1 X-2.100 Y29.550 E1.25449
G1 X-22.900 Y29.550 E1.90841
G1 X-22.900 Y10.550 E1.74326
G1 X-34.050 Y10.550 E1.02302
G1 X-34.050 Y-10.550 E1.93594
G1 X-22.900 Y-10.550 E1.02302
G1 X-22.900 Y-29.550 E1.74326
G1 X-2.100 Y-29.550 E1.90841
G1 X-2.100 Y-15.877 E1.25449
G1 X12.011 Y-24.024 E1.49496 F900.000
G1 X13.482 Y-29.513 E0.52141
G1 X33.068 Y-18.205 E2.07511
G1 X29.050 Y-14.186 E0.52141
G1 X29.050 Y-0.641 E1.24284
G1 X28.704 Y-0.381 F9000.000
G1 E-2.00000 F3000.00000
G1 Z0.700 F9000.000
G1 X-17.544 Y4.369 F9000.000
G1 Z0.300 F9000.000
G1 E2.00000 F3000.00000
G1 X-17.848 Y3.950 E0.04751 F900.000
G1 X-17.156 Y3.950 E0.06353
G1 X-17.156 Y4.384 E0.03983
G1 X-17.461 Y4.483 E0.02942 F900.000
G1 X-17.509 Y4.417 E0.00746
G1 X-17.381 Y4.003 F9000.000
G1 X-16.897 Y6.614 F9000.000
G1 X-3.285 Y20.226 E1.78043 F900.000
G1 X-3.285 Y21.275 E0.09699
G1 X-17.509 Y7.051 E1.86048
G1 X-18.302 Y7.307 E0.07706
G1 X-3.285 Y22.324 E1.96420
G1 X-3.285 Y23.372 E0.09699
G1 X-19.462 Y7.195 E2.11591
G1 X-20.706 Y5.952 F9000.000
G1 X-21.522 Y5.135 E0.10682 F900.000
G1 X-22.571 Y5.135 E0.09699
G1 X-3.285 Y24.421 E2.52260
G1 X-3.285 Y25.470 E0.09699
G1 X-23.620 Y5.135 E2.65976
G1 X-24.668 Y5.135 E0.09699
G1 X-3.285 Y26.518 E2.79693
G1 X-3.285 Y14.983 F9000.000
G1 X-5.018 Y13.250 E0.22666 F900.000
G1 X-7.499 Y11.818 F9000.000
G1 X-3.285 Y16.032 E0.55119 F900.000
G1 X-3.285 Y17.080 E0.09699
G1 X-9.980 Y10.385 E0.87573
G1 X-12.461 Y8.952 F9000.000
G1 X-3.285 Y18.129 E1.20027 F900.000
G1 X-3.285 Y19.178 E0.09699
G1 X-14.943 Y7.520 E1.52480
G1 X-24.633 Y9.365 F9000.000
G1 X-32.865 Y1.133 E1.07677 F900.000
G1 X-32.865 Y2.182 E0.09699
G1 X-25.682 Y9.365 E0.93960
G1 X-26.730 Y9.365 E0.09699
G1 X-32.865 Y3.230 E0.80243
G1 X-32.865 Y4.279 E0.09699
G1 X-27.779 Y9.365 E0.66527
G1 X-28.828 Y9.365 E0.09699
G1 X-32.865 Y5.328 E0.52810
G1 X-32.865 Y6.376 E0.09699
G1 X-29.876 Y9.365 E0.39094
G1 X-30.925 Y9.365 E0.09699
G1 X-32.865 Y7.425 E0.25377
G1 X-32.865 Y8.474 E0.09699
G1 X-31.974 Y9.365 E0.11661
G1 X-28.144 Y-4.633 F9000.000
G1 X-32.865 Y-9.354 E0.61748 F900.000
G1 X-32.865 Y-8.305 E0.09699
G1 X-28.144 Y-3.584 E0.61748
G1 X-28.144 Y-2.536 E0.09699
G1 X-32.865 Y-7.257 E0.61748
G1 X-32.865 Y-6.208 E0.09699
G1 X-28.144 Y-1.487 E0.61748
G1 X-28.144 Y-0.438 E0.09699
G1 X-32.865 Y-5.159 E0.61748
G1 X-32.865 Y-4.111 E0.09699
G1 X-28.144 Y0.610 E0.61748
G1 X-28.144 Y1.659 E0.09699
G1 X-32.865 Y-3.062 E0.61748
G1 X-32.865 Y-2.013 E0.09699
G1 X-28.144 Y2.708 E0.61748
G1 X-28.144 Y3.756 E0.09699
G1 X-32.865 Y-0.965 E0.61748
G1 X-32.865 Y0.084 E0.09699
G1 X-23.584 Y9.365 E1.21393
G1 X-22.536 Y9.365 E0.09699
G1 X-26.766 Y5.135 E0.55332
G1 X-25.717 Y5.135 E0.09699
G1 X-3.285 Y27.567 E2.93410
G1 X-3.536 Y28.365 E0.07736
G1 X-21.715 Y10.185 E2.37786
G1 X-21.715 Y11.234 E0.09699
G1 X-4.584 Y28.365 E2.24069
G1 X-5.633 Y28.365 E0.09699
G1 X-21.715 Y12.283 E2.10353
G1 X-21.715 Y13.332 E0.09699
G1 X-6.682 Y28.365 E1.96636
G1 X-7.730 Y28.365 E0.09699
G1 X-21.715 Y14.380 E1.82920
G1 X-21.715 Y15.429 E0.09699
G1 X-8.779 Y28.365 E1.69203
G1 X-9.828 Y28.365 E0.09699
G1 X-21.715 Y16.478 E1.55487
G1 X-21.715 Y17.526 E0.09699
G1 X-10.876 Y28.365 E1.41770
G1 X-11.925 Y28.365 E0.09699
G1 X-21.715 Y18.575 E1.28053
G1 X-21.715 Y19.624 E0.09699
G1 X-12.974 Y28.365 E1.14337
G1 X-14.022 Y28.365 E0.09699
G1 X-21.715 Y20.672 E1.00620
G1 X-21.715 Y21.721 E0.09699
G1 X-15.071 Y28.365 E0.86904
G1 X-16.120 Y28.365 E0.09699
G1 X-21.715 Y22.770 E0.73187
G1 X-21.715 Y23.818 E0.09699
G1 X-17.168 Y28.365 E0.59471
G1 X-18.217 Y28.365 E0.09699
G1 X-21.715 Y24.867 E0.45754
G1 X-21.715 Y25.916 E0.09699
G1 X-19.266 Y28.365 E0.32038
G1 X-20.314 Y28.365 E0.09699
G1 X-21.715 Y26.964 E0.18321
G1 X-21.715 Y28.013 E0.09699
G1 X-21.363 Y28.365 E0.04605
G1 E-2.00000 F3000.00000
G1 Z0.700 F9000.000
G1 X-27.597 Y-5.135 F9000.000
G1 Z0.300 F9000.000
G1 E2.00000 F3000.00000
G1 X-31.828 Y-9.365 E0.55332 F900.000
G1 X-30.779 Y-9.365 E0.09699
G1 X-26.549 Y-5.135 E0.55332
G1 X-25.500 Y-5.135 E0.09699
G1 X-29.730 Y-9.365 E0.55332
G1 X-28.682 Y-9.365 E0.09699
G1 X-24.451 Y-5.135 E0.55332
G1 X-23.403 Y-5.135 E0.09699
G1 X-27.633 Y-9.365 E0.55332
G1 X-26.584 Y-9.365 E0.09699
G1 X-22.354 Y-5.135 E0.55332
G1 X-21.325 Y-5.155 E0.09514
G1 X-25.536 Y-9.365 E0.55068
G1 X-24.487 Y-9.365 E0.09699
G1 X-21.115 Y-5.993 E0.44109
G1 X-20.731 Y-6.658 E0.07100
G1 X-23.438 Y-9.365 E0.35413
G1 X-22.390 Y-9.365 E0.09699
G1 X-20.213 Y-7.189 E0.28466
G1 X-19.560 Y-7.584 E0.07064
G1 X-21.715 Y-9.739 E0.28195
G1 X-21.715 Y-10.788 E0.09699
G1 X-18.734 Y-7.807 E0.38997
G1 X-17.619 Y-7.741 E0.10326
G1 X-21.715 Y-11.837 E0.53574
G1 X-21.715 Y-12.886 E0.09699
G1 X-15.720 Y-6.891 E0.78411
G1 X-15.056 Y-7.275 E0.07100
G1 X-21.715 Y-13.934 E0.87107
G1 X-21.715 Y-14.983 E0.09699
G1 X-14.391 Y-7.658 E0.95803
G1 X-13.726 Y-8.042 E0.07100
G1 X-21.715 Y-16.032 E1.04499
G1 X-21.715 Y-17.080 E0.09699
G1 X-13.061 Y-8.426 E1.13195
G1 X-12.396 Y-8.810 E0.07100
G1 X-21.715 Y-18.129 E1.21891
G1 X-21.715 Y-19.178 E0.09699
G1 X-11.731 Y-9.194 E1.30586
G1 X-11.066 Y-9.578 E0.07100
G1 X-21.715 Y-20.226 E1.39282
G1 X-21.715 Y-21.275 E0.09699
G1 X-10.402 Y-9.961 E1.47978
G1 X-9.737 Y-10.345 E0.07100
G1 X-21.715 Y-22.324 E1.56674
G1 X-21.715 Y-23.372 E0.09699
G1 X-9.072 Y-10.729 E1.65370
G1 X-8.407 Y-11.113 E0.07100
G1 X-21.715 Y-24.421 E1.74066
G1 X-21.715 Y-25.470 E0.09699
G1 X-7.742 Y-11.497 E1.82762
G1 X-7.077 Y-11.881 E0.07100
G1 X-21.715 Y-26.518 E1.91458
G1 X-21.715 Y-27.567 E0.09699
G1 X-6.413 Y-12.265 E2.00154
G1 X-5.748 Y-12.648 E0.07100
G1 X-21.465 Y-28.365 E2.05572
G1 X-20.416 Y-28.365 E0.09699
G1 X-5.083 Y-13.032 E2.00551
G1 X-4.418 Y-13.416 E0.07100
G1 X-19.367 Y-28.365 E1.95531
G1 X-18.318 Y-28.365 E0.09699
G1 X-3.753 Y-13.800 E1.90510
G1 X-3.285 Y-14.380 E0.06897
G1 X-17.270 Y-28.365 E1.82920
G1 X-16.221 Y-28.365 E0.09699
G1 X-3.285 Y-15.429 E1.69204
G1 X-3.285 Y-16.478 E0.09699
G1 X-15.172 Y-28.365 E1.55487
G1 X-14.124 Y-28.365 E0.09699
G1 X-3.285 Y-17.526 E1.41771
G1 X-3.285 Y-18.575 E0.09699
G1 X-13.075 Y-28.365 E1.28054
G1 X-12.026 Y-28.365 E0.09699
G1 X-3.285 Y-19.624 E1.14338
G1 X-3.285 Y-20.672 E0.09699
G1 X-10.978 Y-28.365 E1.00621
G1 X-9.929 Y-28.365 E0.09699
G1 X-3.285 Y-21.721 E0.86905
G1 X-3.285 Y-22.770 E0.09699
G1 X-8.880 Y-28.365 E0.73188
G1 X-7.832 Y-28.365 E0.09699
G1 X-3.285 Y-23.818 E0.59471
G1 X-3.285 Y-24.867 E0.09699
G1 X-6.783 Y-28.365 E0.45755
G1 X-5.734 Y-28.365 E0.09699
G1 X-3.285 Y-25.916 E0.32038
G1 X-3.285 Y-26.964 E0.09699
G1 X-4.686 Y-28.365 E0.18322
G1 X-3.637 Y-28.365 E0.09699
G1 X-3.285 Y-28.013 E0.04605
G1 E-2.00000 F3000.00000
G1 Z0.700 F9000.000
G1 X13.235 Y-24.149 F9000.000
G1 Z0.300 F9000.000
G1 E2.00000 F3000.00000
G1 X13.578 Y-23.806 E0.04686 F900.000
G1 X14.272 Y-24.207 E0.07742
G1 X13.466 Y-25.013 E0.11007
G1 X13.697 Y-25.876 E0.08636
G1 X14.966 Y-24.608 E0.17329
G1 X15.660 Y-25.008 E0.07742
G1 X13.929 Y-26.740 E0.23651
G1 X14.171 Y-27.593 E0.08566
G1 X16.355 Y-25.409 E0.29833
G1 X16.668 Y-26.191 E0.08137
G1 X17.034 Y-25.825 E0.05009
G1 X18.785 Y-25.935 F9000.000
G1 X27.318 Y-21.009 E0.90399 F600.000
G1 X31.008 Y-17.757 F9000.000
G1 X30.641 Y-18.124 E0.05812 F900.000
G1 X30.373 Y-17.122 E0.11625
G1 X28.135 Y-19.360 E0.35466
G1 X28.135 Y-18.089 E0.14238
G1 X29.737 Y-16.486 E0.25398
G1 X29.102 Y-15.851 E0.10068
G1 X28.135 Y-16.818 E0.15330
G1 X28.135 Y-15.548 E0.14238
G1 X28.467 Y-15.216 E0.05263
G1 E-2.00000 F3000.00000
G1 Z0.700 F9000.000
G1 X31.008 Y18.069 F9000.000
G1 Z0.300 F9000.000
G1 E2.00000 F3000.00000
G1 X28.155 Y15.216 E0.47548 F900.000
G1 X28.135 Y16.532 E0.15510
G1 X30.176 Y18.573 E0.34010
G1 X29.329 Y19.062 E0.11525
G1 X28.135 Y17.868 E0.19894
G1 X28.135 Y19.204 E0.15744
G1 X28.482 Y19.551 E0.05778
G1 X27.318 Y21.009 F9000.000
G1 X18.785 Y25.935 E0.90399 F600.000
G1 X17.034 Y26.137 F9000.000
G1 X16.668 Y25.770 E0.06112 F900.000
G1 X16.202 Y26.640 E0.11632
G1 X13.506 Y23.945 E0.44921
G1 X13.664 Y25.438 E0.17696
G1 X15.355 Y27.130 E0.28182
G1 X14.508 Y27.619 E0.11525
G1 X14.153 Y27.264 E0.05916
G1 E-2.00000 F3000.00000
G1 Z0.700 F9000.000
G1 X15.927 Y24.190 F9000.000
G1 Z0.600 F9000.000
G1 E2.00000 F3000.00000
G1 X-17.076 Y5.136 E2.07054 F1800.000
G1 X-17.104 Y5.359 E0.01221
G1 X-17.237 Y5.694 E0.01961
G1 X-17.449 Y5.987 E0.01965
G1 X-17.727 Y6.217 E0.01961
G1 X-18.055 Y6.371 E0.01966
G1 X-18.410 Y6.439 E0.01964
G1 X-18.770 Y6.416 E0.01962
G1 X-19.114 Y6.305 E0.01962
G1 X-19.419 Y6.111 E0.01966
G1 X-19.666 Y5.847 E0.01961
G1 X-19.840 Y5.531 E0.01964
G1 X-19.930 Y5.181 E0.01964
G1 X-19.930 Y4.819 E0.01963
G1 X-19.840 Y4.469 E0.01963
G1 X-19.712 Y4.236 E0.01450
G1 X-27.718 Y4.236 E0.43500
G1 X-27.718 Y-4.236 E0.46027
G1 X-20.293 Y-4.236 E0.40345
G1 X-20.426 Y-4.757 E0.02923
G1 X-20.426 Y-5.243 E0.02643
G1 X-20.305 Y-5.715 E0.02647
G1 X-20.071 Y-6.141 E0.02643
G1 X-19.738 Y-6.496 E0.02644
G1 X-19.327 Y-6.757 E0.02644
G1 X-18.865 Y-6.907 E0.02639
G1 X-18.377 Y-6.938 E0.02653
G1 X-17.900 Y-6.846 E0.02641
G1 X-17.460 Y-6.639 E0.02644
G1 X-17.085 Y-6.329 E0.02644
G1 X-16.799 Y-5.935 E0.02644
G1 X-16.593 Y-5.415 E0.03042
G1 X-1.705 Y-14.010 E0.93399
G1 X18.706 Y-25.794 E1.28056 F1800.000
G1 X27.236 Y-20.870 E0.53515
G1 X27.236 Y20.870 E2.26781
G1 X18.706 Y25.794 E0.53515
G1 X15.979 Y24.220 E0.17106
G1 X16.197 Y23.843 F9000.000
G1 X-17.006 Y4.673 E2.08308 F1800.000
G1 X-17.006 Y3.800 E0.04744
G1 X-18.234 Y3.800 E0.06674
G1 X-18.280 Y4.004 E0.01138
G1 X-17.963 Y4.154 E0.01904
G1 X-17.769 Y4.314 E0.01365
G1 X-17.622 Y4.517 E0.01363
G1 X-17.529 Y4.751 E0.01369
G1 X-17.497 Y5.000 E0.01362
G1 X-17.529 Y5.250 E0.01370
G1 X-17.621 Y5.483 E0.01363
G1 X-17.769 Y5.686 E0.01367
G1 X-17.963 Y5.846 E0.01363
G1 X-18.190 Y5.953 E0.01368
G1 X-18.437 Y6.001 E0.01366
G1 X-18.688 Y5.985 E0.01364
G1 X-18.927 Y5.907 E0.01364
G1 X-19.139 Y5.772 E0.01368
G1 X-19.311 Y5.589 E0.01363
G1 X-19.432 Y5.369 E0.01366
G1 X-19.495 Y5.126 E0.01366
G1 X-19.495 Y4.874 E0.01365
G1 X-19.432 Y4.631 E0.01365
G1 X-19.311 Y4.411 E0.01367
G1 X-19.139 Y4.228 E0.01364
G1 X-18.927 Y4.093 E0.01366
G1 X-18.704 Y4.020 E0.01272
G1 X-18.739 Y3.800 E0.01213
G1 X-27.282 Y3.800 E0.46418
G1 X-27.282 Y-3.800 E0.41293
G1 X-19.418 Y-3.800 E0.42729
G1 X-19.715 Y-4.117 E0.02361
G1 X-19.897 Y-4.447 E0.02048
G1 X-19.991 Y-4.812 E0.02046
G1 X-19.991 Y-5.188 E0.02045
G1 X-19.897 Y-5.553 E0.02049
G1 X-19.716 Y-5.883 E0.02045
G1 X-19.458 Y-6.158 E0.02046
G1 X-19.140 Y-6.359 E0.02046
G1 X-18.783 Y-6.476 E0.02041
G1 X-18.405 Y-6.499 E0.02055
G1 X-18.036 Y-6.429 E0.02043
G1 X-17.695 Y-6.269 E0.02046
G1 X-17.405 Y-6.028 E0.02046
G1 X-17.183 Y-5.724 E0.02046
G1 X-17.045 Y-5.374 E0.02046
G1 X-16.998 Y-5.000 E0.02046
G1 X-17.042 Y-4.653 E0.01903
G1 X-1.488 Y-13.633 E0.97582
G1 X18.706 Y-25.291 E1.26690 F1800.000
G1 X26.800 Y-20.618 E0.50782
G1 X26.800 Y20.618 E2.24048
G1 X18.706 Y25.291 E0.50782
G1 X16.249 Y23.873 E0.15414
G1 X15.851 Y24.043 F9000.000
G1 E-2.00000 F3000.00000
G1 Z1.000 F9000.000
G1 X-22.314 Y-20.186 F9000.000
G1 Z0.600 F9000.000
G1 E2.00000 F3000.00000
G1 X-22.314 Y-29.264 E0.49328 F1800.000
G1 X-2.686 Y-29.264 E1.06649
G1 X-2.686 Y-15.209 E0.76366
G1 X12.256 Y-23.836 E0.93741 F1800.000
G1 X13.661 Y-29.080 E0.29497
G1 X32.603 Y-18.144 E1.18839
G1 X28.764 Y-14.305 E0.29497
G1 X28.764 Y14.305 E1.55443
G1 X32.603 Y18.144 E0.29497
G1 X13.661 Y29.080 E1.18839
G1 X12.256 Y23.836 E0.29497
G1 X-2.686 Y15.209 E0.93741
G1 X-2.686 Y29.264 E0.76366
