; generated by Slic3r 1.2.9 on 2016-12-05 at 11:32:15

; external perimeters extrusion width = 0.50mm
; perimeters extrusion width = 0.50mm
; infill extrusion width = 0.50mm
; solid infill extrusion width = 0.50mm
; top infill extrusion width = 0.50mm

M107
;Basic settings: Layer height: {layer_height} Walls: {wall_thickness} Fill: {fill_density}
;Print time: {print_time}
;Filament used: {filament_amount}m {filament_weight}g
;Filament cost: {filament_cost}
;M190 S{print_bed_temperature} ;Uncomment to add your own bed temperature line
;M109 S{print_temperature} ;Uncomment to add your own temperature line
G21        ;metric values
G90        ;absolute positioning
M83
G10 P0 S200
T0
M116


G21 ; set units to millimeters
G90 ; use absolute coordinates
M83 ; use relative distances for extrusion
G1 E-2.00000 F3000.00000
G1 Z0.400 F9000.000
G1 X-13.472 Y13.455 F9000.000
G1 Z0.300 F9000.000
G1 E2.00000 F3000.00000
G1 X-20.965 Y5.953 E0.97288 F1200.000
G1 X-21.783 Y5.084 E0.10944
G1 X-22.333 Y4.327 E0.08591
G1 X-22.852 Y3.382 E0.09889
G1 X-23.197 Y2.512 E0.08591
G1 X-23.465 Y1.468 E0.09889
G1 X-23.582 Y0.539 E0.08591
G1 X-23.582 Y-16.120 E1.52846
G1 X-23.465 Y-17.049 E0.08591
G1 X-23.197 Y-18.093 E0.09889
G1 X-22.852 Y-18.963 E0.08591
G1 X-22.333 Y-19.908 E0.09889
G1 X-21.783 Y-20.666 E0.08591
G1 X-21.045 Y-21.451 E0.09889
G1 X-20.323 Y-22.048 E0.08591
G1 X-19.413 Y-22.626 E0.09889
G1 X-18.566 Y-23.024 E0.08591
G1 X-18.286 Y-23.115 E0.02702
G1 X-17.541 Y-23.357 E0.07187
G1 X-16.621 Y-23.533 E0.08591
G1 X-15.311 Y-23.608 E0.12041
G1 X15.813 Y-23.608 E2.85567
G1 X16.513 Y-23.542 E0.06451
G1 X17.572 Y-23.340 E0.09889 F1200.000
G1 X18.462 Y-23.050 E0.08591
G1 X19.438 Y-22.591 E0.09889
G1 X20.228 Y-22.090 E0.08591
G1 X21.059 Y-21.403 E0.09889
G1 X21.700 Y-20.720 E0.08591
G1 X22.333 Y-19.848 E0.09889
G1 X22.784 Y-19.028 E0.08591
G1 X23.181 Y-18.025 E0.09889
G1 X23.414 Y-17.119 E0.08591
G1 X23.549 Y-16.049 E0.09889
G1 X23.578 Y-15.581 E0.04304
G1 X23.578 Y15.581 E2.85914
G1 X23.549 Y16.049 E0.04304
G1 X23.414 Y17.119 E0.09889
G1 X23.181 Y18.025 E0.08591
G1 X22.784 Y19.028 E0.09889
G1 X22.333 Y19.848 E0.08591
G1 X21.700 Y20.720 E0.09889
G1 X21.059 Y21.403 E0.08591
G1 X20.228 Y22.090 E0.09889
G1 X19.438 Y22.591 E0.08591
G1 X18.462 Y23.050 E0.09889
G1 X17.572 Y23.340 E0.08592
G1 X16.513 Y23.542 E0.09889
G1 X15.813 Y23.608 E0.06451
G1 X0.251 Y23.608 E1.42784
G1 X-1.059 Y23.533 E0.12041
G1 X-1.979 Y23.357 E0.08591
G1 X-3.004 Y23.024 E0.09889
G1 X-3.851 Y22.626 E0.08591
G1 X-4.761 Y22.048 E0.09889
G1 X-5.403 Y21.534 E0.07543
G1 X-13.429 Y13.498 E1.04210
G1 E-2.00000 F3000.00000
G1 Z0.700 F9000.000
G1 X-1.902 Y2.276 F9000.000
G1 Z0.300 F9000.000
G1 E2.00000 F3000.00000
G1 X-2.408 Y1.736 E0.06793 F900.000
G1 X-2.765 Y1.087 E0.06793
G1 X-2.949 Y0.370 E0.06793
G1 X-2.949 Y-0.370 E0.06793
G1 X-2.765 Y-1.087 E0.06793
G1 X-2.408 Y-1.736 E0.06793
G1 X-1.902 Y-2.276 E0.06793
G1 X-1.276 Y-2.672 E0.06793
G1 X-0.572 Y-2.901 E0.06793
G1 X0.167 Y-2.948 E0.06793 F900.000
G1 X0.894 Y-2.809 E0.06793
G1 X1.564 Y-2.494 E0.06793
G1 X2.134 Y-2.022 E0.06793
G1 X2.569 Y-1.423 E0.06793
G1 X2.842 Y-0.735 E0.06793
G1 X2.935 Y-0.000 E0.06793
G1 X2.842 Y0.735 E0.06793
G1 X2.569 Y1.423 E0.06793
G1 X2.134 Y2.022 E0.06793
G1 X1.564 Y2.494 E0.06793
G1 X0.894 Y2.809 E0.06793
G1 X0.167 Y2.948 E0.06793
G1 X-0.572 Y2.901 E0.06793
G1 X-1.276 Y2.672 E0.06793
G1 X-1.851 Y2.308 E0.06242
G1 X-2.282 Y2.399 F9000.000
G1 X1.522 Y3.547 F9000.000
G1 X1.185 Y3.706 E0.03414 F900.000
G1 X0.226 Y3.889 E0.08961
G1 X-0.749 Y3.827 E0.08961
G1 X-1.678 Y3.526 E0.08961
G1 X-2.503 Y3.002 E0.08961
G1 X-3.171 Y2.290 E0.08961
G1 X-3.642 Y1.434 E0.08961
G1 X-3.885 Y0.488 E0.08961
G1 X-3.885 Y-0.488 E0.08961
G1 X-3.642 Y-1.434 E0.08961
G1 X-3.171 Y-2.290 E0.08961
G1 X-2.503 Y-3.002 E0.08961
G1 X-1.678 Y-3.526 E0.08961
G1 X-0.749 Y-3.827 E0.08961
G1 X0.226 Y-3.889 E0.08961
G1 X0.946 Y-3.751 E0.06723
G1 X1.185 Y-3.706 E0.02238 F900.000
G1 X2.069 Y-3.290 E0.08961
G1 X2.821 Y-2.667 E0.08961
G1 X3.396 Y-1.877 E0.08961
G1 X3.755 Y-0.969 E0.08961
G1 X3.878 Y-0.000 E0.08961
G1 X3.755 Y0.969 E0.08961
G1 X3.396 Y1.877 E0.08961
G1 X2.821 Y2.667 E0.08961
G1 X2.069 Y3.290 E0.08961
G1 X1.576 Y3.522 E0.04997
G1 X1.216 Y3.335 F9000.000
G1 E-2.00000 F3000.00000
G1 Z0.700 F9000.000
G1 X-12.720 Y0.735 F9000.000
G1 Z0.300 F9000.000
G1 E2.00000 F3000.00000
G1 X-12.993 Y1.423 E0.06793 F900.000
G1 X-13.428 Y2.022 E0.06793
G1 X-13.998 Y2.494 E0.06793
G1 X-14.668 Y2.809 E0.06793
G1 X-15.396 Y2.948 E0.06793
G1 X-16.135 Y2.901 E0.06793
G1 X-16.839 Y2.672 E0.06793
G1 X-17.464 Y2.276 E0.06793
G1 X-17.971 Y1.736 E0.06793
G1 X-18.327 Y1.087 E0.06793
G1 X-18.511 Y0.370 E0.06793
G1 X-18.511 Y-0.370 E0.06793
G1 X-18.327 Y-1.087 E0.06793
G1 X-17.971 Y-1.736 E0.06793
G1 X-17.464 Y-2.276 E0.06793
G1 X-16.839 Y-2.672 E0.06793
G1 X-16.135 Y-2.901 E0.06793
G1 X-15.396 Y-2.948 E0.06793 F900.000
G1 X-14.668 Y-2.809 E0.06793
G1 X-13.998 Y-2.494 E0.06793
G1 X-13.428 Y-2.022 E0.06793
G1 X-12.993 Y-1.423 E0.06793
G1 X-12.720 Y-0.735 E0.06793
G1 X-12.628 Y-0.000 E0.06793
G1 X-12.713 Y0.675 E0.06242
G1 X-12.446 Y1.026 F9000.000
G1 E-2.00000 F3000.00000
G1 Z0.700 F9000.000
G1 X-17.569 Y-3.317 F9000.000
G1 Z0.300 F9000.000
G1 E2.00000 F3000.00000
G1 X-17.240 Y-3.526 E0.03569 F900.000
G1 X-16.311 Y-3.827 E0.08961
G1 X-15.336 Y-3.889 E0.08961
G1 X-14.617 Y-3.751 E0.06723
G1 X-14.377 Y-3.706 E0.02238 F900.000
G1 X-13.493 Y-3.290 E0.08961
G1 X-12.741 Y-2.667 E0.08961
G1 X-12.167 Y-1.877 E0.08961
G1 X-11.807 Y-0.969 E0.08961
G1 X-11.685 Y-0.000 E0.08961
G1 X-11.807 Y0.969 E0.08961
G1 X-12.167 Y1.877 E0.08961
G1 X-12.741 Y2.667 E0.08961
G1 X-13.493 Y3.290 E0.08961
G1 X-14.377 Y3.706 E0.08961
G1 X-15.336 Y3.889 E0.08961
G1 X-16.311 Y3.827 E0.08961
G1 X-17.240 Y3.526 E0.08961
G1 X-18.065 Y3.002 E0.08961
G1 X-18.733 Y2.290 E0.08961
G1 X-19.204 Y1.434 E0.08961
G1 X-19.447 Y0.488 E0.08961
G1 X-19.447 Y-0.488 E0.08961
G1 X-19.204 Y-1.434 E0.08961
G1 X-18.733 Y-2.290 E0.08961
G1 X-18.065 Y-3.002 E0.08961
G1 X-17.619 Y-3.285 E0.04842
G1 X-17.224 Y-3.137 F9000.000
G1 E-2.00000 F3000.00000
G1 Z0.700 F9000.000
G1 X-16.135 Y-12.680 F9000.000
G1 Z0.300 F9000.000
G1 E2.00000 F3000.00000
G1 X-16.839 Y-12.909 E0.06793 F900.000
G1 X-17.464 Y-13.305 E0.06793
G1 X-17.971 Y-13.845 E0.06793
G1 X-18.327 Y-14.494 E0.06793
G1 X-18.511 Y-15.211 E0.06793
G1 X-18.511 Y-15.951 E0.06793
G1 X-18.327 Y-16.668 E0.06793
G1 X-17.971 Y-17.317 E0.06793
G1 X-17.464 Y-17.857 E0.06793
G1 X-16.839 Y-18.254 E0.06793
G1 X-16.135 Y-18.482 E0.06793
G1 X-15.396 Y-18.529 E0.06793 F900.000
G1 X-14.668 Y-18.390 E0.06793
G1 X-13.998 Y-18.075 E0.06793
G1 X-13.428 Y-17.603 E0.06793
G1 X-12.993 Y-17.004 E0.06793
G1 X-12.720 Y-16.316 E0.06793
G1 X-12.628 Y-15.581 E0.06793
G1 X-12.720 Y-14.847 E0.06793
G1 X-12.993 Y-14.158 E0.06793
G1 X-13.428 Y-13.559 E0.06793
G1 X-13.998 Y-13.087 E0.06793
G1 X-14.668 Y-12.772 E0.06793
G1 X-15.396 Y-12.633 E0.06793
G1 X-16.075 Y-12.676 E0.06242
G1 X-16.408 Y-12.388 F9000.000
G1 E-2.00000 F3000.00000
G1 Z0.700 F9000.000
G1 X-19.447 Y-15.992 F9000.000
G1 Z0.300 F9000.000
G1 E2.00000 F3000.00000
G1 X-19.447 Y-16.069 E0.00714 F900.000
G1 X-19.204 Y-17.015 E0.08961
G1 X-18.733 Y-17.871 E0.08961
G1 X-18.065 Y-18.583 E0.08961
G1 X-17.240 Y-19.107 E0.08961
G1 X-16.311 Y-19.408 E0.08961
G1 X-15.336 Y-19.470 E0.08961
G1 X-14.617 Y-19.332 E0.06723
G1 X-14.377 Y-19.287 E0.02238 F900.000
G1 X-13.493 Y-18.871 E0.08961
G1 X-12.741 Y-18.248 E0.08961
G1 X-12.167 Y-17.458 E0.08961
G1 X-11.807 Y-16.550 E0.08961
G1 X-11.685 Y-15.581 E0.08961
G1 X-11.807 Y-14.612 E0.08961
G1 X-12.167 Y-13.704 E0.08961
G1 X-12.741 Y-12.914 E0.08961
G1 X-13.493 Y-12.291 E0.08961
G1 X-14.377 Y-11.875 E0.08961
G1 X-15.336 Y-11.692 E0.08961
G1 X-16.311 Y-11.754 E0.08961
G1 X-17.240 Y-12.055 E0.08961
G1 X-18.065 Y-12.579 E0.08961
G1 X-18.733 Y-13.291 E0.08961
G1 X-19.204 Y-14.147 E0.08961
G1 X-19.447 Y-15.093 E0.08961
G1 X-19.447 Y-15.932 E0.07697
G1 X-19.379 Y-16.030 F9000.000
G1 E-2.00000 F3000.00000
G1 Z0.700 F9000.000
G1 X-2.949 Y-15.932 F9000.000
G1 Z0.300 F9000.000
G1 E2.00000 F3000.00000
G1 X-2.765 Y-16.668 E0.06968 F900.000
G1 X-2.408 Y-17.317 E0.06793
G1 X-1.902 Y-17.857 E0.06793
G1 X-1.276 Y-18.254 E0.06793
G1 X-0.572 Y-18.482 E0.06793
G1 X0.167 Y-18.529 E0.06793 F900.000
G1 X0.894 Y-18.390 E0.06793
G1 X1.564 Y-18.075 E0.06793
G1 X2.134 Y-17.603 E0.06793
G1 X2.569 Y-17.004 E0.06793
G1 X2.842 Y-16.316 E0.06793
G1 X2.935 Y-15.581 E0.06793
G1 X2.842 Y-14.847 E0.06793
G1 X2.569 Y-14.158 E0.06793
G1 X2.134 Y-13.559 E0.06793
G1 X1.564 Y-13.087 E0.06793
G1 X0.894 Y-12.772 E0.06793
G1 X0.167 Y-12.633 E0.06793
G1 X-0.572 Y-12.680 E0.06793
G1 X-1.276 Y-12.909 E0.06793
G1 X-1.902 Y-13.305 E0.06793
G1 X-2.408 Y-13.845 E0.06793
G1 X-2.765 Y-14.494 E0.06793
G1 X-2.949 Y-15.211 E0.06793
G1 X-2.949 Y-15.872 E0.06062
G1 X-3.258 Y-16.185 F9000.000
G1 E-2.00000 F3000.00000
G1 Z0.700 F9000.000
G1 X1.172 Y-19.289 F9000.000
G1 Z0.300 F9000.000
G1 E2.00000 F3000.00000
G1 X2.069 Y-18.871 E0.09081 F900.000
G1 X2.821 Y-18.248 E0.08961
G1 X3.396 Y-17.458 E0.08961
G1 X3.755 Y-16.550 E0.08961
G1 X3.878 Y-15.581 E0.08961
G1 X3.755 Y-14.612 E0.08961
G1 X3.396 Y-13.704 E0.08961
G1 X2.821 Y-12.914 E0.08961
G1 X2.069 Y-12.291 E0.08961
G1 X1.185 Y-11.875 E0.08961
G1 X0.226 Y-11.692 E0.08961
G1 X-0.749 Y-11.754 E0.08961
G1 X-1.678 Y-12.055 E0.08961
G1 X-2.503 Y-12.579 E0.08961
G1 X-3.171 Y-13.291 E0.08961
G1 X-3.642 Y-14.147 E0.08961
G1 X-3.885 Y-15.093 E0.08961
G1 X-3.885 Y-16.069 E0.08961
G1 X-3.642 Y-17.015 E0.08961
G1 X-3.171 Y-17.871 E0.08961
G1 X-2.503 Y-18.583 E0.08961
G1 X-1.678 Y-19.107 E0.08961
G1 X-0.749 Y-19.408 E0.08961
G1 X0.226 Y-19.470 E0.08961
G1 X0.946 Y-19.332 E0.06723
G1 X1.113 Y-19.301 E0.01565 F900.000
G1 X1.240 Y-18.895 F9000.000
G1 E-2.00000 F3000.00000
G1 Z0.700 F9000.000
G1 X12.708 Y-16.323 F9000.000
G1 Z0.300 F9000.000
G1 E2.00000 F3000.00000
G1 X12.797 Y-16.668 E0.03268 F900.000
G1 X13.154 Y-17.317 E0.06793
G1 X13.661 Y-17.857 E0.06793
G1 X14.286 Y-18.254 E0.06793
G1 X14.990 Y-18.482 E0.06793
G1 X15.729 Y-18.529 E0.06793 F900.000
G1 X16.456 Y-18.390 E0.06793
G1 X17.126 Y-18.075 E0.06793
G1 X17.696 Y-17.603 E0.06793
G1 X18.131 Y-17.004 E0.06793
G1 X18.404 Y-16.316 E0.06793
G1 X18.497 Y-15.581 E0.06793
G1 X18.404 Y-14.847 E0.06793
G1 X18.131 Y-14.158 E0.06793
G1 X17.696 Y-13.559 E0.06793
G1 X17.126 Y-13.087 E0.06793
G1 X16.456 Y-12.772 E0.06793
G1 X15.729 Y-12.633 E0.06793
G1 X14.990 Y-12.680 E0.06793
G1 X14.286 Y-12.909 E0.06793
G1 X13.661 Y-13.305 E0.06793
G1 X13.154 Y-13.845 E0.06793
G1 X12.797 Y-14.494 E0.06793
G1 X12.613 Y-15.211 E0.06793
G1 X12.613 Y-15.951 E0.06793
G1 X12.694 Y-16.265 E0.02974
G1 X12.454 Y-16.573 F9000.000
G1 X11.884 Y-14.289 F9000.000
G1 X11.678 Y-15.093 E0.07617 F900.000
G1 X11.678 Y-16.069 E0.08961
G1 X11.920 Y-17.015 E0.08961
G1 X12.391 Y-17.871 E0.08961
G1 X13.060 Y-18.583 E0.08961
G1 X13.884 Y-19.107 E0.08961
G1 X14.813 Y-19.408 E0.08961
G1 X15.788 Y-19.470 E0.08961
G1 X16.508 Y-19.332 E0.06723
G1 X16.747 Y-19.287 E0.02238 F900.000
G1 X17.631 Y-18.871 E0.08961
G1 X18.384 Y-18.248 E0.08961
G1 X18.958 Y-17.458 E0.08961
G1 X19.317 Y-16.550 E0.08961
G1 X19.440 Y-15.581 E0.08961
G1 X19.317 Y-14.612 E0.08961
G1 X18.958 Y-13.704 E0.08961
G1 X18.384 Y-12.914 E0.08961
G1 X17.631 Y-12.291 E0.08961
G1 X16.747 Y-11.875 E0.08961
G1 X15.788 Y-11.692 E0.08961
G1 X14.813 Y-11.754 E0.08961
G1 X13.884 Y-12.055 E0.08961
G1 X13.060 Y-12.579 E0.08961
G1 X12.391 Y-13.291 E0.08961
G1 X11.920 Y-14.147 E0.08961
G1 X11.899 Y-14.230 E0.00794
G1 X12.170 Y-14.568 F9000.000
G1 E-2.00000 F3000.00000
G1 Z0.700 F9000.000
G1 X14.990 Y-2.901 F9000.000
G1 Z0.300 F9000.000
G1 E2.00000 F3000.00000
G1 X15.729 Y-2.948 E0.06793 F900.000
G1 X16.456 Y-2.809 E0.06793
G1 X17.126 Y-2.494 E0.06793
G1 X17.696 Y-2.022 E0.06793
G1 X18.131 Y-1.423 E0.06793
G1 X18.404 Y-0.735 E0.06793
G1 X18.497 Y-0.000 E0.06793
G1 X18.404 Y0.735 E0.06793
G1 X18.131 Y1.423 E0.06793
G1 X17.696 Y2.022 E0.06793
G1 X17.126 Y2.494 E0.06793
G1 X16.456 Y2.809 E0.06793
G1 X15.729 Y2.948 E0.06793
G1 X14.990 Y2.901 E0.06793
G1 X14.286 Y2.672 E0.06793
G1 X13.661 Y2.276 E0.06793
G1 X13.154 Y1.736 E0.06793
G1 X12.797 Y1.087 E0.06793
G1 X12.613 Y0.370 E0.06793
G1 X12.613 Y-0.370 E0.06793
G1 X12.797 Y-1.087 E0.06793
G1 X13.154 Y-1.736 E0.06793
G1 X13.661 Y-2.276 E0.06793
G1 X14.286 Y-2.672 E0.06793
G1 X14.933 Y-2.883 E0.06242
G1 X15.137 Y-3.273 F9000.000
G1 E-2.00000 F3000.00000
G1 Z0.700 F9000.000
G1 X17.887 Y3.078 F9000.000
G1 Z0.300 F9000.000
G1 E2.00000 F3000.00000
G1 X17.631 Y3.290 E0.03049 F900.000
G1 X16.747 Y3.706 E0.08961
G1 X15.788 Y3.889 E0.08961
G1 X14.813 Y3.827 E0.08961
G1 X13.884 Y3.526 E0.08961
G1 X13.060 Y3.002 E0.08961
G1 X12.391 Y2.290 E0.08961
G1 X11.920 Y1.434 E0.08961
G1 X11.678 Y0.488 E0.08961
G1 X11.678 Y-0.488 E0.08961
G1 X11.920 Y-1.434 E0.08961
G1 X12.391 Y-2.290 E0.08961
G1 X13.060 Y-3.002 E0.08961
G1 X13.884 Y-3.526 E0.08961
G1 X14.813 Y-3.827 E0.08961
G1 X15.788 Y-3.889 E0.08961
G1 X16.508 Y-3.751 E0.06723
G1 X16.747 Y-3.706 E0.02238 F900.000
G1 X17.631 Y-3.290 E0.08961
G1 X18.384 Y-2.667 E0.08961
G1 X18.958 Y-1.877 E0.08961
G1 X19.317 Y-0.969 E0.08961
G1 X19.440 Y-0.000 E0.08961
G1 X19.317 Y0.969 E0.08961
G1 X18.958 Y1.877 E0.08961
G1 X18.384 Y2.667 E0.08961
G1 X17.933 Y3.040 E0.05362
G1 X17.576 Y2.962 F9000.000
G1 E-2.00000 F3000.00000
G1 Z0.700 F9000.000
G1 X16.090 Y12.702 F9000.000
G1 Z0.300 F9000.000
G1 E2.00000 F3000.00000
G1 X16.456 Y12.772 E0.03417 F900.000
G1 X17.126 Y13.087 E0.06793
G1 X17.696 Y13.559 E0.06793
G1 X18.131 Y14.158 E0.06793
G1 X18.404 Y14.847 E0.06793
G1 X18.497 Y15.581 E0.06793
G1 X18.404 Y16.316 E0.06793
G1 X18.131 Y17.004 E0.06793
G1 X17.696 Y17.603 E0.06793
G1 X17.126 Y18.075 E0.06793
G1 X16.456 Y18.390 E0.06793
G1 X15.729 Y18.529 E0.06793
G1 X14.990 Y18.482 E0.06793
G1 X14.286 Y18.254 E0.06793
G1 X13.661 Y17.857 E0.06793
G1 X13.154 Y17.317 E0.06793
G1 X12.797 Y16.668 E0.06793
G1 X12.613 Y15.951 E0.06793
G1 X12.613 Y15.211 E0.06793
G1 X12.797 Y14.494 E0.06793
G1 X13.154 Y13.845 E0.06793
G1 X13.661 Y13.305 E0.06793
G1 X14.286 Y12.909 E0.06793
G1 X14.990 Y12.680 E0.06793
G1 X15.729 Y12.633 E0.06793 F900.000
G1 X16.031 Y12.691 E0.02825
G1 X16.333 Y12.420 F9000.000
G1 X15.071 Y11.737 F9000.000
G1 X15.788 Y11.692 E0.06595 F900.000
G1 X16.508 Y11.830 E0.06723
G1 X16.747 Y11.875 E0.02238 F900.000
G1 X17.631 Y12.291 E0.08961
G1 X18.384 Y12.914 E0.08961
G1 X18.958 Y13.704 E0.08961
G1 X19.317 Y14.612 E0.08961
G1 X19.440 Y15.581 E0.08961
G1 X19.317 Y16.550 E0.08961
G1 X18.958 Y17.458 E0.08961
G1 X18.384 Y18.248 E0.08961
G1 X17.631 Y18.871 E0.08961
G1 X16.747 Y19.287 E0.08961
G1 X15.788 Y19.470 E0.08961
G1 X14.813 Y19.408 E0.08961
G1 X13.884 Y19.107 E0.08961
G1 X13.060 Y18.583 E0.08961
G1 X12.391 Y17.871 E0.08961
G1 X11.920 Y17.015 E0.08961
G1 X11.678 Y16.069 E0.08961
G1 X11.678 Y15.093 E0.08961
G1 X11.920 Y14.147 E0.08961
G1 X12.391 Y13.291 E0.08961
G1 X13.060 Y12.579 E0.08961
G1 X13.884 Y12.055 E0.08961
G1 X14.813 Y11.754 E0.08961
G1 X15.011 Y11.741 E0.01816
G1 X15.292 Y12.071 F9000.000
G1 E-2.00000 F3000.00000
G1 Z0.700 F9000.000
G1 X2.842 Y14.847 F9000.000
G1 Z0.300 F9000.000
G1 E2.00000 F3000.00000
G1 X2.935 Y15.581 E0.06793 F900.000
G1 X2.842 Y16.316 E0.06793
G1 X2.569 Y17.004 E0.06793
G1 X2.134 Y17.603 E0.06793
G1 X1.564 Y18.075 E0.06793
G1 X0.894 Y18.390 E0.06793
G1 X0.167 Y18.529 E0.06793
G1 X-0.572 Y18.482 E0.06793
G1 X-1.276 Y18.254 E0.06793
G1 X-1.902 Y17.857 E0.06793
G1 X-2.408 Y17.317 E0.06793
G1 X-2.765 Y16.668 E0.06793
G1 X-2.949 Y15.951 E0.06793
G1 X-2.949 Y15.211 E0.06793
G1 X-2.765 Y14.494 E0.06793
G1 X-2.408 Y13.845 E0.06793
G1 X-1.902 Y13.305 E0.06793
G1 X-1.276 Y12.909 E0.06793
G1 X-0.572 Y12.680 E0.06793
G1 X0.167 Y12.633 E0.06793 F900.000
G1 X0.894 Y12.772 E0.06793
G1 X1.564 Y13.087 E0.06793
G1 X2.134 Y13.559 E0.06793
G1 X2.569 Y14.158 E0.06793
G1 X2.820 Y14.791 E0.06242
G1 X3.222 Y14.970 F9000.000
G1 E-2.00000 F3000.00000
G1 Z0.700 F9000.000
G1 X-0.537 Y11.740 F9000.000
G1 Z0.300 F9000.000
G1 E2.00000 F3000.00000
G1 X0.226 Y11.692 E0.07009 F900.000
