; generated by Slic3r 1.2.9 on 2016-12-05 at 10:09:53

; external perimeters extrusion width = 0.50mm
; perimeters extrusion width = 0.50mm
; infill extrusion width = 0.50mm
; solid infill extrusion width = 0.50mm
; top infill extrusion width = 0.50mm

M107
;Basic settings: Layer height: {layer_height} Walls: {wall_thickness} Fill: {fill_density}
;Print time: {print_time}
;Filament used: {filament_amount}m {filament_weight}g
;Filament cost: {filament_cost}
;M190 S{print_bed_temperature} ;Uncomment to add your own bed temperature line
;M109 S{print_temperature} ;Uncomment to add your own temperature line
G21        ;metric values
G90        ;absolute positioning
M83
G10 P0 S200
T0
M116


G21 ; set units to millimeters
G90 ; use absolute coordinates
M83 ; use relative distances for extrusion
G1 E-3.20000 F3000.00000
G1 Z0.400 F9000.000
G1 X-13.472 Y13.455 F9000.000
G1 Z0.300 F9000.000
G1 E3.20000 F3000.00000
G1 X-20.965 Y5.953 E0.97288 F1200.000
G1 X-21.783 Y5.084 E0.10944
G1 X-22.333 Y4.327 E0.08591
G1 X-22.852 Y3.382 E0.09889
G1 X-23.197 Y2.512 E0.08591
G1 X-23.465 Y1.468 E0.09889
G1 X-23.582 Y0.539 E0.08591
G1 X-23.582 Y-16.120 E1.52846
G1 X-23.465 Y-17.049 E0.08591
G1 X-23.197 Y-18.093 E0.09889
G1 X-22.852 Y-18.963 E0.08591
G1 X-22.333 Y-19.908 E0.09889
G1 X-21.783 Y-20.666 E0.08591
G1 X-21.045 Y-21.451 E0.09889
G1 X-20.323 Y-22.048 E0.08591
G1 X-19.413 Y-22.626 E0.09889
G1 X-18.566 Y-23.024 E0.08591
G1 X-18.286 Y-23.115 E0.02702
G1 X-17.541 Y-23.357 E0.07187
G1 X-16.621 Y-23.533 E0.08591
G1 X-15.311 Y-23.608 E0.12041
G1 X15.813 Y-23.608 E2.85567
G1 X16.513 Y-23.542 E0.06451
G1 X17.572 Y-23.340 E0.09889 F1200.000
G1 X18.462 Y-23.050 E0.08591
G1 X19.438 Y-22.591 E0.09889
G1 X20.228 Y-22.090 E0.08591
G1 X21.059 Y-21.403 E0.09889
G1 X21.700 Y-20.720 E0.08591
G1 X22.333 Y-19.848 E0.09889
G1 X22.784 Y-19.028 E0.08591
G1 X23.181 Y-18.025 E0.09889
G1 X23.414 Y-17.119 E0.08591
G1 X23.549 Y-16.049 E0.09889
G1 X23.578 Y-15.581 E0.04304
G1 X23.578 Y15.581 E2.85914
G1 X23.549 Y16.049 E0.04304
G1 X23.414 Y17.119 E0.09889
G1 X23.181 Y18.025 E0.08591
G1 X22.784 Y19.028 E0.09889
G1 X22.333 Y19.848 E0.08591
G1 X21.700 Y20.720 E0.09889
G1 X21.059 Y21.403 E0.08591
G1 X20.228 Y22.090 E0.09889
G1 X19.438 Y22.591 E0.08591
G1 X18.462 Y23.050 E0.09889
G1 X17.572 Y23.340 E0.08592
G1 X16.513 Y23.542 E0.09889
G1 X15.813 Y23.608 E0.06451
G1 X0.251 Y23.608 E1.42784
G1 X-1.059 Y23.533 E0.12041
G1 X-1.979 Y23.357 E0.08591
G1 X-3.004 Y23.024 E0.09889
G1 X-3.851 Y22.626 E0.08591
G1 X-4.761 Y22.048 E0.09889
G1 X-5.403 Y21.534 E0.07543
G1 X-13.429 Y13.498 E1.04210
G1 E-3.20000 F3000.00000
G1 Z0.700 F9000.000
G1 X-1.902 Y2.276 F9000.000
G1 Z0.300 F9000.000
G1 E3.20000 F3000.00000
G1 X-2.408 Y1.736 E0.06793 F900.000
G1 X-2.765 Y1.087 E0.06793
G1 X-2.949 Y0.370 E0.06793
G1 X-2.949 Y-0.370 E0.06793
G1 X-2.765 Y-1.087 E0.06793
G1 X-2.408 Y-1.736 E0.06793
G1 X-1.902 Y-2.276 E0.06793
G1 X-1.276 Y-2.672 E0.06793
G1 X-0.572 Y-2.901 E0.06793
G1 X0.167 Y-2.948 E0.06793 F900.000
G1 X0.894 Y-2.809 E0.06793
G1 X1.564 Y-2.494 E0.06793
G1 X2.134 Y-2.022 E0.06793
G1 X2.569 Y-1.423 E0.06793
G1 X2.842 Y-0.735 E0.06793
G1 X2.935 Y-0.000 E0.06793
G1 X2.842 Y0.735 E0.06793
G1 X2.569 Y1.423 E0.06793
G1 X2.134 Y2.022 E0.06793
G1 X1.564 Y2.494 E0.06793
G1 X0.894 Y2.809 E0.06793
G1 X0.167 Y2.948 E0.06793
G1 X-0.572 Y2.901 E0.06793
G1 X-1.276 Y2.672 E0.06793
G1 X-1.851 Y2.308 E0.06242
G1 X-2.282 Y2.399 F9000.000
G1 E-3.20000 F3000.00000
G1 Z0.700 F9000.000
G1 X3.537 Y1.520 F9000.000
G1 Z0.300 F9000.000
G1 E3.20000 F3000.00000
G1 X3.396 Y1.877 E0.03520 F900.000
G1 X2.821 Y2.667 E0.08961
G1 X2.069 Y3.290 E0.08961
G1 X1.185 Y3.706 E0.08961
G1 X0.226 Y3.889 E0.08961
G1 X-0.749 Y3.827 E0.08961
G1 X-1.678 Y3.526 E0.08961
G1 X-2.503 Y3.002 E0.08961
G1 X-3.171 Y2.290 E0.08961
G1 X-3.642 Y1.434 E0.08961
G1 X-3.885 Y0.488 E0.08961
G1 X-3.885 Y-0.488 E0.08961
G1 X-3.642 Y-1.434 E0.08961
G1 X-3.171 Y-2.290 E0.08961
G1 X-2.503 Y-3.002 E0.08961
G1 X-1.678 Y-3.526 E0.08961
G1 X-0.749 Y-3.827 E0.08961
G1 X0.226 Y-3.889 E0.08961
G1 X0.946 Y-3.751 E0.06723
G1 X1.185 Y-3.706 E0.02238 F900.000
G1 X2.069 Y-3.290 E0.08961
G1 X2.821 Y-2.667 E0.08961
G1 X3.396 Y-1.877 E0.08961
G1 X3.755 Y-0.969 E0.08961
G1 X3.877 Y-0.000 E0.08961
G1 X3.755 Y0.969 E0.08961
G1 X3.559 Y1.465 E0.04891
G1 X3.157 Y1.576 F9000.000
G1 X3.124 Y1.292 F9000.000
G1 X2.982 Y1.650 E0.03528 F600.000
G1 X2.478 Y2.344 E0.07876
G1 X1.816 Y2.891 E0.07876
G1 X1.039 Y3.257 E0.07876
G1 X0.209 Y3.416 E0.07761
G1 X-0.661 Y3.364 E0.07989
G1 X-1.477 Y3.099 E0.07876
G1 X-2.191 Y2.646 E0.07761
G1 X-2.789 Y2.013 E0.07989
G1 X-3.207 Y1.249 E0.07989
G1 X-3.417 Y0.429 E0.07761
G1 X-3.417 Y-0.429 E0.07876
G1 X-3.203 Y-1.261 E0.07876 F600.000
G1 X-2.796 Y-2.002 E0.07761
G1 X-2.191 Y-2.646 E0.08101
G1 X-1.477 Y-3.099 E0.07761
G1 X-0.661 Y-3.364 E0.07876
G1 X0.196 Y-3.418 E0.07876
G1 X1.039 Y-3.257 E0.07876
G1 X1.816 Y-2.891 E0.07876
G1 X2.468 Y-2.353 E0.07761
G1 X2.982 Y-1.650 E0.07989
G1 X3.298 Y-0.852 E0.07876
G1 X3.406 Y-0.000 E0.07876
G1 X3.298 Y0.852 E0.07876
G1 X3.146 Y1.237 E0.03798
G1 E-3.20000 F3000.00000
G1 Z0.700 F9000.000
G1 X-12.628 Y-0.000 F9000.000
G1 Z0.300 F9000.000
G1 E3.20000 F3000.00000
G1 X-12.720 Y0.735 E0.06793 F900.000
G1 X-12.993 Y1.423 E0.06793
G1 X-13.428 Y2.022 E0.06793
G1 X-13.998 Y2.494 E0.06793
G1 X-14.668 Y2.809 E0.06793
G1 X-15.396 Y2.948 E0.06793
G1 X-16.135 Y2.901 E0.06793
G1 X-16.839 Y2.672 E0.06793
G1 X-17.464 Y2.276 E0.06793
G1 X-17.971 Y1.736 E0.06793
G1 X-18.327 Y1.087 E0.06793
G1 X-18.511 Y0.370 E0.06793
G1 X-18.511 Y-0.370 E0.06793
G1 X-18.327 Y-1.087 E0.06793
G1 X-17.971 Y-1.736 E0.06793
G1 X-17.464 Y-2.276 E0.06793
G1 X-16.839 Y-2.672 E0.06793
G1 X-16.135 Y-2.901 E0.06793
G1 X-15.396 Y-2.948 E0.06793 F900.000
G1 X-14.668 Y-2.809 E0.06793
G1 X-13.998 Y-2.494 E0.06793
G1 X-13.428 Y-2.022 E0.06793
G1 X-12.993 Y-1.423 E0.06793
G1 X-12.720 Y-0.735 E0.06793
G1 X-12.635 Y-0.060 E0.06242
G1 X-12.290 Y0.214 F9000.000
G1 X-11.908 Y1.225 F9000.000
G1 X-12.167 Y1.877 E0.06436 F900.000
G1 X-12.741 Y2.667 E0.08961
G1 X-13.493 Y3.290 E0.08961
G1 X-14.377 Y3.706 E0.08961
G1 X-15.336 Y3.889 E0.08961
G1 X-16.311 Y3.827 E0.08961
G1 X-17.240 Y3.526 E0.08961
G1 X-18.065 Y3.002 E0.08961
G1 X-18.733 Y2.290 E0.08961
G1 X-19.204 Y1.434 E0.08961
G1 X-19.447 Y0.488 E0.08961
G1 X-19.447 Y-0.488 E0.08961
G1 X-19.204 Y-1.434 E0.08961
G1 X-18.733 Y-2.290 E0.08961
G1 X-18.065 Y-3.002 E0.08961
G1 X-17.240 Y-3.526 E0.08961
G1 X-16.311 Y-3.827 E0.08961
G1 X-15.336 Y-3.889 E0.08961
G1 X-14.617 Y-3.751 E0.06723
G1 X-14.377 Y-3.706 E0.02238 F900.000
G1 X-13.493 Y-3.290 E0.08961
G1 X-12.741 Y-2.667 E0.08961
G1 X-12.167 Y-1.877 E0.08961
G1 X-11.807 Y-0.969 E0.08961
G1 X-11.685 Y-0.000 E0.08961
G1 X-11.807 Y0.969 E0.08961
G1 X-11.886 Y1.169 E0.01974
G1 X-12.304 Y1.283 F9000.000
G1 X-12.321 Y0.997 F9000.000
G1 X-12.580 Y1.650 E0.06444 F600.000
G1 X-13.077 Y2.334 E0.07761
G1 X-13.746 Y2.891 E0.07989
G1 X-14.523 Y3.257 E0.07876
G1 X-15.354 Y3.416 E0.07761
G1 X-16.223 Y3.364 E0.07989
G1 X-17.039 Y3.099 E0.07876
G1 X-17.754 Y2.646 E0.07761
G1 X-18.352 Y2.013 E0.07989
G1 X-18.769 Y1.249 E0.07989
G1 X-18.979 Y0.429 E0.07761
G1 X-18.979 Y-0.429 E0.07876
G1 X-18.765 Y-1.261 E0.07876 F600.000
G1 X-18.358 Y-2.002 E0.07761
G1 X-17.754 Y-2.646 E0.08101
G1 X-17.039 Y-3.099 E0.07761
G1 X-16.223 Y-3.364 E0.07876
G1 X-15.366 Y-3.418 E0.07876
G1 X-14.535 Y-3.260 E0.07761
G1 X-13.736 Y-2.884 E0.08101
G1 X-13.085 Y-2.344 E0.07761
G1 X-12.580 Y-1.650 E0.07876
G1 X-12.264 Y-0.852 E0.07876
G1 X-12.158 Y-0.013 E0.07761
G1 X-12.262 Y0.839 E0.07873
G1 X-12.299 Y0.941 E0.00994
G1 E-3.20000 F3000.00000
G1 Z0.700 F9000.000
G1 X-14.906 Y-12.727 F9000.000
G1 Z0.300 F9000.000
G1 E3.20000 F3000.00000
G1 X-15.396 Y-12.633 E0.04570 F900.000
G1 X-16.135 Y-12.680 E0.06793
G1 X-16.839 Y-12.909 E0.06793
G1 X-17.464 Y-13.305 E0.06793
G1 X-17.971 Y-13.845 E0.06793
G1 X-18.327 Y-14.494 E0.06793
G1 X-18.511 Y-15.211 E0.06793
G1 X-18.511 Y-15.951 E0.06793
G1 X-18.327 Y-16.668 E0.06793
G1 X-17.971 Y-17.317 E0.06793
G1 X-17.464 Y-17.857 E0.06793
G1 X-16.839 Y-18.254 E0.06793
G1 X-16.135 Y-18.482 E0.06793
G1 X-15.396 Y-18.529 E0.06793 F900.000
G1 X-14.668 Y-18.390 E0.06793
G1 X-13.998 Y-18.075 E0.06793
G1 X-13.428 Y-17.603 E0.06793
G1 X-12.993 Y-17.004 E0.06793
G1 X-12.720 Y-16.316 E0.06793
G1 X-12.628 Y-15.581 E0.06793
G1 X-12.720 Y-14.847 E0.06793
G1 X-12.993 Y-14.158 E0.06793
G1 X-13.428 Y-13.559 E0.06793
G1 X-13.998 Y-13.087 E0.06793
G1 X-14.668 Y-12.772 E0.06793
G1 X-14.847 Y-12.738 E0.01673
G1 X-15.038 Y-12.349 F9000.000
G1 E-3.20000 F3000.00000
G1 Z0.700 F9000.000
G1 X-18.898 Y-17.571 F9000.000
G1 Z0.300 F9000.000
G1 E3.20000 F3000.00000
G1 X-18.733 Y-17.871 E0.03141 F900.000
G1 X-18.065 Y-18.583 E0.08961
G1 X-17.240 Y-19.107 E0.08961
G1 X-16.311 Y-19.408 E0.08961
G1 X-15.336 Y-19.470 E0.08961
G1 X-14.617 Y-19.332 E0.06723
G1 X-14.377 Y-19.287 E0.02238 F900.000
G1 X-13.493 Y-18.871 E0.08961
G1 X-12.741 Y-18.248 E0.08961
G1 X-12.167 Y-17.458 E0.08961
G1 X-11.807 Y-16.550 E0.08961
G1 X-11.685 Y-15.581 E0.08961
G1 X-11.807 Y-14.612 E0.08961
G1 X-12.167 Y-13.704 E0.08961
G1 X-12.741 Y-12.914 E0.08961
G1 X-13.493 Y-12.291 E0.08961
G1 X-14.377 Y-11.875 E0.08961
G1 X-15.336 Y-11.692 E0.08961
G1 X-16.311 Y-11.754 E0.08961
G1 X-17.240 Y-12.055 E0.08961
G1 X-18.065 Y-12.579 E0.08961
G1 X-18.733 Y-13.291 E0.08961
G1 X-19.204 Y-14.147 E0.08961
G1 X-19.447 Y-15.093 E0.08961
G1 X-19.447 Y-16.069 E0.08961
G1 X-19.204 Y-17.015 E0.08961
G1 X-18.927 Y-17.519 E0.05270
G1 X-18.556 Y-17.579 F9000.000
G1 X-18.517 Y-17.293 F9000.000
G1 X-18.352 Y-17.594 E0.03149 F600.000
G1 X-17.764 Y-18.220 E0.07876
G1 X-17.039 Y-18.680 E0.07876
G1 X-16.210 Y-18.946 E0.07989
G1 X-15.366 Y-18.999 E0.07761
G1 X-14.523 Y-18.838 E0.07876
G1 X-13.746 Y-18.473 E0.07876
G1 X-13.094 Y-17.934 E0.07761
G1 X-12.580 Y-17.231 E0.07989
G1 X-12.262 Y-16.420 E0.07989
G1 X-12.156 Y-15.581 E0.07761
G1 X-12.264 Y-14.729 E0.07876
G1 X-12.580 Y-13.931 E0.07876
G1 X-13.077 Y-13.247 E0.07761
G1 X-13.746 Y-12.690 E0.07989
G1 X-14.523 Y-12.324 E0.07876
G1 X-15.354 Y-12.165 E0.07761
G1 X-16.223 Y-12.217 E0.07989
G1 X-17.039 Y-12.482 E0.07876
G1 X-17.754 Y-12.935 E0.07761
G1 X-18.352 Y-13.568 E0.07989
G1 X-18.769 Y-14.332 E0.07989
G1 X-18.979 Y-15.152 E0.07761
G1 X-18.979 Y-16.010 E0.07876
G1 X-18.765 Y-16.842 E0.07876 F600.000
G1 X-18.546 Y-17.241 E0.04177
G1 E-3.20000 F3000.00000
G1 Z0.700 F9000.000
G1 X-2.949 Y-15.951 F9000.000
G1 Z0.300 F9000.000
G1 E3.20000 F3000.00000
G1 X-2.765 Y-16.668 E0.06793 F900.000
G1 X-2.408 Y-17.317 E0.06793
G1 X-1.902 Y-17.857 E0.06793
G1 X-1.276 Y-18.254 E0.06793
G1 X-0.572 Y-18.482 E0.06793
G1 X0.167 Y-18.529 E0.06793 F900.000
G1 X0.894 Y-18.390 E0.06793
G1 X1.564 Y-18.075 E0.06793
G1 X2.134 Y-17.603 E0.06793
G1 X2.569 Y-17.004 E0.06793
G1 X2.842 Y-16.316 E0.06793
G1 X2.935 Y-15.581 E0.06793
G1 X2.842 Y-14.847 E0.06793
G1 X2.569 Y-14.158 E0.06793
G1 X2.134 Y-13.559 E0.06793
G1 X1.564 Y-13.087 E0.06793
G1 X0.894 Y-12.772 E0.06793
G1 X0.167 Y-12.633 E0.06793
G1 X-0.572 Y-12.680 E0.06793
G1 X-1.276 Y-12.909 E0.06793
G1 X-1.902 Y-13.305 E0.06793
G1 X-2.408 Y-13.845 E0.06793
G1 X-2.765 Y-14.494 E0.06793
G1 X-2.949 Y-15.211 E0.06793
G1 X-2.949 Y-15.891 E0.06242
G1 X-3.257 Y-16.206 F9000.000
G1 E-3.20000 F3000.00000
G1 Z0.700 F9000.000
G1 X1.301 Y-11.930 F9000.000
G1 Z0.300 F9000.000
G1 E3.20000 F3000.00000
G1 X1.185 Y-11.875 E0.01179 F900.000
G1 X0.226 Y-11.692 E0.08961
G1 X-0.749 Y-11.754 E0.08961
G1 X-1.678 Y-12.055 E0.08961
G1 X-2.503 Y-12.579 E0.08961
G1 X-3.171 Y-13.291 E0.08961
G1 X-3.642 Y-14.147 E0.08961
G1 X-3.885 Y-15.093 E0.08961
G1 X-3.885 Y-16.069 E0.08961
G1 X-3.642 Y-17.015 E0.08961
G1 X-3.171 Y-17.871 E0.08961
G1 X-2.503 Y-18.583 E0.08961
G1 X-1.678 Y-19.107 E0.08961
G1 X-0.749 Y-19.408 E0.08961
G1 X0.226 Y-19.470 E0.08961
G1 X0.946 Y-19.332 E0.06723
G1 X1.185 Y-19.287 E0.02238 F900.000
G1 X2.069 Y-18.871 E0.08961
G1 X2.821 Y-18.248 E0.08961
G1 X3.396 Y-17.458 E0.08961
G1 X3.755 Y-16.550 E0.08961
G1 X3.877 Y-15.581 E0.08961
G1 X3.755 Y-14.612 E0.08961
G1 X3.396 Y-13.704 E0.08961
G1 X2.821 Y-12.914 E0.08961
G1 X2.069 Y-12.291 E0.08961
G1 X1.356 Y-11.956 E0.07232
G1 X1.196 Y-12.003 F9000.000
G1 X1.157 Y-12.379 F9000.000
G1 X1.039 Y-12.324 E0.01187 F600.000
G1 X0.196 Y-12.163 E0.07876
G1 X-0.661 Y-12.217 E0.07876
G1 X-1.477 Y-12.482 E0.07876
G1 X-2.202 Y-12.942 E0.07876
G1 X-2.789 Y-13.568 E0.07876
G1 X-3.203 Y-14.320 E0.07876
G1 X-3.417 Y-15.152 E0.07876
G1 X-3.417 Y-16.010 E0.07876
G1 X-3.203 Y-16.842 E0.07876 F600.000
G1 X-2.789 Y-17.594 E0.07876
G1 X-2.202 Y-18.220 E0.07876
G1 X-1.477 Y-18.680 E0.07876
G1 X-0.661 Y-18.945 E0.07876
G1 X0.196 Y-18.999 E0.07876
G1 X1.039 Y-18.838 E0.07876
G1 X1.826 Y-18.465 E0.07989
G1 X2.477 Y-17.925 E0.07761
G1 X2.982 Y-17.231 E0.07876
G1 X3.298 Y-16.433 E0.07876
G1 X3.404 Y-15.569 E0.07989
G1 X3.298 Y-14.729 E0.07761
G1 X2.975 Y-13.921 E0.07989
G1 X2.468 Y-13.228 E0.07874
G1 X1.816 Y-12.690 E0.07761
G1 X1.211 Y-12.404 E0.06139
G1 E-3.20000 F3000.00000
G1 Z0.700 F9000.000
G1 X12.613 Y-15.211 F9000.000
G1 Z0.300 F9000.000
G1 E3.20000 F3000.00000
G1 X12.613 Y-15.951 E0.06793 F900.000
G1 X12.797 Y-16.668 E0.06793
G1 X13.154 Y-17.317 E0.06793
G1 X13.661 Y-17.857 E0.06793
G1 X14.286 Y-18.254 E0.06793
G1 X14.990 Y-18.482 E0.06793
G1 X15.729 Y-18.529 E0.06793 F900.000
G1 X16.456 Y-18.390 E0.06793
G1 X17.126 Y-18.075 E0.06793
G1 X17.696 Y-17.603 E0.06793
G1 X18.131 Y-17.004 E0.06793
G1 X18.404 Y-16.316 E0.06793
G1 X18.497 Y-15.581 E0.06793
G1 X18.404 Y-14.847 E0.06793
G1 X18.131 Y-14.158 E0.06793
G1 X17.696 Y-13.559 E0.06793
G1 X17.126 Y-13.087 E0.06793
G1 X16.456 Y-12.772 E0.06793
G1 X15.729 Y-12.633 E0.06793
G1 X14.990 Y-12.680 E0.06793
G1 X14.286 Y-12.909 E0.06793
G1 X13.661 Y-13.305 E0.06793
G1 X13.154 Y-13.845 E0.06793
G1 X12.797 Y-14.494 E0.06793
G1 X12.628 Y-15.153 E0.06242
G1 X12.251 Y-15.381 F9000.000
G1 E-3.20000 F3000.00000
G1 Z0.700 F9000.000
G1 X16.730 Y-11.872 F9000.000
G1 Z0.300 F9000.000
G1 E3.20000 F3000.00000
G1 X15.788 Y-11.692 E0.08800 F900.000
G1 X14.813 Y-11.754 E0.08961
G1 X13.884 Y-12.055 E0.08961
G1 X13.060 Y-12.579 E0.08961
G1 X12.391 Y-13.291 E0.08961
G1 X11.920 Y-14.147 E0.08961
G1 X11.678 Y-15.093 E0.08961
G1 X11.678 Y-16.069 E0.08961
G1 X11.920 Y-17.015 E0.08961
G1 X12.391 Y-17.871 E0.08961
G1 X13.060 Y-18.583 E0.08961
G1 X13.884 Y-19.107 E0.08961
G1 X14.813 Y-19.408 E0.08961
G1 X15.788 Y-19.470 E0.08961
G1 X16.508 Y-19.332 E0.06723
G1 X16.747 Y-19.287 E0.02238 F900.000
G1 X17.631 Y-18.871 E0.08961
G1 X18.384 Y-18.248 E0.08961
G1 X18.958 Y-17.458 E0.08961
G1 X19.317 Y-16.550 E0.08961
G1 X19.440 Y-15.581 E0.08961
G1 X19.317 Y-14.612 E0.08961
G1 X18.958 Y-13.704 E0.08961
G1 X18.384 Y-12.914 E0.08961
G1 X17.631 Y-12.291 E0.08961
G1 X16.786 Y-11.893 E0.08572
G1 X16.445 Y-12.152 F9000.000
G1 X16.601 Y-12.324 F9000.000
G1 X15.758 Y-12.163 E0.07876 F600.000
G1 X14.902 Y-12.217 E0.07876
G1 X14.085 Y-12.482 E0.07876
G1 X13.360 Y-12.942 E0.07876
G1 X12.773 Y-13.568 E0.07876
G1 X12.359 Y-14.320 E0.07876
G1 X12.146 Y-15.152 E0.07876
G1 X12.146 Y-16.010 E0.07876
G1 X12.359 Y-16.842 E0.07876 F600.000
G1 X12.773 Y-17.594 E0.07876
G1 X13.360 Y-18.220 E0.07876
G1 X14.085 Y-18.680 E0.07876
G1 X14.902 Y-18.945 E0.07876
G1 X15.758 Y-18.999 E0.07876
G1 X16.601 Y-18.838 E0.07876
G1 X17.388 Y-18.465 E0.07989
G1 X18.040 Y-17.925 E0.07761
G1 X18.544 Y-17.231 E0.07876
G1 X18.860 Y-16.433 E0.07876
G1 X18.967 Y-15.569 E0.07989
G1 X18.860 Y-14.729 E0.07761
G1 X18.537 Y-13.921 E0.07989
G1 X18.030 Y-13.228 E0.07874
G1 X17.378 Y-12.690 E0.07761
G1 X16.656 Y-12.349 E0.07326
G1 E-3.20000 F3000.00000
G1 Z0.700 F9000.000
G1 X15.729 Y-2.948 F9000.000
G1 Z0.300 F9000.000
G1 E3.20000 F3000.00000
G1 X16.456 Y-2.809 E0.06793 F900.000
G1 X17.126 Y-2.494 E0.06793
G1 X17.696 Y-2.022 E0.06793
G1 X18.131 Y-1.423 E0.06793
G1 X18.404 Y-0.735 E0.06793
G1 X18.497 Y-0.000 E0.06793
G1 X18.404 Y0.735 E0.06793
G1 X18.131 Y1.423 E0.06793
G1 X17.696 Y2.022 E0.06793
G1 X17.126 Y2.494 E0.06793
G1 X16.456 Y2.809 E0.06793
G1 X15.729 Y2.948 E0.06793
G1 X14.990 Y2.901 E0.06793
