; generated by Slic3r 1.2.9 on 2016-12-02 at 15:00:34

; external perimeters extrusion width = 0.50mm
; perimeters extrusion width = 0.50mm
; infill extrusion width = 0.50mm
; solid infill extrusion width = 0.50mm
; top infill extrusion width = 0.50mm

M107
;Basic settings: Layer height: {layer_height} Walls: {wall_thickness} Fill: {fill_density}
;Print time: {print_time}
;Filament used: {filament_amount}m {filament_weight}g
;Filament cost: {filament_cost}
;M190 S{print_bed_temperature} ;Uncomment to add your own bed temperature line
;M109 S{print_temperature} ;Uncomment to add your own temperature line
G21        ;metric values
G90        ;absolute positioning
M83
G10 P0 S200
T0
M116


G21 ; set units to millimeters
G90 ; use absolute coordinates
M83 ; use relative distances for extrusion
G1 E-3.20000 F3000.00000
G1 Z0.400 F9000.000
G1 X0.118 Y15.724 F9000.000
G1 Z0.300 F9000.000
G1 E3.20000 F3000.00000
G1 X-7.583 Y15.782 E0.70655 F1200.000
G1 X-8.921 Y15.707 E0.12297
G1 X-9.841 Y15.531 E0.08591
G1 X-10.866 Y15.198 E0.09889
G1 X-11.713 Y14.799 E0.08591
G1 X-12.623 Y14.222 E0.09889
G1 X-13.345 Y13.625 E0.08592
G1 X-14.082 Y12.839 E0.09889
G1 X-14.633 Y12.082 E0.08591
G1 X-15.152 Y11.137 E0.09889
G1 X-15.497 Y10.267 E0.08591
G1 X-15.765 Y9.223 E0.09889
G1 X-15.882 Y8.311 E0.08435
G1 X-15.953 Y-8.294 E1.52351
G1 X-15.836 Y-9.223 E0.08591
G1 X-15.568 Y-10.267 E0.09889
G1 X-15.223 Y-11.137 E0.08591
G1 X-14.704 Y-12.082 E0.09889
G1 X-14.154 Y-12.839 E0.08591
G1 X-13.416 Y-13.625 E0.09889
G1 X-12.694 Y-14.222 E0.08591
G1 X-11.784 Y-14.799 E0.09889
G1 X-10.937 Y-15.198 E0.08591
G1 X-9.912 Y-15.531 E0.09889
G1 X-8.992 Y-15.707 E0.08591
G1 X-7.682 Y-15.782 E0.12041
G1 X7.880 Y-15.782 E1.42784
G1 X8.580 Y-15.715 E0.06451
G1 X9.639 Y-15.514 E0.09889 F1200.000
G1 X10.529 Y-15.224 E0.08591
G1 X11.505 Y-14.765 E0.09889
G1 X12.295 Y-14.264 E0.08591
G1 X13.126 Y-13.577 E0.09889
G1 X13.767 Y-12.894 E0.08591
G1 X14.400 Y-12.022 E0.09889
G1 X14.851 Y-11.201 E0.08591
G1 X15.248 Y-10.199 E0.09889
G1 X15.481 Y-9.292 E0.08591
G1 X15.616 Y-8.223 E0.09889
G1 X15.645 Y-7.829 E0.03629
G1 X15.949 Y7.563 E1.41245
G1 X15.920 Y8.105 E0.04979
G1 X15.785 Y9.174 E0.09889
G1 X15.552 Y10.081 E0.08591
G1 X15.155 Y11.083 E0.09889
G1 X14.704 Y11.904 E0.08591
G1 X14.071 Y12.776 E0.09889
G1 X13.430 Y13.458 E0.08591
G1 X12.599 Y14.145 E0.09889
G1 X11.809 Y14.647 E0.08591
G1 X10.833 Y15.106 E0.09889
G1 X9.943 Y15.395 E0.08592
G1 X8.884 Y15.597 E0.09889
G1 X8.212 Y15.663 E0.06195
G1 X0.178 Y15.723 E0.73717
G1 E-3.20000 F3000.00000
G1 Z0.700 F9000.000
G1 X-7.039 Y-4.946 F9000.000
G1 Z0.300 F9000.000
G1 E3.20000 F3000.00000
G1 X-7.767 Y-4.807 E0.06793 F900.000
G1 X-8.505 Y-4.854 E0.06793
G1 X-9.210 Y-5.082 E0.06793
G1 X-9.835 Y-5.479 E0.06793
G1 X-10.341 Y-6.019 E0.06793
G1 X-10.698 Y-6.668 E0.06793
G1 X-10.882 Y-7.385 E0.06793
G1 X-10.882 Y-8.125 E0.06793
G1 X-10.698 Y-8.842 E0.06793
G1 X-10.341 Y-9.491 E0.06793
G1 X-9.835 Y-10.031 E0.06793
G1 X-9.210 Y-10.427 E0.06793
G1 X-8.505 Y-10.656 E0.06793
G1 X-7.767 Y-10.703 E0.06793 F900.000
G1 X-7.039 Y-10.564 E0.06793
G1 X-6.369 Y-10.249 E0.06793
G1 X-5.799 Y-9.777 E0.06793
G1 X-5.364 Y-9.178 E0.06793
G1 X-5.091 Y-8.489 E0.06793
G1 X-4.998 Y-7.755 E0.06793
G1 X-5.091 Y-7.020 E0.06793
G1 X-5.364 Y-6.332 E0.06793
G1 X-5.799 Y-5.733 E0.06793
G1 X-6.369 Y-5.261 E0.06793
G1 X-6.985 Y-4.971 E0.06242
G1 X-7.139 Y-4.558 F9000.000
G1 X-9.736 Y-4.309 F9000.000
G1 X-10.436 Y-4.753 E0.07598 F900.000
G1 X-11.104 Y-5.465 E0.08961
G1 X-11.575 Y-6.321 E0.08961
G1 X-11.818 Y-7.267 E0.08961
G1 X-11.818 Y-8.243 E0.08961
G1 X-11.575 Y-9.189 E0.08961
G1 X-11.104 Y-10.045 E0.08961
G1 X-10.436 Y-10.757 E0.08961
G1 X-9.611 Y-11.281 E0.08961
G1 X-8.682 Y-11.582 E0.08961
G1 X-7.707 Y-11.644 E0.08961
G1 X-6.988 Y-11.506 E0.06723
G1 X-6.748 Y-11.461 E0.02238 F900.000
G1 X-5.864 Y-11.045 E0.08961
G1 X-5.112 Y-10.422 E0.08961
G1 X-4.537 Y-9.632 E0.08961
G1 X-4.178 Y-8.724 E0.08961
G1 X-4.086 Y-7.997 E0.06723
G1 X-4.056 Y-7.755 E0.02238
G1 X-4.178 Y-6.786 E0.08961
G1 X-4.537 Y-5.878 E0.08961
G1 X-5.112 Y-5.088 E0.08961
G1 X-5.864 Y-4.465 E0.08961
G1 X-6.748 Y-4.049 E0.08961
G1 X-7.707 Y-3.866 E0.08961
G1 X-8.682 Y-3.928 E0.08961
G1 X-9.611 Y-4.229 E0.08961
G1 X-9.686 Y-4.277 E0.00813
G1 X-9.720 Y-4.709 F9000.000
G1 X-9.435 Y-4.672 F9000.000
G1 X-10.135 Y-5.116 E0.07606 F600.000
G1 X-10.714 Y-5.733 E0.07761
G1 X-11.130 Y-6.483 E0.07873
G1 X-11.350 Y-7.326 E0.07989
G1 X-11.350 Y-8.184 E0.07876
G1 X-11.136 Y-9.016 E0.07876 F600.000
G1 X-10.714 Y-9.777 E0.07989
G1 X-10.135 Y-10.394 E0.07761
G1 X-9.421 Y-10.847 E0.07761
G1 X-8.594 Y-11.119 E0.07989
G1 X-7.737 Y-11.173 E0.07876
G1 X-6.882 Y-11.007 E0.07989
G1 X-6.117 Y-10.646 E0.07761
G1 X-5.465 Y-10.108 E0.07761
G1 X-4.951 Y-9.405 E0.07989
G1 X-4.635 Y-8.607 E0.07876
G1 X-4.529 Y-7.742 E0.07989
G1 X-4.635 Y-6.903 E0.07761
G1 X-4.946 Y-6.117 E0.07761
G1 X-5.456 Y-5.411 E0.07989
G1 X-6.117 Y-4.863 E0.07876
G1 X-6.906 Y-4.495 E0.07989
G1 X-7.749 Y-4.337 E0.07873
G1 X-8.594 Y-4.391 E0.07761
G1 X-9.381 Y-4.646 E0.07596
G1 E-3.20000 F3000.00000
G1 Z0.700 F9000.000
G1 X-8.434 Y4.854 F9000.000
G1 Z0.300 F9000.000
G1 E3.20000 F3000.00000
G1 X-7.695 Y4.807 E0.06793 F900.000
G1 X-6.968 Y4.946 E0.06793
G1 X-6.298 Y5.261 E0.06793
G1 X-5.728 Y5.733 E0.06793
G1 X-5.292 Y6.332 E0.06793
G1 X-5.020 Y7.020 E0.06793
G1 X-4.927 Y7.755 E0.06793
G1 X-5.020 Y8.489 E0.06793
G1 X-5.292 Y9.178 E0.06793
G1 X-5.728 Y9.777 E0.06793
G1 X-6.298 Y10.249 E0.06793
G1 X-6.968 Y10.564 E0.06793
G1 X-7.695 Y10.703 E0.06793
G1 X-8.434 Y10.656 E0.06793
G1 X-9.138 Y10.427 E0.06793
G1 X-9.763 Y10.031 E0.06793
G1 X-10.270 Y9.491 E0.06793
G1 X-10.627 Y8.842 E0.06793
G1 X-10.811 Y8.125 E0.06793
G1 X-10.811 Y7.385 E0.06793
G1 X-10.627 Y6.668 E0.06793
G1 X-10.270 Y6.019 E0.06793
G1 X-9.763 Y5.479 E0.06793
G1 X-9.138 Y5.082 E0.06793
G1 X-8.491 Y4.872 E0.06242
G1 X-8.287 Y4.482 F9000.000
G1 X-6.179 Y4.284 F9000.000
G1 X-5.793 Y4.465 E0.03911 F900.000
G1 X-5.040 Y5.088 E0.08961
G1 X-4.466 Y5.878 E0.08961
G1 X-4.107 Y6.786 E0.08961
G1 X-3.984 Y7.755 E0.08961
G1 X-4.107 Y8.724 E0.08961
G1 X-4.466 Y9.632 E0.08961
G1 X-5.040 Y10.422 E0.08961
G1 X-5.793 Y11.045 E0.08961
G1 X-6.677 Y11.461 E0.08961
G1 X-7.636 Y11.644 E0.08961
G1 X-8.611 Y11.582 E0.08961
G1 X-9.540 Y11.281 E0.08961
G1 X-10.364 Y10.757 E0.08961
G1 X-11.033 Y10.045 E0.08961
G1 X-11.504 Y9.189 E0.08961
G1 X-11.746 Y8.243 E0.08961
G1 X-11.746 Y7.267 E0.08961
G1 X-11.504 Y6.321 E0.08961
G1 X-11.033 Y5.465 E0.08961
G1 X-10.364 Y4.753 E0.08961
G1 X-9.540 Y4.229 E0.08961
G1 X-8.611 Y3.928 E0.08961
G1 X-7.636 Y3.866 E0.08961
G1 X-6.916 Y4.003 E0.06723
G1 X-6.677 Y4.049 E0.02238 F900.000
G1 X-6.233 Y4.258 E0.04500
G1 X-6.145 Y4.682 F9000.000
G1 X-6.432 Y4.681 F9000.000
G1 X-6.046 Y4.863 E0.03919 F600.000
G1 X-5.384 Y5.411 E0.07876
G1 X-4.880 Y6.105 E0.07876
G1 X-4.564 Y6.903 E0.07876
G1 X-4.456 Y7.755 E0.07876
G1 X-4.564 Y8.607 E0.07876
G1 X-4.880 Y9.405 E0.07876
G1 X-5.384 Y10.099 E0.07876
G1 X-6.046 Y10.646 E0.07876
G1 X-6.822 Y11.012 E0.07876
G1 X-7.678 Y11.172 E0.07989
G1 X-8.535 Y11.115 E0.07873
G1 X-9.339 Y10.854 E0.07761
G1 X-10.053 Y10.401 E0.07761
G1 X-10.651 Y9.768 E0.07989
G1 X-11.065 Y9.016 E0.07876
G1 X-11.278 Y8.184 E0.07876
G1 X-11.278 Y7.326 E0.07876
G1 X-11.065 Y6.494 E0.07876 F600.000
G1 X-10.651 Y5.742 E0.07876
G1 X-10.064 Y5.116 E0.07876
G1 X-9.339 Y4.656 E0.07876
G1 X-8.522 Y4.391 E0.07876
G1 X-7.666 Y4.337 E0.07876
G1 X-6.822 Y4.498 E0.07876
G1 X-6.486 Y4.656 E0.03407
G1 E-3.20000 F3000.00000
G1 Z0.700 F9000.000
G1 X4.984 Y7.266 F9000.000
G1 Z0.300 F9000.000
G1 E3.20000 F3000.00000
G1 X5.168 Y6.549 E0.06793 F900.000
G1 X5.525 Y5.901 E0.06793
G1 X6.031 Y5.361 E0.06793
G1 X6.657 Y4.964 E0.06793
G1 X7.361 Y4.735 E0.06793
G1 X8.100 Y4.689 E0.06793 F900.000
G1 X8.827 Y4.828 E0.06793
G1 X9.497 Y5.143 E0.06793
G1 X10.067 Y5.615 E0.06793
G1 X10.502 Y6.214 E0.06793
G1 X10.775 Y6.902 E0.06793
G1 X10.868 Y7.637 E0.06793
G1 X10.775 Y8.371 E0.06793
G1 X10.502 Y9.059 E0.06793
G1 X10.067 Y9.658 E0.06793
G1 X9.497 Y10.130 E0.06793
G1 X8.827 Y10.446 E0.06793
G1 X8.100 Y10.584 E0.06793
G1 X7.361 Y10.538 E0.06793
G1 X6.657 Y10.309 E0.06793
G1 X6.031 Y9.912 E0.06793
G1 X5.525 Y9.373 E0.06793
G1 X5.168 Y8.724 E0.06793
G1 X4.984 Y8.007 E0.06793
G1 X4.984 Y7.326 E0.06242
G1 X4.676 Y7.011 F9000.000
G1 E-3.20000 F3000.00000
G1 Z0.700 F9000.000
G1 X9.809 Y4.256 F9000.000
G1 Z0.300 F9000.000
G1 E3.20000 F3000.00000
G1 X10.002 Y4.347 E0.01958 F900.000
G1 X10.754 Y4.969 E0.08961
G1 X11.329 Y5.759 E0.08961
G1 X11.688 Y6.668 E0.08961
G1 X11.811 Y7.637 E0.08961
G1 X11.688 Y8.606 E0.08961
G1 X11.329 Y9.514 E0.08961
G1 X10.754 Y10.304 E0.08961
G1 X10.002 Y10.926 E0.08961
G1 X9.118 Y11.342 E0.08961
G1 X8.159 Y11.525 E0.08961
G1 X7.184 Y11.464 E0.08961
G1 X6.255 Y11.162 E0.08961
G1 X5.430 Y10.639 E0.08961
G1 X4.762 Y9.927 E0.08961
G1 X4.291 Y9.071 E0.08961
G1 X4.048 Y8.125 E0.08961
G1 X4.048 Y7.148 E0.08961
G1 X4.291 Y6.202 E0.08961
G1 X4.762 Y5.346 E0.08961
G1 X5.430 Y4.634 E0.08961
G1 X6.255 Y4.111 E0.08961
G1 X7.184 Y3.809 E0.08961
G1 X8.159 Y3.748 E0.08961
G1 X8.879 Y3.885 E0.06723
G1 X9.118 Y3.931 E0.02238 F900.000
G1 X9.754 Y4.230 E0.06452
G1 X9.827 Y4.469 F9000.000
G1 X9.555 Y4.653 F9000.000
G1 X9.749 Y4.745 E0.01966 F600.000
G1 X10.411 Y5.292 E0.07876
G1 X10.915 Y5.987 E0.07876
G1 X11.231 Y6.785 E0.07876
G1 X11.339 Y7.637 E0.07876
G1 X11.231 Y8.488 E0.07876
G1 X10.915 Y9.286 E0.07876
G1 X10.411 Y9.981 E0.07876
G1 X9.738 Y10.534 E0.07989
G1 X8.972 Y10.894 E0.07761
G1 X8.117 Y11.054 E0.07989
G1 X7.260 Y10.997 E0.07873
G1 X6.456 Y10.735 E0.07761
G1 X5.742 Y10.282 E0.07761
G1 X5.144 Y9.649 E0.07989
G1 X4.730 Y8.897 E0.07876
G1 X4.517 Y8.066 E0.07876
G1 X4.517 Y7.207 E0.07876
G1 X4.730 Y6.376 E0.07876 F600.000
G1 X5.144 Y5.624 E0.07876
G1 X5.731 Y4.998 E0.07876
G1 X6.456 Y4.538 E0.07876
G1 X7.272 Y4.273 E0.07876
G1 X8.129 Y4.219 E0.07876
G1 X8.972 Y4.380 E0.07876
G1 X9.501 Y4.628 E0.05359
G1 E-3.20000 F3000.00000
G1 Z0.700 F9000.000
G1 X7.796 Y-4.807 F9000.000
G1 Z0.300 F9000.000
G1 E3.20000 F3000.00000
G1 X7.057 Y-4.854 E0.06793 F900.000
G1 X6.353 Y-5.082 E0.06793
G1 X5.728 Y-5.479 E0.06793
G1 X5.221 Y-6.019 E0.06793
G1 X4.864 Y-6.668 E0.06793
G1 X4.680 Y-7.385 E0.06793
G1 X4.680 Y-8.125 E0.06793
G1 X4.864 Y-8.842 E0.06793
G1 X5.221 Y-9.491 E0.06793
G1 X5.728 Y-10.031 E0.06793
G1 X6.353 Y-10.427 E0.06793
G1 X7.057 Y-10.656 E0.06793
G1 X7.796 Y-10.703 E0.06793 F900.000
G1 X8.523 Y-10.564 E0.06793
G1 X9.193 Y-10.249 E0.06793
G1 X9.763 Y-9.777 E0.06793
G1 X10.198 Y-9.178 E0.06793
G1 X10.471 Y-8.489 E0.06793
G1 X10.564 Y-7.755 E0.06793
G1 X10.471 Y-7.020 E0.06793
G1 X10.198 Y-6.332 E0.06793
G1 X9.763 Y-5.733 E0.06793
G1 X9.193 Y-5.261 E0.06793
G1 X8.523 Y-4.946 E0.06793
G1 X7.855 Y-4.818 E0.06242
G1 X7.603 Y-4.457 F9000.000
G1 X10.641 Y-5.349 F9000.000
G1 X10.451 Y-5.088 E0.02968 F900.000
G1 X9.698 Y-4.465 E0.08961
G1 X8.814 Y-4.049 E0.08961
G1 X7.855 Y-3.866 E0.08961
G1 X6.880 Y-3.928 E0.08961
G1 X5.951 Y-4.229 E0.08961
G1 X5.127 Y-4.753 E0.08961
G1 X4.458 Y-5.465 E0.08961
G1 X3.987 Y-6.321 E0.08961
G1 X3.744 Y-7.267 E0.08961
G1 X3.744 Y-8.243 E0.08961
G1 X3.987 Y-9.189 E0.08961
G1 X4.458 Y-10.045 E0.08961
G1 X5.127 Y-10.757 E0.08961
G1 X5.951 Y-11.281 E0.08961
G1 X6.880 Y-11.582 E0.08961
G1 X7.855 Y-11.644 E0.08961
G1 X8.575 Y-11.506 E0.06723
G1 X8.814 Y-11.461 E0.02238 F900.000
G1 X9.698 Y-11.045 E0.08961
G1 X10.451 Y-10.422 E0.08961
G1 X11.025 Y-9.632 E0.08961
G1 X11.384 Y-8.724 E0.08961
G1 X11.507 Y-7.755 E0.08961
G1 X11.384 Y-6.786 E0.08961
G1 X11.025 Y-5.878 E0.08961
G1 X10.676 Y-5.398 E0.05443
G1 X10.319 Y-5.383 F9000.000
G1 X10.298 Y-5.673 F9000.000
G1 X10.107 Y-5.411 E0.02976 F600.000
G1 X9.445 Y-4.863 E0.07876
G1 X8.668 Y-4.498 E0.07876
G1 X7.825 Y-4.337 E0.07876
G1 X6.981 Y-4.390 E0.07761
G1 X6.152 Y-4.656 E0.07989
G1 X5.427 Y-5.116 E0.07876
G1 X4.833 Y-5.753 E0.07989
G1 X4.426 Y-6.494 E0.07761
G1 X4.215 Y-7.313 E0.07761
G1 X4.213 Y-8.184 E0.07989
G1 X4.426 Y-9.016 E0.07876 F600.000
G1 X4.833 Y-9.757 E0.07761
G1 X5.438 Y-10.401 E0.08101
G1 X6.152 Y-10.854 E0.07761
G1 X6.968 Y-11.119 E0.07876
G1 X7.825 Y-11.173 E0.07876
G1 X8.668 Y-11.012 E0.07876
G1 X9.445 Y-10.646 E0.07876
G1 X10.107 Y-10.099 E0.07876
G1 X10.611 Y-9.405 E0.07876
G1 X10.927 Y-8.607 E0.07876
G1 X11.035 Y-7.755 E0.07876
G1 X10.927 Y-6.903 E0.07876
G1 X10.611 Y-6.105 E0.07876
G1 X10.333 Y-5.721 E0.04350
G1 E-3.20000 F3000.00000
G1 Z0.700 F9000.000
G1 X-4.727 Y-7.624 F9000.000
G1 Z0.600 F9000.000
G1 E3.20000 F3000.00000
G1 X-4.812 Y-6.949 E0.03696 F1474.502
G1 X-5.111 Y-6.193 E0.04415
G1 X-5.589 Y-5.536 E0.04415
G1 X-6.215 Y-5.018 E0.04415
G1 X-6.950 Y-4.672 E0.04415
G1 X-7.751 Y-4.519 E0.04426
G1 X-8.577 Y-4.577 E0.04501
G1 X-9.332 Y-4.822 E0.04314
G1 X-10.018 Y-5.257 E0.04415
G1 X-10.574 Y-5.850 E0.04415
G1 X-10.966 Y-6.562 E0.04415
G1 X-11.168 Y-7.351 E0.04426
G1 X-11.163 Y-8.179 E0.04501
G1 X-10.966 Y-8.948 E0.04314
G1 X-10.574 Y-9.660 E0.04415
G1 X-10.018 Y-10.253 E0.04415
G1 X-9.330 Y-10.689 E0.04426
G1 X-8.541 Y-10.940 E0.04501
G1 X-7.748 Y-10.990 E0.04314 F1474.502
G1 X-6.950 Y-10.838 E0.04415
G1 X-6.215 Y-10.492 E0.04415
G1 X-5.589 Y-9.974 E0.04415
G1 X-5.111 Y-9.317 E0.04415
G1 X-4.812 Y-8.561 E0.04415
G1 X-4.710 Y-7.755 E0.04415
G1 X-4.720 Y-7.683 E0.00392
G1 X-5.152 Y-7.738 F9000.000
G1 X-5.238 Y-7.058 E0.03723 F1474.502
G1 X-5.496 Y-6.405 E0.03817
G1 X-5.909 Y-5.837 E0.03817
G1 X-6.450 Y-5.389 E0.03817
G1 X-7.086 Y-5.090 E0.03817
G1 X-7.777 Y-4.958 E0.03821
G1 X-8.493 Y-5.007 E0.03903
G1 X-9.145 Y-5.219 E0.03723
G1 X-9.738 Y-5.596 E0.03817
G1 X-10.219 Y-6.108 E0.03817
G1 X-10.558 Y-6.723 E0.03817
G1 X-10.732 Y-7.404 E0.03821
G1 X-10.728 Y-8.123 E0.03903
G1 X-10.558 Y-8.787 E0.03723
G1 X-10.219 Y-9.402 E0.03817
G1 X-9.738 Y-9.914 E0.03817
G1 X-9.144 Y-10.291 E0.03821
G1 X-8.460 Y-10.509 E0.03903
G1 X-7.776 Y-10.552 E0.03723 F1474.502
G1 X-7.086 Y-10.420 E0.03817
G1 X-6.450 Y-10.121 E0.03817
G1 X-5.909 Y-9.673 E0.03817
G1 X-5.496 Y-9.105 E0.03817
G1 X-5.238 Y-8.452 E0.03817
G1 X-5.155 Y-7.797 E0.03584
G1 X-4.814 Y-7.523 F9000.000
G1 X-4.088 Y-8.111 F9000.000
G1 X-4.043 Y-7.755 E0.01952 F1474.502
G1 X-4.166 Y-6.783 E0.05323
G1 X-4.527 Y-5.872 E0.05323
G1 X-5.103 Y-5.079 E0.05323
G1 X-5.858 Y-4.455 E0.05323
G1 X-6.744 Y-4.038 E0.05323
G1 X-7.707 Y-3.854 E0.05323
G1 X-8.684 Y-3.916 E0.05323
G1 X-9.616 Y-4.218 E0.05323
G1 X-10.443 Y-4.743 E0.05323
G1 X-11.114 Y-5.458 E0.05323
G1 X-11.586 Y-6.316 E0.05323
G1 X-11.830 Y-7.265 E0.05323
G1 X-11.830 Y-8.245 E0.05323
G1 X-11.586 Y-9.194 E0.05323
G1 X-11.114 Y-10.052 E0.05323
G1 X-10.443 Y-10.766 E0.05323
G1 X-9.616 Y-11.291 E0.05323
G1 X-8.684 Y-11.594 E0.05323
G1 X-7.707 Y-11.656 E0.05323
G1 X-7.539 Y-11.624 E0.00925
G1 X-6.744 Y-11.472 E0.04398 F1474.502
G1 X-5.858 Y-11.055 E0.05323
G1 X-5.103 Y-10.430 E0.05323
G1 X-4.527 Y-9.638 E0.05323
G1 X-4.166 Y-8.727 E0.05323
G1 X-4.096 Y-8.171 E0.03045
G1 X-3.664 Y-8.226 F9000.000
G1 X-3.604 Y-7.755 E0.02577 F1474.502
G1 X-3.741 Y-6.674 E0.05921
G1 X-4.142 Y-5.660 E0.05921
G1 X-4.783 Y-4.779 E0.05921
G1 X-5.622 Y-4.084 E0.05921
G1 X-6.608 Y-3.620 E0.05921
G1 X-7.679 Y-3.416 E0.05921
G1 X-8.767 Y-3.484 E0.05921
G1 X-9.803 Y-3.821 E0.05921
G1 X-10.723 Y-4.405 E0.05921
G1 X-11.469 Y-5.199 E0.05921
G1 X-11.994 Y-6.154 E0.05921
G1 X-12.265 Y-7.210 E0.05921
G1 X-12.265 Y-8.300 E0.05921
G1 X-11.994 Y-9.355 E0.05921
G1 X-11.469 Y-10.310 E0.05921
G1 X-10.723 Y-11.105 E0.05921
G1 X-9.803 Y-11.689 E0.05921
G1 X-8.767 Y-12.026 E0.05921
G1 X-7.679 Y-12.094 E0.05921
G1 X-7.458 Y-12.052 E0.01224
G1 X-6.608 Y-11.890 E0.04697 F1474.502
G1 X-5.622 Y-11.426 E0.05921
G1 X-4.783 Y-10.731 E0.05921
G1 X-4.142 Y-9.849 E0.05921
G1 X-3.741 Y-8.836 E0.05921
G1 X-3.671 Y-8.285 E0.03018
G1 X-3.982 Y-7.984 F9000.000
G1 X-4.432 Y-8.189 F9000.000
G1 X-4.377 Y-7.755 E0.02377 F983.001
G1 X-4.490 Y-6.866 E0.04868
G1 X-4.820 Y-6.033 E0.04868
G1 X-5.346 Y-5.308 E0.04868
G1 X-6.049 Y-4.730 E0.04944
G1 X-6.847 Y-4.355 E0.04791
G1 X-7.728 Y-4.187 E0.04868
G1 X-8.621 Y-4.246 E0.04867
G1 X-9.461 Y-4.516 E0.04790
G1 X-10.230 Y-5.001 E0.04944
