; generated by Slic3r 1.2.9 on 2016-12-15 at 09:52:53

; external perimeters extrusion width = 0.50mm
; perimeters extrusion width = 0.50mm
; infill extrusion width = 0.50mm
; solid infill extrusion width = 0.50mm
; top infill extrusion width = 0.50mm

M107
;Basic settings: Layer height: {layer_height} Walls: {wall_thickness} Fill: {fill_density}
;Print time: {print_time}
;Filament used: {filament_amount}m {filament_weight}g
;Filament cost: {filament_cost}
;M190 S{print_bed_temperature} ;Uncomment to add your own bed temperature line
;M109 S{print_temperature} ;Uncomment to add your own temperature line
G21        ;metric values
G90        ;absolute positioning
M83
G10 P0 S200
T0
M116


G21 ; set units to millimeters
G90 ; use absolute coordinates
M83 ; use relative distances for extrusion
G1 E-3.20000 F3000.00000
G1 Z0.400 F9000.000
G1 X-19.536 Y0.000 F9000.000
G1 Z0.300 F9000.000
G1 E3.20000 F3000.00000
G1 X-19.536 Y-31.950 E2.93144 F1200.000
G1 X-19.141 Y-33.621 E0.15755
G1 X-18.040 Y-34.939 E0.15755
G1 X-15.800 Y-35.686 E0.21666
G1 X15.950 Y-35.686 E2.91308
G1 X17.621 Y-35.291 E0.15755
G1 X18.939 Y-34.190 E0.15755 F1200.000
G1 X19.686 Y-31.950 E0.21667
G1 X19.686 Y27.950 E5.49586
G1 X19.291 Y29.621 E0.15755
G1 X17.803 Y31.193 E0.19859
G1 X10.803 Y35.193 E0.73972
G1 X8.950 Y35.686 E0.17594
G1 X-0.950 Y35.686 E0.90833
G1 X-1.922 Y35.557 E0.08992
G1 X-16.772 Y31.557 E1.41106
G1 X-18.283 Y30.741 E0.15755
G1 X-19.269 Y29.336 E0.15755
G1 X-19.536 Y27.950 E0.12948
G1 X-19.536 Y0.060 E2.55893
G1 E-3.20000 F3000.00000
G1 Z0.700 F9000.000
G1 X-1.450 Y-13.550 F9000.000
G1 Z0.300 F9000.000
G1 E3.20000 F3000.00000
G1 X-1.450 Y-30.450 E1.55058 F900.000
G1 X9.450 Y-30.450 E1.00008 F900.000
G1 X9.450 Y-13.550 E1.55058
G1 X-1.390 Y-13.550 E0.99458
G1 X-1.850 Y-13.550 F9000.000
G1 X2.315 Y10.652 F9000.000
G1 X3.391 Y10.491 E0.09977 F900.000
G1 X4.329 Y10.469 E0.08614 F900.000
G1 X5.262 Y10.573 E0.08614
G1 X6.316 Y10.826 E0.09939
G1 X7.222 Y11.190 E0.08962
G1 X8.204 Y11.742 E0.10335
G1 X9.086 Y12.442 E0.10335
G1 X9.763 Y13.140 E0.08923
G1 X10.337 Y13.926 E0.08923
G1 X10.879 Y14.913 E0.10335
G1 X11.256 Y15.975 E0.10335
G1 X11.461 Y16.925 E0.08923
G1 X11.533 Y17.895 E0.08923
G1 X11.470 Y19.020 E0.10335
G1 X11.229 Y20.120 E0.10335
G1 X10.900 Y21.035 E0.08923
G1 X10.448 Y21.896 E0.08923
G1 X9.795 Y22.825 E0.10415
G1 X8.796 Y23.819 E0.12928
G1 X7.622 Y24.614 E0.13008
G1 X6.331 Y25.170 E0.12900
G1 X5.231 Y25.438 E0.10391
G1 X4.114 Y25.538 E0.10283
G1 X2.996 Y25.472 E0.10283
G1 X1.899 Y25.240 E0.10283
G1 X0.849 Y24.849 E0.10283
G1 X-0.132 Y24.306 E0.10283
G1 X-1.021 Y23.624 E0.10283
G1 X-1.816 Y22.799 E0.10508
G1 X-2.752 Y21.363 E0.15730
G1 X-3.343 Y19.727 E0.15956
G1 X-3.541 Y18.023 E0.15743
G1 X-3.455 Y16.916 E0.10190
G1 X-3.267 Y15.996 E0.08614
G1 X-2.957 Y15.110 E0.08614
G1 X-2.473 Y14.136 E0.09977
G1 X-1.846 Y13.248 E0.09977
G1 X-1.209 Y12.550 E0.08666
G1 X-0.372 Y11.865 E0.09925
G1 X0.423 Y11.365 E0.08614
G1 X1.277 Y10.976 E0.08614
G1 X2.258 Y10.669 E0.09427
G1 X2.477 Y11.372 F9000.000
G1 X3.454 Y11.225 E0.09062 F900.000
G1 X4.297 Y11.205 E0.07738 F900.000
G1 X5.135 Y11.299 E0.07738
G1 X6.091 Y11.528 E0.09021
G1 X6.903 Y11.855 E0.08029
G1 X7.793 Y12.354 E0.09358
G1 X8.591 Y12.989 E0.09358
G1 X9.199 Y13.616 E0.08016
G1 X9.715 Y14.321 E0.08016
G1 X10.205 Y15.215 E0.09358
G1 X10.547 Y16.176 E0.09358
G1 X10.732 Y17.030 E0.08016
G1 X10.796 Y17.902 E0.08016
G1 X10.739 Y18.920 E0.09358
G1 X10.521 Y19.916 E0.09358
G1 X10.225 Y20.739 E0.08016
G1 X9.819 Y21.512 E0.08016
G1 X9.230 Y22.349 E0.09390
G1 X8.326 Y23.249 E0.11702
G1 X7.267 Y23.966 E0.11734
G1 X6.097 Y24.470 E0.11693
G1 X5.110 Y24.710 E0.09318
G1 X4.103 Y24.800 E0.09277
G1 X3.094 Y24.741 E0.09277
G1 X2.105 Y24.532 E0.09277
G1 X1.157 Y24.179 E0.09277
G1 X0.273 Y23.689 E0.09277
G1 X-0.530 Y23.073 E0.09277
G1 X-1.238 Y22.339 E0.09362
G1 X-2.089 Y21.033 E0.14304
G1 X-2.622 Y19.558 E0.14390
G1 X-2.802 Y18.009 E0.14308
G1 X-2.725 Y17.018 E0.09116
G1 X-2.556 Y16.192 E0.07738
G1 X-2.278 Y15.396 E0.07738
G1 X-1.840 Y14.514 E0.09034
G1 X-1.272 Y13.710 E0.09034
G1 X-0.702 Y13.086 E0.07757
G1 X0.059 Y12.463 E0.09016
G1 X0.772 Y12.014 E0.07738
G1 X1.540 Y11.664 E0.07738
G1 X2.420 Y11.390 E0.08455
G1 X2.604 Y10.992 F9000.000
G1 X-3.314 Y5.186 F9000.000
G1 X-6.686 Y5.186 E0.30931 F900.000
G1 X-6.686 Y0.814 E0.40106
G1 X-3.314 Y0.814 E0.30931 F900.000
G1 X-3.314 Y5.126 E0.39556
G1 X-4.050 Y4.450 F9000.000
G1 X-5.950 Y4.450 E0.17433 F900.000
G1 X-5.950 Y1.550 E0.26608
G1 X-4.050 Y1.550 E0.17433 F900.000
G1 X-4.050 Y4.390 E0.26057
G1 X-4.050 Y4.850 F9000.000
G1 X-4.050 Y-4.814 F9000.000
G1 X-10.186 Y-4.814 E0.56295 F900.000
G1 X-10.186 Y-9.186 E0.40106
G1 X0.186 Y-9.186 E0.95157 F900.000
G1 X0.186 Y-4.814 E0.40106
G1 X-3.990 Y-4.814 E0.38312
G1 X-3.990 Y-5.550 F9000.000
G1 X-9.450 Y-5.550 E0.50096 F900.000
G1 X-9.450 Y-8.450 E0.26608
G1 X-0.550 Y-8.450 E0.81658 F900.000
G1 X-0.550 Y-5.550 E0.26608
G1 X-3.930 Y-5.550 E0.31012
G1 X-4.190 Y-5.204 F9000.000
G1 E-3.20000 F3000.00000
G1 Z0.700 F9000.000
G1 X-14.664 Y-10.547 F9000.000
G1 Z0.300 F9000.000
G1 E3.20000 F3000.00000
G1 X-14.664 Y-30.814 E1.85956 F900.000
G1 X-2.186 Y-30.814 E1.14493
G1 X-2.186 Y-12.814 E1.65151
G1 X10.186 Y-12.814 E1.13507 F900.000
G1 X10.186 Y-30.814 E1.65151
G1 X14.814 Y-30.814 E0.42469
G1 X14.814 Y26.814 E5.28747
G1 X7.814 Y26.814 E0.64225
G1 X7.814 Y30.814 E0.36700
G1 X0.186 Y30.814 E0.69994
G1 X0.186 Y26.814 E0.36700
G1 X-14.664 Y26.814 E1.36250
G1 X-14.664 Y-10.487 E3.42240
G1 X-15.400 Y-10.487 F9000.000
G1 X-15.400 Y-31.550 E1.93256 F900.000
G1 X15.550 Y-31.550 E2.83968
G1 X15.550 Y27.550 E5.42246
G1 X8.550 Y27.550 E0.64225 F900.000
G1 X8.550 Y31.550 E0.36700
G1 X-0.550 Y31.550 E0.83493
G1 X-0.550 Y27.550 E0.36700
G1 X-15.400 Y27.550 E1.36250
G1 X-15.400 Y-10.427 E3.48439
G1 X-15.054 Y-10.687 F9000.000
G1 X-1.818 Y-31.000 F9000.000
G1 X9.818 Y-31.000 E1.06757 F600.000
G1 X14.365 Y-30.013 F9000.000
G1 X14.013 Y-30.365 E0.04587 F900.000
G1 X12.969 Y-30.365 E0.09622
G1 X14.365 Y-28.969 E0.18195
G1 X14.365 Y-27.924 E0.09622
G1 X11.924 Y-30.365 E0.31803
G1 X10.879 Y-30.365 E0.09622
G1 X14.365 Y-26.880 E0.45411
G1 X14.365 Y-25.835 E0.09622
G1 X10.635 Y-29.565 E0.48599
G1 X10.635 Y-28.521 E0.09622
G1 X14.365 Y-24.790 E0.48599
G1 X14.365 Y-23.746 E0.09622
G1 X10.635 Y-27.476 E0.48599
G1 X10.635 Y-26.432 E0.09622
G1 X14.365 Y-22.701 E0.48599
G1 X14.365 Y-21.657 E0.09622
G1 X10.635 Y-25.387 E0.48599
G1 X10.635 Y-24.343 E0.09622
G1 X14.365 Y-20.612 E0.48599
G1 X14.365 Y-19.568 E0.09622
G1 X10.635 Y-23.298 E0.48599
G1 X10.635 Y-22.254 E0.09622
G1 X14.365 Y-18.523 E0.48599
G1 X14.365 Y-17.479 E0.09622
G1 X10.635 Y-21.209 E0.48599
G1 X10.635 Y-20.165 E0.09622
G1 X14.365 Y-16.434 E0.48599
G1 X14.365 Y-15.390 E0.09622
G1 X10.635 Y-19.120 E0.48599
G1 X10.635 Y-18.076 E0.09622
G1 X14.365 Y-14.345 E0.48599
G1 X14.365 Y-13.301 E0.09622
G1 X10.635 Y-17.031 E0.48599
G1 X10.635 Y-15.986 E0.09622
G1 X14.365 Y-12.256 E0.48599
G1 X14.365 Y-11.212 E0.09622
G1 X10.635 Y-14.942 E0.48599
G1 X10.635 Y-13.897 E0.09622
G1 X14.365 Y-10.167 E0.48599
G1 X14.365 Y-9.123 E0.09622
G1 X10.635 Y-12.853 E0.48599
G1 X10.078 Y-12.365 F9000.000
G1 X14.365 Y-8.078 E0.55852 F900.000
G1 X14.365 Y-7.034 E0.09622
G1 X9.034 Y-12.365 E0.69460
G1 X7.989 Y-12.365 E0.09622
G1 X14.365 Y-5.989 E0.83068
G1 X14.365 Y-4.944 E0.09622
G1 X6.944 Y-12.365 E0.96676
G1 X5.900 Y-12.365 E0.09622
G1 X14.365 Y-3.900 E1.10284
G1 X14.365 Y-2.855 E0.09622
G1 X4.855 Y-12.365 E1.23892
G1 X3.811 Y-12.365 E0.09622
G1 X14.365 Y-1.811 E1.37500
G1 X14.365 Y-0.766 E0.09622
G1 X2.766 Y-12.365 E1.51108
G1 X1.722 Y-12.365 E0.09622
G1 X14.365 Y0.278 E1.64716
G1 X14.365 Y1.323 E0.09622
G1 X0.677 Y-12.365 E1.78324
G1 X-0.367 Y-12.365 E0.09622
G1 X14.365 Y2.367 E1.91932
G1 X14.365 Y3.412 E0.09622
G1 X-1.412 Y-12.365 E2.05540
G1 X-2.456 Y-12.365 E0.09622
G1 X14.365 Y4.456 E2.19148
G1 X14.365 Y5.501 E0.09622
G1 X0.635 Y-8.230 E1.78878
G1 X0.635 Y-7.185 E0.09622
G1 X14.365 Y6.545 E1.78878
G1 X14.365 Y7.590 E0.09622
G1 X0.635 Y-6.141 E1.78878
G1 X0.635 Y-5.096 E0.09622
G1 X14.365 Y8.634 E1.78878
G1 X14.365 Y9.679 E0.09622
G1 X0.321 Y-4.365 E1.82965
G1 X-0.723 Y-4.365 E0.09622
G1 X14.365 Y10.723 E1.96573
G1 X14.365 Y11.768 E0.09622
G1 X-1.768 Y-4.365 E2.10180
G1 X-2.812 Y-4.365 E0.09622
G1 X14.365 Y12.812 E2.23788
G1 X14.365 Y13.857 E0.09622
G1 X-3.857 Y-4.365 E2.37396
G1 X-4.902 Y-4.365 E0.09622
G1 X14.365 Y14.902 E2.51004
G1 X14.365 Y15.946 E0.09622
G1 X-5.946 Y-4.365 E2.64612
G1 X-6.991 Y-4.365 E0.09622
G1 X9.037 Y11.663 E2.08807
G1 X10.350 Y12.976 F9000.000
G1 X14.365 Y16.991 E0.52308 F900.000
G1 X14.365 Y18.035 E0.09622
G1 X11.518 Y15.188 E0.37090
G1 X11.889 Y16.603 E0.13476
G1 X14.365 Y19.080 E0.32262
G1 X14.365 Y20.124 E0.09622
G1 X11.983 Y17.742 E0.31038
G1 X11.928 Y18.731 E0.09128
G1 X14.365 Y21.169 E0.31756
G1 X14.365 Y22.213 E0.09622
G1 X11.769 Y19.617 E0.33827
G1 X11.546 Y20.438 E0.07842
G1 X14.365 Y23.258 E0.36731
G1 X14.365 Y24.302 E0.09622
G1 X11.261 Y21.198 E0.40444
G1 X10.901 Y21.882 E0.07125
G1 X14.365 Y25.347 E0.45134
G1 X14.332 Y26.358 E0.09323
G1 X10.488 Y22.514 E0.50087
G1 X10.046 Y23.117 E0.06885
G1 X13.295 Y26.365 E0.42320
G1 X12.250 Y26.365 E0.09622
G1 X9.523 Y23.638 E0.35529
G1 X8.994 Y24.154 E0.06804
G1 X11.205 Y26.365 E0.28806
G1 X10.161 Y26.365 E0.09622
G1 X8.372 Y24.576 E0.23312
G1 X7.747 Y24.996 E0.06933
G1 X9.116 Y26.365 E0.17839
G1 X8.072 Y26.365 E0.09622
G1 X7.017 Y25.310 E0.13741
G1 X6.275 Y25.613 E0.07382
G1 X7.365 Y26.703 E0.14201
G1 X7.365 Y27.747 E0.09622
G1 X5.435 Y25.817 E0.25149
G1 X4.513 Y25.940 E0.08566
G1 X7.365 Y28.792 E0.37158
G1 X7.365 Y29.837 E0.09622
G1 X3.489 Y25.960 E0.50497
G1 X2.306 Y25.822 E0.10977
G1 X6.849 Y30.365 E0.59194
G1 X5.805 Y30.365 E0.09622
G1 X0.829 Y25.389 E0.64824
G1 X0.635 Y26.240 E0.08035
G1 X4.760 Y30.365 E0.53745
G1 X3.716 Y30.365 E0.09622
G1 X0.635 Y27.284 E0.40137
G1 X0.760 Y26.365 E0.08546
G1 X-14.215 Y11.390 E1.95098
G1 X-14.215 Y12.434 E0.09622
G1 X-0.284 Y26.365 E1.81490
G1 X-1.329 Y26.365 E0.09622
G1 X-14.215 Y13.479 E1.67882
G1 X-14.215 Y14.523 E0.09622
G1 X-2.373 Y26.365 E1.54274
G1 X-3.418 Y26.365 E0.09622
G1 X-14.215 Y15.568 E1.40666
G1 X-14.215 Y16.612 E0.09622
G1 X-4.462 Y26.365 E1.27058
G1 X-5.507 Y26.365 E0.09622
G1 X-14.215 Y17.657 E1.13450
G1 X-14.215 Y18.701 E0.09622
G1 X-6.551 Y26.365 E0.99842
G1 X-7.596 Y26.365 E0.09622
G1 X-14.215 Y19.746 E0.86234
G1 X-14.215 Y20.791 E0.09622
G1 X-8.641 Y26.365 E0.72626
G1 X-9.685 Y26.365 E0.09622
G1 X-14.215 Y21.835 E0.59018
G1 X-14.215 Y22.880 E0.09622
G1 X-10.730 Y26.365 E0.45410
G1 X-11.774 Y26.365 E0.09622
G1 X-14.215 Y23.924 E0.31802
G1 X-14.215 Y24.969 E0.09622
G1 X-12.819 Y26.365 E0.18194
G1 X-13.863 Y26.365 E0.09622
G1 X-14.215 Y26.013 E0.04586
G1 X-3.352 Y21.208 F9000.000
G1 X-14.215 Y10.345 E1.41522 F900.000
G1 X-14.215 Y9.301 E0.09622
G1 X-3.818 Y19.698 E1.35454
G1 X-3.955 Y18.516 E0.10959
G1 X-14.215 Y8.256 E1.33668
G1 X-14.215 Y7.212 E0.09622
G1 X-3.938 Y17.488 E1.33884
G1 X-3.814 Y16.568 E0.08553
G1 X-14.215 Y6.167 E1.35506
G1 X-14.215 Y5.123 E0.09622
G1 X-3.605 Y15.732 E1.38222
G1 X-3.328 Y14.965 E0.07513
G1 X-14.215 Y4.078 E1.41840
G1 X-14.215 Y3.034 E0.09622
G1 X-2.981 Y14.268 E1.46355
G1 X-2.584 Y13.620 E0.06996
G1 X-14.215 Y1.989 E1.51530
G1 X-14.215 Y0.945 E0.09622
G1 X-2.150 Y13.010 E1.57188
G1 X-1.651 Y12.464 E0.06811
G1 X-14.215 Y-0.100 E1.63683
G1 X-14.215 Y-1.145 E0.09622
G1 X-1.104 Y11.966 E1.70805
G1 X-0.526 Y11.501 E0.06844
G1 X-6.391 Y5.635 E0.76417
G1 X-5.347 Y5.635 E0.09622
G1 X0.115 Y11.097 E0.71161
G1 X0.812 Y10.749 E0.07174
G1 X-4.302 Y5.635 E0.66631
G1 X-3.258 Y5.635 E0.09622
G1 X1.564 Y10.457 E0.62819
G1 X2.364 Y10.212 E0.07703
G1 X-2.865 Y4.983 E0.68121
G1 X-2.865 Y3.938 E0.09622
G1 X3.273 Y10.076 E0.79961
G1 X4.266 Y10.025 E0.09162
G1 X-2.865 Y2.894 E0.92901
G1 X-2.865 Y1.849 E0.09622
G1 X5.404 Y10.118 E1.07728
G1 X6.786 Y10.456 E0.13104
G1 X-2.865 Y0.805 E1.25731
G1 X-3.305 Y0.365 F9000.000
G1 X-8.035 Y-4.365 E0.61626 F900.000
G1 X-9.080 Y-4.365 E0.09622
G1 X-4.349 Y0.365 E0.61626
G1 X-5.394 Y0.365 E0.09622
G1 X-10.124 Y-4.365 E0.61626
G1 X-10.635 Y-4.876 F9000.000
G1 X-14.215 Y-8.456 E0.46644 F900.000
G1 X-14.215 Y-7.412 E0.09622
G1 X-6.438 Y0.365 E1.01316
G1 X-7.135 Y0.713 F9000.000
G1 X-14.215 Y-6.367 E0.92242 F900.000
G1 X-14.215 Y-5.323 E0.09622
G1 X-7.135 Y1.758 E0.92242
G1 X-7.135 Y2.802 E0.09622
G1 X-14.215 Y-4.278 E0.92242
G1 X-14.215 Y-3.234 E0.09622
G1 X-7.135 Y3.847 E0.92242
G1 X-7.135 Y4.891 E0.09622
G1 X-14.215 Y-2.189 E0.92242
G1 X-10.635 Y-5.920 F9000.000
G1 X-14.215 Y-9.501 E0.46644 F900.000
G1 X-14.215 Y-10.545 E0.09622
G1 X-10.635 Y-6.965 E0.46644
G1 X-10.635 Y-8.009 E0.09622
G1 X-14.215 Y-11.590 E0.46644
G1 X-14.215 Y-12.634 E0.09622
G1 X-10.635 Y-9.054 E0.46644
G1 X-10.171 Y-9.635 F9000.000
G1 X-14.215 Y-13.679 E0.52685 F900.000
G1 X-14.215 Y-14.723 E0.09622
G1 X-9.127 Y-9.635 E0.66293
G1 X-8.082 Y-9.635 E0.09622
G1 X-14.215 Y-15.768 E0.79901
G1 X-14.215 Y-16.812 E0.09622
G1 X-7.038 Y-9.635 E0.93509
G1 X-5.993 Y-9.635 E0.09622
G1 X-14.215 Y-17.857 E1.07117
G1 X-14.215 Y-18.901 E0.09622
G1 X-4.949 Y-9.635 E1.20725
G1 X-3.904 Y-9.635 E0.09622
G1 X-14.215 Y-19.946 E1.34333
G1 X-14.215 Y-20.991 E0.09622
G1 X-2.859 Y-9.635 E1.47941
G1 X-1.815 Y-9.635 E0.09622
G1 X-14.215 Y-22.035 E1.61549
G1 X-14.215 Y-23.080 E0.09622
G1 X-0.770 Y-9.635 E1.75157
G1 X-2.635 Y-12.544 F9000.000
G1 X-14.215 Y-24.124 E1.50868 F900.000
G1 X-14.215 Y-25.169 E0.09622
G1 X-2.635 Y-13.588 E1.50868
G1 X-2.635 Y-14.633 E0.09622
G1 X-14.215 Y-26.213 E1.50868
G1 X-14.215 Y-27.258 E0.09622
G1 X-2.635 Y-15.677 E1.50868
G1 X-2.635 Y-16.722 E0.09622
G1 X-14.215 Y-28.302 E1.50868
G1 X-14.215 Y-29.347 E0.09622
G1 X-2.635 Y-17.766 E1.50868
G1 X-2.635 Y-18.811 E0.09622
G1 X-14.182 Y-30.358 E1.50437
G1 X-13.145 Y-30.365 E0.09558
G1 X-2.635 Y-19.855 E1.36920
G1 X-2.635 Y-20.900 E0.09622
G1 X-12.100 Y-30.365 E1.23312
G1 X-11.056 Y-30.365 E0.09622
G1 X-2.635 Y-21.944 E1.09704
G1 X-2.635 Y-22.989 E0.09622
G1 X-10.011 Y-30.365 E0.96096
G1 X-8.966 Y-30.365 E0.09622
G1 X-2.635 Y-24.034 E0.82488
G1 X-2.635 Y-25.078 E0.09622
G1 X-7.922 Y-30.365 E0.68880
G1 X-6.877 Y-30.365 E0.09622
G1 X-2.635 Y-26.123 E0.55272
G1 X-2.635 Y-27.167 E0.09622
G1 X-5.833 Y-30.365 E0.41664
G1 X-4.788 Y-30.365 E0.09622
G1 X-2.635 Y-28.212 E0.28056
G1 X-2.635 Y-29.256 E0.09622
G1 X-3.744 Y-30.365 E0.14448
G1 E-3.20000 F3000.00000
G1 Z0.700 F9000.000
G1 X0.635 Y28.329 F9000.000
G1 Z0.300 F9000.000
G1 E3.20000 F3000.00000
G1 X2.671 Y30.365 E0.26529 F900.000
G1 X1.627 Y30.365 E0.09622
G1 X0.635 Y29.373 E0.12921
G1 E-3.20000 F3000.00000
G1 Z0.700 F9000.000
G1 X2.108 Y24.519 F9000.000
G1 Z0.600 F9000.000
G1 E3.20000 F3000.00000
G1 X1.163 Y24.166 E0.05483 F1800.000
G1 X0.280 Y23.677 E0.05483
G1 X-0.521 Y23.063 E0.05483
G1 X-1.232 Y22.326 E0.05565
G1 X-2.078 Y21.027 E0.08423
G1 X-2.610 Y19.555 E0.08506
G1 X-2.788 Y18.018 E0.08408
G1 X-2.741 Y17.316 E0.03824
G1 X-2.681 Y16.868 E0.02455
G1 X-2.543 Y16.196 E0.03727
G1 X-2.317 Y15.548 E0.03727
G1 X-2.139 Y15.132 E0.02455
G1 X-1.828 Y14.521 E0.03727
G1 X-1.438 Y13.957 E0.03727
G1 X-1.156 Y13.604 E0.02455
G1 X-0.693 Y13.097 E0.03727
G1 X-0.167 Y12.657 E0.03727
G1 X0.198 Y12.391 E0.02455
G1 X0.779 Y12.026 E0.03727
G1 X1.403 Y11.741 E0.03727
G1 X1.826 Y11.582 E0.02455
G1 X2.483 Y11.384 E0.03727
G1 X3.161 Y11.276 E0.03727
G1 X3.611 Y11.235 E0.02455
G1 X4.296 Y11.219 E0.03727 F1800.000
G1 X4.978 Y11.295 E0.03727
G1 X5.423 Y11.375 E0.02455
G1 X6.089 Y11.542 E0.03732
G1 X6.748 Y11.807 E0.03856
G1 X7.169 Y12.012 E0.02543
G1 X7.785 Y12.366 E0.03861
G1 X8.346 Y12.802 E0.03861
G1 X8.694 Y13.115 E0.02543
G1 X9.189 Y13.625 E0.03861
G1 X9.608 Y14.198 E0.03861
G1 X9.857 Y14.595 E0.02543
G1 X10.192 Y15.221 E0.03861
G1 X10.438 Y15.888 E0.03861
G1 X10.568 Y16.338 E0.02543
G1 X10.718 Y17.032 E0.03861
G1 X10.770 Y17.741 E0.03861
G1 X10.772 Y18.209 E0.02543
G1 X10.725 Y18.918 E0.03861
G1 X10.580 Y19.614 E0.03861
G1 X10.453 Y20.064 E0.02543
G1 X10.213 Y20.733 E0.03861
G1 X9.882 Y21.362 E0.03861
G1 X9.636 Y21.760 E0.02543
G1 X9.216 Y22.344 E0.03910
