; generated by Slic3r 1.2.9 on 2016-12-16 at 16:31:17

; external perimeters extrusion width = 0.50mm
; perimeters extrusion width = 0.50mm
; infill extrusion width = 0.50mm
; solid infill extrusion width = 0.50mm
; top infill extrusion width = 0.50mm

M107
;Basic settings: Layer height: {layer_height} Walls: {wall_thickness} Fill: {fill_density}
;Print time: {print_time}
;Filament used: {filament_amount}m {filament_weight}g
;Filament cost: {filament_cost}
;M190 S{print_bed_temperature} ;Uncomment to add your own bed temperature line
;M109 S{print_temperature} ;Uncomment to add your own temperature line
G21        ;metric values
G90        ;absolute positioning
M83
G10 P0 S200
T0
M116


G21 ; set units to millimeters
G90 ; use absolute coordinates
M83 ; use relative distances for extrusion
G1 E-3.20000 F3000.00000
G1 Z0.400 F9000.000
G1 X38.686 Y0.000 F9000.000
G1 Z0.300 F9000.000
G1 E3.20000 F3000.00000
G1 X38.686 Y21.022 E1.92877 F1200.000
G1 X38.291 Y22.693 E0.15755
G1 X37.417 Y23.827 E0.13138
G1 X17.111 Y41.683 E2.48095
G1 X15.595 Y42.491 E0.15755
G1 X14.644 Y42.614 E0.08801
G1 X-13.256 Y42.614 E2.55984
G1 X-15.630 Y41.762 E0.23140
G1 X-37.324 Y23.906 E2.57797
G1 X-38.363 Y22.539 E0.15755
G1 X-38.686 Y21.022 E0.14234
G1 X-38.686 Y-38.878 E5.49586
G1 X-38.291 Y-40.549 E0.15755
G1 X-37.190 Y-41.867 E0.15755
G1 X-34.950 Y-42.614 E0.21667
G1 X34.950 Y-42.614 E6.41336
G1 X36.621 Y-42.219 E0.15755
G1 X37.939 Y-41.118 E0.15755 F1200.000
G1 X38.686 Y-38.878 E0.21667
G1 X38.686 Y-0.060 E3.56158
G1 E-3.20000 F3000.00000
G1 Z0.700 F9000.000
G1 X-13.144 Y-23.968 F9000.000
G1 Z0.300 F9000.000
G1 E3.20000 F3000.00000
G1 X-11.944 Y-24.604 E0.12461 F900.000
G1 X-10.944 Y-25.523 E0.12461
G1 X-10.211 Y-26.667 E0.12461
G1 X-10.106 Y-26.992 E0.03138
G1 X-4.186 Y-26.992 E0.54323
G1 X-4.186 Y9.136 E3.31483
G1 X-10.106 Y9.136 E0.54323
G1 X-10.211 Y8.811 E0.03138
G1 X-10.944 Y7.667 E0.12461
G1 X-11.944 Y6.748 E0.12461
G1 X-13.144 Y6.112 E0.12461
G1 X-14.467 Y5.803 E0.12461
G1 X-15.824 Y5.841 E0.12461
G1 X-17.128 Y6.223 E0.12461
G1 X-18.291 Y6.923 E0.12461
G1 X-19.238 Y7.897 E0.12461
G1 X-19.906 Y9.079 E0.12461
G1 X-20.252 Y10.393 E0.12461
G1 X-20.252 Y11.751 E0.12461
G1 X-19.906 Y13.065 E0.12461
G1 X-19.238 Y14.247 E0.12461
G1 X-18.291 Y15.221 E0.12461
G1 X-17.128 Y15.921 E0.12461
G1 X-15.824 Y16.303 E0.12461
G1 X-14.467 Y16.340 E0.12461
G1 X-13.144 Y16.032 E0.12461
G1 X-11.944 Y15.396 E0.12461
G1 X-10.944 Y14.477 E0.12461
G1 X-10.211 Y13.333 E0.12461
G1 X-10.106 Y13.008 E0.03138
G1 X-4.186 Y13.008 E0.54323
G1 X-4.186 Y19.886 E0.63113
G1 X-33.814 Y19.886 E2.71845
G1 X-33.814 Y-37.742 E5.28747
G1 X-4.186 Y-37.742 E2.71845
G1 X-4.186 Y-30.864 E0.63113
G1 X-10.106 Y-30.864 E0.54323 F900.000
G1 X-10.211 Y-31.189 E0.03138
G1 X-10.944 Y-32.333 E0.12461
G1 X-11.944 Y-33.252 E0.12461
G1 X-13.144 Y-33.888 E0.12461
G1 X-14.467 Y-34.197 E0.12461
G1 X-15.824 Y-34.159 E0.12461
G1 X-17.128 Y-33.777 E0.12461
G1 X-18.291 Y-33.077 E0.12461
G1 X-19.238 Y-32.103 E0.12461
G1 X-19.906 Y-30.921 E0.12461
G1 X-20.252 Y-29.607 E0.12461
G1 X-20.252 Y-28.249 E0.12461
G1 X-19.906 Y-26.935 E0.12461
G1 X-19.238 Y-25.753 E0.12461
G1 X-18.291 Y-24.779 E0.12461
G1 X-17.128 Y-24.079 E0.12461
G1 X-15.824 Y-23.697 E0.12461
G1 X-14.467 Y-23.660 E0.12461
G1 X-13.202 Y-23.955 E0.11911
G1 X-13.404 Y-24.663 F9000.000
G1 X-12.372 Y-25.209 E0.10716 F900.000
G1 X-11.512 Y-26.000 E0.10716
G1 X-10.882 Y-26.984 E0.10716
G1 X-10.642 Y-27.728 E0.07177
G1 X-3.450 Y-27.728 E0.65984
G1 X-3.450 Y9.872 E3.44982
G1 X-10.642 Y9.872 E0.65984
G1 X-10.882 Y9.128 E0.07177
G1 X-11.512 Y8.144 E0.10716
G1 X-12.372 Y7.353 E0.10716
G1 X-13.404 Y6.807 E0.10716
G1 X-14.541 Y6.541 E0.10716
G1 X-15.709 Y6.574 E0.10716
G1 X-16.830 Y6.902 E0.10716
G1 X-17.830 Y7.504 E0.10716
G1 X-18.644 Y8.342 E0.10716
G1 X-19.219 Y9.358 E0.10716
G1 X-19.516 Y10.488 E0.10716
G1 X-19.516 Y11.656 E0.10716
G1 X-19.219 Y12.785 E0.10716
G1 X-18.644 Y13.802 E0.10716
G1 X-17.830 Y14.639 E0.10716
G1 X-16.830 Y15.242 E0.10716
G1 X-15.709 Y15.570 E0.10716
G1 X-14.541 Y15.603 E0.10716
G1 X-13.404 Y15.337 E0.10716
G1 X-12.372 Y14.791 E0.10716
G1 X-11.512 Y14.000 E0.10716
G1 X-10.882 Y13.016 E0.10716
G1 X-10.642 Y12.272 E0.07177
G1 X-3.450 Y12.272 E0.65984
G1 X-3.450 Y20.622 E0.76612
G1 X-34.550 Y20.622 E2.85344
G1 X-34.550 Y-38.478 E5.42246
G1 X-3.450 Y-38.478 E2.85344
G1 X-3.450 Y-30.128 E0.76612
G1 X-10.642 Y-30.128 E0.65984 F900.000
G1 X-10.882 Y-30.872 E0.07177
G1 X-11.512 Y-31.856 E0.10716
G1 X-12.372 Y-32.647 E0.10716
G1 X-13.404 Y-33.193 E0.10716
G1 X-14.541 Y-33.459 E0.10716
G1 X-15.709 Y-33.426 E0.10716
G1 X-16.830 Y-33.098 E0.10716
G1 X-17.830 Y-32.496 E0.10716
G1 X-18.644 Y-31.658 E0.10716
G1 X-19.219 Y-30.642 E0.10716
G1 X-19.516 Y-29.512 E0.10716
G1 X-19.516 Y-28.344 E0.10716
G1 X-19.219 Y-27.215 E0.10716
G1 X-18.644 Y-26.198 E0.10716
G1 X-17.830 Y-25.361 E0.10716
G1 X-16.830 Y-24.758 E0.10716
G1 X-15.709 Y-24.430 E0.10716
G1 X-14.541 Y-24.397 E0.10716
G1 X-13.462 Y-24.650 E0.10165
G1 X-13.085 Y-24.422 F9000.000
G1 X-17.529 Y-23.676 F9000.000
G1 X-4.635 Y-10.782 E1.68287 F900.000
G1 X-4.635 Y-11.828 E0.09656
G1 X-16.057 Y-23.250 E1.49064
G1 X-14.980 Y-23.220 E0.09935
G1 X-4.635 Y-12.874 E1.35019
G1 X-4.635 Y-13.921 E0.09656
G1 X-14.043 Y-23.329 E1.22790
G1 X-13.195 Y-23.527 E0.08039
G1 X-4.635 Y-14.967 E1.11720
G1 X-4.635 Y-16.014 E0.09656
G1 X-12.490 Y-23.869 E1.02515
G1 X-11.805 Y-24.231 E0.07145
G1 X-4.635 Y-17.060 E0.93584
G1 X-4.635 Y-18.106 E0.09656
G1 X-11.249 Y-24.720 E0.86317
G1 X-10.704 Y-25.222 E0.06834
G1 X-4.635 Y-19.153 E0.79206
G1 X-4.635 Y-20.199 E0.09656
G1 X-10.277 Y-25.842 E0.73641
G1 X-9.869 Y-26.479 E0.06990
G1 X-4.635 Y-21.245 E0.68309
G1 X-4.635 Y-22.292 E0.09656
G1 X-8.886 Y-26.543 E0.55485
G1 X-7.840 Y-26.543 E0.09656
G1 X-4.635 Y-23.338 E0.41828
G1 X-4.635 Y-24.385 E0.09656
G1 X-6.793 Y-26.543 E0.28172
G1 X-5.747 Y-26.543 E0.09656
G1 X-4.635 Y-25.431 E0.14516
G1 E-3.20000 F3000.00000
G1 Z0.700 F9000.000
G1 X-9.909 Y-31.752 F9000.000
G1 Z0.300 F9000.000
G1 E3.20000 F3000.00000
G1 X-9.470 Y-31.313 E0.05727 F900.000
G1 X-8.424 Y-31.313 E0.09656
G1 X-14.404 Y-37.293 E0.78049
G1 X-13.358 Y-37.293 E0.09656
G1 X-7.378 Y-31.313 E0.78049
G1 X-6.331 Y-31.313 E0.09656
G1 X-12.312 Y-37.293 E0.78049
G1 X-11.265 Y-37.293 E0.09656
G1 X-5.285 Y-31.313 E0.78049
G1 X-4.635 Y-31.709 E0.07026
G1 X-10.219 Y-37.293 E0.72877
G1 X-9.172 Y-37.293 E0.09656
G1 X-4.635 Y-32.756 E0.59220
G1 X-4.635 Y-33.802 E0.09656
G1 X-8.126 Y-37.293 E0.45564
G1 X-7.080 Y-37.293 E0.09656
G1 X-4.635 Y-34.848 E0.31908
G1 X-4.635 Y-35.895 E0.09656
G1 X-6.033 Y-37.293 E0.18251
G1 X-4.987 Y-37.293 E0.09656
G1 X-4.635 Y-36.941 E0.04595
G1 X-12.108 Y-33.951 F9000.000
G1 X-15.451 Y-37.293 E0.43620 F900.000
G1 X-16.497 Y-37.293 E0.09656
G1 X-13.730 Y-34.527 E0.36107
G1 X-14.880 Y-34.630 E0.10656
G1 X-17.543 Y-37.293 E0.34754
G1 X-18.590 Y-37.293 E0.09656
G1 X-15.871 Y-34.574 E0.35485
G1 X-16.680 Y-34.337 E0.07783
G1 X-19.636 Y-37.293 E0.38578
G1 X-20.683 Y-37.293 E0.09656
G1 X-17.437 Y-34.048 E0.42359
G1 X-18.090 Y-33.654 E0.07035
G1 X-21.729 Y-37.293 E0.47492
G1 X-22.775 Y-37.293 E0.09656
G1 X-18.695 Y-33.213 E0.53252
G1 X-19.211 Y-32.683 E0.06829
G1 X-23.822 Y-37.293 E0.60174
G1 X-24.868 Y-37.293 E0.09656
G1 X-19.685 Y-32.110 E0.67644
G1 X-20.063 Y-31.442 E0.07087
G1 X-25.914 Y-37.293 E0.76369
G1 X-26.961 Y-37.293 E0.09656
G1 X-20.388 Y-30.720 E0.85785
G1 X-20.606 Y-29.892 E0.07906
G1 X-28.007 Y-37.293 E0.96597
G1 X-29.054 Y-37.293 E0.09656
G1 X-20.701 Y-28.941 E1.09010
G1 X-20.658 Y-27.851 E0.10061
G1 X-30.100 Y-37.293 E1.23227
G1 X-31.146 Y-37.293 E0.09656
G1 X-20.202 Y-26.349 E1.42830
G1 X-4.635 Y-9.735 F9000.000
G1 X-32.193 Y-37.293 E3.59658 F900.000
G1 X-33.239 Y-37.293 E0.09656
G1 X-4.635 Y-8.689 E3.73314
G1 X-4.635 Y-7.643 E0.09656
G1 X-33.365 Y-36.373 E3.74960
G1 X-33.365 Y-35.327 E0.09656
G1 X-4.635 Y-6.596 E3.74960
G1 X-4.635 Y-5.550 E0.09656
G1 X-33.365 Y-34.280 E3.74960
G1 X-33.365 Y-33.234 E0.09656
G1 X-4.635 Y-4.503 E3.74960
G1 X-4.635 Y-3.457 E0.09656
G1 X-33.365 Y-32.187 E3.74960
G1 X-33.365 Y-31.141 E0.09656
G1 X-4.635 Y-2.411 E3.74960
G1 X-4.635 Y-1.364 E0.09656
G1 X-33.365 Y-30.095 E3.74960
G1 X-33.365 Y-29.048 E0.09656
G1 X-4.635 Y-0.318 E3.74960
G1 X-4.635 Y0.728 E0.09656
G1 X-33.365 Y-28.002 E3.74960
G1 X-33.365 Y-26.956 E0.09656
G1 X-4.635 Y1.775 E3.74960
G1 X-4.635 Y2.821 E0.09656
G1 X-33.365 Y-25.909 E3.74960
G1 X-33.365 Y-24.863 E0.09656
G1 X-4.635 Y3.868 E3.74960
G1 X-4.635 Y4.914 E0.09656
G1 X-33.365 Y-23.816 E3.74960
G1 X-33.365 Y-22.770 E0.09656
G1 X-4.635 Y5.960 E3.74960
G1 X-4.635 Y7.007 E0.09656
G1 X-33.365 Y-21.724 E3.74960
G1 X-33.365 Y-20.677 E0.09656
G1 X-4.635 Y8.053 E3.74960
G1 X-5.047 Y8.687 E0.06980
G1 X-33.365 Y-19.631 E3.69578
G1 X-33.365 Y-18.585 E0.09656
G1 X-6.094 Y8.687 E3.55922
G1 X-7.140 Y8.687 E0.09656
G1 X-33.365 Y-17.538 E3.42265
G1 X-33.365 Y-16.492 E0.09656
G1 X-8.186 Y8.687 E3.28609
G1 X-9.233 Y8.687 E0.09656
G1 X-10.333 Y7.587 E0.14358
G1 X-11.604 Y6.316 F9000.000
G1 X-33.365 Y-15.445 E2.84009 F900.000
G1 X-33.365 Y-14.399 E0.09656
G1 X-13.420 Y5.546 E2.60300
G1 X-14.649 Y5.363 E0.11465
G1 X-33.365 Y-13.353 E2.44262
G1 X-33.365 Y-12.306 E0.09656
G1 X-15.667 Y5.392 E2.30973
G1 X-16.496 Y5.609 E0.07909
G1 X-33.365 Y-11.260 E2.20154
G1 X-33.365 Y-10.213 E0.09656
G1 X-17.289 Y5.863 E2.09815
G1 X-17.942 Y6.256 E0.07035
G1 X-33.365 Y-9.167 E2.01292
G1 X-33.365 Y-8.121 E0.09656
G1 X-18.578 Y6.667 E1.92989
G1 X-19.094 Y7.197 E0.06829
G1 X-33.365 Y-7.074 E1.86255
G1 X-33.365 Y-6.028 E0.09656
G1 X-19.599 Y7.738 E1.79659
G1 X-19.977 Y8.407 E0.07087
G1 X-33.365 Y-4.982 E1.74728
G1 X-33.365 Y-3.935 E0.09656
G1 X-20.338 Y9.092 E1.70014
G1 X-20.556 Y9.920 E0.07906
G1 X-33.365 Y-2.889 E1.67170
G1 X-33.365 Y-1.842 E0.09656
G1 X-20.701 Y10.822 E1.65280
G1 X-20.701 Y11.868 E0.09656
G1 X-33.365 Y-0.796 E1.65280
G1 X-33.365 Y0.250 E0.09656
G1 X-20.369 Y13.246 E1.69608
G1 X-17.193 Y16.422 F9000.000
G1 X-14.178 Y19.437 E0.39346 F900.000
G1 X-13.132 Y19.437 E0.09656
G1 X-15.812 Y16.757 E0.34978
G1 X-14.736 Y16.787 E0.09935
G1 X-12.086 Y19.437 E0.34589
G1 X-11.039 Y19.437 E0.09656
G1 X-13.851 Y16.626 E0.36692
G1 X-13.019 Y16.411 E0.07929
G1 X-9.993 Y19.437 E0.39490
G1 X-8.946 Y19.437 E0.09656
G1 X-12.334 Y16.049 E0.44215
G1 X-11.670 Y15.667 E0.07073
G1 X-7.900 Y19.437 E0.49199
G1 X-6.854 Y19.437 E0.09656
G1 X-11.125 Y15.166 E0.55744
G1 X-10.593 Y14.651 E0.06829
G1 X-5.807 Y19.437 E0.62460
G1 X-4.761 Y19.437 E0.09656
G1 X-10.185 Y14.013 E0.70784
G1 X-9.695 Y13.457 E0.06842
G1 X-4.635 Y18.517 E0.66039
G1 X-4.635 Y17.470 E0.09656
G1 X-8.649 Y13.457 E0.52383
G1 X-7.602 Y13.457 E0.09656
G1 X-4.635 Y16.424 E0.38727
G1 X-4.635 Y15.378 E0.09656
G1 X-6.556 Y13.457 E0.25070
G1 X-5.509 Y13.457 E0.09656
G1 X-4.635 Y14.331 E0.11414
G1 X-15.225 Y19.437 F9000.000
G1 X-33.365 Y1.297 E2.36751 F900.000
G1 X-33.365 Y2.343 E0.09656
G1 X-16.271 Y19.437 E2.23095
G1 X-17.317 Y19.437 E0.09656
G1 X-33.365 Y3.389 E2.09438
G1 X-33.365 Y4.436 E0.09656
G1 X-18.364 Y19.437 E1.95782
G1 X-19.410 Y19.437 E0.09656
G1 X-33.365 Y5.482 E1.82126
G1 X-33.365 Y6.529 E0.09656
G1 X-20.457 Y19.437 E1.68470
G1 X-21.503 Y19.437 E0.09656
G1 X-33.365 Y7.575 E1.54813
G1 X-33.365 Y8.621 E0.09656
G1 X-22.549 Y19.437 E1.41157
G1 X-23.596 Y19.437 E0.09656
G1 X-33.365 Y9.668 E1.27501
G1 X-33.365 Y10.714 E0.09656
G1 X-24.642 Y19.437 E1.13845
G1 X-25.688 Y19.437 E0.09656
G1 X-33.365 Y11.760 E1.00188
G1 X-33.365 Y12.807 E0.09656
G1 X-26.735 Y19.437 E0.86532
G1 X-27.781 Y19.437 E0.09656
G1 X-33.365 Y13.853 E0.72876
G1 X-33.365 Y14.900 E0.09656
G1 X-28.828 Y19.437 E0.59220
G1 X-29.874 Y19.437 E0.09656
G1 X-33.365 Y15.946 E0.45563
G1 X-33.365 Y16.992 E0.09656
G1 X-30.920 Y19.437 E0.31907
G1 X-31.967 Y19.437 E0.09656
G1 X-33.365 Y18.039 E0.18251
G1 X-33.365 Y19.085 E0.09656
G1 X-33.013 Y19.437 E0.04594
G1 E-3.20000 F3000.00000
G1 Z0.700 F9000.000
G1 X8.814 Y-0.742 F9000.000
G1 Z0.300 F9000.000
G1 E3.20000 F3000.00000
G1 X8.814 Y-17.114 E1.50207 F900.000
G1 X19.186 Y-17.114 E0.95157 F900.000
G1 X19.186 Y-0.742 E1.50207
G1 X8.874 Y-0.742 E0.94606
G1 X9.550 Y-1.478 F9000.000
G1 X9.550 Y-16.378 E1.36708 F900.000
G1 X18.450 Y-16.378 E0.81658 F900.000
G1 X18.450 Y-1.478 E1.36708
G1 X9.610 Y-1.478 E0.81107
G1 X9.150 Y-1.478 F9000.000
G1 E-3.20000 F3000.00000
G1 Z0.700 F9000.000
G1 X19.105 Y-25.400 F9000.000
G1 Z0.300 F9000.000
G1 E3.20000 F3000.00000
G1 X19.709 Y-24.779 E0.07948 F900.000
G1 X20.872 Y-24.079 E0.12461
G1 X22.176 Y-23.697 E0.12461
G1 X23.533 Y-23.660 E0.12461
G1 X24.856 Y-23.968 E0.12461
G1 X26.056 Y-24.604 E0.12461
G1 X27.056 Y-25.523 E0.12461
G1 X27.789 Y-26.667 E0.12461
G1 X27.894 Y-26.992 E0.03138
G1 X33.814 Y-26.992 E0.54323
G1 X33.814 Y9.136 E3.31483
G1 X27.894 Y9.136 E0.54323
G1 X27.789 Y8.811 E0.03138
G1 X27.056 Y7.667 E0.12461
G1 X26.056 Y6.748 E0.12461
G1 X24.856 Y6.112 E0.12461
G1 X23.533 Y5.803 E0.12461
G1 X22.176 Y5.841 E0.12461
G1 X20.891 Y6.217 E0.12284
G1 X19.710 Y6.922 E0.12612
G1 X18.762 Y7.897 E0.12482
G1 X18.094 Y9.079 E0.12461
G1 X17.748 Y10.393 E0.12461
G1 X17.748 Y11.751 E0.12461
G1 X18.089 Y13.046 E0.12284
G1 X18.760 Y14.245 E0.12612
G1 X19.709 Y15.221 E0.12483
G1 X20.872 Y15.921 E0.12461
G1 X22.176 Y16.303 E0.12461
G1 X23.533 Y16.340 E0.12461
G1 X24.856 Y16.032 E0.12461
G1 X26.056 Y15.396 E0.12461
G1 X27.056 Y14.477 E0.12461
G1 X27.789 Y13.333 E0.12461
G1 X27.894 Y13.008 E0.03138
G1 X33.814 Y13.008 E0.54323
G1 X33.814 Y19.886 E0.63113
G1 X4.186 Y19.886 E2.71845
G1 X4.186 Y-37.742 E5.28747
G1 X33.814 Y-37.742 E2.71845
G1 X33.814 Y-30.864 E0.63113
G1 X27.894 Y-30.864 E0.54323 F900.000
G1 X27.789 Y-31.189 E0.03138
G1 X27.056 Y-32.333 E0.12461
G1 X26.056 Y-33.252 E0.12461
G1 X24.856 Y-33.888 E0.12461
G1 X23.531 Y-34.197 E0.12482
G1 X22.157 Y-34.154 E0.12612
G1 X20.872 Y-33.777 E0.12284
G1 X19.709 Y-33.077 E0.12461
G1 X18.762 Y-32.103 E0.12461
G1 X18.094 Y-30.921 E0.12461
G1 X17.748 Y-29.607 E0.12461
G1 X17.748 Y-28.249 E0.12461
G1 X18.094 Y-26.935 E0.12461
G1 X18.762 Y-25.753 E0.12461
G1 X19.063 Y-25.443 E0.03963
G1 X19.590 Y-25.956 F9000.000
G1 X20.170 Y-25.361 E0.07626 F900.000
G1 X21.170 Y-24.758 E0.10716
G1 X22.291 Y-24.430 E0.10716
G1 X23.459 Y-24.397 E0.10716
G1 X24.596 Y-24.663 E0.10716
G1 X25.628 Y-25.209 E0.10716
G1 X26.488 Y-26.000 E0.10716
G1 X27.118 Y-26.984 E0.10716
G1 X27.358 Y-27.728 E0.07177
G1 X34.550 Y-27.728 E0.65984
G1 X34.550 Y9.872 E3.44982
G1 X27.358 Y9.872 E0.65984
G1 X27.118 Y9.128 E0.07177
G1 X26.488 Y8.144 E0.10716
G1 X25.628 Y7.353 E0.10716
G1 X24.596 Y6.807 E0.10716
G1 X23.459 Y6.541 E0.10716
G1 X22.291 Y6.574 E0.10716
G1 X21.187 Y6.897 E0.10553
G1 X20.170 Y7.504 E0.10867
G1 X19.356 Y8.342 E0.10723
G1 X18.781 Y9.358 E0.10716
G1 X18.484 Y10.488 E0.10716
G1 X18.484 Y11.656 E0.10716
G1 X18.776 Y12.768 E0.10553
G1 X19.355 Y13.802 E0.10867
G1 X20.170 Y14.639 E0.10723
G1 X21.170 Y15.242 E0.10716
G1 X22.291 Y15.570 E0.10716
G1 X23.459 Y15.603 E0.10716
G1 X24.596 Y15.337 E0.10716
G1 X25.628 Y14.791 E0.10716
G1 X26.488 Y14.000 E0.10716
G1 X27.118 Y13.016 E0.10716
G1 X27.358 Y12.272 E0.07177
G1 X34.550 Y12.272 E0.65984
G1 X34.550 Y20.622 E0.76612
G1 X3.450 Y20.622 E2.85344
G1 X3.450 Y-38.478 E5.42246
G1 X34.550 Y-38.478 E2.85344
G1 X34.550 Y-30.128 E0.76612
G1 X27.358 Y-30.128 E0.65984 F900.000
G1 X27.118 Y-30.872 E0.07177
G1 X26.488 Y-31.856 E0.10716
G1 X25.628 Y-32.647 E0.10716
G1 X24.596 Y-33.193 E0.10716
G1 X23.458 Y-33.459 E0.10723
G1 X22.274 Y-33.421 E0.10867
G1 X21.170 Y-33.098 E0.10553
G1 X20.170 Y-32.496 E0.10716
G1 X19.356 Y-31.658 E0.10716
G1 X18.781 Y-30.642 E0.10716
G1 X18.484 Y-29.512 E0.10716
G1 X18.484 Y-28.344 E0.10716
G1 X18.781 Y-27.215 E0.10716
G1 X19.356 Y-26.198 E0.10716
G1 X19.549 Y-25.999 E0.02540
G1 X19.481 Y-25.571 F9000.000
G1 X17.798 Y-26.349 F9000.000
G1 X6.854 Y-37.293 E1.42830 F900.000
G1 X7.900 Y-37.293 E0.09656
G1 X17.342 Y-27.851 E1.23227
G1 X17.299 Y-28.941 E0.10061
G1 X8.946 Y-37.293 E1.09010
G1 X9.993 Y-37.293 E0.09656
G1 X17.394 Y-29.892 E0.96597
G1 X17.612 Y-30.720 E0.07906
G1 X11.039 Y-37.293 E0.85785
G1 X12.086 Y-37.293 E0.09656
G1 X17.937 Y-31.442 E0.76369
