; generated by Slic3r 1.2.9 on 2016-10-24 at 10:51:37

; external perimeters extrusion width = 0.50mm
; perimeters extrusion width = 0.50mm
; infill extrusion width = 0.50mm
; solid infill extrusion width = 0.50mm
; top infill extrusion width = 0.50mm

M107
;Basic settings: Layer height: {layer_height} Walls: {wall_thickness} Fill: {fill_density}
;Print time: {print_time}
;Filament used: {filament_amount}m {filament_weight}g
;Filament cost: {filament_cost}
;M190 S{print_bed_temperature} ;Uncomment to add your own bed temperature line
;M109 S{print_temperature} ;Uncomment to add your own temperature line
G21        ;metric values
G90        ;absolute positioning
M83
G10 P0 S200
T0
M116


G21 ; set units to millimeters
G90 ; use absolute coordinates
M83 ; use relative distances for extrusion
G1 E-3.20000 F3000.00000
G1 Z0.400 F9000.000
G1 X-40.473 Y19.041 F9000.000
G1 Z0.300 F9000.000
G1 E3.20000 F3000.00000
G1 X-47.125 Y4.902 E1.43361 F1200.000
G1 X-47.480 Y3.312 E0.14951
G1 X-47.480 Y-5.288 E0.78905
G1 X-47.102 Y-6.926 E0.15419
G1 X-20.809 Y-60.837 E5.50336
G1 X-19.722 Y-62.167 E0.15755
G1 X-17.452 Y-62.936 E0.21993
G1 X-12.433 Y-62.936 E0.46047
G1 X-11.709 Y-62.865 E0.06677
G1 X28.771 Y-54.865 E3.78589 F1200.000
G1 X30.334 Y-54.154 E0.15755
G1 X31.504 Y-52.615 E0.17730
G1 X52.505 Y-1.324 E5.08526
G1 X52.784 Y0.092 E0.13236
G1 X52.781 Y9.140 E0.83019
G1 X52.735 Y10.088 E0.08705
G1 X52.617 Y11.028 E0.08697
G1 X52.428 Y11.957 E0.08695
G1 X52.170 Y12.869 E0.08696
G1 X51.844 Y13.759 E0.08695
G1 X51.451 Y14.621 E0.08695
G1 X50.994 Y15.451 E0.08692
G1 X50.558 Y16.131 E0.07416
G1 X43.150 Y26.842 E1.19485
G1 X42.069 Y27.878 E0.13739
G1 X-12.674 Y62.361 E5.93608
G1 X-14.665 Y62.936 E0.19014
G1 X-17.452 Y62.936 E0.25566
G1 X-19.123 Y62.541 E0.15755
G1 X-20.832 Y60.790 E0.22448
G1 X-40.448 Y19.095 E4.22776
G1 E-3.20000 F3000.00000
G1 Z0.700 F9000.000
G1 X-16.316 Y33.057 F9000.000
G1 Z0.300 F9000.000
G1 E3.20000 F3000.00000
G1 X-16.316 Y20.936 E1.11218 F900.000
G1 X21.300 Y20.936 E3.45130
G1 X21.672 Y20.903 E0.03426
G1 X22.083 Y20.793 E0.03903
G1 X22.469 Y20.613 E0.03903
G1 X22.817 Y20.369 E0.03903
G1 X23.118 Y20.068 E0.03903
G1 X23.362 Y19.720 E0.03902
G1 X23.541 Y19.335 E0.03903
G1 X23.651 Y18.924 E0.03903
G1 X23.684 Y18.552 E0.03425
G1 X23.684 Y0.936 E1.61629
G1 X25.714 Y0.936 E0.18629
G1 X25.592 Y-5.386 E0.58015
G1 X25.611 Y-5.472 E0.00804
G1 X25.687 Y-5.629 E0.01604
G1 X25.807 Y-5.756 E0.01604
G1 X25.881 Y-5.804 E0.00804
G1 X26.046 Y-5.862 E0.01604
G1 X26.221 Y-5.867 E0.01604
G1 X26.306 Y-5.848 E0.00804 F900.000
G1 X26.464 Y-5.773 E0.01604
G1 X26.623 Y-5.619 E0.02031
G1 X34.326 Y4.343 E1.15540
G1 X33.978 Y4.819 E0.05417
G1 X33.635 Y5.385 E0.06072
G1 X33.343 Y5.980 E0.06075
G1 X33.105 Y6.597 E0.06073
G1 X32.942 Y7.164 E0.05417
G1 X29.077 Y7.164 E0.35460
G1 X28.998 Y7.101 E0.00928
G1 X28.651 Y6.907 E0.03642
G1 X28.272 Y6.775 E0.03687
G1 X27.869 Y6.713 E0.03737
G1 X27.488 Y6.717 E0.03500
G1 X27.098 Y6.790 E0.03641
G1 X26.726 Y6.929 E0.03642
G1 X26.384 Y7.130 E0.03642
G1 X26.081 Y7.387 E0.03642
G1 X25.828 Y7.693 E0.03641
G1 X25.631 Y8.037 E0.03642
G1 X25.496 Y8.411 E0.03642
G1 X25.427 Y8.802 E0.03642
G1 X25.427 Y9.198 E0.03642
G1 X25.496 Y9.589 E0.03642
G1 X25.631 Y9.963 E0.03642
G1 X25.828 Y10.307 E0.03642
G1 X26.081 Y10.613 E0.03641
G1 X26.384 Y10.870 E0.03641
G1 X26.726 Y11.071 E0.03642
G1 X27.098 Y11.210 E0.03642
G1 X27.488 Y11.283 E0.03641
G1 X27.885 Y11.287 E0.03641
G1 X28.277 Y11.223 E0.03642
G1 X28.651 Y11.093 E0.03642
G1 X28.998 Y10.899 E0.03642
G1 X29.077 Y10.836 E0.00928
G1 X32.946 Y10.836 E0.35498
G1 X33.067 Y11.288 E0.04298
G1 X33.306 Y11.934 E0.06320
G1 X33.603 Y12.556 E0.06319
G1 X33.955 Y13.147 E0.06319
G1 X34.360 Y13.705 E0.06320
G1 X34.814 Y14.222 E0.06319
G1 X35.314 Y14.697 E0.06320
G1 X35.854 Y15.123 E0.06320
G1 X36.432 Y15.499 E0.06320
G1 X37.041 Y15.820 E0.06319
G1 X37.677 Y16.085 E0.06319
G1 X38.335 Y16.290 E0.06320
G1 X39.008 Y16.434 E0.06319
G1 X39.692 Y16.516 E0.06320
G1 X40.380 Y16.536 E0.06320
G1 X41.068 Y16.492 E0.06319
G1 X41.748 Y16.386 E0.06319
G1 X42.416 Y16.218 E0.06320
G1 X43.066 Y15.990 E0.06320
G1 X43.693 Y15.704 E0.06319
G1 X44.290 Y15.361 E0.06320
G1 X44.854 Y14.966 E0.06319
G1 X45.146 Y14.719 E0.03508
G1 X45.432 Y14.979 E0.03550
G1 X39.276 Y23.880 E0.99303
G1 X-14.993 Y58.064 E5.88469
G1 X-16.316 Y58.064 E0.12139
G1 X-16.316 Y33.117 E2.28889
G1 E-3.20000 F3000.00000
G1 Z0.700 F9000.000
G1 X21.658 Y-50.064 F9000.000
G1 Z0.300 F9000.000
G1 E3.20000 F3000.00000
G1 X27.285 Y-50.064 E0.51631 F900.000
G1 X47.913 Y0.315 E4.99482
G1 X47.913 Y7.013 E0.61453
G1 X47.542 Y7.073 E0.03447
G1 X47.285 Y6.299 E0.07483
G1 X47.009 Y5.668 E0.06319
G1 X46.676 Y5.065 E0.06319
G1 X46.290 Y4.494 E0.06320
G1 X45.850 Y3.957 E0.06371
G1 X45.312 Y3.422 E0.06967
G1 X44.844 Y3.027 E0.05618
G1 X44.274 Y2.628 E0.06380
G1 X43.598 Y2.252 E0.07102
G1 X43.055 Y2.005 E0.05474
G1 X42.397 Y1.776 E0.06389
G1 X41.630 Y1.595 E0.07236
G1 X41.055 Y1.506 E0.05330
G1 X40.359 Y1.464 E0.06398
G1 X39.557 Y1.500 E0.07371
G1 X38.996 Y1.568 E0.05186
G1 X38.323 Y1.713 E0.06319
G1 X37.665 Y1.920 E0.06320
G1 X37.233 Y2.100 E0.04298
G1 X25.811 Y-12.670 E1.71305
G1 X25.701 Y-38.554 E2.37494
G1 X25.671 Y-39.090 E0.04923
G1 X25.580 Y-39.650 E0.05208
G1 X25.431 Y-40.198 E0.05208
G1 X25.226 Y-40.727 E0.05207
G1 X24.966 Y-41.232 E0.05207
G1 X24.656 Y-41.707 E0.05208
G1 X24.298 Y-42.147 E0.05208
G1 X23.896 Y-42.548 E0.05207
G1 X23.454 Y-42.904 E0.05207
G1 X22.977 Y-43.213 E0.05208
G1 X22.471 Y-43.470 E0.05208
G1 X21.941 Y-43.673 E0.05208
G1 X21.393 Y-43.819 E0.05207
G1 X20.832 Y-43.908 E0.05208
G1 X20.296 Y-43.936 E0.04923
G1 X-16.316 Y-43.936 E3.35920
G1 X-16.316 Y-58.064 E1.29632
G1 X-12.723 Y-58.064 E0.32961
G1 X-7.513 Y-55.210 E0.54510
G1 X1.881 Y-50.064 E0.98274 F900.000
G1 X21.598 Y-50.064 E1.80901
G1 X21.598 Y-50.800 F9000.000
G1 X27.779 Y-50.800 E0.56711 F900.000
G1 X48.648 Y0.171 E5.05340
G1 X48.648 Y8.991 E0.80932
G1 X48.624 Y9.635 E0.05906
G1 X48.552 Y10.266 E0.05828
G1 X48.433 Y10.890 E0.05828
G1 X48.267 Y11.503 E0.05828
G1 X48.055 Y12.101 E0.05827
G1 X47.798 Y12.682 E0.05828
G1 X47.498 Y13.242 E0.05828
G1 X47.152 Y13.785 E0.05906
G1 X39.795 Y24.422 E1.18665
G1 X-14.781 Y58.800 E5.91798
G1 X-17.052 Y58.800 E0.20837
G1 X-17.052 Y20.200 E3.54157
G1 X21.268 Y20.200 E3.51585
G1 X21.544 Y20.176 E0.02541
G1 X21.830 Y20.099 E0.02722
G1 X22.099 Y19.974 E0.02722
G1 X22.342 Y19.804 E0.02722
G1 X22.552 Y19.594 E0.02722
G1 X22.722 Y19.351 E0.02721
G1 X22.848 Y19.082 E0.02722
G1 X22.924 Y18.795 E0.02722
G1 X22.948 Y18.520 E0.02540
G1 X22.948 Y0.200 E1.68084
G1 X24.963 Y0.200 E0.18486
G1 X24.849 Y-5.266 E0.50159
G1 X24.861 Y-5.486 E0.02025
G1 X24.904 Y-5.684 E0.01863
G1 X24.978 Y-5.874 E0.01863
G1 X25.080 Y-6.049 E0.01863
G1 X25.208 Y-6.207 E0.01863
G1 X25.359 Y-6.342 E0.01863
G1 X25.530 Y-6.453 E0.01863
G1 X25.715 Y-6.535 E0.01863
G1 X25.912 Y-6.587 E0.01863
G1 X26.113 Y-6.609 E0.01863
G1 X26.316 Y-6.598 E0.01863
G1 X26.515 Y-6.556 E0.01863
G1 X26.705 Y-6.484 E0.01863
G1 X26.881 Y-6.383 E0.01863
G1 X27.039 Y-6.255 E0.01863
G1 X27.187 Y-6.092 E0.02025
G1 X35.275 Y4.367 E1.21306
G1 X34.943 Y4.746 E0.04621
G1 X34.590 Y5.228 E0.05479
G1 X34.281 Y5.738 E0.05479
G1 X34.018 Y6.275 E0.05481
G1 X33.803 Y6.832 E0.05479
G1 X33.636 Y7.410 E0.05520
G1 X33.552 Y7.900 E0.04563
G1 X28.816 Y7.900 E0.43453
G1 X28.584 Y7.712 E0.02736
G1 X28.349 Y7.581 E0.02469
G1 X28.093 Y7.492 E0.02485
G1 X27.817 Y7.449 E0.02565
G1 X27.560 Y7.452 E0.02357
G1 X27.296 Y7.502 E0.02469
G1 X27.044 Y7.596 E0.02470
G1 X26.811 Y7.732 E0.02469
G1 X26.606 Y7.907 E0.02469
G1 X26.434 Y8.114 E0.02469
G1 X26.301 Y8.347 E0.02469
G1 X26.209 Y8.600 E0.02470
G1 X26.163 Y8.865 E0.02469
G1 X26.163 Y9.135 E0.02469
G1 X26.209 Y9.400 E0.02469
G1 X26.301 Y9.653 E0.02470
G1 X26.435 Y9.886 E0.02469
G1 X26.606 Y10.093 E0.02469
G1 X26.811 Y10.268 E0.02469
G1 X27.044 Y10.404 E0.02470
G1 X27.296 Y10.498 E0.02470
G1 X27.560 Y10.548 E0.02469
G1 X27.829 Y10.551 E0.02469
G1 X28.095 Y10.507 E0.02469
G1 X28.349 Y10.419 E0.02470
G1 X28.584 Y10.288 E0.02469
G1 X28.816 Y10.100 E0.02736
G1 X33.548 Y10.100 E0.43420
G1 X33.607 Y10.462 E0.03368
G1 X33.769 Y11.064 E0.05721
G1 X33.984 Y11.647 E0.05702
G1 X34.252 Y12.208 E0.05702
G1 X34.570 Y12.742 E0.05702
G1 X34.935 Y13.245 E0.05702
G1 X35.345 Y13.712 E0.05702
G1 X35.796 Y14.140 E0.05702
G1 X36.284 Y14.525 E0.05702
G1 X36.805 Y14.864 E0.05702
G1 X37.354 Y15.154 E0.05702
G1 X37.928 Y15.392 E0.05702
G1 X38.522 Y15.578 E0.05702
G1 X39.129 Y15.708 E0.05702
G1 X39.746 Y15.782 E0.05702
G1 X40.367 Y15.799 E0.05702
G1 X40.988 Y15.760 E0.05702
G1 X41.602 Y15.664 E0.05702
G1 X42.205 Y15.513 E0.05702
G1 X42.791 Y15.307 E0.05702
G1 X43.356 Y15.049 E0.05702
G1 X43.895 Y14.740 E0.05702
G1 X44.404 Y14.383 E0.05702
G1 X44.878 Y13.981 E0.05702
G1 X45.314 Y13.538 E0.05702
G1 X45.707 Y13.056 E0.05702
G1 X46.054 Y12.541 E0.05702
G1 X46.353 Y11.996 E0.05702
G1 X46.601 Y11.426 E0.05702
G1 X46.796 Y10.836 E0.05702
G1 X46.937 Y10.231 E0.05702
G1 X47.021 Y9.615 E0.05702
G1 X47.049 Y8.994 E0.05702
G1 X47.020 Y8.374 E0.05702
G1 X46.935 Y7.758 E0.05702
G1 X46.793 Y7.153 E0.05702
G1 X46.597 Y6.563 E0.05702
G1 X46.348 Y5.994 E0.05702
G1 X46.048 Y5.449 E0.05702
G1 X45.700 Y4.935 E0.05702
G1 X45.305 Y4.452 E0.05720
G1 X44.814 Y3.964 E0.06350
G1 X44.395 Y3.610 E0.05034
G1 X43.884 Y3.253 E0.05723
G1 X43.266 Y2.910 E0.06484
G1 X42.781 Y2.689 E0.04896
G1 X42.191 Y2.483 E0.05727
G1 X41.489 Y2.318 E0.06619
G1 X40.977 Y2.239 E0.04758
G1 X40.353 Y2.200 E0.05730
G1 X39.618 Y2.233 E0.06753
G1 X39.118 Y2.294 E0.04620
G1 X38.511 Y2.425 E0.05702
G1 X37.918 Y2.611 E0.05702
G1 X37.342 Y2.852 E0.05721
G1 X37.020 Y3.027 E0.03368
G1 X25.077 Y-12.417 E1.79122
G1 X24.965 Y-38.532 E2.39607
G1 X24.938 Y-39.010 E0.04394
G1 X24.860 Y-39.494 E0.04502
G1 X24.731 Y-39.968 E0.04502
G1 X24.554 Y-40.425 E0.04502
G1 X24.330 Y-40.862 E0.04502
G1 X24.061 Y-41.273 E0.04502
G1 X23.752 Y-41.653 E0.04502
G1 X23.404 Y-41.999 E0.04502
G1 X23.022 Y-42.308 E0.04502
G1 X22.610 Y-42.574 E0.04502
G1 X22.172 Y-42.796 E0.04502
G1 X21.714 Y-42.972 E0.04502
G1 X21.240 Y-43.098 E0.04502
G1 X20.755 Y-43.175 E0.04502
G1 X20.277 Y-43.200 E0.04394
G1 X-17.052 Y-43.200 E3.42494
G1 X-17.052 Y-58.800 E1.43131
G1 X-12.535 Y-58.800 E0.41438
G1 X-7.160 Y-55.855 E0.56237
G1 X2.069 Y-50.800 E0.96546 F900.000
G1 X21.538 Y-50.800 E1.78623
G1 X21.798 Y-50.454 F9000.000
G1 X27.058 Y-49.246 F9000.000
G1 X26.689 Y-49.615 E0.04847 F900.000
G1 X25.635 Y-49.615 E0.09799
G1 X27.789 Y-47.462 E0.28314
G1 X28.520 Y-45.677 F9000.000
G1 X24.581 Y-49.615 E0.51781 F900.000
G1 X23.527 Y-49.615 E0.09799
G1 X29.250 Y-43.892 E0.75248
G1 X29.981 Y-42.107 F9000.000
G1 X22.473 Y-49.615 E0.98715 F900.000
G1 X21.419 Y-49.615 E0.09799
G1 X30.712 Y-40.322 E1.22182
G1 X31.443 Y-38.537 F9000.000
G1 X20.365 Y-49.615 E1.45649 F900.000
G1 X19.311 Y-49.615 E0.09799
G1 X32.174 Y-36.752 E1.69116
G1 X32.905 Y-34.967 F9000.000
G1 X18.257 Y-49.615 E1.92583 F900.000
G1 X17.202 Y-49.615 E0.09799
G1 X23.029 Y-43.788 E0.76606
G1 X21.476 Y-44.287 E0.15164
G1 X16.148 Y-49.615 E0.70047
G1 X15.094 Y-49.615 E0.09799
G1 X20.325 Y-44.385 E0.68765
G1 X19.270 Y-44.385 E0.09799
G1 X14.040 Y-49.615 E0.68765
G1 X12.986 Y-49.615 E0.09799
G1 X18.216 Y-44.385 E0.68765
G1 X17.162 Y-44.385 E0.09799
G1 X11.932 Y-49.615 E0.68765
G1 X10.878 Y-49.615 E0.09799
G1 X16.108 Y-44.385 E0.68765
G1 X15.054 Y-44.385 E0.09799
G1 X9.824 Y-49.615 E0.68765
G1 X8.770 Y-49.615 E0.09799
G1 X14.000 Y-44.385 E0.68765
G1 X12.946 Y-44.385 E0.09799
G1 X7.716 Y-49.615 E0.68765
G1 X6.661 Y-49.615 E0.09799
G1 X11.892 Y-44.385 E0.68765
G1 X10.838 Y-44.385 E0.09799
G1 X5.607 Y-49.615 E0.68765
G1 X4.553 Y-49.615 E0.09799
G1 X9.784 Y-44.385 E0.68765
G1 X8.730 Y-44.385 E0.09799
G1 X3.499 Y-49.615 E0.68765
G1 X2.445 Y-49.615 E0.09799
G1 X7.675 Y-44.385 E0.68765
G1 X6.621 Y-44.385 E0.09799
G1 X1.174 Y-49.832 E0.71616
G1 X-1.157 Y-51.109 F9000.000
G1 X5.567 Y-44.385 E0.88403 F900.000
G1 X4.513 Y-44.385 E0.09799
G1 X-3.488 Y-52.386 E1.05190
G1 X-5.819 Y-53.663 F9000.000
G1 X3.459 Y-44.385 E1.21976 F900.000
G1 X2.405 Y-44.385 E0.09799
G1 X-8.150 Y-54.939 E1.38763
G1 X-10.481 Y-56.216 F9000.000
G1 X1.351 Y-44.385 E1.55550 F900.000
G1 X0.297 Y-44.385 E0.09799
G1 X-12.811 Y-57.493 E1.72337
G1 X-13.988 Y-57.615 E0.10994
G1 X-0.757 Y-44.385 E1.73943
G1 X-1.811 Y-44.385 E0.09799
G1 X-15.042 Y-57.615 E1.73943
G1 X-15.867 Y-57.386 E0.07960
G1 X-2.866 Y-44.385 E1.70930
G1 X-3.920 Y-44.385 E0.09799
G1 X-15.867 Y-56.332 E1.57072
G1 X-15.867 Y-55.278 E0.09799
G1 X-4.974 Y-44.385 E1.43213
G1 X-6.028 Y-44.385 E0.09799
G1 X-15.867 Y-54.224 E1.29355
G1 X-15.867 Y-53.170 E0.09799
G1 X-7.082 Y-44.385 E1.15496
G1 X-8.136 Y-44.385 E0.09799
G1 X-15.867 Y-52.116 E1.01638
G1 X-15.867 Y-51.061 E0.09799
G1 X-9.190 Y-44.385 E0.87779
G1 X-10.244 Y-44.385 E0.09799
G1 X-15.867 Y-50.007 E0.73921
G1 X-15.867 Y-48.953 E0.09799
G1 X-11.298 Y-44.385 E0.60063
G1 X-12.352 Y-44.385 E0.09799
G1 X-15.867 Y-47.899 E0.46204
G1 X-15.867 Y-46.845 E0.09799
G1 X-13.406 Y-44.385 E0.32346
G1 X-14.461 Y-44.385 E0.09799
G1 X-15.867 Y-45.791 E0.18487
G1 X-15.867 Y-44.737 E0.09799
G1 X-15.515 Y-44.385 E0.04629
G1 E-3.20000 F3000.00000
G1 Z0.700 F9000.000
G1 X25.555 Y-41.262 F9000.000
G1 Z0.300 F9000.000
G1 E3.20000 F3000.00000
G1 X33.635 Y-33.182 E1.06231 F900.000
G1 X34.366 Y-31.397 F9000.000
G1 X26.052 Y-39.711 E1.09307 F900.000
G1 X26.151 Y-38.559 E0.10755
G1 X35.097 Y-29.612 E1.17620
G1 X35.828 Y-27.827 F9000.000
G1 X26.155 Y-37.500 E1.27169 F900.000
G1 X26.160 Y-36.441 E0.09842
G1 X36.559 Y-26.042 E1.36718
G1 X37.290 Y-24.257 F9000.000
G1 X26.164 Y-35.383 E1.46268 F900.000
G1 X26.169 Y-34.324 E0.09842
G1 X38.020 Y-22.473 E1.55817
G1 X38.751 Y-20.688 F9000.000
G1 X26.173 Y-33.266 E1.65366 F900.000
G1 X26.178 Y-32.207 E0.09842
G1 X39.482 Y-18.903 E1.74915
G1 X40.213 Y-17.118 F9000.000
G1 X26.182 Y-31.148 E1.84464 F900.000
G1 X26.187 Y-30.090 E0.09842
G1 X40.944 Y-15.333 E1.94013
G1 X41.675 Y-13.548 F9000.000
G1 X26.191 Y-29.031 E2.03562 F900.000
G1 X26.196 Y-27.972 E0.09842
G1 X42.406 Y-11.763 E2.13111
G1 X43.136 Y-9.978 F9000.000
G1 X26.201 Y-26.914 E2.22660 F900.000
G1 X26.205 Y-25.855 E0.09842
G1 X43.867 Y-8.193 E2.32209
G1 X44.598 Y-6.408 F9000.000
G1 X26.210 Y-24.797 E2.41758 F900.000
G1 X26.214 Y-23.738 E0.09842
G1 X45.329 Y-4.623 E2.51307
G1 X46.060 Y-2.838 F9000.000
G1 X26.219 Y-22.679 E2.60856 F900.000
G1 X26.223 Y-21.621 E0.09842
G1 X46.791 Y-1.053 E2.70405
G1 X47.464 Y0.674 F9000.000
G1 X26.228 Y-20.562 E2.79195 F900.000
G1 X26.232 Y-19.504 E0.09842
G1 X47.464 Y1.728 E2.79135
G1 X47.464 Y2.782 E0.09799
G1 X26.237 Y-18.445 E2.79076
G1 X26.241 Y-17.386 E0.09842
G1 X47.464 Y3.836 E2.79016
G1 X46.767 Y4.194 E0.07277
G1 X47.464 Y4.890 E0.09153
G1 X45.057 Y2.484 F9000.000
G1 X26.246 Y-16.328 E2.47321 F900.000
G1 X26.250 Y-15.269 E0.09842
G1 X42.947 Y1.428 E2.19522
G1 X41.571 Y1.105 E0.13146
G1 X26.255 Y-14.210 E2.01362
G1 X26.259 Y-13.152 E0.09842
G1 X40.429 Y1.018 E1.86289
G1 X39.437 Y1.080 E0.09242
G1 X29.454 Y-8.903 E1.31245
G1 X33.050 Y-4.253 F9000.000
G1 X38.540 Y1.237 E0.72179 F900.000
G1 X37.721 Y1.473 E0.07918
G1 X36.646 Y0.397 E0.14142
G1 E-3.20000 F3000.00000
G1 Z0.700 F9000.000
G1 X30.054 Y-0.238 F9000.000
G1 Z0.300 F9000.000
G1 E3.20000 F3000.00000
G1 X26.067 Y-4.225 E0.51952 F900.000
G1 X26.051 Y-5.286 E0.09772
G1 X26.491 Y-4.846 E0.05724
G1 X26.088 Y-3.160 F9000.000
G1 X33.618 Y4.370 E0.98119 F900.000
G1 X33.333 Y5.130 E0.07473
G1 X26.108 Y-2.095 E0.94132
G1 X26.129 Y-1.029 E0.09816
G1 X32.980 Y5.821 E0.89262
G1 X32.684 Y6.570 E0.07419
G1 X26.149 Y0.036 E0.85142
G1 X26.170 Y1.101 F9000.000
G1 X31.784 Y6.715 E0.73151 F900.000
G1 X30.739 Y6.715 E0.09625
G1 X25.409 Y1.385 E0.69453
G1 X24.364 Y1.385 E0.09625
G1 X29.695 Y6.715 E0.69453
G1 X28.222 Y6.287 E0.14131
G1 X24.133 Y2.198 E0.53275
G1 X24.133 Y3.243 E0.09625
G1 X27.226 Y6.336 E0.40299
G1 X26.471 Y6.625 E0.07453
G1 X24.133 Y4.288 E0.30456
G1 X24.133 Y5.332 E0.09625
G1 X25.866 Y7.065 E0.22575
G1 X25.402 Y7.646 E0.06849
G1 X24.133 Y6.377 E0.16537
G1 X24.133 Y7.422 E0.09625
G1 X25.080 Y8.368 E0.12335
