; generated by Slic3r 1.2.9 on 2017-03-08 at 12:52:24

; external perimeters extrusion width = 0.40mm
; perimeters extrusion width = 0.40mm
; infill extrusion width = 0.40mm
; solid infill extrusion width = 0.40mm
; top infill extrusion width = 0.40mm

M107
M83
T0
M116
G21 ; set units to millimeters
G90 ; use absolute coordinates
M83 ; use relative distances for extrusion
G1 E-3.20000 F3000.00000
G1 Z0.400 F15000.000
G1 X26.116 Y2.136 F15000.000
G1 Z0.300 F15000.000
G1 E3.20000 F3000.00000
G1 X24.804 Y18.182 E1.24073 F960.000
G1 X24.588 Y19.796 E0.12550
G1 X24.501 Y20.231 E0.03419
G1 X24.117 Y21.681 E0.11556
G1 X23.914 Y22.251 E0.04670
G1 X23.295 Y23.618 E0.11566
G1 X22.969 Y24.193 E0.05089
G1 X22.153 Y25.367 E0.11018
G1 X21.751 Y25.850 E0.04842
G1 X20.746 Y26.865 E0.11006
G1 X20.341 Y27.217 E0.04137
G1 X19.197 Y28.074 E0.11015
G1 X18.828 Y28.317 E0.03405
G1 X17.590 Y29.027 E0.11000
G1 X17.287 Y29.183 E0.02627
G1 X15.928 Y29.790 E0.11466
G1 X14.383 Y30.354 E0.12677
G1 X12.711 Y30.835 E0.13407
G1 X9.809 Y31.416 E0.22812
G1 X9.471 Y31.466 E0.02634
G1 X6.563 Y31.756 E0.22520
G1 X6.238 Y31.774 E0.02511
G1 X3.460 Y31.802 E0.21407
G1 X3.134 Y31.790 E0.02513
G1 X0.155 Y31.546 E0.23036
G1 X-0.348 Y31.473 E0.03920
G1 X-2.724 Y31.045 E0.18607
G1 X-3.222 Y30.937 E0.03926
G1 X-6.105 Y30.118 E0.23093
G1 X-6.435 Y30.007 E0.02683
G1 X-9.046 Y28.976 E0.21638
G1 X-9.344 Y28.840 E0.02523
G1 X-11.817 Y27.575 E0.21405
G1 X-12.125 Y27.398 E0.02736
G1 X-14.462 Y25.897 E0.21402
G1 X-14.936 Y25.558 E0.04495
G1 X-16.943 Y23.966 E0.19740
G1 X-17.330 Y23.636 E0.03923
G1 X-19.481 Y21.555 E0.23063
G1 X-19.719 Y21.300 E0.02688
G1 X-21.516 Y19.182 E0.21409
G1 X-22.712 Y17.535 E0.15686
G1 X-23.472 Y16.354 E0.10819
G1 X-24.351 Y14.813 E0.13675
G1 X-24.974 Y13.562 E0.10770
G1 X-25.605 Y12.123 E0.12109
G1 X-26.312 Y10.170 E0.16008
G1 X-26.965 Y7.846 E0.18606
G1 X-27.147 Y7.083 E0.06040
G1 X-27.652 Y4.279 E0.21957
G1 X-27.953 Y1.507 E0.21489
G1 X-28.001 Y0.844 E0.05125
G1 X-28.105 Y-1.696 E0.19588
G1 X-28.092 Y-4.702 E0.23166
G1 X-27.950 Y-7.802 E0.23916
G1 X-27.619 Y-10.959 E0.24461
G1 X-27.055 Y-13.952 E0.23473
G1 X-26.982 Y-14.260 E0.02439
G1 X-26.494 Y-15.950 E0.13555
G1 X-25.993 Y-17.340 E0.11385
G1 X-25.245 Y-19.016 E0.14152
G1 X-24.670 Y-20.079 E0.09310
G1 X-24.347 Y-20.624 E0.04886
G1 X-23.504 Y-21.886 E0.11692
G1 X-22.316 Y-23.384 E0.14735
G1 X-21.328 Y-24.456 E0.11237
G1 X-20.297 Y-25.442 E0.10989
G1 X-19.013 Y-26.521 E0.12925
G1 X-17.538 Y-27.595 E0.14064
G1 X-16.127 Y-28.480 E0.12832
G1 X-14.747 Y-29.231 E0.12113
G1 X-13.058 Y-29.998 E0.14293
G1 X-11.713 Y-30.508 E0.11087
G1 X-9.962 Y-31.033 E0.14087
G1 X-8.533 Y-31.356 E0.11293
G1 X-6.740 Y-31.633 E0.13982
G1 X-4.636 Y-31.773 E0.16251
G1 X19.519 Y-31.798 E1.86153
G1 X19.924 Y-31.775 E0.03123
G1 X20.628 Y-31.697 E0.05460 F960.000
G1 X21.115 Y-31.609 E0.03813
G1 X21.706 Y-31.461 E0.04699
G1 X22.132 Y-31.325 E0.03442
G1 X22.885 Y-31.033 E0.06225
G1 X23.358 Y-30.810 E0.04031
G1 X23.976 Y-30.461 E0.05464
G1 X24.384 Y-30.193 E0.03761
G1 X24.948 Y-29.766 E0.05458
G1 X25.332 Y-29.431 E0.03925
G1 X25.831 Y-28.929 E0.05456
G1 X26.209 Y-28.482 E0.04512
G1 X26.679 Y-27.826 E0.06219
G1 X26.949 Y-27.386 E0.03977
G1 X27.230 Y-26.845 E0.04698
G1 X27.432 Y-26.378 E0.03921
G1 X27.668 Y-25.711 E0.05449
G1 X27.794 Y-25.265 E0.03571
G1 X27.942 Y-24.575 E0.05445
G1 X28.017 Y-24.035 E0.04202
G1 X28.104 Y-22.623 E0.10895
G1 X28.098 Y-22.103 E0.04009
G1 X26.121 Y2.076 E1.86961
G1 E-3.20000 F3000.00000
G1 Z0.700 F15000.000
G1 X9.547 Y4.752 F15000.000
G1 Z0.300 F15000.000
G1 E3.20000 F3000.00000
G1 X10.449 Y10.344 E0.43657 F720.000
G1 X10.629 Y11.851 E0.11692
G1 X10.705 Y13.322 E0.11358
G1 X10.645 Y14.198 E0.06767
G1 X10.493 Y15.048 E0.06652
G1 X10.115 Y15.941 E0.07470
G1 X9.470 Y16.629 E0.07266
G1 X9.267 Y16.779 E0.01950
G1 X8.614 Y17.124 E0.05688
G1 X8.368 Y17.219 E0.02028
G1 X7.674 Y17.431 E0.05595
G1 X6.165 Y17.638 E0.11739
G1 X4.363 Y17.650 E0.13886
G1 X3.073 Y17.573 E0.09960
G1 X1.447 Y17.387 E0.12617
G1 X-0.169 Y17.076 E0.12682
G1 X-1.437 Y16.735 E0.10119
G1 X-2.981 Y16.173 E0.12661
G1 X-4.472 Y15.448 E0.12778
G1 X-5.592 Y14.782 E0.10042
G1 X-6.927 Y13.842 E0.12582
G1 X-8.183 Y12.792 E0.12619
G1 X-9.341 Y11.639 E0.12590
G1 X-10.201 Y10.641 E0.10155
G1 X-11.158 Y9.295 E0.12723
G1 X-11.963 Y7.854 E0.12722
G1 X-12.500 Y6.644 E0.10200
G1 X-13.030 Y5.089 E0.12665
G1 X-13.417 Y3.439 E0.13058
G1 X-13.625 Y2.149 E0.10073
G1 X-13.880 Y-0.991 E0.24275
G1 X-13.927 Y-3.894 E0.22377
G1 X-13.800 Y-7.022 E0.24125
G1 X-13.678 Y-8.308 E0.09949
G1 X-13.447 Y-9.786 E0.11528
G1 X-13.083 Y-11.237 E0.11530
G1 X-12.978 Y-11.564 E0.02650
G1 X-12.364 Y-12.923 E0.11492
G1 X-11.868 Y-13.658 E0.06834
G1 X-11.282 Y-14.325 E0.06841
G1 X-9.998 Y-15.361 E0.12712
G1 X-8.676 Y-16.095 E0.11655
G1 X-7.152 Y-16.667 E0.12548
G1 X-5.564 Y-17.016 E0.12528
G1 X-4.258 Y-17.111 E0.10090
G1 X-3.928 Y-17.128 E0.02550 F720.000
G1 X-2.330 Y-17.001 E0.12353
G1 X-0.798 Y-16.704 E0.12025
G1 X1.861 Y-15.937 E0.21325
G1 X2.331 Y-15.772 E0.03840
G1 X4.903 Y-14.770 E0.21271
G1 X6.308 Y-14.057 E0.12142
G1 X7.597 Y-13.163 E0.12088
G1 X8.222 Y-12.541 E0.06795
G1 X8.739 Y-11.798 E0.06980
G1 X9.078 Y-10.970 E0.06896
G1 X9.256 Y-10.090 E0.06917
G1 X9.259 Y-8.522 E0.12081
G1 X8.925 Y-5.578 E0.22836
G1 X8.830 Y-4.118 E0.11278
G1 X8.970 Y-0.961 E0.24350
G1 X9.177 Y1.774 E0.21139
G1 X9.457 Y4.197 E0.18795
G1 X9.537 Y4.692 E0.03870
G1 X8.909 Y4.794 F15000.000
G1 X9.820 Y10.432 E0.44018 F720.000
G1 X9.995 Y11.905 E0.11426
G1 X10.068 Y13.317 E0.10898
G1 X10.013 Y14.120 E0.06206
G1 X9.879 Y14.866 E0.05836
G1 X9.573 Y15.589 E0.06048
G1 X9.045 Y16.152 E0.05952
G1 X8.927 Y16.240 E0.01135
G1 X8.350 Y16.544 E0.05026
G1 X7.537 Y16.808 E0.06587
G1 X6.109 Y17.004 E0.11112
G1 X4.382 Y17.015 E0.13305
G1 X3.128 Y16.940 E0.09680
G1 X1.543 Y16.758 E0.12298
G1 X-0.027 Y16.456 E0.12318
G1 X-1.246 Y16.128 E0.09731
G1 X-2.735 Y15.587 E0.12210
G1 X-4.165 Y14.892 E0.12251
G1 X-5.246 Y14.248 E0.09700
G1 X-6.540 Y13.338 E0.12191
G1 X-7.754 Y12.322 E0.12202
G1 X-8.875 Y11.206 E0.12191
G1 X-9.700 Y10.248 E0.09740
G1 X-10.620 Y8.955 E0.12229
G1 X-11.394 Y7.569 E0.12231
G1 X-11.907 Y6.412 E0.09755
G1 X-12.418 Y4.913 E0.12207
G1 X-12.793 Y3.316 E0.12646
G1 X-12.994 Y2.072 E0.09707
G1 X-13.245 Y-1.022 E0.23923
G1 X-13.291 Y-3.887 E0.22080
G1 X-13.166 Y-6.979 E0.23852
G1 X-13.047 Y-8.228 E0.09670
G1 X-12.824 Y-9.659 E0.11159
G1 X-12.472 Y-11.062 E0.11146
G1 X-12.384 Y-11.335 E0.02214
G1 X-11.807 Y-12.613 E0.10799
G1 X-11.364 Y-13.269 E0.06103
G1 X-10.840 Y-13.864 E0.06111
G1 X-9.642 Y-14.832 E0.11871
G1 X-8.409 Y-15.516 E0.10869
G1 X-6.971 Y-16.056 E0.11835
G1 X-5.472 Y-16.385 E0.11827
G1 X-4.218 Y-16.477 E0.09685
G1 X-3.936 Y-16.491 E0.02177 F720.000
G1 X-2.416 Y-16.371 E0.11756
G1 X-0.947 Y-16.085 E0.11530
G1 X1.667 Y-15.331 E0.20967
G1 X2.110 Y-15.175 E0.03618
G1 X4.643 Y-14.189 E0.20948
G1 X5.981 Y-13.510 E0.11566
G1 X7.188 Y-12.673 E0.11318
G1 X7.733 Y-12.130 E0.05929
G1 X8.176 Y-11.496 E0.05960
G1 X8.467 Y-10.785 E0.05924
G1 X8.620 Y-10.026 E0.05965
G1 X8.623 Y-8.558 E0.11315
G1 X8.292 Y-5.635 E0.22672
G1 X8.194 Y-4.124 E0.11663
G1 X8.335 Y-0.923 E0.24694
G1 X8.544 Y1.834 E0.21313
G1 X8.827 Y4.284 E0.19002
G1 X8.900 Y4.734 E0.03518
G1 X9.283 Y4.936 F15000.000
G1 E-3.20000 F3000.00000
G1 Z0.700 F15000.000
G1 X-21.276 Y10.488 F15000.000
G1 Z0.300 F15000.000
G1 E3.20000 F3000.00000
G1 X-21.873 Y8.885 E0.13182 F720.000
G1 X-22.605 Y6.233 E0.21198
G1 X-23.098 Y3.496 E0.21438
G1 X-23.346 Y1.147 E0.18202
G1 X-23.384 Y0.633 E0.03969
G1 X-23.484 Y-1.742 E0.18323
G1 X-23.471 Y-4.650 E0.22408
G1 X-23.335 Y-7.557 E0.22424
G1 X-23.028 Y-10.426 E0.22242
G1 X-22.526 Y-13.036 E0.20481
G1 X-22.125 Y-14.442 E0.11264
G1 X-21.746 Y-15.517 E0.08789
G1 X-21.160 Y-16.853 E0.11243
G1 X-20.469 Y-18.111 E0.11063
G1 X-19.842 Y-19.067 E0.08804
G1 X-18.876 Y-20.299 E0.12065
G1 X-18.110 Y-21.140 E0.08770
G1 X-17.128 Y-22.078 E0.10465
G1 X-16.084 Y-22.946 E0.10463
G1 X-14.862 Y-23.827 E0.11611
G1 X-13.892 Y-24.435 E0.08825
G1 X-12.571 Y-25.154 E0.11585
G1 X-11.200 Y-25.767 E0.11574
G1 X-10.131 Y-26.166 E0.08794
G1 X-8.689 Y-26.591 E0.11585
G1 X-7.576 Y-26.835 E0.08783
G1 X-6.096 Y-27.057 E0.11535
G1 X-4.603 Y-27.152 E0.11526
G1 X-3.465 Y-27.146 E0.08773
G1 X-1.965 Y-27.034 E0.11594
G1 X-0.830 Y-26.873 E0.08828
G1 X0.651 Y-26.574 E0.11643
G1 X2.033 Y-26.192 E0.11050
G1 X3.180 Y-25.797 E0.09351
G1 X5.645 Y-24.724 E0.20719
G1 X8.385 Y-23.375 E0.23541
G1 X9.497 Y-22.841 E0.09506
G1 X10.371 Y-22.453 E0.07367
G1 X11.265 Y-22.214 E0.07129
G1 X12.014 Y-22.217 E0.05772
G1 X12.295 Y-22.239 E0.02174
G1 X13.128 Y-22.509 E0.06750
G1 X13.841 Y-22.979 E0.06578
G1 X14.477 Y-23.605 E0.06879
G1 X15.451 Y-24.882 E0.12375
G1 X16.265 Y-25.860 E0.09803
G1 X16.785 Y-26.291 E0.05210
G1 X17.202 Y-26.555 E0.03802
G1 X17.747 Y-26.826 E0.04693
G1 X18.291 Y-27.023 E0.04453
G1 X18.933 Y-27.152 E0.05047
G1 X19.488 Y-27.174 E0.04283
G1 X20.052 Y-27.112 E0.04371
G1 X20.519 Y-26.994 E0.03714 F720.000
G1 X21.149 Y-26.750 E0.05210
G1 X21.647 Y-26.469 E0.04405
G1 X22.104 Y-26.123 E0.04413
G1 X22.498 Y-25.727 E0.04309
G1 X22.881 Y-25.192 E0.05065
G1 X23.098 Y-24.775 E0.03625
G1 X23.289 Y-24.233 E0.04432
G1 X23.409 Y-23.676 E0.04389
G1 X23.486 Y-22.421 E0.09690
G1 X23.341 Y-21.044 E0.10674
G1 X23.037 Y-19.828 E0.09660
G1 X22.605 Y-18.630 E0.09812
G1 X20.184 Y-13.481 E0.43849
G1 X19.582 Y-11.876 E0.13213
G1 X19.220 Y-10.663 E0.09755
G1 X18.892 Y-9.211 E0.11470
G1 X18.635 Y-7.511 E0.13249
G1 X18.446 Y-4.593 E0.22532
G1 X18.505 Y-1.681 E0.22448
G1 X18.728 Y1.197 E0.22249
G1 X19.021 Y3.794 E0.20139
G1 X19.776 Y9.610 E0.45194
G1 X20.076 Y12.349 E0.21237
G1 X20.262 Y15.290 E0.22710
G1 X20.269 Y16.439 E0.08853
G1 X20.198 Y17.793 E0.10449
G1 X20.018 Y19.108 E0.10229
G1 X19.671 Y20.419 E0.10456
G1 X19.122 Y21.629 E0.10238
G1 X18.406 Y22.659 E0.09667
G1 X17.513 Y23.562 E0.09785
G1 X16.475 Y24.339 E0.09990
G1 X15.330 Y24.996 E0.10181
G1 X14.307 Y25.462 E0.08662
G1 X12.833 Y26.001 E0.12094
G1 X11.500 Y26.375 E0.10673
G1 X8.965 Y26.872 E0.19901
G1 X6.148 Y27.154 E0.21822
G1 X3.459 Y27.180 E0.20725
G1 X0.763 Y26.964 E0.20839
G1 X-1.885 Y26.500 E0.20724
G1 X-2.191 Y26.432 E0.02415
G1 X-4.787 Y25.689 E0.20809
G1 X-7.278 Y24.706 E0.20637
G1 X-9.668 Y23.483 E0.20692
G1 X-11.940 Y22.025 E0.20801
G1 X-12.193 Y21.840 E0.02414
G1 X-14.289 Y20.157 E0.20719
G1 X-16.226 Y18.274 E0.20814
G1 X-17.967 Y16.222 E0.20743
G1 X-18.849 Y14.998 E0.11622
G1 X-19.478 Y14.029 E0.08909
G1 X-20.235 Y12.713 E0.11695
G1 X-20.753 Y11.683 E0.08887
G1 X-21.252 Y10.543 E0.09590
G1 X-21.834 Y10.798 F15000.000
G1 X-21.951 Y10.533 E0.02232 F720.000
G1 X-22.479 Y9.080 E0.11916
G1 X-23.227 Y6.366 E0.21694
G1 X-23.728 Y3.585 E0.21773
G1 X-23.979 Y1.204 E0.18456
G1 X-24.019 Y0.670 E0.04124
G1 X-24.120 Y-1.727 E0.18491
G1 X-24.106 Y-4.667 E0.22658
G1 X-23.969 Y-7.605 E0.22668
G1 X-23.657 Y-10.520 E0.22594
G1 X-23.145 Y-13.183 E0.20899
G1 X-22.731 Y-14.635 E0.11628
G1 X-22.338 Y-15.751 E0.09122
G1 X-21.732 Y-17.133 E0.11627
G1 X-21.009 Y-18.447 E0.11559
G1 X-20.359 Y-19.438 E0.09133
G1 X-19.362 Y-20.709 E0.12454
G1 X-18.565 Y-21.584 E0.09119
G1 X-17.551 Y-22.553 E0.10803
G1 X-16.474 Y-23.449 E0.10802
G1 X-15.217 Y-24.355 E0.11940
G1 X-14.213 Y-24.984 E0.09134
G1 X-12.853 Y-25.724 E0.11926
G1 X-11.441 Y-26.356 E0.11921
G1 X-10.332 Y-26.769 E0.09122
G1 X-8.847 Y-27.207 E0.11931
G1 X-7.691 Y-27.460 E0.09120
G1 X-6.163 Y-27.689 E0.11908
G1 X-4.622 Y-27.787 E0.11902
G1 X-3.439 Y-27.782 E0.09112
G1 X-1.896 Y-27.666 E0.11928
G1 X-0.723 Y-27.500 E0.09133
G1 X0.798 Y-27.192 E0.11958
G1 X2.221 Y-26.800 E0.11375
G1 X3.405 Y-26.392 E0.09649
G1 X5.913 Y-25.300 E0.21081
G1 X8.663 Y-23.946 E0.23626
G1 X9.764 Y-23.418 E0.09407
G1 X10.584 Y-23.055 E0.06911
G1 X11.347 Y-22.850 E0.06092
G1 X12.170 Y-22.867 E0.06345
G1 X12.850 Y-23.087 E0.05509
G1 X13.439 Y-23.475 E0.05436
G1 X13.999 Y-24.027 E0.06053
G1 X14.954 Y-25.278 E0.12131
G1 X15.814 Y-26.312 E0.10360
G1 X16.411 Y-26.807 E0.05979
G1 X16.890 Y-27.109 E0.04367
G1 X17.497 Y-27.411 E0.05224
G1 X18.119 Y-27.637 E0.05098
G1 X18.857 Y-27.785 E0.05803
G1 X19.511 Y-27.811 E0.05042
G1 X20.165 Y-27.739 E0.05073
G1 X20.712 Y-27.601 E0.04350 F720.000
G1 X21.422 Y-27.326 E0.05865
G1 X21.997 Y-27.002 E0.05088
G1 X22.523 Y-26.603 E0.05087
G1 X22.985 Y-26.139 E0.05049
G1 X23.424 Y-25.526 E0.05809
G1 X23.682 Y-25.029 E0.04317
G1 X23.902 Y-24.406 E0.05088
G1 X24.040 Y-23.763 E0.05070
G1 X24.124 Y-22.407 E0.10467
G1 X23.968 Y-20.933 E0.11425
G1 X23.646 Y-19.642 E0.10251
G1 X23.193 Y-18.386 E0.10290
G1 X20.770 Y-13.234 E0.43879
G1 X20.185 Y-11.673 E0.12847
G1 X19.835 Y-10.502 E0.09420
G1 X19.517 Y-9.093 E0.11128
G1 X19.267 Y-7.443 E0.12863
G1 X19.082 Y-4.579 E0.22113
G1 X19.140 Y-1.712 E0.22100
G1 X19.361 Y1.137 E0.22023
G1 X19.652 Y3.717 E0.20012
G1 X20.407 Y9.534 E0.45203
G1 X20.709 Y12.294 E0.21399
G1 X20.897 Y15.268 E0.22961
G1 X20.905 Y16.453 E0.09136
G1 X20.831 Y17.853 E0.10800
G1 X20.642 Y19.233 E0.10735
G1 X20.272 Y20.633 E0.11165
G1 X19.677 Y21.944 E0.11094
G1 X18.897 Y23.067 E0.10538
G1 X17.932 Y24.042 E0.10573
G1 X16.825 Y24.871 E0.10651
G1 X15.620 Y25.562 E0.10709
G1 X14.548 Y26.051 E0.09081
G1 X13.028 Y26.606 E0.12470
G1 X11.647 Y26.994 E0.11057
G1 X9.058 Y27.502 E0.20329
G1 X6.183 Y27.789 E0.22272
G1 X3.436 Y27.816 E0.21165
G1 X0.694 Y27.597 E0.21201
G1 X-2.011 Y27.123 E0.21162
G1 X-2.348 Y27.048 E0.02662
G1 X-4.992 Y26.291 E0.21192
G1 X-7.542 Y25.285 E0.21133
G1 X-9.986 Y24.034 E0.21152
G1 X-12.299 Y22.549 E0.21189
G1 X-12.578 Y22.345 E0.02661
G1 X-14.719 Y20.625 E0.21160
G1 X-16.691 Y18.709 E0.21195
G1 X-18.468 Y16.614 E0.21173
G1 X-19.374 Y15.357 E0.11935
G1 X-20.021 Y14.360 E0.09161
G1 X-20.795 Y13.014 E0.11964
G1 X-21.328 Y11.953 E0.09153
G1 X-21.810 Y10.853 E0.09256
G1 X-21.663 Y10.565 F15000.000
G1 X-20.974 Y10.055 F15000.000
G1 X-6.485 Y24.544 E1.58489 F960.000
G1 X-8.231 Y23.700 F15000.000
G1 X-20.226 Y11.705 E1.31209 F960.000
G1 X-19.092 Y13.741 F15000.000
G1 X-10.372 Y22.461 E0.95387 F960.000
G1 X-14.702 Y19.033 F15000.000
G1 X-16.138 Y17.597 E0.15711 F960.000
G1 X-11.548 Y9.556 F15000.000
G1 X-23.100 Y-1.995 E1.26358 F960.000
G1 X-23.099 Y-2.896 E0.06971
G1 X-12.544 Y7.658 E1.15453
G1 X-13.118 Y6.182 F15000.000
G1 X-23.092 Y-3.792 E1.09109 F960.000
G1 X-23.086 Y-4.688 E0.06930
G1 X-13.507 Y4.891 E1.04781
G1 X-13.784 Y3.712 E0.09366
G1 X-23.049 Y-5.553 E1.01348
G1 X-23.009 Y-6.415 E0.06674
G1 X-13.961 Y2.633 E0.98972
G1 X-14.066 Y1.626 E0.07830
G1 X-22.968 Y-7.277 E0.97386
G1 X-22.902 Y-8.112 E0.06482
G1 X-14.145 Y0.644 E0.95784
G1 X-14.225 Y-0.338 E0.07619
G1 X-22.814 Y-8.928 E0.93959
G1 X-22.727 Y-9.743 E0.06340
G1 X-14.272 Y-1.288 E0.92486
G1 X-14.287 Y-2.205 E0.07096
G1 X-22.635 Y-10.552 E0.91311
G1 X-22.489 Y-11.309 E0.05959
G1 X-14.302 Y-3.122 E0.89553
G1 X-14.302 Y-4.024 E0.06979
G1 X-22.343 Y-12.065 E0.87959
G1 X-22.198 Y-12.822 E0.05959
G1 X-14.267 Y-4.891 E0.86751
G1 X-14.232 Y-5.758 E0.06712
G1 X-22.014 Y-13.541 E0.85128
G1 X-21.814 Y-14.243 E0.05648
G1 X-14.197 Y-6.625 E0.83326
G1 X-14.133 Y-7.464 E0.06504
G1 X-21.588 Y-14.919 E0.81548
G1 X-21.345 Y-15.578 E0.05436
G1 X-14.052 Y-8.285 E0.79783
G1 X-13.930 Y-9.065 E0.06111
G1 X-21.070 Y-16.206 E0.78104
G1 X-20.790 Y-16.827 E0.05276
G1 X-13.802 Y-9.839 E0.76443
G1 X-13.621 Y-10.560 E0.05751
G1 X-20.470 Y-17.409 E0.74922
G1 X-20.149 Y-17.991 E0.05136
G1 X-13.438 Y-11.279 E0.73412
G1 X-13.187 Y-11.931 E0.05401
G1 X-19.792 Y-18.536 E0.72244
G1 X-19.421 Y-19.067 E0.05013
G1 X-12.907 Y-12.553 E0.71260
G1 X-12.609 Y-13.157 E0.05211
G1 X-19.025 Y-19.573 E0.70183
G1 X-18.628 Y-20.079 E0.04970
G1 X-12.245 Y-13.696 E0.69822
G1 X-11.839 Y-14.191 E0.04959
G1 X-18.199 Y-20.552 E0.69575
G1 X-17.750 Y-21.005 E0.04935
G1 X-11.400 Y-14.655 E0.69463
G1 X-10.900 Y-15.058 E0.04962
G1 X-17.299 Y-21.456 E0.69989
G1 X-16.834 Y-21.893 E0.04937
G1 X-10.401 Y-15.461 E0.70365
G1 X-9.861 Y-15.822 E0.05030
G1 X-16.341 Y-22.303 E0.70887
G1 X-15.845 Y-22.709 E0.04959
G1 X-9.281 Y-16.144 E0.71810
G1 X-8.693 Y-16.459 E0.05157
G1 X-15.321 Y-23.087 E0.72507
G1 X-14.797 Y-23.465 E0.04999
G1 X-8.037 Y-16.705 E0.73947
