; generated by Slic3r 1.2.9 on 2018-11-08 at 20:56:19

; external perimeters extrusion width = 0.40mm
; perimeters extrusion width = 0.40mm
; infill extrusion width = 0.40mm
; solid infill extrusion width = 0.40mm
; top infill extrusion width = 0.40mm

M107
M83
T0
M116
G21 ; set units to millimeters
G90 ; use absolute coordinates
M83 ; use relative distances for extrusion
G1 E-3.50000 F1500.00000
G1 Z0.400 F15000.000
G1 X22.132 Y5.730 F15000.000
G1 Z0.300 F15000.000
G1 E3.50000 F1500.00000
G1 X15.437 Y31.592 E2.05878 F960.000
G1 X14.642 Y33.088 E0.13052
G1 X13.256 Y34.061 E0.13052
G1 X11.917 Y34.316 E0.10504
G1 X-16.012 Y34.316 E2.15238
G1 X-17.659 Y33.922 E0.13052
G1 X-18.583 Y33.252 E0.08796
G1 X-22.554 Y29.281 E0.43276
G1 X-23.439 Y27.837 E0.13052
G1 X-23.612 Y26.931 E0.07108
G1 X-26.093 Y-13.790 E3.14399
G1 X-26.099 Y-17.451 E0.28215
G1 X-26.082 Y-17.807 E0.02745
G1 X-25.718 Y-21.411 E0.27915
G1 X-25.033 Y-24.898 E0.27391
G1 X-24.947 Y-25.239 E0.02711
G1 X-23.958 Y-28.511 E0.26339
G1 X-23.838 Y-28.847 E0.02753
G1 X-22.506 Y-32.070 E0.26871
G1 X-21.512 Y-33.441 E0.13052
G1 X-20.005 Y-34.214 E0.13052
G1 X-19.146 Y-34.316 E0.06667
G1 X12.673 Y-34.316 E2.45216
G1 X14.320 Y-33.922 E0.13052
G1 X15.244 Y-33.252 E0.08795 F960.000
G1 X25.215 Y-23.281 E1.08668
G1 X26.100 Y-21.837 E0.13052
G1 X26.279 Y-20.710 E0.08796
G1 X26.279 Y-10.752 E0.76746
G1 X26.163 Y-9.840 E0.07079
G1 X22.147 Y5.672 E1.23487
G1 E-3.50000 F1500.00000
G1 Z0.700 F15000.000
G1 X13.832 Y-5.720 F15000.000
G1 Z0.300 F15000.000
G1 E3.50000 F1500.00000
G1 X13.310 Y-5.446 E0.04539 F600.000
G1 X12.734 Y-5.304 E0.04573
G1 X12.132 Y-5.310 E0.04639
G1 X11.577 Y-5.446 E0.04403
G1 X11.056 Y-5.720 E0.04539
G1 X10.615 Y-6.111 E0.04539
G1 X10.280 Y-6.595 E0.04539
G1 X10.072 Y-7.146 E0.04539
G1 X10.000 Y-7.735 E0.04573
G1 X10.078 Y-8.332 E0.04639
G1 X10.280 Y-8.866 E0.04403
G1 X10.615 Y-9.351 E0.04539
G1 X11.056 Y-9.742 E0.04539
G1 X11.577 Y-10.015 E0.04539
G1 X12.149 Y-10.156 E0.04539
G1 X12.738 Y-10.156 E0.04539 F600.000
G1 X13.310 Y-10.015 E0.04539
G1 X13.832 Y-9.742 E0.04539
G1 X14.273 Y-9.351 E0.04539
G1 X14.607 Y-8.866 E0.04539
G1 X14.816 Y-8.316 E0.04539
G1 X14.888 Y-7.726 E0.04573
G1 X14.810 Y-7.130 E0.04639
G1 X14.607 Y-6.595 E0.04403
G1 X14.273 Y-6.111 E0.04539
G1 X13.877 Y-5.760 E0.04077
G1 X13.468 Y-6.247 F15000.000
G1 X13.083 Y-6.045 E0.03350 F600.000
G1 X12.660 Y-5.941 E0.03362
G1 X12.212 Y-5.945 E0.03449
G1 X11.805 Y-6.045 E0.03235
G1 X11.420 Y-6.247 E0.03350
G1 X11.094 Y-6.535 E0.03350
G1 X10.847 Y-6.893 E0.03350
G1 X10.693 Y-7.299 E0.03349
G1 X10.641 Y-7.732 E0.03362
G1 X10.699 Y-8.176 E0.03449
G1 X10.847 Y-8.569 E0.03235
G1 X11.094 Y-8.926 E0.03350
G1 X11.420 Y-9.215 E0.03350
G1 X11.805 Y-9.417 E0.03350
G1 X12.227 Y-9.521 E0.03350
G1 X12.661 Y-9.521 E0.03350 F600.000
G1 X13.083 Y-9.417 E0.03350
G1 X13.468 Y-9.215 E0.03350
G1 X13.793 Y-8.926 E0.03350
G1 X14.040 Y-8.569 E0.03350
G1 X14.194 Y-8.162 E0.03349
G1 X14.247 Y-7.729 E0.03362
G1 X14.189 Y-7.285 E0.03449
G1 X14.040 Y-6.893 E0.03235
G1 X13.793 Y-6.535 E0.03350
G1 X13.513 Y-6.287 E0.02887
G1 X13.484 Y-5.847 F15000.000
G1 E-3.50000 F1500.00000
G1 Z0.700 F15000.000
G1 X12.738 Y-21.305 F15000.000
G1 Z0.300 F15000.000
G1 E3.50000 F1500.00000
G1 X12.149 Y-21.305 E0.04539 F600.000
G1 X11.577 Y-21.446 E0.04539
G1 X11.056 Y-21.720 E0.04539
G1 X10.615 Y-22.111 E0.04539
G1 X10.280 Y-22.595 E0.04539
G1 X10.072 Y-23.146 E0.04539
G1 X10.000 Y-23.735 E0.04573
G1 X10.078 Y-24.332 E0.04639
G1 X10.280 Y-24.866 E0.04403
G1 X10.615 Y-25.351 E0.04539
G1 X11.056 Y-25.742 E0.04539
G1 X11.577 Y-26.015 E0.04539
G1 X12.149 Y-26.156 E0.04539
G1 X12.738 Y-26.156 E0.04539 F600.000
G1 X13.310 Y-26.015 E0.04539
G1 X13.832 Y-25.742 E0.04539
G1 X14.273 Y-25.351 E0.04539
G1 X14.607 Y-24.866 E0.04539
G1 X14.816 Y-24.316 E0.04539
G1 X14.888 Y-23.726 E0.04573
G1 X14.810 Y-23.130 E0.04639
G1 X14.607 Y-22.595 E0.04403
G1 X14.270 Y-22.107 E0.04573
G1 X13.816 Y-21.712 E0.04639
G1 X13.310 Y-21.446 E0.04403
G1 X12.797 Y-21.320 E0.04077
G1 X12.661 Y-21.941 F15000.000
G1 X12.227 Y-21.941 E0.03350 F600.000
G1 X11.805 Y-22.045 E0.03350
G1 X11.420 Y-22.247 E0.03350
G1 X11.094 Y-22.535 E0.03350
G1 X10.847 Y-22.893 E0.03350
G1 X10.693 Y-23.299 E0.03349
G1 X10.641 Y-23.732 E0.03362
G1 X10.699 Y-24.176 E0.03449
G1 X10.847 Y-24.569 E0.03235
G1 X11.094 Y-24.926 E0.03350
G1 X11.420 Y-25.215 E0.03350
G1 X11.805 Y-25.417 E0.03350
G1 X12.227 Y-25.521 E0.03350
G1 X12.661 Y-25.521 E0.03349 F600.000
G1 X13.083 Y-25.417 E0.03350
G1 X13.468 Y-25.215 E0.03350
G1 X13.793 Y-24.926 E0.03350
G1 X14.040 Y-24.569 E0.03350
G1 X14.194 Y-24.162 E0.03350
G1 X14.247 Y-23.729 E0.03362
G1 X14.189 Y-23.285 E0.03449
G1 X14.040 Y-22.893 E0.03235
G1 X13.792 Y-22.534 E0.03362
G1 X13.455 Y-22.240 E0.03449
G1 X13.083 Y-22.045 E0.03235
G1 X12.719 Y-21.955 E0.02887
G1 X12.490 Y-21.580 F15000.000
G1 X-9.184 Y-16.316 F15000.000
G1 X-9.113 Y-15.731 E0.04539 F600.000
G1 X-9.184 Y-15.146 E0.04539
G1 X-9.393 Y-14.595 E0.04539
G1 X-9.730 Y-14.107 E0.04573
G1 X-10.184 Y-13.712 E0.04639
G1 X-10.690 Y-13.446 E0.04403
G1 X-11.262 Y-13.305 E0.04539
G1 X-11.851 Y-13.305 E0.04539
G1 X-12.423 Y-13.446 E0.04539
G1 X-12.944 Y-13.720 E0.04539
G1 X-13.385 Y-14.111 E0.04539
G1 X-13.720 Y-14.595 E0.04539
G1 X-13.928 Y-15.146 E0.04539
G1 X-13.999 Y-15.731 E0.04539
G1 X-13.928 Y-16.316 E0.04539
G1 X-13.720 Y-16.866 E0.04539
G1 X-13.385 Y-17.351 E0.04539
G1 X-12.944 Y-17.742 E0.04539
G1 X-12.423 Y-18.015 E0.04539
G1 X-11.851 Y-18.156 E0.04539
G1 X-11.262 Y-18.156 E0.04539 F600.000
G1 X-10.685 Y-18.014 E0.04573
G1 X-10.155 Y-17.730 E0.04639
G1 X-9.727 Y-17.351 E0.04403
G1 X-9.393 Y-16.866 E0.04539
G1 X-9.205 Y-16.372 E0.04077
G1 X-9.806 Y-16.162 F15000.000
G1 X-9.753 Y-15.731 E0.03350 F600.000
G1 X-9.806 Y-15.299 E0.03350
G1 X-9.960 Y-14.893 E0.03350
G1 X-10.208 Y-14.534 E0.03362
G1 X-10.545 Y-14.240 E0.03449
G1 X-10.917 Y-14.045 E0.03235
G1 X-11.339 Y-13.941 E0.03350
G1 X-11.773 Y-13.941 E0.03350
G1 X-12.195 Y-14.045 E0.03350
G1 X-12.580 Y-14.247 E0.03350
G1 X-12.906 Y-14.535 E0.03350
G1 X-13.153 Y-14.893 E0.03350
G1 X-13.307 Y-15.299 E0.03350
G1 X-13.359 Y-15.731 E0.03350
G1 X-13.307 Y-16.162 E0.03350
G1 X-13.153 Y-16.569 E0.03350
G1 X-12.906 Y-16.926 E0.03350
G1 X-12.580 Y-17.215 E0.03350
G1 X-12.195 Y-17.417 E0.03350
G1 X-11.773 Y-17.521 E0.03350
G1 X-11.339 Y-17.521 E0.03350 F600.000
G1 X-10.915 Y-17.416 E0.03362
G1 X-10.521 Y-17.205 E0.03449
G1 X-10.207 Y-16.926 E0.03235
G1 X-9.960 Y-16.569 E0.03350
G1 X-9.827 Y-16.218 E0.02887
G1 X-9.426 Y-16.036 F15000.000
G1 X-6.050 Y-1.766 F15000.000
G1 X-18.488 Y-1.766 E0.95860 F720.000
G1 X-19.513 Y-4.233 E0.20583
G1 X-20.510 Y-7.514 E0.26431
G1 X-21.148 Y-10.721 E0.25194
G1 X-21.478 Y-14.059 E0.25855
G1 X-21.478 Y-17.403 E0.25764
G1 X-21.158 Y-20.663 E0.25249
G1 X-20.510 Y-23.948 E0.25799
G1 X-19.548 Y-27.127 E0.25597
G1 X-18.487 Y-29.695 E0.21418
G1 X12.265 Y-29.695 E2.36990
G1 X21.658 Y-20.302 E1.02375
G1 X21.658 Y-11.160 E0.70454 F720.000
G1 X12.265 Y-1.766 E1.02375
G1 X-5.990 Y-1.766 E1.40679
G1 X-5.990 Y-1.131 F15000.000
G1 X-18.912 Y-1.131 E0.99591 F720.000
G1 X-20.112 Y-4.018 E0.24095
G1 X-21.127 Y-7.360 E0.26915
G1 X-21.777 Y-10.627 E0.25675
G1 X-22.114 Y-14.028 E0.26336
G1 X-22.114 Y-17.434 E0.26246
G1 X-21.788 Y-20.748 E0.25666
G1 X-21.127 Y-24.102 E0.26344
G1 X-20.148 Y-27.341 E0.26075
G1 X-18.912 Y-30.331 E0.24934
G1 X12.528 Y-30.331 E2.42295
G1 X22.294 Y-20.565 E1.06433
G1 X22.294 Y-10.896 E0.74512 F720.000
G1 X12.528 Y-1.131 E1.06433
G1 X-5.930 Y-1.131 E1.42245
G1 X-6.190 Y-1.477 F15000.000
G1 X-2.587 Y-2.152 F15000.000
G1 X-20.811 Y-20.376 E1.99970 F960.000
G1 X-20.892 Y-19.552 E0.06424
G1 X-3.492 Y-2.152 E1.90928
G1 X-4.397 Y-2.152 E0.07022
G1 X-20.973 Y-18.728 E1.81886
G1 X-21.054 Y-17.904 E0.06424
G1 X-5.302 Y-2.152 E1.72845
G1 X-6.208 Y-2.152 E0.07022
G1 X-21.093 Y-17.037 E1.63336
G1 X-21.093 Y-16.132 E0.07022
G1 X-7.113 Y-2.152 E1.53405
G1 X-8.018 Y-2.152 E0.07022
G1 X-21.093 Y-15.227 E1.43474
G1 X-21.093 Y-14.322 E0.07022
G1 X-8.923 Y-2.152 E1.33543
G1 X-9.828 Y-2.152 E0.07022
G1 X-21.005 Y-13.329 E1.22644
G1 X-20.905 Y-12.324 E0.07832
G1 X-10.733 Y-2.152 E1.11622
G1 X-11.638 Y-2.152 E0.07022
G1 X-20.806 Y-11.320 E1.00601
G1 X-20.629 Y-10.238 E0.08502
G1 X-12.543 Y-2.152 E0.88734
G1 X-13.448 Y-2.152 E0.07022
G1 X-20.405 Y-9.109 E0.76337
G1 X-20.180 Y-7.979 E0.08938
G1 X-14.353 Y-2.152 E0.63941
G1 X-15.258 Y-2.152 E0.07022
G1 X-19.816 Y-6.710 E0.50014
G1 X-19.421 Y-5.410 E0.10539
G1 X-16.163 Y-2.152 E0.35752
G1 X-17.068 Y-2.152 E0.07022
G1 X-18.943 Y-4.027 E0.20579
G1 X-18.300 Y-2.479 F15000.000
G1 X-17.973 Y-2.152 E0.03585 F960.000
G1 X-12.582 Y-13.051 F15000.000
G1 X-1.682 Y-2.152 E1.19602 F960.000
G1 X-0.777 Y-2.152 E0.07022
G1 X-11.545 Y-12.920 E1.18159
G1 X-10.777 Y-13.057 E0.06053
G1 X0.128 Y-2.152 E1.19663
G1 X1.033 Y-2.152 E0.07022
G1 X-10.159 Y-13.343 E1.22803
G1 X-9.650 Y-13.739 E0.05004
G1 X1.938 Y-2.152 E1.27150
G1 X2.843 Y-2.152 E0.07022
G1 X-9.239 Y-14.233 E1.32569
G1 X-8.933 Y-14.832 E0.05219
G1 X3.748 Y-2.152 E1.39142
G1 X4.653 Y-2.152 E0.07022
G1 X-8.760 Y-15.565 E1.47183
G1 X-8.802 Y-16.512 E0.07355
G1 X5.558 Y-2.152 E1.57574
G1 X9.673 Y-7.087 F15000.000
G1 X-12.550 Y-29.310 E2.43853 F960.000
G1 X-11.645 Y-29.310 E0.07022
G1 X9.663 Y-8.002 E2.33807
G1 X9.853 Y-8.717 E0.05737
G1 X-10.740 Y-29.310 E2.25968
G1 X-9.835 Y-29.310 E0.07022
G1 X10.175 Y-9.300 E2.19571
G1 X10.601 Y-9.779 E0.04974
G1 X-8.930 Y-29.310 E2.14310
G1 X-8.024 Y-29.310 E0.07022
G1 X11.125 Y-10.160 E2.10132
G1 X11.762 Y-10.428 E0.05360
G1 X-7.119 Y-29.310 E2.07186
G1 X-6.214 Y-29.310 E0.07022
G1 X12.554 Y-10.542 E2.05944
G1 X13.630 Y-10.371 E0.08453
G1 X-5.309 Y-29.310 E2.07819
G1 X-4.404 Y-29.310 E0.07022
G1 X17.455 Y-7.451 E2.39861
G1 X17.907 Y-7.903 E0.04966
G1 X-3.499 Y-29.310 E2.34896
G1 X-2.594 Y-29.310 E0.07022
G1 X18.360 Y-8.356 E2.29930
G1 X18.812 Y-8.808 E0.04966
G1 X-1.689 Y-29.310 E2.24965
G1 X-0.784 Y-29.310 E0.07022
G1 X19.265 Y-9.261 E2.19999
G1 X19.717 Y-9.713 E0.04965
G1 X0.121 Y-29.310 E2.15034
G1 X1.026 Y-29.310 E0.07022
G1 X20.170 Y-10.166 E2.10068
G1 X20.622 Y-10.618 E0.04966
G1 X1.931 Y-29.310 E2.05103
G1 X10.076 Y-29.310 F15000.000
G1 X12.844 Y-26.542 E0.30375 F960.000
G1 X11.995 Y-26.486 E0.06604
G1 X9.171 Y-29.310 E0.30986
G1 X8.266 Y-29.310 E0.07022
G1 X11.316 Y-26.260 E0.33466
G1 X10.755 Y-25.916 E0.05106
G1 X7.361 Y-29.310 E0.37242
G1 X6.456 Y-29.310 E0.07022
G1 X10.294 Y-25.472 E0.42115
G1 X9.933 Y-24.928 E0.05066
G1 X5.551 Y-29.310 E0.48087
G1 X4.646 Y-29.310 E0.07022
G1 X9.696 Y-24.260 E0.55416
G1 X9.633 Y-23.418 E0.06551
G1 X3.741 Y-29.310 E0.64654
G1 X2.836 Y-29.310 E0.07022
G1 X21.075 Y-11.071 E2.00137
G1 X21.273 Y-11.778 E0.05697
G1 X12.131 Y-20.920 E1.00316
G1 X12.963 Y-20.993 E0.06481
G1 X21.273 Y-12.683 E0.91186
G1 X21.273 Y-13.588 E0.07022
G1 X13.629 Y-21.232 E0.83875
G1 X14.177 Y-21.589 E0.05075
G1 X21.273 Y-14.493 E0.77861
G1 X21.273 Y-15.398 E0.07022
G1 X14.629 Y-22.042 E0.72900
G1 X14.978 Y-22.597 E0.05093
G1 X21.273 Y-16.303 E0.69068
G1 X21.273 Y-17.208 E0.07022
G1 X15.202 Y-23.279 E0.66620
G1 X15.243 Y-24.143 E0.06712
G1 X21.273 Y-18.113 E0.66170
G1 X21.273 Y-19.018 E0.07022
G1 X10.981 Y-29.310 E1.12930
G1 X11.886 Y-29.310 E0.07022
G1 X21.273 Y-19.923 E1.02999
G1 X17.002 Y-6.998 F15000.000
G1 X15.047 Y-8.954 E0.21457 F960.000
G1 X15.272 Y-7.823 E0.08946
G1 X16.550 Y-6.546 E0.14016
G1 X16.097 Y-6.093 E0.04965
G1 X15.147 Y-7.043 E0.10422
G1 X14.880 Y-6.405 E0.05366
G1 X15.645 Y-5.641 E0.08389
G1 X15.192 Y-5.188 E0.04965
G1 X14.505 Y-5.876 E0.07543
G1 X14.025 Y-5.450 E0.04975
G1 X14.740 Y-4.736 E0.07844
G1 X14.287 Y-4.283 E0.04965
G1 X13.438 Y-5.132 E0.09312
G1 X12.730 Y-4.936 E0.05707
G1 X13.835 Y-3.831 E0.12125
G1 X13.382 Y-3.378 E0.04966
G1 X11.804 Y-4.956 E0.17319
G1 X12.930 Y-2.925 F15000.000
G1 X-13.455 Y-29.310 E2.89516 F960.000
G1 X-14.360 Y-29.310 E0.07022
G1 X12.477 Y-2.473 E2.94482
G1 X11.893 Y-2.152 E0.05171
G1 X-15.265 Y-29.310 E2.98006
G1 X-16.170 Y-29.310 E0.07022
G1 X10.988 Y-2.152 E2.98006
G1 X10.083 Y-2.152 E0.07022
G1 X-17.075 Y-29.310 E2.98006
G1 X-17.980 Y-29.310 E0.07022
G1 X9.178 Y-2.152 E2.98006
G1 X8.273 Y-2.152 E0.07022
G1 X-18.453 Y-28.877 E2.93261
G1 X-18.717 Y-28.237 E0.05376
G1 X7.368 Y-2.152 E2.86234
G1 X6.463 Y-2.152 E0.07022
G1 X-18.982 Y-27.597 E2.79208
G1 X-19.235 Y-26.945 E0.05424
G1 X-10.756 Y-18.466 E0.93045
G1 X-11.737 Y-18.542 E0.07633
G1 X-19.446 Y-26.250 E0.84588
G1 X-19.656 Y-25.555 E0.05633
G1 X-12.471 Y-18.371 E0.78835
G1 X-13.065 Y-18.060 E0.05202
G1 X-19.866 Y-24.861 E0.74624
G1 X-20.076 Y-24.166 E0.05633
G1 X-13.553 Y-17.643 E0.71576
G1 X-13.943 Y-17.128 E0.05013
G1 X-20.243 Y-23.428 E0.69133
G1 X-20.393 Y-22.672 E0.05979
G1 X-14.227 Y-16.506 E0.67660
G1 X-14.371 Y-15.745 E0.06010
G1 X-20.542 Y-21.916 E0.67716
G1 X-20.691 Y-21.160 E0.05979
G1 X-14.233 Y-14.702 E0.70863
G1 E-3.50000 F1500.00000
G1 Z0.700 F15000.000
G1 X-15.821 Y19.178 F15000.000
G1 Z0.300 F15000.000
G1 E3.50000 F1500.00000
G1 X-16.628 Y19.178 E0.06216 F720.000
G1 X-17.604 Y19.419 E0.07748
G1 X-18.662 Y19.965 E0.09176
G1 X-18.997 Y20.262 E0.03451
G1 X-18.997 Y11.200 E0.69841
G1 X-18.662 Y11.497 E0.03451
G1 X-17.604 Y12.043 E0.09176
G1 X-16.628 Y12.283 E0.07748
G1 X-15.438 Y12.283 E0.09170
G1 X-14.462 Y12.043 E0.07748
G1 X-13.404 Y11.497 E0.09176
G1 X-12.672 Y10.849 E0.07529
G1 X-12.482 Y10.610 E0.02355
G1 X-11.959 Y9.853 E0.07088
G1 X-11.621 Y8.959 E0.07364
G1 X-11.553 Y8.662 E0.02355
G1 X-11.440 Y7.731 E0.07226
G1 X-11.553 Y6.800 E0.07226
G1 X-11.621 Y6.502 E0.02355
G1 X-11.962 Y5.602 E0.07416
G1 X-12.652 Y4.631 E0.09181
G1 X-13.404 Y3.965 E0.07742
G1 X-14.462 Y3.419 E0.09176
G1 X-15.438 Y3.178 E0.07748
G1 X-17.016 Y3.178 E0.12160
G1 X-15.604 Y1.766 E0.15387
G1 X10.932 Y1.766 E2.04496
G1 X10.932 Y12.262 E0.80885
G1 X10.596 Y11.965 E0.03451 F720.000
G1 X9.538 Y11.419 E0.09176
G1 X8.562 Y11.178 E0.07748
G1 X7.372 Y11.178 E0.09170
G1 X6.396 Y11.419 E0.07748
G1 X5.338 Y11.965 E0.09176
G1 X4.586 Y12.631 E0.07742
G1 X3.895 Y13.604 E0.09200
G1 X3.503 Y14.651 E0.08611
G1 X3.374 Y15.731 E0.08382
G1 X3.503 Y16.811 E0.08382
G1 X3.895 Y17.857 E0.08611
G1 X4.586 Y18.830 E0.09200
G1 X5.338 Y19.497 E0.07742
G1 X6.396 Y20.043 E0.09176
G1 X7.372 Y20.283 E0.07748
G1 X8.562 Y20.283 E0.09170
G1 X9.538 Y20.043 E0.07748
G1 X10.596 Y19.497 E0.09176
G1 X10.932 Y19.200 E0.03451
G1 X10.932 Y29.695 E0.80885
G1 X-15.604 Y29.695 E2.04496
G1 X-17.016 Y28.283 E0.15387
G1 X-15.438 Y28.283 E0.12160
G1 X-14.462 Y28.043 E0.07748
G1 X-13.404 Y27.497 E0.09176
G1 X-12.672 Y26.849 E0.07529
G1 X-12.482 Y26.610 E0.02355
G1 X-11.959 Y25.853 E0.07088
G1 X-11.621 Y24.959 E0.07364
G1 X-11.553 Y24.662 E0.02355
G1 X-11.440 Y23.731 E0.07226
G1 X-11.553 Y22.800 E0.07226
G1 X-11.621 Y22.502 E0.02355
G1 X-11.962 Y21.602 E0.07416
G1 X-12.652 Y20.631 E0.09181
G1 X-13.404 Y19.965 E0.07742
G1 X-14.462 Y19.419 E0.09176
G1 X-15.438 Y19.178 E0.07748
G1 X-15.761 Y19.178 E0.02492
G1 X-15.761 Y19.814 F15000.000
G1 X-16.551 Y19.814 E0.06084 F720.000
G1 X-17.379 Y20.018 E0.06576
G1 X-18.300 Y20.493 E0.07986
G1 X-18.938 Y21.059 E0.06569
G1 X-19.367 Y21.663 E0.05715
G1 X-19.633 Y21.579 E0.02147
G1 X-19.633 Y9.883 E0.90132
G1 X-19.367 Y9.798 E0.02147
G1 X-18.938 Y10.403 E0.05715
G1 X-18.300 Y10.968 E0.06569
G1 X-17.379 Y11.444 E0.07986
G1 X-16.551 Y11.648 E0.06576
G1 X-15.515 Y11.648 E0.07981
G1 X-14.687 Y11.444 E0.06576
G1 X-13.766 Y10.968 E0.07986
G1 X-13.135 Y10.409 E0.06493
G1 X-12.526 Y9.555 E0.08083
G1 X-12.230 Y8.775 E0.06430
G1 X-12.180 Y8.552 E0.01762
G1 X-12.080 Y7.731 E0.06377
G1 X-12.180 Y6.909 E0.06377
G1 X-12.230 Y6.686 E0.01762
G1 X-12.527 Y5.904 E0.06449
G1 X-13.128 Y5.059 E0.07991
G1 X-13.766 Y4.493 E0.06569
G1 X-14.687 Y4.018 E0.07986
G1 X-15.515 Y3.814 E0.06576
G1 X-16.551 Y3.814 E0.07981
G1 X-17.379 Y4.018 E0.06576
G1 X-18.300 Y4.493 E0.07986
G1 X-18.938 Y5.059 E0.06569
G1 X-19.367 Y5.663 E0.05715
G1 X-19.633 Y5.579 E0.02147
G1 X-19.633 Y4.896 E0.05256
G1 X-15.867 Y1.131 E0.41041
G1 X11.567 Y1.131 E2.11424
G1 X11.567 Y13.579 E0.95929
G1 X11.302 Y13.663 E0.02147 F720.000
G1 X10.872 Y13.059 E0.05715
