; generated by Slic3r 1.2.9 on 2016-10-20 at 11:06:22

; external perimeters extrusion width = 0.50mm
; perimeters extrusion width = 0.50mm
; infill extrusion width = 0.50mm
; solid infill extrusion width = 0.50mm
; top infill extrusion width = 0.50mm

M107
;Basic settings: Layer height: {layer_height} Walls: {wall_thickness} Fill: {fill_density}
;Print time: {print_time}
;Filament used: {filament_amount}m {filament_weight}g
;Filament cost: {filament_cost}
;M190 S{print_bed_temperature} ;Uncomment to add your own bed temperature line
;M109 S{print_temperature} ;Uncomment to add your own temperature line
G21        ;metric values
G90        ;absolute positioning
M83
G10 P0 S200
T0
M116


G21 ; set units to millimeters
G90 ; use absolute coordinates
M83 ; use relative distances for extrusion
G1 E-3.20000 F3000.00000
G1 Z0.400 F9000.000
G1 X16.186 Y0.000 F9000.000
G1 Z0.300 F9000.000
G1 E3.20000 F3000.00000
G1 X16.186 Y8.499 E0.77978 F1200.000
G1 X16.152 Y9.356 E0.07868
G1 X16.033 Y10.368 E0.09352
G1 X15.976 Y10.692 E0.03018
G1 X15.742 Y11.681 E0.09323
G1 X15.422 Y12.649 E0.09351
G1 X15.019 Y13.584 E0.09340
G1 X14.535 Y14.482 E0.09363
G1 X13.976 Y15.334 E0.09351
G1 X13.345 Y16.133 E0.09345
G1 X12.876 Y16.645 E0.06370
G1 X12.645 Y16.876 E0.02990
G1 X11.884 Y17.554 E0.09351
G1 X11.067 Y18.163 E0.09352
G1 X10.200 Y18.698 E0.09351
G1 X9.585 Y19.019 E0.06363
G1 X8.649 Y19.422 E0.09352
G1 X7.681 Y19.742 E0.09351
G1 X6.689 Y19.976 E0.09351
G1 X5.680 Y20.123 E0.09352
G1 X4.499 Y20.186 E0.10856
G1 X-4.662 Y20.182 E0.84051
G1 X-5.680 Y20.123 E0.09357
G1 X-6.368 Y20.033 E0.06368
G1 X-6.691 Y19.976 E0.03005
G1 X-7.681 Y19.742 E0.09337
G1 X-8.649 Y19.422 E0.09351
G1 X-9.289 Y19.156 E0.06363
G1 X-10.200 Y18.698 E0.09351
G1 X-10.482 Y18.535 E0.02990
G1 X-11.333 Y17.976 E0.09343
G1 X-12.134 Y17.344 E0.09360
G1 X-12.645 Y16.876 E0.06363
G1 X-13.344 Y16.134 E0.09351
G1 X-13.555 Y15.882 E0.03011
G1 X-14.162 Y15.068 E0.09320
G1 X-14.698 Y14.200 E0.09363
G1 X-15.019 Y13.585 E0.06363
G1 X-15.422 Y12.649 E0.09352
G1 X-15.742 Y11.681 E0.09351
G1 X-15.976 Y10.689 E0.09352
G1 X-16.123 Y9.680 E0.09351
G1 X-16.182 Y8.662 E0.09361
G1 X-16.186 Y-8.499 E1.57451
G1 X-16.152 Y-9.356 E0.07868
G1 X-16.033 Y-10.368 E0.09351
G1 X-15.826 Y-11.366 E0.09351
G1 X-15.533 Y-12.342 E0.09352
G1 X-15.421 Y-12.650 E0.03002
G1 X-15.019 Y-13.585 E0.09337
G1 X-14.535 Y-14.482 E0.09353
G1 X-13.976 Y-15.333 E0.09343
G1 X-13.344 Y-16.134 E0.09360
G1 X-12.645 Y-16.876 E0.09351
G1 X-11.885 Y-17.553 E0.09347
G1 X-11.067 Y-18.163 E0.09354
G1 X-10.200 Y-18.698 E0.09353
G1 X-9.289 Y-19.156 E0.09352
G1 X-8.343 Y-19.533 E0.09346
G1 X-7.366 Y-19.826 E0.09357
G1 X-6.368 Y-20.033 E0.09352
G1 X-5.356 Y-20.152 E0.09351
G1 X-4.499 Y-20.186 E0.07868
G1 X12.450 Y-20.186 E1.55507
G1 X14.121 Y-19.791 E0.15755
G1 X15.439 Y-18.690 E0.15755 F1200.000
G1 X16.186 Y-16.450 E0.21667
G1 X16.186 Y-0.060 E1.50379
G1 E-3.20000 F3000.00000
G1 Z0.700 F9000.000
G1 X1.600 Y6.802 F9000.000
G1 Z0.300 F9000.000
G1 E3.20000 F3000.00000
G1 X1.787 Y7.351 E0.05326 F900.000
G1 X1.900 Y7.921 E0.05327
G1 X1.938 Y8.500 E0.05326
G1 X1.900 Y9.079 E0.05327
G1 X1.787 Y9.649 E0.05326
G1 X1.600 Y10.198 E0.05326
G1 X1.344 Y10.719 E0.05327
G1 X1.021 Y11.202 E0.05326
G1 X0.638 Y11.638 E0.05326
G1 X0.202 Y12.021 E0.05327
G1 X-0.281 Y12.344 E0.05326
G1 X-0.802 Y12.600 E0.05326
G1 X-1.351 Y12.787 E0.05327
G1 X-1.921 Y12.900 E0.05326
G1 X-2.500 Y12.938 E0.05327
G1 X-3.079 Y12.900 E0.05326
G1 X-3.649 Y12.787 E0.05326
G1 X-4.198 Y12.600 E0.05327
G1 X-4.719 Y12.344 E0.05326
G1 X-5.202 Y12.021 E0.05326
G1 X-5.638 Y11.638 E0.05327
G1 X-6.021 Y11.202 E0.05326
G1 X-6.344 Y10.719 E0.05326
G1 X-6.600 Y10.198 E0.05327
G1 X-6.787 Y9.649 E0.05326
G1 X-6.900 Y9.079 E0.05326
G1 X-6.938 Y8.500 E0.05327
G1 X-6.900 Y7.921 E0.05327
G1 X-6.787 Y7.351 E0.05326
G1 X-6.600 Y6.802 E0.05327
G1 X-6.344 Y6.281 E0.05326
G1 X-6.021 Y5.798 E0.05327
G1 X-5.638 Y5.362 E0.05326
G1 X-5.202 Y4.979 E0.05327
G1 X-4.719 Y4.656 E0.05326
G1 X-4.198 Y4.400 E0.05326
G1 X-3.649 Y4.213 E0.05327
G1 X-3.079 Y4.100 E0.05326
G1 X-2.500 Y4.062 E0.05327 F900.000
G1 X-1.921 Y4.100 E0.05326
G1 X-1.351 Y4.213 E0.05327
G1 X-0.802 Y4.400 E0.05326
G1 X-0.281 Y4.656 E0.05326
G1 X0.202 Y4.979 E0.05327
G1 X0.638 Y5.362 E0.05327
G1 X1.021 Y5.798 E0.05326
G1 X1.344 Y6.281 E0.05327
G1 X1.574 Y6.748 E0.04776
G1 X0.914 Y7.073 F9000.000
G1 X1.075 Y7.542 E0.04549 F900.000
G1 X1.169 Y8.017 E0.04442
G1 X1.201 Y8.500 E0.04442
G1 X1.169 Y8.983 E0.04442
G1 X1.075 Y9.458 E0.04442
G1 X0.919 Y9.916 E0.04442
G1 X0.705 Y10.350 E0.04442
G1 X0.436 Y10.753 E0.04442
G1 X0.117 Y11.117 E0.04442
G1 X-0.247 Y11.436 E0.04442
G1 X-0.650 Y11.705 E0.04442
G1 X-1.084 Y11.919 E0.04442
G1 X-1.542 Y12.075 E0.04442
G1 X-2.017 Y12.169 E0.04442
G1 X-2.500 Y12.201 E0.04442
G1 X-2.983 Y12.169 E0.04442
G1 X-3.458 Y12.075 E0.04442
G1 X-3.916 Y11.919 E0.04442
G1 X-4.350 Y11.705 E0.04442
G1 X-4.753 Y11.436 E0.04442
G1 X-5.117 Y11.117 E0.04442
G1 X-5.436 Y10.753 E0.04442
G1 X-5.705 Y10.350 E0.04442
G1 X-5.919 Y9.916 E0.04442
G1 X-6.075 Y9.458 E0.04442
G1 X-6.169 Y8.983 E0.04442
G1 X-6.201 Y8.500 E0.04442
G1 X-6.169 Y8.017 E0.04442
G1 X-6.075 Y7.542 E0.04442
G1 X-5.919 Y7.084 E0.04442
G1 X-5.705 Y6.650 E0.04442
G1 X-5.436 Y6.247 E0.04442
G1 X-5.117 Y5.883 E0.04442
G1 X-4.753 Y5.564 E0.04442
G1 X-4.350 Y5.295 E0.04442
G1 X-3.916 Y5.081 E0.04442
G1 X-3.458 Y4.925 E0.04442
G1 X-2.983 Y4.831 E0.04442
G1 X-2.500 Y4.799 E0.04442 F900.000
G1 X-2.017 Y4.831 E0.04442
G1 X-1.542 Y4.925 E0.04442
G1 X-1.084 Y5.081 E0.04442
G1 X-0.650 Y5.295 E0.04442
G1 X-0.247 Y5.564 E0.04442
G1 X0.117 Y5.883 E0.04442
G1 X0.436 Y6.247 E0.04442
G1 X0.705 Y6.650 E0.04442
G1 X0.887 Y7.019 E0.03783
G1 X1.309 Y7.133 F9000.000
G1 X0.635 Y-15.314 F9000.000
G1 X11.314 Y-15.314 E0.97986 F900.000
G1 X11.314 Y8.474 E2.18261
G1 X11.287 Y9.094 E0.05691 F900.000
G1 X11.210 Y9.683 E0.05454
G1 X11.081 Y10.263 E0.05453
G1 X10.902 Y10.830 E0.05453
G1 X10.675 Y11.379 E0.05454
G1 X10.400 Y11.907 E0.05453
G1 X10.081 Y12.408 E0.05453
G1 X9.719 Y12.879 E0.05453
G1 X9.318 Y13.318 E0.05453
G1 X8.879 Y13.719 E0.05454
G1 X8.408 Y14.081 E0.05453
G1 X7.907 Y14.400 E0.05453
G1 X7.379 Y14.675 E0.05453
G1 X6.830 Y14.902 E0.05453
G1 X6.263 Y15.081 E0.05453
G1 X5.683 Y15.210 E0.05454
G1 X5.094 Y15.287 E0.05453
G1 X4.474 Y15.314 E0.05691
G1 X-4.474 Y15.314 E0.82101
G1 X-5.094 Y15.287 E0.05691
G1 X-5.683 Y15.210 E0.05454
G1 X-6.263 Y15.081 E0.05453
G1 X-6.830 Y14.902 E0.05453
G1 X-7.379 Y14.675 E0.05454
G1 X-7.907 Y14.400 E0.05453
G1 X-8.408 Y14.081 E0.05453
G1 X-8.879 Y13.719 E0.05453
G1 X-9.318 Y13.318 E0.05453
G1 X-9.719 Y12.880 E0.05452
G1 X-10.083 Y12.406 E0.05481
G1 X-10.400 Y11.907 E0.05427
G1 X-10.675 Y11.379 E0.05453
G1 X-10.902 Y10.830 E0.05453
G1 X-11.081 Y10.263 E0.05453
G1 X-11.210 Y9.683 E0.05454
G1 X-11.287 Y9.094 E0.05453
G1 X-11.314 Y8.474 E0.05691
G1 X-11.314 Y-8.474 E1.55501
G1 X-11.287 Y-9.094 E0.05691
G1 X-11.210 Y-9.683 E0.05453
G1 X-11.081 Y-10.263 E0.05453
G1 X-10.902 Y-10.830 E0.05453
G1 X-10.675 Y-11.379 E0.05453
G1 X-10.400 Y-11.907 E0.05453
G1 X-10.081 Y-12.408 E0.05453
G1 X-9.719 Y-12.879 E0.05453
G1 X-9.318 Y-13.318 E0.05453
G1 X-8.879 Y-13.719 E0.05453
G1 X-8.408 Y-14.081 E0.05453
G1 X-7.907 Y-14.400 E0.05453
G1 X-7.379 Y-14.675 E0.05453
G1 X-6.830 Y-14.902 E0.05453
G1 X-6.263 Y-15.081 E0.05454
G1 X-5.683 Y-15.210 E0.05453
G1 X-5.094 Y-15.287 E0.05453
G1 X-4.474 Y-15.314 E0.05691
G1 X0.575 Y-15.314 E0.46324
G1 X0.575 Y-16.050 F9000.000
G1 X12.050 Y-16.050 E1.05286 F900.000
G1 X12.050 Y8.490 E2.25157
G1 X12.021 Y9.158 E0.06133 F900.000
G1 X11.935 Y9.811 E0.06043
G1 X11.792 Y10.454 E0.06043
G1 X11.594 Y11.082 E0.06043
G1 X11.342 Y11.691 E0.06043
G1 X11.038 Y12.275 E0.06043
G1 X10.684 Y12.830 E0.06043
G1 X10.283 Y13.353 E0.06043
G1 X9.838 Y13.838 E0.06043
G1 X9.353 Y14.283 E0.06043
G1 X8.830 Y14.684 E0.06043
G1 X8.275 Y15.038 E0.06043
G1 X7.691 Y15.342 E0.06043
G1 X7.082 Y15.594 E0.06043
G1 X6.454 Y15.792 E0.06043
G1 X5.811 Y15.935 E0.06043
G1 X5.158 Y16.021 E0.06043
G1 X4.490 Y16.050 E0.06133
G1 X-4.490 Y16.050 E0.82395
G1 X-5.158 Y16.021 E0.06133
G1 X-5.811 Y15.935 E0.06043
G1 X-6.454 Y15.792 E0.06043
G1 X-7.082 Y15.594 E0.06043
G1 X-7.691 Y15.342 E0.06043
G1 X-8.275 Y15.038 E0.06043
G1 X-8.830 Y14.684 E0.06043
G1 X-9.353 Y14.283 E0.06043
G1 X-9.838 Y13.838 E0.06043
G1 X-10.283 Y13.353 E0.06042
G1 X-10.686 Y12.828 E0.06071
G1 X-11.038 Y12.275 E0.06015
G1 X-11.342 Y11.691 E0.06043
G1 X-11.594 Y11.082 E0.06043
G1 X-11.792 Y10.454 E0.06043
G1 X-11.935 Y9.811 E0.06043
G1 X-12.021 Y9.158 E0.06043
G1 X-12.050 Y8.490 E0.06133
G1 X-12.050 Y-8.490 E1.55796
G1 X-12.021 Y-9.158 E0.06133
G1 X-11.935 Y-9.811 E0.06043
G1 X-11.792 Y-10.454 E0.06043
G1 X-11.594 Y-11.082 E0.06043
G1 X-11.342 Y-11.691 E0.06043
G1 X-11.038 Y-12.275 E0.06043
G1 X-10.684 Y-12.830 E0.06043
G1 X-10.283 Y-13.353 E0.06043
G1 X-9.838 Y-13.838 E0.06043
G1 X-9.353 Y-14.283 E0.06043
G1 X-8.830 Y-14.684 E0.06043
G1 X-8.275 Y-15.038 E0.06043
G1 X-7.691 Y-15.342 E0.06043
G1 X-7.082 Y-15.594 E0.06043
G1 X-6.454 Y-15.792 E0.06043
G1 X-5.811 Y-15.935 E0.06043
G1 X-5.158 Y-16.021 E0.06043
G1 X-4.490 Y-16.050 E0.06133
G1 X0.515 Y-16.050 E0.45921
G1 X0.775 Y-15.704 F9000.000
G1 X10.865 Y-14.513 F9000.000
G1 X10.513 Y-14.865 E0.04599 F900.000
G1 X9.466 Y-14.865 E0.09674
G1 X10.865 Y-13.466 E0.18280
G1 X10.865 Y-12.418 E0.09674
G1 X8.418 Y-14.865 E0.31960
G1 X7.371 Y-14.865 E0.09674
G1 X10.865 Y-11.371 E0.45641
G1 X10.865 Y-10.324 E0.09674
G1 X6.324 Y-14.865 E0.59321
G1 X5.277 Y-14.865 E0.09674
G1 X10.865 Y-9.277 E0.73001
G1 X10.865 Y-8.229 E0.09674
G1 X4.229 Y-14.865 E0.86682
G1 X3.182 Y-14.865 E0.09674
G1 X10.865 Y-7.182 E1.00362
G1 X10.865 Y-6.135 E0.09674
G1 X2.135 Y-14.865 E1.14043
G1 X1.087 Y-14.865 E0.09674
G1 X10.865 Y-5.087 E1.27723
G1 X10.865 Y-4.040 E0.09674
G1 X0.040 Y-14.865 E1.41403
G1 X-1.007 Y-14.865 E0.09674
G1 X10.865 Y-2.993 E1.55084
G1 X10.865 Y-1.945 E0.09674
G1 X-2.055 Y-14.865 E1.68764
G1 X-3.102 Y-14.865 E0.09674
G1 X10.865 Y-0.898 E1.82445
G1 X10.865 Y0.149 E0.09674
G1 X-4.149 Y-14.865 E1.96125
G1 X-5.172 Y-14.841 E0.09452
G1 X10.865 Y1.196 E2.09489
G1 X10.865 Y2.244 E0.09674
G1 X-6.073 Y-14.694 E2.21251
G1 X-6.875 Y-14.449 E0.07750
G1 X10.865 Y3.291 E2.31734
G1 X10.865 Y4.338 E0.09674
G1 X-7.592 Y-14.119 E2.41100
G1 X-8.242 Y-13.721 E0.07035
G1 X10.865 Y5.386 E2.49586
G1 X10.865 Y6.433 E0.09674
G1 X-8.815 Y-13.247 E2.57074
G1 X-9.339 Y-12.724 E0.06840
G1 X10.865 Y7.480 E2.63914
G1 X10.865 Y8.528 E0.09674
G1 X-9.795 Y-12.132 E2.69868
G1 X-10.182 Y-11.472 E0.07069
G1 X10.799 Y9.509 E2.74058
G1 X10.617 Y10.374 E0.08168
G1 X-10.500 Y-10.743 E2.75845
G1 X-10.727 Y-9.923 E0.07862
G1 X10.338 Y11.143 E2.75172
G1 X9.984 Y11.835 E0.07187
G1 X-10.849 Y-8.997 E2.72122
G1 X-10.865 Y-7.966 E0.09521
G1 X9.557 Y12.456 E2.66766
G1 X9.058 Y13.004 E0.06848
G1 X-10.865 Y-6.919 E2.60248
G1 X-10.865 Y-5.872 E0.09674
G1 X-1.253 Y3.741 E1.25559
G1 X-2.424 Y3.617 E0.10879
G1 X-10.865 Y-4.824 E1.10260
G1 X-10.865 Y-3.777 E0.09674
G1 X-3.362 Y3.726 E0.98009
G1 X-4.174 Y3.961 E0.07809
G1 X-10.865 Y-2.730 E0.87402
G1 X-10.865 Y-1.682 E0.09674
G1 X-4.884 Y4.299 E0.78132
G1 X-5.501 Y4.729 E0.06948
G1 X-10.865 Y-0.635 E0.70071
G1 X-10.865 Y0.412 E0.09674
G1 X-6.041 Y5.237 E0.63020
G1 X-6.504 Y5.821 E0.06886
G1 X-10.865 Y1.459 E0.56971
G1 X-10.865 Y2.507 E0.09674
G1 X-6.886 Y6.486 E0.51974
G1 X-7.179 Y7.240 E0.07475
G1 X-10.865 Y3.554 E0.48147
G1 X-10.865 Y4.601 E0.09674
G1 X-7.353 Y8.113 E0.45876
G1 X-7.356 Y9.158 E0.09649
G1 X-10.865 Y5.649 E0.45842
G1 X-10.865 Y6.696 E0.09674
G1 X-7.020 Y10.541 E0.50226
G1 X-9.355 Y12.395 F9000.000
G1 X-8.395 Y13.355 E0.12538 F900.000
G1 X-6.097 Y14.606 F9000.000
G1 X-10.606 Y10.097 E0.58890 F900.000
G1 X-10.843 Y8.813 E0.12067
G1 X-4.813 Y14.843 E0.78770
G1 X-3.743 Y14.865 E0.09880
G1 X-10.865 Y7.743 E0.93030
G1 X-4.541 Y13.020 F9000.000
G1 X-2.696 Y14.865 E0.24101 F900.000
G1 X-1.649 Y14.865 E0.09674
G1 X-3.158 Y13.356 E0.19717
G1 X-2.113 Y13.353 E0.09649
G1 X-0.601 Y14.865 E0.19751
G1 X0.446 Y14.865 E0.09674
G1 X-1.240 Y13.179 E0.22022
G1 X-0.486 Y12.886 E0.07475
G1 X1.493 Y14.865 E0.25849
G1 X2.541 Y14.865 E0.09674
G1 X0.179 Y12.504 E0.30846
G1 X0.763 Y12.041 E0.06886
G1 X3.588 Y14.865 E0.36895
G1 X4.634 Y14.864 E0.09666
G1 X1.271 Y11.501 E0.43936
G1 X1.701 Y10.884 E0.06948
G1 X5.604 Y14.786 E0.50977
G1 X6.456 Y14.591 E0.08074
G1 X2.039 Y10.174 E0.57697
G1 X2.274 Y9.362 E0.07809
G1 X7.219 Y14.307 E0.64593
G1 X7.901 Y13.942 E0.07147
G1 X2.383 Y8.424 E0.72074
G1 X2.259 Y7.253 E0.10879
G1 X8.517 Y13.510 E0.81737
G1 E-3.20000 F3000.00000
G1 Z0.700 F9000.000
G1 X1.184 Y10.026 F9000.000
G1 Z0.600 F9000.000
G1 E3.20000 F3000.00000
G1 X0.953 Y10.494 E0.02834 F1800.000
G1 X0.663 Y10.927 E0.02834
G1 X0.558 Y11.047 E0.00865
G1 X0.675 Y11.164 E0.00897
G1 X-0.506 Y11.953 E0.07720
G1 X-0.974 Y12.184 E0.02834
G1 X-1.468 Y12.351 E0.02834
G1 X-1.980 Y12.453 E0.02834
G1 X-2.500 Y12.487 E0.02834
G1 X-3.020 Y12.453 E0.02834
G1 X-3.532 Y12.351 E0.02834
G1 X-4.026 Y12.184 E0.02834
G1 X-4.494 Y11.953 E0.02834
G1 X-5.675 Y11.164 E0.07720
G1 X-5.558 Y11.047 E0.00897
G1 X-5.663 Y10.927 E0.00864
G1 X-5.953 Y10.494 E0.02834
G1 X-6.184 Y10.026 E0.02834
G1 X-6.351 Y9.532 E0.02834
G1 X-6.453 Y9.020 E0.02834
G1 X-6.487 Y8.500 E0.02834
G1 X-6.453 Y7.980 E0.02834
G1 X-6.351 Y7.468 E0.02834
G1 X-6.184 Y6.974 E0.02834
G1 X-5.953 Y6.506 E0.02834
G1 X-5.663 Y6.073 E0.02834
G1 X-5.558 Y5.953 E0.00864
G1 X-5.675 Y5.836 E0.00897
G1 X-4.494 Y5.047 E0.07721
G1 X-4.026 Y4.816 E0.02834
G1 X-3.531 Y4.648 E0.02841
G1 X-3.006 Y4.546 E0.02903
G1 X-2.500 Y4.513 E0.02757 F1800.000
G1 X-1.980 Y4.547 E0.02834
G1 X-1.468 Y4.649 E0.02834
G1 X-0.974 Y4.816 E0.02834
G1 X-0.506 Y5.047 E0.02834
G1 X-0.073 Y5.337 E0.02834
G1 X0.319 Y5.681 E0.02834
G1 X0.663 Y6.073 E0.02834
G1 X0.953 Y6.506 E0.02834
G1 X1.184 Y6.974 E0.02834
G1 X1.351 Y7.468 E0.02834
G1 X1.453 Y7.980 E0.02834
G1 X1.487 Y8.500 E0.02834
G1 X1.453 Y9.020 E0.02834
G1 X1.351 Y9.532 E0.02834
G1 X1.203 Y9.969 E0.02508
G1 X0.790 Y9.829 F9000.000
G1 X0.575 Y10.275 E0.02693 F1800.000
G1 X0.317 Y10.661 E0.02523
G1 X-0.038 Y11.066 E0.02926
G1 X-0.008 Y11.096 E0.00230
G1 X-0.725 Y11.575 E0.04681
G1 X-1.141 Y11.780 E0.02523
G1 X-1.581 Y11.930 E0.02523
G1 X-2.037 Y12.020 E0.02523
G1 X-2.500 Y12.051 E0.02523
G1 X-2.963 Y12.020 E0.02523
G1 X-3.419 Y11.930 E0.02523
G1 X-3.859 Y11.780 E0.02523
G1 X-4.275 Y11.575 E0.02523
G1 X-4.992 Y11.096 E0.04681
G1 X-4.962 Y11.066 E0.00230
G1 X-5.317 Y10.661 E0.02926
G1 X-5.575 Y10.275 E0.02523
G1 X-5.780 Y9.859 E0.02523
G1 X-5.930 Y9.419 E0.02523
G1 X-6.020 Y8.963 E0.02523
G1 X-6.051 Y8.500 E0.02523
G1 X-6.020 Y8.037 E0.02523
G1 X-5.930 Y7.581 E0.02523
G1 X-5.780 Y7.141 E0.02523
G1 X-5.575 Y6.725 E0.02523
G1 X-5.317 Y6.339 E0.02523
G1 X-4.962 Y5.934 E0.02926
G1 X-4.992 Y5.904 E0.00230
G1 X-4.275 Y5.425 E0.04681
G1 X-3.859 Y5.220 E0.02524
G1 X-3.419 Y5.070 E0.02526
G1 X-2.950 Y4.979 E0.02593
G1 X-2.500 Y4.949 E0.02451 F1800.000
G1 X-2.037 Y4.980 E0.02523
G1 X-1.581 Y5.070 E0.02523
G1 X-1.141 Y5.220 E0.02523
G1 X-0.725 Y5.425 E0.02523
G1 X-0.339 Y5.683 E0.02523
G1 X0.011 Y5.989 E0.02523
G1 X0.317 Y6.339 E0.02523
G1 X0.575 Y6.725 E0.02523
G1 X0.780 Y7.141 E0.02523
G1 X0.930 Y7.581 E0.02523
G1 X1.020 Y8.037 E0.02523
G1 X1.051 Y8.500 E0.02524
G1 X1.020 Y8.963 E0.02523
G1 X0.930 Y9.419 E0.02523
G1 X0.810 Y9.772 E0.02027
G1 X1.029 Y10.150 F9000.000
G1 E-3.20000 F3000.00000
G1 Z1.000 F9000.000
G1 X-7.284 Y15.201 F9000.000
G1 Z0.600 F9000.000
G1 E3.20000 F3000.00000
G1 X-7.570 Y15.083 E0.01679 F1800.000
G1 X-8.132 Y14.791 E0.03443
G1 X-8.666 Y14.450 E0.03443
G1 X-9.169 Y14.064 E0.03443
G1 X-9.636 Y13.636 E0.03443
G1 X-10.064 Y13.169 E0.03440
G1 X-10.457 Y12.655 E0.03516
G1 X-10.791 Y12.132 E0.03373
G1 X-11.083 Y11.570 E0.03443
G1 X-11.326 Y10.984 E0.03443
G1 X-11.516 Y10.380 E0.03443
G1 X-11.653 Y9.761 E0.03443
G1 X-11.736 Y9.133 E0.03443
G1 X-11.764 Y8.484 E0.03530
G1 X-11.764 Y-8.484 E0.92191
G1 X-11.736 Y-9.133 E0.03530
G1 X-11.653 Y-9.761 E0.03443
G1 X-11.516 Y-10.380 E0.03443
G1 X-11.326 Y-10.984 E0.03443
G1 X-11.083 Y-11.570 E0.03443
