; generated by Slic3r 1.2.9 on 2016-10-21 at 11:22:55

; external perimeters extrusion width = 0.50mm
; perimeters extrusion width = 0.50mm
; infill extrusion width = 0.50mm
; solid infill extrusion width = 0.50mm
; top infill extrusion width = 0.50mm

M107
;Basic settings: Layer height: {layer_height} Walls: {wall_thickness} Fill: {fill_density}
;Print time: {print_time}
;Filament used: {filament_amount}m {filament_weight}g
;Filament cost: {filament_cost}
;M190 S{print_bed_temperature} ;Uncomment to add your own bed temperature line
;M109 S{print_temperature} ;Uncomment to add your own temperature line
G21        ;metric values
G90        ;absolute positioning
M83
G10 P0 S200
T0
M116


G21 ; set units to millimeters
G90 ; use absolute coordinates
M83 ; use relative distances for extrusion
G1 E-3.20000 F3000.00000
G1 Z0.400 F9000.000
G1 X21.686 Y0.000 F9000.000
G1 Z0.300 F9000.000
G1 E3.20000 F3000.00000
G1 X21.680 Y40.194 E3.68784 F1200.000
G1 X21.640 Y40.974 E0.07167
G1 X21.599 Y41.363 E0.03587
G1 X21.477 Y42.133 E0.07155
G1 X21.395 Y42.516 E0.03588
G1 X21.194 Y43.269 E0.07155
G1 X21.073 Y43.641 E0.03587
G1 X20.793 Y44.369 E0.07156
G1 X20.634 Y44.726 E0.03586
G1 X20.280 Y45.421 E0.07155
G1 X20.085 Y45.760 E0.03588
G1 X19.660 Y46.414 E0.07157
G1 X19.430 Y46.730 E0.03582
G1 X18.940 Y47.336 E0.07158
G1 X18.678 Y47.626 E0.03588
G1 X18.126 Y48.178 E0.07155
G1 X17.836 Y48.439 E0.03585
G1 X17.230 Y48.930 E0.07157
G1 X16.914 Y49.160 E0.03587
G1 X16.260 Y49.585 E0.07155
G1 X15.921 Y49.780 E0.03586
G1 X15.226 Y50.134 E0.07157
G1 X14.869 Y50.293 E0.03588
G1 X14.141 Y50.573 E0.07155
G1 X13.769 Y50.694 E0.03587
G1 X13.016 Y50.895 E0.07155
G1 X12.633 Y50.977 E0.03588
G1 X11.863 Y51.099 E0.07155
G1 X11.474 Y51.140 E0.03588
G1 X10.500 Y51.186 E0.08949
G1 X-10.500 Y51.186 E1.92676
G1 X-11.474 Y51.140 E0.08949
G1 X-11.863 Y51.099 E0.03588
G1 X-12.633 Y50.977 E0.07155
G1 X-13.016 Y50.895 E0.03588
G1 X-13.769 Y50.694 E0.07155
G1 X-14.141 Y50.573 E0.03586
G1 X-14.869 Y50.293 E0.07156
G1 X-15.226 Y50.134 E0.03588
G1 X-15.921 Y49.780 E0.07155
G1 X-16.259 Y49.585 E0.03586
G1 X-16.914 Y49.160 E0.07157
G1 X-17.230 Y48.930 E0.03587
G1 X-17.836 Y48.439 E0.07155
G1 X-18.126 Y48.178 E0.03587
G1 X-18.678 Y47.626 E0.07159
G1 X-18.940 Y47.336 E0.03583
G1 X-19.430 Y46.730 E0.07155
G1 X-19.660 Y46.414 E0.03587
G1 X-20.085 Y45.760 E0.07155
G1 X-20.280 Y45.421 E0.03588
G1 X-20.634 Y44.726 E0.07155
G1 X-20.793 Y44.369 E0.03588
G1 X-21.073 Y43.641 E0.07155
G1 X-21.194 Y43.269 E0.03588
G1 X-21.395 Y42.516 E0.07155
G1 X-21.477 Y42.133 E0.03588
G1 X-21.599 Y41.363 E0.07157
G1 X-21.640 Y40.974 E0.03585
G1 X-21.681 Y40.194 E0.07168
G1 X-21.686 Y-39.999 E7.35773
G1 X-21.640 Y-40.974 E0.08961
G1 X-21.599 Y-41.363 E0.03587
G1 X-21.477 Y-42.133 E0.07155
G1 X-21.395 Y-42.516 E0.03588
G1 X-21.194 Y-43.269 E0.07155
G1 X-21.073 Y-43.641 E0.03585
G1 X-20.793 Y-44.369 E0.07157
G1 X-20.634 Y-44.726 E0.03588
G1 X-20.280 Y-45.421 E0.07155
G1 X-20.085 Y-45.760 E0.03588
G1 X-19.660 Y-46.414 E0.07155
G1 X-19.430 Y-46.730 E0.03587
G1 X-18.940 Y-47.336 E0.07155
G1 X-18.678 Y-47.626 E0.03586
G1 X-18.126 Y-48.178 E0.07156
G1 X-17.836 Y-48.439 E0.03587
G1 X-17.230 Y-48.930 E0.07155
G1 X-16.914 Y-49.160 E0.03587
G1 X-16.260 Y-49.585 E0.07155
G1 X-15.921 Y-49.780 E0.03587
G1 X-15.226 Y-50.134 E0.07155
G1 X-14.869 Y-50.293 E0.03587
G1 X-14.141 Y-50.573 E0.07155
G1 X-13.769 Y-50.694 E0.03588
G1 X-13.016 Y-50.895 E0.07155
G1 X-12.633 Y-50.977 E0.03587
G1 X-11.863 Y-51.099 E0.07155
G1 X-11.474 Y-51.140 E0.03588
G1 X-10.500 Y-51.186 E0.08949
G1 X10.695 Y-51.180 E1.94470
G1 X11.474 Y-51.140 E0.07155 F1200.000
G1 X11.863 Y-51.099 E0.03588
G1 X12.633 Y-50.977 E0.07155
G1 X13.016 Y-50.895 E0.03587
G1 X13.769 Y-50.694 E0.07155
G1 X14.141 Y-50.573 E0.03588
G1 X14.869 Y-50.293 E0.07155
G1 X15.226 Y-50.134 E0.03588
G1 X15.921 Y-49.780 E0.07155
G1 X16.260 Y-49.585 E0.03587
G1 X16.899 Y-49.169 E0.06999
G1 X17.230 Y-48.930 E0.03743
G1 X17.836 Y-48.439 E0.07155
G1 X18.126 Y-48.178 E0.03588
G1 X18.678 Y-47.626 E0.07155
G1 X18.940 Y-47.336 E0.03588
G1 X19.430 Y-46.730 E0.07155
G1 X19.660 Y-46.414 E0.03587
G1 X20.085 Y-45.760 E0.07155
G1 X20.280 Y-45.421 E0.03588
G1 X20.634 Y-44.726 E0.07155
G1 X20.793 Y-44.369 E0.03588
G1 X21.073 Y-43.641 E0.07155
G1 X21.194 Y-43.269 E0.03588
G1 X21.395 Y-42.516 E0.07155
G1 X21.477 Y-42.133 E0.03588
G1 X21.599 Y-41.363 E0.07155
G1 X21.640 Y-40.974 E0.03587
G1 X21.686 Y-39.999 E0.08961
G1 X21.686 Y-0.060 E3.66440
G1 E-3.20000 F3000.00000
G1 Z0.700 F9000.000
G1 X-7.353 Y36.859 F9000.000
G1 Z0.300 F9000.000
G1 E3.20000 F3000.00000
G1 X-6.637 Y37.807 E0.10895 F900.000
G1 X-6.206 Y38.849 E0.10351
G1 X-6.054 Y40.000 E0.10649
G1 X-6.206 Y41.151 E0.10649
G1 X-6.650 Y42.223 E0.10649
G1 X-7.359 Y43.147 E0.10691
G1 X-8.307 Y43.863 E0.10895
G1 X-9.349 Y44.294 E0.10351
G1 X-10.500 Y44.446 E0.10649
G1 X-11.651 Y44.294 E0.10649
G1 X-12.723 Y43.850 E0.10649
G1 X-13.647 Y43.141 E0.10692
G1 X-14.363 Y42.193 E0.10895
G1 X-14.794 Y41.151 E0.10351
G1 X-14.946 Y40.000 E0.10649
G1 X-14.794 Y38.849 E0.10649
G1 X-14.350 Y37.777 E0.10649
G1 X-13.644 Y36.856 E0.10649
G1 X-12.723 Y36.150 E0.10649
G1 X-11.651 Y35.706 E0.10649
G1 X-10.532 Y35.558 E0.10351 F900.000
G1 X-9.354 Y35.704 E0.10895
G1 X-8.277 Y36.150 E0.10691
G1 X-7.400 Y36.823 E0.10141
G1 X-7.880 Y37.382 F9000.000
G1 X-7.281 Y38.175 E0.09118 F900.000
G1 X-6.922 Y39.041 E0.08601
G1 X-6.796 Y40.000 E0.08871
G1 X-6.922 Y40.959 E0.08871
G1 X-7.292 Y41.852 E0.08871
G1 X-7.882 Y42.620 E0.08887
G1 X-8.675 Y43.219 E0.09118
G1 X-9.541 Y43.578 E0.08601
G1 X-10.500 Y43.704 E0.08871
G1 X-11.459 Y43.578 E0.08871
G1 X-12.352 Y43.208 E0.08871
G1 X-13.120 Y42.618 E0.08887
G1 X-13.719 Y41.825 E0.09118
G1 X-14.078 Y40.959 E0.08601
G1 X-14.204 Y40.000 E0.08871
G1 X-14.078 Y39.041 E0.08871
G1 X-13.708 Y38.148 E0.08871
G1 X-13.119 Y37.381 E0.08871
G1 X-12.352 Y36.792 E0.08871
G1 X-11.459 Y36.422 E0.08871
G1 X-10.529 Y36.300 E0.08601 F900.000
G1 X-9.543 Y36.422 E0.09118
G1 X-8.648 Y36.792 E0.08887
G1 X-7.927 Y37.345 E0.08336
G1 X-7.489 Y37.297 F9000.000
G1 X-10.500 Y-35.554 F9000.000
G1 X-11.651 Y-35.706 E0.10649 F900.000
G1 X-12.723 Y-36.150 E0.10649
G1 X-13.649 Y-36.860 E0.10707
G1 X-14.367 Y-37.818 E0.10989
G1 X-14.794 Y-38.849 E0.10238
G1 X-14.946 Y-40.000 E0.10649
G1 X-14.794 Y-41.151 E0.10649
G1 X-14.367 Y-42.182 E0.10238
G1 X-13.649 Y-43.140 E0.10989
G1 X-12.723 Y-43.850 E0.10707
G1 X-11.651 Y-44.294 E0.10649
G1 X-10.544 Y-44.440 E0.10238 F900.000
G1 X-9.355 Y-44.297 E0.10989
G1 X-8.277 Y-43.850 E0.10707
G1 X-7.356 Y-43.144 E0.10649
G1 X-6.650 Y-42.223 E0.10649
G1 X-6.206 Y-41.151 E0.10649
G1 X-6.054 Y-40.000 E0.10649
G1 X-6.206 Y-38.849 E0.10649
G1 X-6.650 Y-37.777 E0.10649
G1 X-7.356 Y-36.856 E0.10649
G1 X-8.277 Y-36.150 E0.10649
G1 X-9.349 Y-35.706 E0.10649
G1 X-10.441 Y-35.562 E0.10098
G1 X-10.500 Y-36.296 F9000.000
G1 X-11.459 Y-36.422 E0.08871 F900.000
G1 X-12.352 Y-36.792 E0.08871
G1 X-13.121 Y-37.382 E0.08892
G1 X-13.723 Y-38.186 E0.09212
G1 X-14.078 Y-39.041 E0.08498
G1 X-14.204 Y-40.000 E0.08871
G1 X-14.078 Y-40.959 E0.08871
G1 X-13.723 Y-41.814 E0.08498
G1 X-13.121 Y-42.618 E0.09212
G1 X-12.352 Y-43.208 E0.08892
G1 X-11.459 Y-43.578 E0.08871
G1 X-10.540 Y-43.699 E0.08498 F900.000
G1 X-9.543 Y-43.579 E0.09212
G1 X-8.648 Y-43.208 E0.08892
G1 X-7.881 Y-42.619 E0.08871
G1 X-7.292 Y-41.852 E0.08871
G1 X-6.922 Y-40.959 E0.08871
G1 X-6.796 Y-40.000 E0.08871
G1 X-6.922 Y-39.041 E0.08871
G1 X-7.292 Y-38.148 E0.08871
G1 X-7.881 Y-37.381 E0.08871
G1 X-8.648 Y-36.792 E0.08871
G1 X-9.541 Y-36.422 E0.08871
G1 X-10.441 Y-36.304 E0.08321
G1 X-10.715 Y-35.959 F9000.000
G1 X-4.186 Y-3.873 F9000.000
G1 X-4.186 Y39.969 E4.02253 F900.000
G1 X-4.222 Y40.660 E0.06348
G1 X-4.325 Y41.312 E0.06063
G1 X-4.496 Y41.951 E0.06062
G1 X-4.733 Y42.568 E0.06063
G1 X-5.033 Y43.156 E0.06063
G1 X-5.393 Y43.711 E0.06063
G1 X-5.809 Y44.224 E0.06063
G1 X-6.276 Y44.691 E0.06063
G1 X-6.789 Y45.107 E0.06063
G1 X-7.344 Y45.467 E0.06063
G1 X-7.932 Y45.767 E0.06063
G1 X-8.549 Y46.004 E0.06063
G1 X-9.188 Y46.175 E0.06063
G1 X-9.840 Y46.278 E0.06063
G1 X-10.500 Y46.313 E0.06063
G1 X-11.160 Y46.278 E0.06063
G1 X-11.812 Y46.175 E0.06063
G1 X-12.451 Y46.004 E0.06063
G1 X-13.066 Y45.767 E0.06051
G1 X-13.670 Y45.458 E0.06218
G1 X-14.211 Y45.107 E0.05918
G1 X-14.724 Y44.691 E0.06063
G1 X-15.191 Y44.224 E0.06063
G1 X-15.607 Y43.711 E0.06063
G1 X-15.967 Y43.156 E0.06063
G1 X-16.267 Y42.568 E0.06063
G1 X-16.504 Y41.951 E0.06063
G1 X-16.675 Y41.312 E0.06063
G1 X-16.778 Y40.660 E0.06063
G1 X-16.814 Y39.969 E0.06348
G1 X-16.814 Y-39.969 E7.33434
G1 X-16.778 Y-40.660 E0.06348
G1 X-16.675 Y-41.313 E0.06063
G1 X-16.504 Y-41.951 E0.06063
G1 X-16.267 Y-42.568 E0.06063
G1 X-15.967 Y-43.156 E0.06063
G1 X-15.607 Y-43.711 E0.06063
G1 X-15.191 Y-44.224 E0.06063
G1 X-14.724 Y-44.691 E0.06063
G1 X-14.211 Y-45.107 E0.06063
G1 X-13.656 Y-45.467 E0.06063
G1 X-13.068 Y-45.767 E0.06063
G1 X-12.451 Y-46.004 E0.06063
G1 X-11.812 Y-46.175 E0.06063
G1 X-11.160 Y-46.278 E0.06063
G1 X-10.500 Y-46.313 E0.06063
G1 X-9.840 Y-46.278 E0.06063
G1 X-9.188 Y-46.175 E0.06063 F900.000
G1 X-8.549 Y-46.004 E0.06063
G1 X-7.932 Y-45.767 E0.06063
G1 X-7.344 Y-45.467 E0.06063
G1 X-6.789 Y-45.107 E0.06063
G1 X-6.276 Y-44.691 E0.06063
G1 X-5.809 Y-44.224 E0.06063
G1 X-5.393 Y-43.711 E0.06063
G1 X-5.033 Y-43.156 E0.06063
G1 X-4.733 Y-42.568 E0.06063
G1 X-4.496 Y-41.951 E0.06063
G1 X-4.325 Y-41.313 E0.06063
G1 X-4.222 Y-40.660 E0.06063
G1 X-4.186 Y-39.969 E0.06348
G1 X-4.186 Y-3.933 E3.30631
G1 X-3.450 Y-3.933 F9000.000
G1 X-3.450 Y39.988 E4.02980 F900.000
G1 X-3.489 Y40.737 E0.06878
G1 X-3.605 Y41.466 E0.06770
G1 X-3.796 Y42.178 E0.06770
G1 X-4.060 Y42.867 E0.06770
G1 X-4.395 Y43.525 E0.06770
G1 X-4.797 Y44.144 E0.06770
G1 X-5.261 Y44.717 E0.06770
G1 X-5.783 Y45.239 E0.06770
G1 X-6.356 Y45.703 E0.06770
G1 X-6.975 Y46.105 E0.06770
G1 X-7.633 Y46.440 E0.06770
G1 X-8.322 Y46.704 E0.06770
G1 X-9.034 Y46.895 E0.06770
G1 X-9.763 Y47.011 E0.06770
G1 X-10.500 Y47.049 E0.06770
G1 X-11.237 Y47.011 E0.06770
G1 X-11.966 Y46.895 E0.06770
G1 X-12.678 Y46.704 E0.06770
G1 X-13.367 Y46.440 E0.06766
G1 X-14.039 Y46.096 E0.06925
G1 X-14.644 Y45.703 E0.06618
G1 X-15.217 Y45.239 E0.06770
G1 X-15.739 Y44.717 E0.06770
G1 X-16.203 Y44.144 E0.06770
G1 X-16.605 Y43.525 E0.06770
G1 X-16.940 Y42.867 E0.06770
G1 X-17.204 Y42.178 E0.06770
G1 X-17.395 Y41.466 E0.06770
G1 X-17.511 Y40.737 E0.06770
G1 X-17.550 Y39.988 E0.06878
G1 X-17.550 Y-39.988 E7.33788
G1 X-17.511 Y-40.737 E0.06878
G1 X-17.395 Y-41.466 E0.06770
G1 X-17.204 Y-42.178 E0.06770
G1 X-16.940 Y-42.867 E0.06770
G1 X-16.605 Y-43.525 E0.06770
G1 X-16.203 Y-44.144 E0.06770
G1 X-15.739 Y-44.717 E0.06770
G1 X-15.217 Y-45.239 E0.06770
G1 X-14.644 Y-45.703 E0.06770
G1 X-14.025 Y-46.105 E0.06770
G1 X-13.367 Y-46.440 E0.06770
G1 X-12.678 Y-46.704 E0.06770
G1 X-11.966 Y-46.895 E0.06770
G1 X-11.237 Y-47.011 E0.06770
G1 X-10.500 Y-47.049 E0.06770
G1 X-9.763 Y-47.011 E0.06770
G1 X-9.034 Y-46.895 E0.06770 F900.000
G1 X-8.322 Y-46.704 E0.06770
G1 X-7.633 Y-46.440 E0.06770
G1 X-6.975 Y-46.105 E0.06770
G1 X-6.356 Y-45.703 E0.06770
G1 X-5.783 Y-45.239 E0.06770
G1 X-5.261 Y-44.717 E0.06770
G1 X-4.797 Y-44.144 E0.06770
G1 X-4.395 Y-43.525 E0.06770
G1 X-4.060 Y-42.867 E0.06770
G1 X-3.796 Y-42.178 E0.06770
G1 X-3.605 Y-41.466 E0.06770
G1 X-3.489 Y-40.737 E0.06770
G1 X-3.450 Y-39.988 E0.06878
G1 X-3.450 Y-3.993 E3.30257
G1 X-3.796 Y-3.733 F9000.000
G1 X-4.635 Y-39.427 F9000.000
G1 X-4.985 Y-39.777 E0.04542 F900.000
G1 X-5.693 Y-39.444 E0.07189
G1 X-4.635 Y-38.386 E0.13747
G1 X-4.635 Y-37.344 E0.09561
G1 X-5.879 Y-38.589 E0.16159
G1 X-6.184 Y-37.853 E0.07318
G1 X-4.635 Y-36.303 E0.20119
G1 X-4.635 Y-35.262 E0.09561
G1 X-6.591 Y-37.218 E0.25407
G1 X-7.043 Y-36.629 E0.06819
G1 X-4.635 Y-34.221 E0.31278
G1 X-4.635 Y-33.180 E0.09561
G1 X-7.621 Y-36.166 E0.38782
G1 X-8.231 Y-35.734 E0.06859
G1 X-4.635 Y-32.138 E0.46699
G1 X-4.635 Y-31.097 E0.09561
G1 X-8.967 Y-35.430 E0.56260
G1 X-9.792 Y-35.213 E0.07832
G1 X-4.635 Y-30.056 E0.66976
G1 X-4.635 Y-29.015 E0.09561
G1 X-10.729 Y-35.109 E0.79146
G1 X-11.928 Y-35.267 E0.11106
G1 X-4.635 Y-27.974 E0.94717
G1 X-4.635 Y-26.932 E0.09561
G1 X-16.365 Y-38.663 E1.52335
G1 X-16.365 Y-37.622 E0.09561
G1 X-4.635 Y-25.891 E1.52335
G1 X-4.635 Y-24.850 E0.09561
G1 X-16.365 Y-36.580 E1.52335
G1 X-16.365 Y-35.539 E0.09561
G1 X-4.635 Y-23.809 E1.52335
G1 X-4.635 Y-22.768 E0.09561
G1 X-16.365 Y-34.498 E1.52335
G1 X-16.365 Y-33.457 E0.09561
G1 X-4.635 Y-21.726 E1.52335
G1 X-4.635 Y-20.685 E0.09561
G1 X-16.365 Y-32.416 E1.52335
G1 X-16.365 Y-31.374 E0.09561
G1 X-4.635 Y-19.644 E1.52335
G1 X-4.635 Y-18.603 E0.09561
G1 X-16.365 Y-30.333 E1.52335
G1 X-16.365 Y-29.292 E0.09561
G1 X-4.635 Y-17.562 E1.52335
G1 X-4.635 Y-16.521 E0.09561
G1 X-16.365 Y-28.251 E1.52335
G1 X-16.365 Y-27.210 E0.09561
G1 X-4.635 Y-15.479 E1.52335
G1 X-4.635 Y-14.438 E0.09561
G1 X-16.365 Y-26.168 E1.52335
G1 X-16.365 Y-25.127 E0.09561
G1 X-4.635 Y-13.397 E1.52335
G1 X-4.635 Y-12.356 E0.09561
G1 X-16.365 Y-24.086 E1.52335
G1 X-16.365 Y-23.045 E0.09561
G1 X-4.635 Y-11.315 E1.52335
G1 X-4.635 Y-10.273 E0.09561
G1 X-16.365 Y-22.004 E1.52335
G1 X-16.365 Y-20.962 E0.09561
G1 X-4.635 Y-9.232 E1.52335
G1 X-4.635 Y-8.191 E0.09561
G1 X-16.365 Y-19.921 E1.52335
G1 X-16.365 Y-18.880 E0.09561
G1 X-4.635 Y-7.150 E1.52335
G1 X-4.635 Y-6.109 E0.09561
G1 X-16.365 Y-17.839 E1.52335
G1 X-16.365 Y-16.798 E0.09561
G1 X-4.635 Y-5.067 E1.52335
G1 X-4.635 Y-4.026 E0.09561
G1 X-16.365 Y-15.757 E1.52335
G1 X-16.365 Y-14.715 E0.09561
G1 X-4.635 Y-2.985 E1.52335
G1 X-4.635 Y-1.944 E0.09561
G1 X-16.365 Y-13.674 E1.52335
G1 X-16.365 Y-12.633 E0.09561
G1 X-4.635 Y-0.903 E1.52335
G1 X-4.635 Y0.139 E0.09561
G1 X-16.365 Y-11.592 E1.52335
G1 X-16.365 Y-10.551 E0.09561
G1 X-4.635 Y1.180 E1.52335
G1 X-4.635 Y2.221 E0.09561
G1 X-16.365 Y-9.509 E1.52335
G1 X-16.365 Y-8.468 E0.09561
G1 X-4.635 Y3.262 E1.52335
G1 X-4.635 Y4.303 E0.09561
G1 X-16.365 Y-7.427 E1.52335
G1 X-16.365 Y-6.386 E0.09561
G1 X-4.635 Y5.345 E1.52335
G1 X-4.635 Y6.386 E0.09561
G1 X-16.365 Y-5.345 E1.52335
G1 X-16.365 Y-4.303 E0.09561
G1 X-4.635 Y7.427 E1.52335
G1 X-4.635 Y8.468 E0.09561
G1 X-16.365 Y-3.262 E1.52335
G1 X-16.365 Y-2.221 E0.09561
G1 X-4.635 Y9.509 E1.52335
G1 X-4.635 Y10.551 E0.09561
G1 X-16.365 Y-1.180 E1.52335
G1 X-16.365 Y-0.139 E0.09561
G1 X-4.635 Y11.592 E1.52335
G1 X-4.635 Y12.633 E0.09561
G1 X-16.365 Y0.903 E1.52335
G1 X-16.365 Y1.944 E0.09561
G1 X-4.635 Y13.674 E1.52335
G1 X-4.635 Y14.715 E0.09561
G1 X-16.365 Y2.985 E1.52335
G1 X-16.365 Y4.026 E0.09561
G1 X-4.635 Y15.757 E1.52335
G1 X-4.635 Y16.798 E0.09561
G1 X-16.365 Y5.067 E1.52335
G1 X-16.365 Y6.109 E0.09561
G1 X-4.635 Y17.839 E1.52335
G1 X-4.635 Y18.880 E0.09561
G1 X-16.365 Y7.150 E1.52335
G1 X-16.365 Y8.191 E0.09561
G1 X-4.635 Y19.921 E1.52335
G1 X-4.635 Y20.963 E0.09561
G1 X-16.365 Y9.232 E1.52335
G1 X-16.365 Y10.273 E0.09561
G1 X-4.635 Y22.004 E1.52335
G1 X-4.635 Y23.045 E0.09561
G1 X-16.365 Y11.315 E1.52335
G1 X-16.365 Y12.356 E0.09561
G1 X-4.635 Y24.086 E1.52335
G1 X-4.635 Y25.127 E0.09561
G1 X-16.365 Y13.397 E1.52335
G1 X-16.365 Y14.438 E0.09561
G1 X-4.635 Y26.169 E1.52335
G1 X-4.635 Y27.210 E0.09561
G1 X-16.365 Y15.479 E1.52335
G1 X-16.365 Y16.521 E0.09561
G1 X-4.635 Y28.251 E1.52335
G1 X-4.635 Y29.292 E0.09561
G1 X-16.365 Y17.562 E1.52335
G1 X-16.365 Y18.603 E0.09561
G1 X-4.635 Y30.333 E1.52335
G1 X-4.635 Y31.374 E0.09561
G1 X-16.365 Y19.644 E1.52335
G1 X-16.365 Y20.685 E0.09561
G1 X-4.635 Y32.416 E1.52335
G1 X-4.635 Y33.457 E0.09561
G1 X-16.365 Y21.727 E1.52335
G1 X-16.365 Y22.768 E0.09561
G1 X-4.635 Y34.498 E1.52335
G1 X-4.635 Y35.539 E0.09561
G1 X-16.365 Y23.809 E1.52335
G1 X-16.365 Y24.850 E0.09561
G1 X-4.635 Y36.580 E1.52335
G1 X-4.635 Y37.622 E0.09561
G1 X-16.365 Y25.891 E1.52335
G1 X-16.365 Y26.933 E0.09561
G1 X-4.635 Y38.663 E1.52335
G1 X-4.635 Y39.704 E0.09561
G1 X-5.767 Y38.572 E0.14706
G1 X-9.074 Y35.265 F9000.000
G1 X-16.365 Y27.974 E0.94692 F900.000
G1 X-16.365 Y29.015 E0.09561
G1 X-10.261 Y35.119 E0.79267
G1 X-11.208 Y35.213 E0.08735
G1 X-16.365 Y30.056 E0.66975
