; generated by Slic3r 1.2.9 on 2016-10-20 at 11:01:16

; external perimeters extrusion width = 0.50mm
; perimeters extrusion width = 0.50mm
; infill extrusion width = 0.50mm
; solid infill extrusion width = 0.50mm
; top infill extrusion width = 0.50mm

M107
;Basic settings: Layer height: {layer_height} Walls: {wall_thickness} Fill: {fill_density}
;Print time: {print_time}
;Filament used: {filament_amount}m {filament_weight}g
;Filament cost: {filament_cost}
;M190 S{print_bed_temperature} ;Uncomment to add your own bed temperature line
;M109 S{print_temperature} ;Uncomment to add your own temperature line
G21        ;metric values
G90        ;absolute positioning
M83
G10 P0 S200
T0
M116


G21 ; set units to millimeters
G90 ; use absolute coordinates
M83 ; use relative distances for extrusion
G1 E-3.20000 F3000.00000
G1 Z0.400 F9000.000
G1 X26.686 Y0.000 F9000.000
G1 Z0.300 F9000.000
G1 E3.20000 F3000.00000
G1 X26.686 Y11.999 E1.10089 F1200.000
G1 X26.624 Y13.355 E0.12453
G1 X26.588 Y13.719 E0.03363
G1 X26.416 Y14.879 E0.10760
G1 X26.344 Y15.239 E0.03364
G1 X26.059 Y16.378 E0.10773
G1 X25.953 Y16.727 E0.03350
G1 X25.557 Y17.832 E0.10764
G1 X25.417 Y18.170 E0.03360
G1 X24.916 Y19.230 E0.10760
G1 X24.743 Y19.554 E0.03363
G1 X24.140 Y20.560 E0.10766
G1 X23.936 Y20.864 E0.03357
G1 X23.237 Y21.808 E0.10774
G1 X23.005 Y22.090 E0.03349
G1 X22.218 Y22.959 E0.10760
G1 X21.959 Y23.218 E0.03364
G1 X21.089 Y24.006 E0.10770
G1 X20.806 Y24.238 E0.03353
G1 X19.864 Y24.936 E0.10760
G1 X19.560 Y25.140 E0.03364
G1 X18.554 Y25.743 E0.10760
G1 X18.230 Y25.916 E0.03363
G1 X17.169 Y26.418 E0.10773
G1 X16.832 Y26.558 E0.03350
G1 X15.727 Y26.953 E0.10760
G1 X15.378 Y27.059 E0.03350
G1 X14.239 Y27.344 E0.10773
G1 X13.879 Y27.416 E0.03364
G1 X12.719 Y27.588 E0.10760
G1 X12.355 Y27.624 E0.03363
G1 X11.182 Y27.681 E0.10771
G1 X-10.999 Y27.686 E2.03510
G1 X-12.355 Y27.624 E0.12453
G1 X-12.719 Y27.588 E0.03364
G1 X-13.879 Y27.416 E0.10760
G1 X-14.239 Y27.344 E0.03364
G1 X-15.377 Y27.059 E0.10760
G1 X-15.727 Y26.953 E0.03359
G1 X-16.832 Y26.558 E0.10765
G1 X-17.169 Y26.418 E0.03355
G1 X-18.230 Y25.916 E0.10768
G1 X-18.554 Y25.743 E0.03363
G1 X-19.560 Y25.140 E0.10760
G1 X-19.864 Y24.936 E0.03364
G1 X-20.806 Y24.238 E0.10760
G1 X-21.089 Y24.006 E0.03350
G1 X-21.959 Y23.218 E0.10773
G1 X-22.218 Y22.959 E0.03364
G1 X-23.005 Y22.090 E0.10760
G1 X-23.237 Y21.807 E0.03352
G1 X-23.936 Y20.864 E0.10771
G1 X-24.140 Y20.560 E0.03364
G1 X-24.743 Y19.554 E0.10760
G1 X-24.916 Y19.230 E0.03363
G1 X-25.418 Y18.169 E0.10768
G1 X-25.557 Y17.832 E0.03352
G1 X-25.953 Y16.727 E0.10763
G1 X-26.059 Y16.377 E0.03364
G1 X-26.344 Y15.239 E0.10760
G1 X-26.416 Y14.879 E0.03364
G1 X-26.588 Y13.719 E0.10760
G1 X-26.624 Y13.355 E0.03363
G1 X-26.686 Y11.999 E0.12453
G1 X-26.681 Y-12.181 E2.21848
G1 X-26.624 Y-13.355 E0.10784
G1 X-26.588 Y-13.719 E0.03363
G1 X-26.416 Y-14.879 E0.10760
G1 X-26.344 Y-15.240 E0.03372
G1 X-26.059 Y-16.377 E0.10752
G1 X-25.953 Y-16.727 E0.03359
G1 X-25.558 Y-17.832 E0.10764
G1 X-25.417 Y-18.170 E0.03362
G1 X-24.916 Y-19.230 E0.10761
G1 X-24.743 Y-19.554 E0.03364
G1 X-24.140 Y-20.560 E0.10760
G1 X-23.936 Y-20.864 E0.03364
G1 X-23.238 Y-21.806 E0.10760
G1 X-23.005 Y-22.090 E0.03363
G1 X-22.218 Y-22.959 E0.10760
G1 X-21.959 Y-23.217 E0.03356
G1 X-21.090 Y-24.005 E0.10768
G1 X-20.807 Y-24.237 E0.03354
G1 X-19.864 Y-24.936 E0.10769
G1 X-19.557 Y-25.141 E0.03387
G1 X-18.554 Y-25.743 E0.10736
G1 X-18.230 Y-25.916 E0.03363
G1 X-17.170 Y-26.417 E0.10760
G1 X-16.832 Y-26.557 E0.03360
G1 X-15.727 Y-26.953 E0.10764
G1 X-15.378 Y-27.059 E0.03350
G1 X-14.239 Y-27.344 E0.10773
G1 X-13.879 Y-27.416 E0.03364
G1 X-12.719 Y-27.588 E0.10760
G1 X-12.355 Y-27.624 E0.03363
G1 X-10.999 Y-27.686 E0.12453
G1 X11.181 Y-27.681 E2.03498
G1 X12.355 Y-27.624 E0.10784 F1200.000
G1 X12.719 Y-27.588 E0.03361
G1 X13.879 Y-27.416 E0.10762
G1 X14.239 Y-27.344 E0.03364
G1 X15.377 Y-27.059 E0.10760
G1 X15.727 Y-26.953 E0.03363
G1 X16.832 Y-26.558 E0.10760
G1 X17.169 Y-26.418 E0.03355
G1 X18.230 Y-25.916 E0.10768
G1 X18.553 Y-25.743 E0.03361
G1 X19.560 Y-25.140 E0.10762
G1 X19.864 Y-24.936 E0.03364
G1 X20.806 Y-24.238 E0.10760
G1 X21.089 Y-24.006 E0.03361
G1 X21.959 Y-23.218 E0.10762
G1 X22.217 Y-22.959 E0.03358
G1 X23.005 Y-22.090 E0.10766
G1 X23.239 Y-21.804 E0.03387
G1 X23.936 Y-20.864 E0.10736
G1 X24.140 Y-20.561 E0.03352
G1 X24.743 Y-19.554 E0.10771
G1 X24.916 Y-19.230 E0.03363
G1 X25.417 Y-18.170 E0.10760
G1 X25.557 Y-17.832 E0.03360
G1 X25.953 Y-16.727 E0.10764
G1 X26.059 Y-16.378 E0.03350
G1 X26.344 Y-15.239 E0.10773
G1 X26.416 Y-14.879 E0.03364
G1 X26.588 Y-13.719 E0.10760
G1 X26.624 Y-13.355 E0.03363
G1 X26.686 Y-11.999 E0.12453
G1 X26.686 Y-0.060 E1.09539
G1 E-3.20000 F3000.00000
G1 Z0.700 F9000.000
G1 X8.367 Y8.637 F9000.000
G1 Z0.300 F9000.000
G1 E3.20000 F3000.00000
G1 X9.000 Y8.554 E0.05858 F900.000
G1 X9.633 Y8.637 E0.05858
G1 X10.223 Y8.882 E0.05858
G1 X10.729 Y9.271 E0.05858
G1 X11.118 Y9.777 E0.05858
G1 X11.363 Y10.367 E0.05858
G1 X11.446 Y11.000 E0.05858
G1 X11.363 Y11.633 E0.05858
G1 X11.118 Y12.223 E0.05858
G1 X10.729 Y12.729 E0.05858
G1 X10.223 Y13.118 E0.05858
G1 X9.633 Y13.363 E0.05858
G1 X9.000 Y13.446 E0.05858
G1 X8.367 Y13.363 E0.05858
G1 X7.777 Y13.118 E0.05858
G1 X7.271 Y12.729 E0.05858
G1 X6.882 Y12.223 E0.05858
G1 X6.637 Y11.633 E0.05858
G1 X6.554 Y11.000 E0.05858
G1 X6.637 Y10.367 E0.05858
G1 X6.882 Y9.777 E0.05858
G1 X7.271 Y9.271 E0.05858
G1 X7.777 Y8.882 E0.05858
G1 X8.312 Y8.660 E0.05308
G1 X8.559 Y9.354 F9000.000
G1 X9.000 Y9.296 E0.04081 F900.000
G1 X9.441 Y9.354 E0.04081
G1 X9.852 Y9.524 E0.04081
G1 X10.205 Y9.795 E0.04081
G1 X10.476 Y10.148 E0.04081
G1 X10.646 Y10.559 E0.04081
G1 X10.704 Y11.000 E0.04081
G1 X10.646 Y11.441 E0.04081
G1 X10.476 Y11.852 E0.04081
G1 X10.205 Y12.205 E0.04081
G1 X9.852 Y12.476 E0.04081
G1 X9.441 Y12.646 E0.04081
G1 X9.000 Y12.704 E0.04081
G1 X8.559 Y12.646 E0.04081
G1 X8.148 Y12.476 E0.04081
G1 X7.795 Y12.205 E0.04081
G1 X7.524 Y11.852 E0.04081
G1 X7.354 Y11.441 E0.04081
G1 X7.296 Y11.000 E0.04081
G1 X7.354 Y10.559 E0.04081
G1 X7.524 Y10.148 E0.04081
G1 X7.795 Y9.795 E0.04081
G1 X8.148 Y9.524 E0.04081
G1 X8.504 Y9.377 E0.03531
G1 X8.679 Y8.973 F9000.000
G1 X-6.554 Y11.000 F9000.000
G1 X-6.637 Y11.633 E0.05858 F900.000
G1 X-6.882 Y12.223 E0.05858
G1 X-7.271 Y12.729 E0.05858
G1 X-7.777 Y13.118 E0.05858
G1 X-8.367 Y13.363 E0.05858
G1 X-9.000 Y13.446 E0.05858
G1 X-9.633 Y13.363 E0.05858
G1 X-10.223 Y13.118 E0.05858
G1 X-10.729 Y12.729 E0.05858
G1 X-11.118 Y12.223 E0.05858
G1 X-11.363 Y11.633 E0.05858
G1 X-11.446 Y11.000 E0.05858
G1 X-11.363 Y10.367 E0.05858
G1 X-11.118 Y9.777 E0.05858
G1 X-10.729 Y9.271 E0.05858
G1 X-10.223 Y8.882 E0.05858
G1 X-9.633 Y8.637 E0.05858
G1 X-9.000 Y8.554 E0.05858 F900.000
G1 X-8.367 Y8.637 E0.05858
G1 X-7.777 Y8.882 E0.05858
G1 X-7.271 Y9.271 E0.05858
G1 X-6.882 Y9.777 E0.05858
G1 X-6.637 Y10.367 E0.05858
G1 X-6.562 Y10.941 E0.05308
G1 X-7.296 Y11.000 F9000.000
G1 X-7.354 Y11.441 E0.04081 F900.000
G1 X-7.524 Y11.852 E0.04081
G1 X-7.795 Y12.205 E0.04081
G1 X-8.148 Y12.476 E0.04081
G1 X-8.559 Y12.646 E0.04081
G1 X-9.000 Y12.704 E0.04081
G1 X-9.441 Y12.646 E0.04081
G1 X-9.852 Y12.476 E0.04081
G1 X-10.205 Y12.205 E0.04081
G1 X-10.476 Y11.852 E0.04081
G1 X-10.646 Y11.441 E0.04081
G1 X-10.704 Y11.000 E0.04081
G1 X-10.646 Y10.559 E0.04081
G1 X-10.476 Y10.148 E0.04081
G1 X-10.205 Y9.795 E0.04081
G1 X-9.852 Y9.524 E0.04081
G1 X-9.441 Y9.354 E0.04081
G1 X-9.000 Y9.296 E0.04081 F900.000
G1 X-8.559 Y9.354 E0.04081
G1 X-8.148 Y9.524 E0.04081
G1 X-7.795 Y9.795 E0.04081
G1 X-7.524 Y10.148 E0.04081
G1 X-7.354 Y10.559 E0.04081
G1 X-7.304 Y10.941 E0.03531
G1 X-6.959 Y11.215 F9000.000
G1 X-4.935 Y7.150 F9000.000
G1 X-5.762 Y6.502 E0.09632 F900.000
G1 X-6.509 Y5.753 E0.09715
G1 X-7.150 Y4.935 E0.09529
G1 X-7.693 Y4.037 E0.09632
G1 X-8.126 Y3.071 E0.09715
G1 X-8.435 Y2.079 E0.09529
G1 X-8.624 Y1.047 E0.09626
G1 X-8.688 Y0.000 E0.09626
G1 X-8.624 Y-1.048 E0.09632
G1 X-8.432 Y-2.089 E0.09715
G1 X-8.123 Y-3.081 E0.09529
G1 X-7.693 Y-4.037 E0.09626
G1 X-7.150 Y-4.935 E0.09626
G1 X-6.502 Y-5.762 E0.09632
G1 X-5.753 Y-6.509 E0.09715
G1 X-4.935 Y-7.150 E0.09529
G1 X-4.037 Y-7.693 E0.09626
G1 X-3.081 Y-8.123 E0.09626
G1 X-2.078 Y-8.436 E0.09632
G1 X-1.037 Y-8.625 E0.09715
G1 X-0.000 Y-8.688 E0.09529 F900.000
G1 X1.047 Y-8.624 E0.09626
G1 X2.079 Y-8.435 E0.09626
G1 X3.081 Y-8.123 E0.09626
G1 X4.037 Y-7.693 E0.09626
G1 X4.935 Y-7.150 E0.09626
G1 X5.762 Y-6.502 E0.09632
G1 X6.509 Y-5.753 E0.09715
G1 X7.150 Y-4.935 E0.09529
G1 X7.693 Y-4.037 E0.09626
G1 X8.123 Y-3.081 E0.09626
G1 X8.435 Y-2.079 E0.09626
G1 X8.624 Y-1.047 E0.09626
G1 X8.688 Y-0.000 E0.09626
G1 X8.624 Y1.047 E0.09626
G1 X8.435 Y2.079 E0.09626
G1 X8.123 Y3.081 E0.09626
G1 X7.693 Y4.037 E0.09626
G1 X7.150 Y4.935 E0.09626
G1 X6.502 Y5.762 E0.09632
G1 X5.753 Y6.509 E0.09715
G1 X4.935 Y7.150 E0.09529
G1 X4.037 Y7.693 E0.09626
G1 X3.081 Y8.123 E0.09626
G1 X2.079 Y8.435 E0.09626
G1 X1.047 Y8.624 E0.09626
G1 X-0.000 Y8.688 E0.09626
G1 X-1.047 Y8.624 E0.09626
G1 X-2.079 Y8.435 E0.09626
G1 X-3.081 Y8.123 E0.09626
G1 X-4.037 Y7.693 E0.09626
G1 X-4.884 Y7.181 E0.09075
G1 X-4.517 Y6.543 F9000.000
G1 X-5.273 Y5.951 E0.08811 F900.000
G1 X-5.957 Y5.264 E0.08898
G1 X-6.543 Y4.517 E0.08717
G1 X-7.040 Y3.695 E0.08812
G1 X-7.437 Y2.810 E0.08899
G1 X-7.720 Y1.903 E0.08717
G1 X-7.893 Y0.958 E0.08809
G1 X-7.951 Y0.000 E0.08809
G1 X-7.893 Y-0.959 E0.08812
G1 X-7.717 Y-1.912 E0.08899
G1 X-7.434 Y-2.819 E0.08717
G1 X-7.040 Y-3.695 E0.08809
G1 X-6.543 Y-4.517 E0.08809
G1 X-5.951 Y-5.273 E0.08811
G1 X-5.264 Y-5.957 E0.08898
G1 X-4.517 Y-6.543 E0.08717
G1 X-3.695 Y-7.040 E0.08809
G1 X-2.819 Y-7.434 E0.08809
G1 X-1.903 Y-7.720 E0.08811
G1 X-0.948 Y-7.893 E0.08899
G1 X-0.000 Y-7.951 E0.08717 F900.000
G1 X0.958 Y-7.893 E0.08809
G1 X1.903 Y-7.720 E0.08809
G1 X2.819 Y-7.434 E0.08809
G1 X3.695 Y-7.040 E0.08809
G1 X4.517 Y-6.543 E0.08809
G1 X5.273 Y-5.951 E0.08811
G1 X5.957 Y-5.264 E0.08898
G1 X6.543 Y-4.517 E0.08717
G1 X7.040 Y-3.695 E0.08809
G1 X7.434 Y-2.819 E0.08809
G1 X7.720 Y-1.903 E0.08809
G1 X7.893 Y-0.958 E0.08809
G1 X7.951 Y-0.000 E0.08809
G1 X7.893 Y0.958 E0.08809
G1 X7.720 Y1.903 E0.08809
G1 X7.434 Y2.819 E0.08809
G1 X7.040 Y3.695 E0.08809
G1 X6.543 Y4.517 E0.08809
G1 X5.951 Y5.273 E0.08811
G1 X5.264 Y5.957 E0.08899
G1 X4.517 Y6.543 E0.08717
G1 X3.695 Y7.040 E0.08809
G1 X2.819 Y7.434 E0.08809
G1 X1.903 Y7.720 E0.08809
G1 X0.958 Y7.893 E0.08809
G1 X-0.000 Y7.951 E0.08809
G1 X-0.958 Y7.893 E0.08809
G1 X-1.903 Y7.720 E0.08809
G1 X-2.819 Y7.434 E0.08809
G1 X-3.695 Y7.040 E0.08809
G1 X-4.465 Y6.574 E0.08259
G1 X-4.881 Y6.708 F9000.000
G1 E-3.20000 F3000.00000
G1 Z0.700 F9000.000
G1 X-8.367 Y-8.637 F9000.000
G1 Z0.300 F9000.000
G1 E3.20000 F3000.00000
G1 X-9.000 Y-8.554 E0.05858 F900.000
G1 X-9.633 Y-8.637 E0.05858
G1 X-10.223 Y-8.882 E0.05858
G1 X-10.729 Y-9.271 E0.05858
G1 X-11.118 Y-9.777 E0.05858
G1 X-11.363 Y-10.367 E0.05858
G1 X-11.446 Y-11.000 E0.05858
G1 X-11.363 Y-11.633 E0.05858
G1 X-11.118 Y-12.223 E0.05858
G1 X-10.729 Y-12.729 E0.05858
G1 X-10.223 Y-13.118 E0.05858
G1 X-9.633 Y-13.363 E0.05858
G1 X-9.000 Y-13.446 E0.05858 F900.000
G1 X-8.367 Y-13.363 E0.05858
G1 X-7.777 Y-13.118 E0.05858
G1 X-7.271 Y-12.729 E0.05858
G1 X-6.882 Y-12.223 E0.05858
G1 X-6.637 Y-11.633 E0.05858
G1 X-6.554 Y-11.000 E0.05858
G1 X-6.637 Y-10.367 E0.05858
G1 X-6.882 Y-9.777 E0.05858
G1 X-7.271 Y-9.271 E0.05858
G1 X-7.777 Y-8.882 E0.05858
G1 X-8.312 Y-8.660 E0.05308
G1 X-8.559 Y-9.354 F9000.000
G1 X-9.000 Y-9.296 E0.04081 F900.000
G1 X-9.441 Y-9.354 E0.04081
G1 X-9.852 Y-9.524 E0.04081
G1 X-10.205 Y-9.795 E0.04081
G1 X-10.476 Y-10.148 E0.04081
G1 X-10.646 Y-10.559 E0.04081
G1 X-10.704 Y-11.000 E0.04081
G1 X-10.646 Y-11.441 E0.04081
G1 X-10.476 Y-11.852 E0.04081
G1 X-10.205 Y-12.205 E0.04081
G1 X-9.852 Y-12.476 E0.04081
G1 X-9.441 Y-12.646 E0.04081
G1 X-9.000 Y-12.704 E0.04081 F900.000
G1 X-8.559 Y-12.646 E0.04081
G1 X-8.148 Y-12.476 E0.04081
G1 X-7.795 Y-12.205 E0.04081
G1 X-7.524 Y-11.852 E0.04081
G1 X-7.354 Y-11.441 E0.04081
G1 X-7.296 Y-11.000 E0.04081
G1 X-7.354 Y-10.559 E0.04081
G1 X-7.524 Y-10.148 E0.04081
G1 X-7.795 Y-9.795 E0.04081
G1 X-8.148 Y-9.524 E0.04081
G1 X-8.504 Y-9.377 E0.03531
G1 X-8.679 Y-8.973 F9000.000
G1 X6.554 Y-11.000 F9000.000
G1 X6.637 Y-11.633 E0.05858 F900.000
G1 X6.882 Y-12.223 E0.05858
G1 X7.271 Y-12.729 E0.05858
G1 X7.777 Y-13.118 E0.05858
G1 X8.367 Y-13.363 E0.05858
G1 X9.000 Y-13.446 E0.05858 F900.000
G1 X9.633 Y-13.363 E0.05858
G1 X10.223 Y-13.118 E0.05858
G1 X10.729 Y-12.729 E0.05858
G1 X11.118 Y-12.223 E0.05858
G1 X11.363 Y-11.633 E0.05858
G1 X11.446 Y-11.000 E0.05858
G1 X11.363 Y-10.367 E0.05858
G1 X11.118 Y-9.777 E0.05858
G1 X10.729 Y-9.271 E0.05858
G1 X10.223 Y-8.882 E0.05858
G1 X9.633 Y-8.637 E0.05858
G1 X9.000 Y-8.554 E0.05858
G1 X8.367 Y-8.637 E0.05858
G1 X7.777 Y-8.882 E0.05858
G1 X7.271 Y-9.271 E0.05858
G1 X6.882 Y-9.777 E0.05858
G1 X6.637 Y-10.367 E0.05858
G1 X6.562 Y-10.941 E0.05308
G1 X7.296 Y-11.000 F9000.000
G1 X7.354 Y-11.441 E0.04081 F900.000
G1 X7.524 Y-11.852 E0.04081
G1 X7.795 Y-12.205 E0.04081
G1 X8.148 Y-12.476 E0.04081
G1 X8.559 Y-12.646 E0.04081
G1 X9.000 Y-12.704 E0.04081 F900.000
G1 X9.441 Y-12.646 E0.04081
G1 X9.852 Y-12.476 E0.04081
G1 X10.205 Y-12.205 E0.04081
G1 X10.476 Y-11.852 E0.04081
G1 X10.646 Y-11.441 E0.04081
G1 X10.704 Y-11.000 E0.04081
G1 X10.646 Y-10.559 E0.04081
G1 X10.476 Y-10.148 E0.04081
G1 X10.205 Y-9.795 E0.04081
G1 X9.852 Y-9.524 E0.04081
G1 X9.441 Y-9.354 E0.04081
G1 X9.000 Y-9.296 E0.04081
G1 X8.559 Y-9.354 E0.04081
G1 X8.148 Y-9.524 E0.04081
G1 X7.795 Y-9.795 E0.04081
G1 X7.524 Y-10.148 E0.04081
G1 X7.354 Y-10.559 E0.04081
G1 X7.304 Y-10.941 E0.03531
G1 X6.959 Y-11.215 F9000.000
G1 X7.296 Y-22.814 F9000.000
G1 X10.975 Y-22.814 E0.33750 F900.000
G1 X12.060 Y-22.761 E0.09968 F900.000
G1 X13.109 Y-22.605 E0.09736
G1 X14.139 Y-22.347 E0.09736
G1 X15.138 Y-21.990 E0.09736
G1 X16.097 Y-21.536 E0.09736
G1 X17.007 Y-20.991 E0.09736
G1 X17.860 Y-20.359 E0.09736
G1 X18.646 Y-19.646 E0.09736
G1 X19.358 Y-18.860 E0.09735
G1 X19.992 Y-18.005 E0.09760
G1 X20.536 Y-17.097 E0.09713
G1 X20.990 Y-16.138 E0.09736
G1 X21.347 Y-15.139 E0.09736
G1 X21.605 Y-14.110 E0.09736
G1 X21.761 Y-13.060 E0.09736
G1 X21.814 Y-11.971 E0.10003
G1 X21.814 Y11.971 E2.19667
G1 X21.761 Y13.060 E0.10003
G1 X21.605 Y14.110 E0.09736
G1 X21.347 Y15.139 E0.09736
G1 X20.990 Y16.138 E0.09736
G1 X20.536 Y17.097 E0.09736
G1 X19.991 Y18.007 E0.09736
G1 X19.359 Y18.860 E0.09736
G1 X18.646 Y19.646 E0.09736
G1 X17.860 Y20.359 E0.09736
G1 X17.007 Y20.991 E0.09736
G1 X16.097 Y21.536 E0.09736
G1 X15.140 Y21.989 E0.09713
G1 X14.139 Y22.347 E0.09760
G1 X13.110 Y22.605 E0.09735
G1 X12.060 Y22.761 E0.09736
G1 X10.971 Y22.814 E0.10003
G1 X-10.971 Y22.814 E2.01317
G1 X-12.060 Y22.761 E0.10003
G1 X-13.109 Y22.605 E0.09736
G1 X-14.139 Y22.347 E0.09736
G1 X-15.138 Y21.990 E0.09736
G1 X-16.097 Y21.536 E0.09736
G1 X-17.007 Y20.991 E0.09736
G1 X-17.860 Y20.359 E0.09736
G1 X-18.646 Y19.646 E0.09736
G1 X-19.359 Y18.860 E0.09736
G1 X-19.991 Y18.007 E0.09736
G1 X-20.536 Y17.097 E0.09736
G1 X-20.990 Y16.138 E0.09736
G1 X-21.347 Y15.139 E0.09736
G1 X-21.605 Y14.110 E0.09736
G1 X-21.761 Y13.060 E0.09736
G1 X-21.814 Y11.971 E0.10003
G1 X-21.814 Y-11.971 E2.19667
G1 X-21.761 Y-13.060 E0.10003
G1 X-21.605 Y-14.110 E0.09736
G1 X-21.347 Y-15.139 E0.09736
G1 X-20.990 Y-16.138 E0.09736
G1 X-20.536 Y-17.097 E0.09736
G1 X-19.991 Y-18.007 E0.09736
G1 X-19.359 Y-18.860 E0.09736
G1 X-18.646 Y-19.646 E0.09736
G1 X-17.860 Y-20.359 E0.09736
G1 X-17.007 Y-20.991 E0.09736
G1 X-16.097 Y-21.536 E0.09736
G1 X-15.138 Y-21.990 E0.09736
G1 X-14.139 Y-22.347 E0.09736
G1 X-13.110 Y-22.605 E0.09736
G1 X-12.060 Y-22.761 E0.09736
G1 X-10.971 Y-22.814 E0.10003
G1 X7.236 Y-22.814 E1.67051
G1 X7.296 Y-23.550 F9000.000
G1 X10.993 Y-23.550 E0.33916 F900.000
G1 X12.132 Y-23.494 E0.10465 F900.000
G1 X13.253 Y-23.328 E0.10399
G1 X14.353 Y-23.052 E0.10399
G1 X15.420 Y-22.670 E0.10399
G1 X16.444 Y-22.186 E0.10399
G1 X17.417 Y-21.603 E0.10399
G1 X18.327 Y-20.928 E0.10399
G1 X19.167 Y-20.167 E0.10399
