; generated by Slic3r 1.2.9 on 2016-10-21 at 12:16:51

; external perimeters extrusion width = 0.50mm
; perimeters extrusion width = 0.50mm
; infill extrusion width = 0.50mm
; solid infill extrusion width = 0.50mm
; top infill extrusion width = 0.50mm

M107
;Basic settings: Layer height: {layer_height} Walls: {wall_thickness} Fill: {fill_density}
;Print time: {print_time}
;Filament used: {filament_amount}m {filament_weight}g
;Filament cost: {filament_cost}
;M190 S{print_bed_temperature} ;Uncomment to add your own bed temperature line
;M109 S{print_temperature} ;Uncomment to add your own temperature line
G21        ;metric values
G90        ;absolute positioning
M83
G10 P0 S200
T0
M116


G21 ; set units to millimeters
G90 ; use absolute coordinates
M83 ; use relative distances for extrusion
G1 E-3.20000 F3000.00000
G1 Z0.400 F9000.000
G1 X43.029 Y9.985 F9000.000
G1 Z0.300 F9000.000
G1 E3.20000 F3000.00000
G1 X42.750 Y11.166 E0.11137 F1200.000
G1 X42.186 Y13.137 E0.18804
G1 X41.401 Y15.434 E0.22275
G1 X40.566 Y17.511 E0.20540
G1 X39.711 Y19.374 E0.18804
G1 X38.587 Y21.526 E0.22274
G1 X37.547 Y23.292 E0.18803
G1 X36.319 Y25.163 E0.20540
G1 X34.882 Y27.120 E0.22275
G1 X33.587 Y28.709 E0.18804
G1 X32.090 Y30.373 E0.20539
G1 X30.510 Y31.959 E0.20540
G1 X28.709 Y33.587 E0.22275
G1 X27.120 Y34.882 E0.18804
G1 X25.319 Y36.211 E0.20540
G1 X23.292 Y37.547 E0.22274
G1 X21.360 Y38.678 E0.20541
G1 X19.374 Y39.711 E0.20539
G1 X17.511 Y40.566 E0.18804
G1 X15.257 Y41.467 E0.22273
G1 X13.137 Y42.186 E0.20542
G1 X11.166 Y42.750 E0.18804
G1 X8.987 Y43.261 E0.20539
G1 X6.597 Y43.689 E0.22273
G1 X4.376 Y43.967 E0.20542
G1 X2.332 Y44.123 E0.18804
G1 X0.095 Y44.184 E0.20539
G1 X-2.332 Y44.123 E0.22275
G1 X-4.564 Y43.948 E0.20540
G1 X-6.784 Y43.661 E0.20536
G1 X-8.802 Y43.299 E0.18807
G1 X-11.167 Y42.750 E0.22275
G1 X-13.137 Y42.186 E0.18804
G1 X-15.257 Y41.467 E0.20543
G1 X-17.511 Y40.566 E0.22272
G1 X-19.374 Y39.711 E0.18803
G1 X-21.360 Y38.678 E0.20542
G1 X-23.452 Y37.447 E0.22273
G1 X-25.318 Y36.211 E0.20536
G1 X-26.971 Y34.998 E0.18807
G1 X-28.709 Y33.587 E0.20539
G1 X-30.510 Y31.959 E0.22275
G1 X-31.959 Y30.510 E0.18804
G1 X-33.464 Y28.852 E0.20540
G1 X-34.998 Y26.971 E0.22275
G1 X-36.319 Y25.164 E0.20539
G1 X-37.447 Y23.452 E0.18804
G1 X-38.587 Y21.526 E0.20540
G1 X-39.711 Y19.374 E0.22274
G1 X-40.566 Y17.511 E0.18804
G1 X-41.401 Y15.434 E0.20540
G1 X-42.186 Y13.137 E0.22274
G1 X-42.798 Y10.983 E0.20541
G1 X-43.299 Y8.802 E0.20539
G1 X-43.661 Y6.784 E0.18804
G1 X-43.967 Y4.376 E0.22274
G1 X-44.132 Y2.143 E0.20541
G1 X-44.184 Y0.094 E0.18805
G1 X-44.132 Y-2.143 E0.20538
G1 X-43.948 Y-4.564 E0.22275
G1 X-43.661 Y-6.784 E0.20539
G1 X-43.299 Y-8.802 E0.18804
G1 X-42.798 Y-10.983 E0.20540
G1 X-42.130 Y-13.317 E0.22275
G1 X-41.401 Y-15.434 E0.20539
G1 X-40.641 Y-17.337 E0.18804
G1 X-39.627 Y-19.543 E0.22275
G1 X-38.587 Y-21.526 E0.20540
G1 X-37.547 Y-23.292 E0.18803
G1 X-36.319 Y-25.164 E0.20540
G1 X-34.882 Y-27.120 E0.22275
G1 X-33.464 Y-28.852 E0.20539
G1 X-32.090 Y-30.373 E0.18804
G1 X-30.373 Y-32.090 E0.22275
G1 X-28.680 Y-33.610 E0.20881
G1 X-26.971 Y-34.998 E0.20198
G1 X-25.319 Y-36.211 E0.18804
G1 X-23.292 Y-37.547 E0.22275
G1 X-21.526 Y-38.587 E0.18803
G1 X-19.544 Y-39.627 E0.20540
G1 X-17.337 Y-40.641 E0.22275
G1 X-15.257 Y-41.467 E0.20539
G1 X-13.317 Y-42.130 E0.18804
G1 X-10.983 Y-42.798 E0.22275
G1 X-8.765 Y-43.306 E0.20880
G1 X-6.597 Y-43.689 E0.20199
G1 X-4.564 Y-43.948 E0.18804
G1 X-2.143 Y-44.132 E0.22275
G1 X-0.095 Y-44.184 E0.18803
G1 X2.143 Y-44.132 E0.20540
G1 X4.376 Y-43.967 E0.20540 F1200.000
G1 X6.784 Y-43.661 E0.22275
G1 X8.987 Y-43.261 E0.20539
G1 X11.167 Y-42.750 E0.20540
G1 X13.317 Y-42.130 E0.20539
G1 X15.434 Y-41.401 E0.20540
G1 X17.511 Y-40.566 E0.20539
G1 X19.543 Y-39.627 E0.20540
G1 X21.360 Y-38.678 E0.18804
G1 X23.292 Y-37.547 E0.20539
G1 X25.163 Y-36.319 E0.20540
G1 X26.971 Y-34.998 E0.20539
G1 X28.709 Y-33.587 E0.20540
G1 X30.373 Y-32.090 E0.20540
G1 X31.959 Y-30.510 E0.20540
G1 X33.464 Y-28.852 E0.20540
G1 X34.998 Y-26.971 E0.22275
G1 X36.319 Y-25.164 E0.20536
G1 X37.547 Y-23.292 E0.20543
G1 X38.696 Y-21.327 E0.20878
G1 X39.711 Y-19.374 E0.20201
G1 X40.566 Y-17.511 E0.18804
G1 X41.401 Y-15.434 E0.20540
G1 X42.130 Y-13.317 E0.20539
G1 X42.750 Y-11.167 E0.20540
G1 X43.261 Y-8.987 E0.20539
G1 X43.661 Y-6.784 E0.20544
G1 X43.967 Y-4.376 E0.22271
G1 X44.132 Y-2.143 E0.20539
G1 X44.184 Y0.095 E0.20540
G1 X44.123 Y2.332 E0.20539
G1 X43.948 Y4.564 E0.20540
G1 X43.661 Y6.784 E0.20535
G1 X43.299 Y8.802 E0.18808
G1 X43.043 Y9.927 E0.10587
G1 E-3.20000 F3000.00000
G1 Z0.700 F9000.000
G1 X13.796 Y9.000 F9000.000
G1 Z0.300 F9000.000
G1 E3.20000 F3000.00000
G1 X13.701 Y9.724 E0.06697 F900.000
G1 X13.421 Y10.398 E0.06697
G1 X12.977 Y10.977 E0.06696
G1 X12.398 Y11.421 E0.06697
G1 X11.724 Y11.701 E0.06697
G1 X11.000 Y11.796 E0.06697
G1 X10.276 Y11.701 E0.06696
G1 X9.602 Y11.421 E0.06697
G1 X9.023 Y10.977 E0.06696
G1 X8.579 Y10.398 E0.06697
G1 X8.299 Y9.724 E0.06697
G1 X8.204 Y9.000 E0.06697
G1 X8.299 Y8.276 E0.06696
G1 X8.579 Y7.602 E0.06697
G1 X9.023 Y7.023 E0.06697
G1 X9.602 Y6.579 E0.06696
G1 X10.276 Y6.299 E0.06697
G1 X11.000 Y6.204 E0.06696 F900.000
G1 X11.724 Y6.299 E0.06697
G1 X12.398 Y6.579 E0.06697
G1 X12.977 Y7.023 E0.06697
G1 X13.421 Y7.602 E0.06696
G1 X13.701 Y8.276 E0.06697
G1 X13.788 Y8.941 E0.06146
G1 X13.054 Y9.000 F9000.000
G1 X12.984 Y9.532 E0.04919 F900.000
G1 X12.779 Y10.027 E0.04919
G1 X12.452 Y10.452 E0.04919
G1 X12.027 Y10.779 E0.04919
G1 X11.532 Y10.984 E0.04919
G1 X11.000 Y11.054 E0.04919
G1 X10.468 Y10.984 E0.04919
G1 X9.973 Y10.779 E0.04919
G1 X9.548 Y10.452 E0.04919
G1 X9.221 Y10.027 E0.04919
G1 X9.016 Y9.532 E0.04919
G1 X8.946 Y9.000 E0.04919
G1 X9.016 Y8.468 E0.04919
G1 X9.221 Y7.973 E0.04919
G1 X9.548 Y7.548 E0.04919
G1 X9.973 Y7.221 E0.04919
G1 X10.468 Y7.016 E0.04919
G1 X11.000 Y6.946 E0.04919 F900.000
G1 X11.532 Y7.016 E0.04919
G1 X12.027 Y7.221 E0.04919
G1 X12.452 Y7.548 E0.04919
G1 X12.779 Y7.973 E0.04919
G1 X12.984 Y8.468 E0.04919
G1 X13.046 Y8.941 E0.04369
G1 X13.391 Y9.215 F9000.000
G1 X11.051 Y-6.211 F9000.000
G1 X11.000 Y-6.204 E0.00476 F900.000
G1 X10.276 Y-6.299 E0.06696
G1 X9.602 Y-6.579 E0.06697
G1 X9.023 Y-7.023 E0.06696
G1 X8.579 Y-7.602 E0.06697
G1 X8.299 Y-8.276 E0.06697
G1 X8.204 Y-9.000 E0.06697
G1 X8.299 Y-9.724 E0.06696
G1 X8.579 Y-10.398 E0.06697
G1 X9.023 Y-10.977 E0.06697
G1 X9.602 Y-11.421 E0.06696
G1 X10.276 Y-11.701 E0.06697
G1 X11.000 Y-11.796 E0.06697 F900.000
G1 X11.724 Y-11.701 E0.06696
G1 X12.398 Y-11.421 E0.06697
G1 X12.977 Y-10.977 E0.06697
G1 X13.421 Y-10.398 E0.06696
G1 X13.701 Y-9.724 E0.06697
G1 X13.796 Y-9.000 E0.06696
G1 X13.701 Y-8.276 E0.06697
G1 X13.421 Y-7.602 E0.06697
G1 X12.977 Y-7.023 E0.06696
G1 X12.398 Y-6.579 E0.06696
G1 X11.724 Y-6.299 E0.06697
G1 X11.111 Y-6.219 E0.05670
G1 X11.015 Y-6.948 F9000.000
G1 X10.468 Y-7.016 E0.05053 F900.000
G1 X9.973 Y-7.221 E0.04919
G1 X9.548 Y-7.548 E0.04919
G1 X9.221 Y-7.973 E0.04919
G1 X9.016 Y-8.468 E0.04919
G1 X8.946 Y-9.000 E0.04919
G1 X9.016 Y-9.532 E0.04919
G1 X9.221 Y-10.027 E0.04919
G1 X9.548 Y-10.452 E0.04919
G1 X9.973 Y-10.779 E0.04919
G1 X10.468 Y-10.984 E0.04919
G1 X11.000 Y-11.054 E0.04919 F900.000
G1 X11.532 Y-10.984 E0.04919
G1 X12.027 Y-10.779 E0.04919
G1 X12.452 Y-10.452 E0.04919
G1 X12.779 Y-10.027 E0.04919
G1 X12.984 Y-9.532 E0.04919
G1 X13.054 Y-9.000 E0.04919
G1 X12.984 Y-8.468 E0.04919
G1 X12.779 Y-7.973 E0.04919
G1 X12.452 Y-7.548 E0.04919
G1 X12.027 Y-7.221 E0.04919
G1 X11.532 Y-7.016 E0.04919
G1 X11.074 Y-6.956 E0.04231
G1 X10.802 Y-6.610 F9000.000
G1 X7.779 Y-4.888 F9000.000
G1 X8.278 Y-3.986 E0.09453 F900.000
G1 X8.672 Y-3.034 E0.09453
G1 X8.957 Y-2.044 E0.09453
G1 X9.130 Y-1.029 E0.09453
G1 X9.187 Y-0.000 E0.09453
G1 X9.130 Y1.030 E0.09461
G1 X8.953 Y2.058 E0.09573
G1 X8.672 Y3.034 E0.09324
G1 X8.278 Y3.986 E0.09453
G1 X7.779 Y4.888 E0.09453
G1 X7.183 Y5.728 E0.09453
G1 X6.497 Y6.497 E0.09453
G1 X5.728 Y7.183 E0.09453
G1 X4.888 Y7.779 E0.09453
G1 X3.986 Y8.278 E0.09453
G1 X3.034 Y8.672 E0.09453
G1 X2.044 Y8.957 E0.09453
G1 X1.029 Y9.130 E0.09453
G1 X-0.000 Y9.187 E0.09453
G1 X-1.030 Y9.130 E0.09461
G1 X-2.058 Y8.953 E0.09573
G1 X-3.034 Y8.672 E0.09324
G1 X-3.986 Y8.278 E0.09453
G1 X-4.888 Y7.779 E0.09453
G1 X-5.728 Y7.183 E0.09453
G1 X-6.497 Y6.497 E0.09453
G1 X-7.183 Y5.728 E0.09453
G1 X-7.779 Y4.888 E0.09453
G1 X-8.278 Y3.985 E0.09461
G1 X-8.676 Y3.021 E0.09573
G1 X-8.957 Y2.044 E0.09324
G1 X-9.130 Y1.029 E0.09453
G1 X-9.187 Y-0.000 E0.09453
G1 X-9.130 Y-1.029 E0.09453
G1 X-8.957 Y-2.044 E0.09453
G1 X-8.672 Y-3.034 E0.09453
G1 X-8.278 Y-3.986 E0.09453
G1 X-7.779 Y-4.888 E0.09453
G1 X-7.183 Y-5.728 E0.09453
G1 X-6.497 Y-6.497 E0.09453
G1 X-5.728 Y-7.183 E0.09453
G1 X-4.888 Y-7.779 E0.09453
G1 X-3.986 Y-8.278 E0.09453
G1 X-3.034 Y-8.672 E0.09453
G1 X-2.044 Y-8.957 E0.09461
G1 X-1.015 Y-9.131 E0.09573
G1 X-0.000 Y-9.187 E0.09324 F900.000
G1 X1.029 Y-9.130 E0.09453
G1 X2.044 Y-8.957 E0.09453
G1 X3.034 Y-8.672 E0.09453
G1 X3.986 Y-8.278 E0.09453
G1 X4.888 Y-7.779 E0.09453
G1 X5.728 Y-7.183 E0.09453
G1 X6.497 Y-6.497 E0.09453
G1 X7.183 Y-5.728 E0.09453
G1 X7.745 Y-4.937 E0.08903
G1 X7.145 Y-4.511 F9000.000
G1 X7.614 Y-3.667 E0.08865 F900.000
G1 X7.976 Y-2.791 E0.08695
G1 X8.239 Y-1.880 E0.08695
G1 X8.398 Y-0.946 E0.08695
G1 X8.451 Y-0.000 E0.08695
G1 X8.398 Y0.947 E0.08698
G1 X8.235 Y1.893 E0.08815
G1 X7.976 Y2.791 E0.08571
G1 X7.614 Y3.667 E0.08695
G1 X7.155 Y4.496 E0.08695
G1 X6.607 Y5.269 E0.08695
G1 X5.976 Y5.976 E0.08695
G1 X5.269 Y6.607 E0.08695
G1 X4.496 Y7.155 E0.08695
G1 X3.667 Y7.614 E0.08695
G1 X2.791 Y7.976 E0.08695
G1 X1.880 Y8.239 E0.08695
G1 X0.946 Y8.398 E0.08695
G1 X-0.000 Y8.451 E0.08695
G1 X-0.946 Y8.398 E0.08698
G1 X-1.893 Y8.235 E0.08815
G1 X-2.791 Y7.976 E0.08571
G1 X-3.667 Y7.614 E0.08695
G1 X-4.496 Y7.155 E0.08695
G1 X-5.269 Y6.607 E0.08695
G1 X-5.976 Y5.976 E0.08695
G1 X-6.607 Y5.269 E0.08695
G1 X-7.155 Y4.496 E0.08695
G1 X-7.614 Y3.666 E0.08698
G1 X-7.980 Y2.778 E0.08815
G1 X-8.239 Y1.880 E0.08571
G1 X-8.398 Y0.946 E0.08695
G1 X-8.451 Y-0.000 E0.08695
G1 X-8.398 Y-0.946 E0.08695
G1 X-8.239 Y-1.880 E0.08695
G1 X-7.976 Y-2.791 E0.08695
G1 X-7.614 Y-3.667 E0.08695
G1 X-7.155 Y-4.496 E0.08695
G1 X-6.607 Y-5.269 E0.08695
G1 X-5.976 Y-5.976 E0.08695
G1 X-5.269 Y-6.607 E0.08695
G1 X-4.496 Y-7.155 E0.08695
G1 X-3.667 Y-7.614 E0.08695
G1 X-2.791 Y-7.976 E0.08695
G1 X-1.880 Y-8.239 E0.08698
G1 X-0.933 Y-8.398 E0.08815
G1 X-0.000 Y-8.451 E0.08571 F900.000
G1 X0.946 Y-8.398 E0.08695
G1 X1.880 Y-8.239 E0.08695
G1 X2.791 Y-7.976 E0.08695
G1 X3.667 Y-7.614 E0.08695
G1 X4.496 Y-7.155 E0.08695
G1 X5.269 Y-6.607 E0.08695
G1 X5.976 Y-5.976 E0.08695
G1 X6.607 Y-5.269 E0.08695
G1 X7.110 Y-4.560 E0.07973
G1 X7.545 Y-4.519 F9000.000
G1 E-3.20000 F3000.00000
G1 Z0.700 F9000.000
G1 X-8.299 Y-8.276 F9000.000
G1 Z0.300 F9000.000
G1 E3.20000 F3000.00000
G1 X-8.579 Y-7.602 E0.06697 F900.000
G1 X-9.023 Y-7.023 E0.06697
G1 X-9.602 Y-6.579 E0.06696
G1 X-10.276 Y-6.299 E0.06697
G1 X-11.000 Y-6.204 E0.06696
G1 X-11.724 Y-6.299 E0.06697
G1 X-12.398 Y-6.579 E0.06697
G1 X-12.977 Y-7.023 E0.06696
G1 X-13.421 Y-7.602 E0.06697
G1 X-13.701 Y-8.276 E0.06697
G1 X-13.796 Y-9.000 E0.06696
G1 X-13.701 Y-9.724 E0.06697
G1 X-13.421 Y-10.398 E0.06697
G1 X-12.977 Y-10.977 E0.06697
G1 X-12.398 Y-11.421 E0.06697
G1 X-11.724 Y-11.701 E0.06697
G1 X-11.000 Y-11.796 E0.06697 F900.000
G1 X-10.276 Y-11.701 E0.06696
G1 X-9.602 Y-11.421 E0.06697
G1 X-9.023 Y-10.977 E0.06697
G1 X-8.579 Y-10.398 E0.06697
G1 X-8.299 Y-9.724 E0.06697
G1 X-8.204 Y-9.000 E0.06697
G1 X-8.292 Y-8.336 E0.06146
G1 X-9.016 Y-8.468 F9000.000
G1 X-9.221 Y-7.973 E0.04919 F900.000
G1 X-9.548 Y-7.548 E0.04919
G1 X-9.973 Y-7.221 E0.04919
G1 X-10.468 Y-7.016 E0.04919
G1 X-11.000 Y-6.946 E0.04919
G1 X-11.532 Y-7.016 E0.04919
G1 X-12.027 Y-7.221 E0.04919
G1 X-12.452 Y-7.548 E0.04919
G1 X-12.779 Y-7.973 E0.04919
G1 X-12.984 Y-8.468 E0.04919
G1 X-13.054 Y-9.000 E0.04919
G1 X-12.984 Y-9.532 E0.04919
G1 X-12.779 Y-10.027 E0.04919
G1 X-12.452 Y-10.452 E0.04919
G1 X-12.027 Y-10.779 E0.04919
G1 X-11.532 Y-10.984 E0.04919
G1 X-11.000 Y-11.054 E0.04919 F900.000
G1 X-10.468 Y-10.984 E0.04919
G1 X-9.973 Y-10.779 E0.04919
G1 X-9.548 Y-10.452 E0.04919
G1 X-9.221 Y-10.027 E0.04919
G1 X-9.016 Y-9.532 E0.04919
G1 X-8.946 Y-9.000 E0.04919
G1 X-9.008 Y-8.528 E0.04369
G1 X-8.746 Y-8.174 F9000.000
G1 X-10.949 Y6.211 F9000.000
G1 X-10.276 Y6.299 E0.06221 F900.000
G1 X-9.602 Y6.579 E0.06697
G1 X-9.023 Y7.023 E0.06697
G1 X-8.579 Y7.602 E0.06696
G1 X-8.299 Y8.276 E0.06697
G1 X-8.204 Y9.000 E0.06697
G1 X-8.299 Y9.724 E0.06696
G1 X-8.579 Y10.398 E0.06697
G1 X-9.023 Y10.977 E0.06696
G1 X-9.602 Y11.421 E0.06697
G1 X-10.276 Y11.701 E0.06697
G1 X-11.000 Y11.796 E0.06697
G1 X-11.724 Y11.701 E0.06696
G1 X-12.398 Y11.421 E0.06697
G1 X-12.977 Y10.977 E0.06696
G1 X-13.421 Y10.398 E0.06697
G1 X-13.701 Y9.724 E0.06697
G1 X-13.796 Y9.000 E0.06696
G1 X-13.701 Y8.276 E0.06696
G1 X-13.421 Y7.602 E0.06697
G1 X-12.977 Y7.023 E0.06697
G1 X-12.398 Y6.579 E0.06696
G1 X-11.724 Y6.299 E0.06697
G1 X-11.008 Y6.205 E0.06622 F900.000
G1 X-11.000 Y6.946 F9000.000
G1 X-10.468 Y7.016 E0.04919 F900.000
G1 X-9.973 Y7.221 E0.04919
G1 X-9.548 Y7.548 E0.04919
G1 X-9.221 Y7.973 E0.04919
G1 X-9.016 Y8.468 E0.04919
G1 X-8.946 Y9.000 E0.04919
G1 X-9.016 Y9.532 E0.04919
G1 X-9.221 Y10.027 E0.04919
G1 X-9.548 Y10.452 E0.04919
G1 X-9.973 Y10.779 E0.04919
G1 X-10.468 Y10.984 E0.04919
G1 X-11.000 Y11.054 E0.04919
G1 X-11.532 Y10.984 E0.04919
G1 X-12.027 Y10.779 E0.04919
G1 X-12.452 Y10.452 E0.04919
G1 X-12.779 Y10.027 E0.04919
G1 X-12.984 Y9.532 E0.04919
G1 X-13.054 Y9.000 E0.04919
G1 X-12.984 Y8.468 E0.04919
G1 X-12.779 Y7.973 E0.04919
G1 X-12.452 Y7.548 E0.04919
G1 X-12.027 Y7.221 E0.04919
G1 X-11.532 Y7.016 E0.04919
G1 X-11.059 Y6.954 E0.04369 F900.000
G1 X-10.785 Y6.609 F9000.000
G1 E-3.20000 F3000.00000
G1 Z0.700 F9000.000
G1 X38.792 Y6.329 F9000.000
G1 Z0.300 F9000.000
G1 E3.20000 F3000.00000
G1 X38.509 Y7.914 E0.14774 F900.000
G1 X38.059 Y9.854 E0.18271
G1 X37.511 Y11.769 E0.18275
G1 X36.867 Y13.654 E0.18275
G1 X36.128 Y15.504 E0.18275
G1 X35.296 Y17.314 E0.18275
G1 X34.374 Y19.079 E0.18275
G1 X33.364 Y20.796 E0.18275
G1 X32.267 Y22.459 E0.18275
G1 X31.089 Y24.064 E0.18275
G1 X29.830 Y25.608 E0.18275
G1 X28.495 Y27.086 E0.18275
G1 X27.086 Y28.495 E0.18275
G1 X25.608 Y29.830 E0.18275
G1 X24.064 Y31.089 E0.18275
G1 X22.459 Y32.267 E0.18275
G1 X20.796 Y33.364 E0.18275
G1 X19.079 Y34.374 E0.18275
G1 X17.314 Y35.296 E0.18275
G1 X15.504 Y36.128 E0.18275
G1 X13.654 Y36.867 E0.18275
G1 X11.769 Y37.511 E0.18275
G1 X9.854 Y38.059 E0.18275
G1 X7.914 Y38.509 E0.18275
G1 X5.953 Y38.861 E0.18275
G1 X3.977 Y39.112 E0.18275
G1 X1.991 Y39.264 E0.18275
G1 X-0.000 Y39.314 E0.18275
G1 X-1.991 Y39.264 E0.18275
G1 X-3.977 Y39.112 E0.18275
G1 X-5.953 Y38.861 E0.18275
G1 X-7.914 Y38.509 E0.18275
G1 X-9.854 Y38.059 E0.18275
G1 X-11.769 Y37.511 E0.18275
G1 X-13.654 Y36.867 E0.18275
G1 X-15.504 Y36.128 E0.18275
G1 X-17.314 Y35.296 E0.18275
G1 X-19.079 Y34.374 E0.18275
G1 X-20.796 Y33.364 E0.18275
G1 X-22.459 Y32.267 E0.18275
G1 X-24.064 Y31.089 E0.18275
G1 X-25.608 Y29.830 E0.18275
G1 X-27.086 Y28.495 E0.18275
G1 X-28.495 Y27.086 E0.18275
G1 X-29.830 Y25.608 E0.18275
G1 X-31.089 Y24.064 E0.18275
G1 X-32.267 Y22.459 E0.18275
G1 X-33.364 Y20.796 E0.18275
G1 X-34.374 Y19.079 E0.18275
G1 X-35.296 Y17.314 E0.18276
G1 X-36.128 Y15.504 E0.18275
G1 X-36.867 Y13.654 E0.18275
G1 X-37.511 Y11.769 E0.18275
G1 X-38.059 Y9.854 E0.18275
G1 X-38.509 Y7.914 E0.18275
G1 X-38.861 Y5.953 E0.18275
G1 X-39.112 Y3.977 E0.18275
G1 X-39.264 Y1.991 E0.18275
G1 X-39.314 Y-0.000 E0.18275
G1 X-39.264 Y-1.991 E0.18275
G1 X-39.112 Y-3.977 E0.18275
G1 X-38.861 Y-5.953 E0.18275
G1 X-38.509 Y-7.914 E0.18275
G1 X-38.059 Y-9.854 E0.18275
G1 X-37.511 Y-11.769 E0.18275
G1 X-36.867 Y-13.653 E0.18271
G1 X-36.113 Y-15.537 E0.18616
G1 X-35.296 Y-17.314 E0.17939
G1 X-34.374 Y-19.079 E0.18275
G1 X-33.364 Y-20.796 E0.18275
G1 X-32.267 Y-22.459 E0.18275
G1 X-31.089 Y-24.064 E0.18275
G1 X-29.830 Y-25.608 E0.18275
G1 X-28.495 Y-27.086 E0.18275
