; generated by Slic3r 1.2.9 on 2016-10-20 at 14:38:38

; external perimeters extrusion width = 0.50mm
; perimeters extrusion width = 0.50mm
; infill extrusion width = 0.50mm
; solid infill extrusion width = 0.50mm
; top infill extrusion width = 0.50mm

M107
;Basic settings: Layer height: {layer_height} Walls: {wall_thickness} Fill: {fill_density}
;Print time: {print_time}
;Filament used: {filament_amount}m {filament_weight}g
;Filament cost: {filament_cost}
;M190 S{print_bed_temperature} ;Uncomment to add your own bed temperature line
;M109 S{print_temperature} ;Uncomment to add your own temperature line
G21        ;metric values
G90        ;absolute positioning
M83
G10 P0 S200
T0
M116


G21 ; set units to millimeters
G90 ; use absolute coordinates
M83 ; use relative distances for extrusion
G1 E-3.20000 F3000.00000
G1 Z0.400 F9000.000
G1 X26.233 Y-35.787 F9000.000
G1 Z0.300 F9000.000
G1 E3.20000 F3000.00000
G1 X27.243 Y-35.040 E0.11531 F1200.000
G1 X28.983 Y-33.615 E0.20627
G1 X30.648 Y-32.104 E0.20630
G1 X32.104 Y-30.648 E0.18899
G1 X33.615 Y-28.983 E0.20632
G1 X35.040 Y-27.243 E0.20632
G1 X36.483 Y-25.278 E0.22368
G1 X37.617 Y-23.558 E0.18902
G1 X38.761 Y-21.623 E0.20627
G1 X39.807 Y-19.631 E0.20638
G1 X40.750 Y-17.590 E0.20629
G1 X41.661 Y-15.308 E0.22544
G1 X42.377 Y-13.197 E0.20455
G1 X42.991 Y-11.034 E0.20625
G1 X43.495 Y-8.842 E0.20639
G1 X43.887 Y-6.628 E0.20632
G1 X44.166 Y-4.396 E0.20639
G1 X44.323 Y-2.330 E0.19006
G1 X44.386 Y-0.024 E0.21165
G1 X44.333 Y2.129 E0.19765
G1 X44.147 Y4.585 E0.22591
G1 X43.887 Y6.627 E0.18895
G1 X43.495 Y8.842 E0.20633
G1 X42.991 Y11.033 E0.20632
G1 X42.377 Y13.197 E0.20632
G1 X41.582 Y15.522 E0.22544
G1 X40.750 Y17.590 E0.20455
G1 X39.807 Y19.631 E0.20629
G1 X38.761 Y21.623 E0.20637
G1 X37.617 Y23.558 E0.20631
G1 X36.375 Y25.433 E0.20634
G1 X35.156 Y27.094 E0.18901
G1 X33.739 Y28.839 E0.20628
G1 X32.235 Y30.511 E0.20633
G1 X30.511 Y32.235 E0.22368
G1 X28.982 Y33.616 E0.18899
G1 X27.243 Y35.040 E0.20625
G1 X25.400 Y36.397 E0.20998
G1 X23.557 Y37.617 E0.20284
G1 X21.553 Y38.801 E0.21354
G1 X19.655 Y39.795 E0.19662
G1 X17.416 Y40.825 E0.22609
G1 X15.326 Y41.654 E0.20629
G1 X13.197 Y42.377 E0.20632
G1 X11.217 Y42.944 E0.18897
G1 X9.027 Y43.457 E0.20632
G1 X6.627 Y43.887 E0.22368
G1 X4.396 Y44.166 E0.20631
G1 X2.154 Y44.332 E0.20634
G1 X0.094 Y44.384 E0.18901
G1 X-2.154 Y44.332 E0.20629
G1 X-4.396 Y44.166 E0.20635
G1 X-6.628 Y43.887 E0.20631
G1 X-8.842 Y43.495 E0.20632
G1 X-11.015 Y42.996 E0.20454
G1 X-13.377 Y42.321 E0.22546
G1 X-15.326 Y41.654 E0.18899
G1 X-17.416 Y40.825 E0.20631
G1 X-19.462 Y39.890 E0.20632
G1 X-21.457 Y38.853 E0.20633
G1 X-23.558 Y37.617 E0.22368
G1 X-25.433 Y36.375 E0.20632
G1 X-27.243 Y35.040 E0.20633
G1 X-28.983 Y33.615 E0.20632
G1 X-30.511 Y32.235 E0.18897
G1 X-32.104 Y30.648 E0.20632
G1 X-33.615 Y28.983 E0.20632
G1 X-35.167 Y27.078 E0.22546
G1 X-36.483 Y25.278 E0.20454
G1 X-37.717 Y23.397 E0.20633
G1 X-38.853 Y21.457 E0.20630
G1 X-39.807 Y19.632 E0.18899
G1 X-40.750 Y17.590 E0.20633
G1 X-41.589 Y15.504 E0.20632
G1 X-42.383 Y13.178 E0.22544
G1 X-42.991 Y11.033 E0.20457
G1 X-43.495 Y8.842 E0.20631
G1 X-43.858 Y6.815 E0.18898
G1 X-44.147 Y4.585 E0.20631
G1 X-44.331 Y2.183 E0.22099
G1 X-44.384 Y0.107 E0.19051
G1 X-44.331 Y-2.188 E0.21068
G1 X-44.166 Y-4.396 E0.20310
G1 X-43.858 Y-6.815 E0.22373
G1 X-43.457 Y-9.027 E0.20632
G1 X-42.991 Y-11.034 E0.18899
G1 X-42.377 Y-13.197 E0.20630
G1 X-41.654 Y-15.326 E0.20633
G1 X-40.742 Y-17.608 E0.22545
G1 X-39.807 Y-19.632 E0.20456
G1 X-38.761 Y-21.623 E0.20632
G1 X-37.717 Y-23.397 E0.18896
G1 X-36.483 Y-25.278 E0.20633
G1 X-35.156 Y-27.093 E0.20632
G1 X-33.739 Y-28.839 E0.20633
G1 X-32.104 Y-30.648 E0.22368
G1 X-30.511 Y-32.235 E0.20632
G1 X-28.839 Y-33.739 E0.20632
G1 X-27.093 Y-35.156 E0.20634
G1 X-25.433 Y-36.375 E0.18896
G1 X-23.558 Y-37.617 E0.20632
G1 X-21.623 Y-38.761 E0.20633
G1 X-19.632 Y-39.807 E0.20633
G1 X-17.608 Y-40.742 E0.20454
G1 X-15.326 Y-41.654 E0.22546
G1 X-13.377 Y-42.321 E0.18899
G1 X-11.217 Y-42.944 E0.20630
G1 X-9.027 Y-43.457 E0.20634
G1 X-6.815 Y-43.858 E0.20630
G1 X-4.584 Y-44.147 E0.20633
G1 X-2.343 Y-44.323 E0.20632
G1 X0.095 Y-44.384 E0.22368
G1 X2.154 Y-44.332 E0.18898 F1200.000
G1 X4.396 Y-44.166 E0.20631
G1 X6.815 Y-43.858 E0.22368
G1 X8.842 Y-43.495 E0.18898
G1 X11.033 Y-42.991 E0.20631
G1 X13.377 Y-42.321 E0.22368
G1 X15.326 Y-41.654 E0.18897
G1 X17.416 Y-40.825 E0.20628
G1 X19.654 Y-39.795 E0.22604
G1 X21.537 Y-38.810 E0.19500
G1 X23.433 Y-37.695 E0.20181
G1 X25.247 Y-36.503 E0.19916
G1 X26.184 Y-35.822 E0.10625
G1 E-3.20000 F3000.00000
G1 Z0.700 F9000.000
G1 X0.863 Y32.017 F9000.000
G1 Z0.300 F9000.000
G1 E3.20000 F3000.00000
G1 X1.673 Y32.352 E0.08045 F900.000
G1 X2.366 Y32.884 E0.08014
G1 X2.428 Y32.965 E0.00933
G1 X2.644 Y32.965 E0.01984
G1 X3.232 Y34.384 E0.14094
G1 X3.346 Y35.250 E0.08014
G1 X3.232 Y36.116 E0.08014
G1 X2.644 Y37.535 E0.14094
G1 X2.428 Y37.535 E0.01984
G1 X2.366 Y37.616 E0.00933
G1 X1.673 Y38.148 E0.08014
G1 X0.866 Y38.482 E0.08014
G1 X-0.003 Y38.596 E0.08045
G1 X-0.881 Y38.475 E0.08132
G1 X-1.673 Y38.148 E0.07861
G1 X-2.366 Y37.616 E0.08014
G1 X-2.898 Y36.923 E0.08014
G1 X-3.232 Y36.116 E0.08014
G1 X-3.346 Y35.250 E0.08014
G1 X-3.232 Y34.384 E0.08014
G1 X-2.898 Y33.577 E0.08014
G1 X-2.366 Y32.884 E0.08014
G1 X-1.673 Y32.352 E0.08014
G1 X-0.866 Y32.018 E0.08014
G1 X-0.017 Y31.906 E0.07860 F900.000
G1 X0.803 Y32.009 E0.07582
G1 X0.673 Y32.734 F9000.000
G1 X1.302 Y32.995 E0.06248 F900.000
G1 X1.841 Y33.409 E0.06237
G1 X2.065 Y33.700 E0.03373
G1 X2.152 Y33.700 E0.00802
G1 X2.515 Y34.576 E0.08696
G1 X2.604 Y35.250 E0.06237
G1 X2.515 Y35.924 E0.06237
G1 X2.152 Y36.800 E0.08696
G1 X2.065 Y36.800 E0.00802
G1 X1.841 Y37.091 E0.03373
G1 X1.302 Y37.505 E0.06237
G1 X0.674 Y37.765 E0.06237
G1 X-0.001 Y37.854 E0.06248
G1 X-0.687 Y37.760 E0.06355
G1 X-1.302 Y37.505 E0.06104
G1 X-1.841 Y37.091 E0.06237
G1 X-2.255 Y36.552 E0.06237
G1 X-2.515 Y35.924 E0.06237
G1 X-2.604 Y35.250 E0.06237
G1 X-2.515 Y34.576 E0.06237
G1 X-2.255 Y33.948 E0.06237
G1 X-1.841 Y33.409 E0.06237
G1 X-1.302 Y32.995 E0.06237
G1 X-0.674 Y32.735 E0.06237
G1 X-0.014 Y32.648 E0.06103 F900.000
G1 X0.613 Y32.727 E0.05804
G1 X0.967 Y32.464 F9000.000
G1 X0.568 Y31.170 F9000.000
G1 X-0.000 Y31.186 E0.05213 F900.000
G1 X-1.813 Y31.133 E0.16644
G1 X-3.620 Y30.975 E0.16644
G1 X-5.415 Y30.712 E0.16644
G1 X-7.192 Y30.345 E0.16644
G1 X-8.944 Y29.876 E0.16644
G1 X-10.666 Y29.305 E0.16644
G1 X-12.352 Y28.636 E0.16644
G1 X-13.996 Y27.869 E0.16644
G1 X-15.593 Y27.008 E0.16644
G1 X-17.137 Y26.056 E0.16644
G1 X-18.623 Y25.015 E0.16648
G1 X-20.061 Y23.876 E0.16829
G1 X-21.401 Y22.684 E0.16456
G1 X-22.684 Y21.401 E0.16644
G1 X-23.890 Y20.046 E0.16644
G1 X-25.015 Y18.623 E0.16648
G1 X-26.066 Y17.120 E0.16829
G1 X-27.008 Y15.593 E0.16456
G1 X-27.869 Y13.996 E0.16644
G1 X-28.636 Y12.352 E0.16644
G1 X-29.306 Y10.666 E0.16648
G1 X-29.881 Y8.924 E0.16829
G1 X-30.345 Y7.192 E0.16456
G1 X-30.712 Y5.415 E0.16644
G1 X-30.975 Y3.620 E0.16644
G1 X-31.133 Y1.813 E0.16644
G1 X-31.186 Y-0.000 E0.16644
G1 X-31.133 Y-1.814 E0.16648
G1 X-30.972 Y-3.641 E0.16829
G1 X-30.712 Y-5.415 E0.16456
G1 X-30.345 Y-7.192 E0.16644
G1 X-29.876 Y-8.944 E0.16644
G1 X-29.306 Y-10.664 E0.16619
G1 X-28.695 Y-12.226 E0.15393
G1 X-27.869 Y-13.997 E0.17927
G1 X-26.997 Y-15.611 E0.16829
G1 X-26.056 Y-17.137 E0.16456
G1 X-25.015 Y-18.623 E0.16644
G1 X-23.890 Y-20.046 E0.16644
G1 X-22.684 Y-21.401 E0.16644
G1 X-21.401 Y-22.684 E0.16644
G1 X-20.046 Y-23.890 E0.16644
G1 X-18.623 Y-25.015 E0.16644
G1 X-17.137 Y-26.056 E0.16644
G1 X-15.593 Y-27.008 E0.16644
G1 X-13.996 Y-27.869 E0.16644
G1 X-12.352 Y-28.636 E0.16644
G1 X-10.666 Y-29.305 E0.16644
G1 X-8.944 Y-29.876 E0.16644
G1 X-7.192 Y-30.345 E0.16644
G1 X-5.415 Y-30.712 E0.16644
G1 X-3.620 Y-30.975 E0.16648
G1 X-1.793 Y-31.134 E0.16829
G1 X-0.000 Y-31.186 E0.16456 F900.000
G1 X1.813 Y-31.133 E0.16644
G1 X3.620 Y-30.975 E0.16644
G1 X5.415 Y-30.712 E0.16644
G1 X7.192 Y-30.345 E0.16644
G1 X8.924 Y-29.881 E0.16456
G1 X10.666 Y-29.306 E0.16829
G1 X12.352 Y-28.636 E0.16648
G1 X13.996 Y-27.869 E0.16644
G1 X15.593 Y-27.008 E0.16644
G1 X17.120 Y-26.066 E0.16456
G1 X18.623 Y-25.015 E0.16829
G1 X20.046 Y-23.890 E0.16648
G1 X21.401 Y-22.684 E0.16644
G1 X22.684 Y-21.401 E0.16644
G1 X23.890 Y-20.046 E0.16644
G1 X25.015 Y-18.623 E0.16644
G1 X26.056 Y-17.137 E0.16644
G1 X27.008 Y-15.593 E0.16648
G1 X27.878 Y-13.978 E0.16829
G1 X28.636 Y-12.352 E0.16456
G1 X29.305 Y-10.666 E0.16644
G1 X29.876 Y-8.944 E0.16644
G1 X30.346 Y-7.192 E0.16648
G1 X30.715 Y-5.395 E0.16829
G1 X30.975 Y-3.620 E0.16456
G1 X31.133 Y-1.813 E0.16644
G1 X31.186 Y0.000 E0.16644
G1 X31.133 Y1.813 E0.16644
G1 X30.975 Y3.620 E0.16644
G1 X30.712 Y5.416 E0.16648
G1 X30.340 Y7.212 E0.16829
G1 X29.876 Y8.944 E0.16456
G1 X29.305 Y10.666 E0.16644
G1 X28.636 Y12.352 E0.16644
G1 X27.869 Y13.996 E0.16644
G1 X27.008 Y15.593 E0.16644
G1 X26.056 Y17.137 E0.16644
G1 X25.015 Y18.623 E0.16648
G1 X23.876 Y20.061 E0.16829
G1 X22.684 Y21.401 E0.16456
G1 X21.401 Y22.684 E0.16644
G1 X20.046 Y23.890 E0.16644
G1 X18.623 Y25.015 E0.16644
G1 X17.137 Y26.056 E0.16644
G1 X15.593 Y27.008 E0.16644
G1 X13.996 Y27.869 E0.16644
G1 X12.352 Y28.636 E0.16644
G1 X10.666 Y29.305 E0.16644
G1 X8.944 Y29.876 E0.16644
G1 X7.192 Y30.346 E0.16648
G1 X5.395 Y30.715 E0.16829
G1 X3.620 Y30.975 E0.16456
G1 X1.813 Y31.133 E0.16644
G1 X0.628 Y31.168 E0.10880
G1 X0.607 Y30.433 F9000.000
G1 X-0.000 Y30.450 E0.05568 F900.000
G1 X-1.771 Y30.399 E0.16251
G1 X-3.535 Y30.244 E0.16252
G1 X-5.288 Y29.988 E0.16251
G1 X-7.022 Y29.629 E0.16251
G1 X-8.733 Y29.171 E0.16251
G1 X-10.415 Y28.614 E0.16252
G1 X-12.061 Y27.960 E0.16252
G1 X-13.666 Y27.211 E0.16251
G1 X-15.225 Y26.371 E0.16252
G1 X-16.733 Y25.441 E0.16251
G1 X-18.184 Y24.425 E0.16253
G1 X-19.588 Y23.313 E0.16436
G1 X-20.896 Y22.149 E0.16065
G1 X-22.149 Y20.896 E0.16251
G1 X-23.326 Y19.573 E0.16252
G1 X-24.425 Y18.183 E0.16253
G1 X-25.451 Y16.715 E0.16436
G1 X-26.371 Y15.225 E0.16065
G1 X-27.211 Y13.666 E0.16251
G1 X-27.960 Y12.061 E0.16252
G1 X-28.614 Y10.414 E0.16253
G1 X-29.176 Y8.714 E0.16436
G1 X-29.629 Y7.022 E0.16065
G1 X-29.988 Y5.288 E0.16251
G1 X-30.244 Y3.535 E0.16251
G1 X-30.399 Y1.771 E0.16251
G1 X-30.450 Y-0.000 E0.16252
G1 X-30.399 Y-1.771 E0.16253
G1 X-30.241 Y-3.555 E0.16436
G1 X-29.988 Y-5.288 E0.16065
G1 X-29.629 Y-7.022 E0.16252
G1 X-29.171 Y-8.733 E0.16251
G1 X-28.614 Y-10.414 E0.16242
G1 X-28.018 Y-11.936 E0.15000
G1 X-27.211 Y-13.666 E0.17516
G1 X-26.360 Y-15.242 E0.16436
G1 X-25.441 Y-16.733 E0.16065
G1 X-24.425 Y-18.184 E0.16252
G1 X-23.326 Y-19.573 E0.16251
G1 X-22.149 Y-20.896 E0.16252
G1 X-20.896 Y-22.149 E0.16251
G1 X-19.573 Y-23.326 E0.16251
G1 X-18.184 Y-24.425 E0.16252
G1 X-16.733 Y-25.441 E0.16251
G1 X-15.225 Y-26.371 E0.16252
G1 X-13.666 Y-27.211 E0.16251
G1 X-12.061 Y-27.960 E0.16251
G1 X-10.415 Y-28.614 E0.16252
G1 X-8.733 Y-29.171 E0.16251
G1 X-7.022 Y-29.629 E0.16252
G1 X-5.288 Y-29.988 E0.16252
G1 X-3.535 Y-30.244 E0.16253
G1 X-1.750 Y-30.399 E0.16436
G1 X-0.000 Y-30.450 E0.16065 F900.000
G1 X1.771 Y-30.399 E0.16252
G1 X3.535 Y-30.244 E0.16251
G1 X5.288 Y-29.988 E0.16252
G1 X7.022 Y-29.629 E0.16251
G1 X8.714 Y-29.176 E0.16065
G1 X10.414 Y-28.614 E0.16436
G1 X12.061 Y-27.960 E0.16253
G1 X13.666 Y-27.211 E0.16252
G1 X15.225 Y-26.371 E0.16251
G1 X16.715 Y-25.451 E0.16065
G1 X18.183 Y-24.425 E0.16436
G1 X19.573 Y-23.326 E0.16253
G1 X20.896 Y-22.149 E0.16252
G1 X22.149 Y-20.896 E0.16251
G1 X23.326 Y-19.573 E0.16251
G1 X24.425 Y-18.184 E0.16251
G1 X25.441 Y-16.733 E0.16251
G1 X26.371 Y-15.225 E0.16253
G1 X27.220 Y-13.648 E0.16436
G1 X27.960 Y-12.061 E0.16065
G1 X28.614 Y-10.415 E0.16251
G1 X29.171 Y-8.733 E0.16251
G1 X29.629 Y-7.022 E0.16253
G1 X29.991 Y-5.268 E0.16436
G1 X30.244 Y-3.535 E0.16065
G1 X30.399 Y-1.771 E0.16252
G1 X30.450 Y0.000 E0.16251
G1 X30.399 Y1.771 E0.16252
G1 X30.244 Y3.535 E0.16251
G1 X29.988 Y5.288 E0.16253
G1 X29.624 Y7.042 E0.16436
G1 X29.171 Y8.733 E0.16065
G1 X28.614 Y10.415 E0.16251
G1 X27.960 Y12.061 E0.16252
G1 X27.211 Y13.666 E0.16251
G1 X26.371 Y15.225 E0.16252
G1 X25.441 Y16.733 E0.16252
G1 X24.425 Y18.184 E0.16253
G1 X23.313 Y19.588 E0.16436
G1 X22.149 Y20.896 E0.16065
G1 X20.896 Y22.149 E0.16251
G1 X19.573 Y23.326 E0.16252
G1 X18.184 Y24.425 E0.16251
G1 X16.733 Y25.441 E0.16251
G1 X15.225 Y26.371 E0.16252
G1 X13.666 Y27.211 E0.16251
G1 X12.061 Y27.960 E0.16252
G1 X10.415 Y28.614 E0.16252
G1 X8.733 Y29.171 E0.16251
G1 X7.022 Y29.629 E0.16253
G1 X5.268 Y29.991 E0.16436
G1 X3.535 Y30.244 E0.16065
G1 X1.771 Y30.399 E0.16252
G1 X0.667 Y30.431 E0.10133
G1 X0.417 Y30.785 F9000.000
G1 E-3.20000 F3000.00000
G1 Z0.700 F9000.000
G1 X-0.000 Y-31.904 F9000.000
G1 Z0.300 F9000.000
G1 E3.20000 F3000.00000
G1 X-0.866 Y-32.018 E0.08014 F900.000
G1 X-1.673 Y-32.352 E0.08014
G1 X-2.366 Y-32.884 E0.08014
G1 X-2.898 Y-33.577 E0.08014
G1 X-3.232 Y-34.384 E0.08014
G1 X-3.346 Y-35.250 E0.08014
G1 X-3.232 Y-36.116 E0.08014
G1 X-2.898 Y-36.923 E0.08014
G1 X-2.366 Y-37.616 E0.08014
G1 X-1.673 Y-38.148 E0.08014
G1 X-0.866 Y-38.482 E0.08014
G1 X-0.692 Y-38.505 E0.01611
G1 X-0.692 Y-39.127 E0.05710 F900.000
G1 X1.673 Y-38.148 E0.23485
G1 X2.369 Y-37.614 E0.08045
G1 X2.904 Y-36.907 E0.08132
G1 X3.232 Y-36.116 E0.07860
G1 X3.346 Y-35.250 E0.08014
G1 X3.232 Y-34.384 E0.08014
G1 X2.904 Y-33.593 E0.07860
G1 X2.369 Y-32.886 E0.08132
G1 X1.673 Y-32.352 E0.08045
G1 X0.866 Y-32.018 E0.08014
G1 X0.059 Y-31.912 E0.07463
G1 X-0.000 Y-32.646 F9000.000
G1 X-0.674 Y-32.735 E0.06237 F900.000
G1 X-1.302 Y-32.995 E0.06237
G1 X-1.841 Y-33.409 E0.06237
G1 X-2.255 Y-33.948 E0.06237
G1 X-2.515 Y-34.576 E0.06237
G1 X-2.604 Y-35.250 E0.06237
G1 X-2.515 Y-35.924 E0.06237
G1 X-2.255 Y-36.552 E0.06237
G1 X-1.841 Y-37.091 E0.06237
G1 X-1.302 Y-37.505 E0.06237
G1 X-0.674 Y-37.765 E0.06237
G1 X0.044 Y-37.860 E0.06641
G1 X0.044 Y-38.026 E0.01528 F900.000
G1 X1.302 Y-37.505 E0.12495
G1 X1.842 Y-37.090 E0.06248
G1 X2.261 Y-36.539 E0.06355
G1 X2.515 Y-35.924 E0.06103
G1 X2.604 Y-35.250 E0.06237
G1 X2.515 Y-34.576 E0.06237
G1 X2.261 Y-33.961 E0.06103
G1 X1.842 Y-33.410 E0.06355
G1 X1.302 Y-32.995 E0.06248
G1 X0.674 Y-32.735 E0.06237
G1 X0.059 Y-32.654 E0.05686
G1 X-0.215 Y-32.309 F9000.000
G1 E-3.20000 F3000.00000
G1 Z0.700 F9000.000
G1 X2.925 Y-39.392 F9000.000
G1 Z0.300 F9000.000
G1 E3.20000 F3000.00000
G1 X3.998 Y-39.311 E0.09871 F900.000
G1 X5.984 Y-39.058 E0.18366
G1 X7.954 Y-38.705 E0.18368
G1 X9.904 Y-38.253 E0.18368
G1 X11.829 Y-37.702 E0.18368
G1 X13.723 Y-37.054 E0.18368
G1 X15.582 Y-36.312 E0.18362
G1 X17.424 Y-35.465 E0.18602
G1 X19.178 Y-34.548 E0.18156
G1 X20.901 Y-33.533 E0.18352
G1 X22.543 Y-32.451 E0.18042
G1 X24.188 Y-31.246 E0.18705
G1 X25.738 Y-29.982 E0.18359
G1 X27.224 Y-28.639 E0.18368
G1 X28.639 Y-27.224 E0.18368
G1 X29.982 Y-25.738 E0.18368
G1 X31.247 Y-24.187 E0.18368
G1 X32.432 Y-22.573 E0.18368
G1 X33.533 Y-20.901 E0.18368
G1 X34.549 Y-19.176 E0.18368
G1 X35.476 Y-17.402 E0.18368
G1 X36.312 Y-15.583 E0.18368
G1 X37.054 Y-13.723 E0.18368
G1 X37.702 Y-11.829 E0.18368
G1 X38.253 Y-9.904 E0.18368
G1 X38.705 Y-7.954 E0.18368
G1 X39.058 Y-5.984 E0.18368
G1 X39.311 Y-3.998 E0.18366
G1 X39.464 Y-1.990 E0.18478
G1 X39.514 Y-0.001 E0.18250
G1 X39.464 Y1.989 E0.18271
G1 X39.311 Y3.998 E0.18480
G1 X39.058 Y5.984 E0.18366
G1 X38.705 Y7.954 E0.18368
G1 X38.253 Y9.904 E0.18368
G1 X37.702 Y11.829 E0.18368
G1 X37.054 Y13.723 E0.18368
G1 X36.312 Y15.583 E0.18368
G1 X35.476 Y17.402 E0.18368
G1 X34.549 Y19.176 E0.18368
G1 X33.533 Y20.901 E0.18368
G1 X32.432 Y22.573 E0.18368
G1 X31.247 Y24.187 E0.18368
G1 X29.982 Y25.738 E0.18368
G1 X28.639 Y27.224 E0.18368
G1 X27.224 Y28.639 E0.18368
G1 X25.738 Y29.982 E0.18368
G1 X24.188 Y31.246 E0.18359
G1 X22.543 Y32.451 E0.18705
G1 X20.900 Y33.534 E0.18052
G1 X19.175 Y34.549 E0.18367
G1 X17.423 Y35.465 E0.18135
G1 X15.582 Y36.312 E0.18598
G1 X13.723 Y37.054 E0.18362
G1 X11.829 Y37.702 E0.18368
G1 X9.904 Y38.253 E0.18368
G1 X7.954 Y38.705 E0.18368
G1 X5.984 Y39.058 E0.18368
G1 X3.998 Y39.311 E0.18368
G1 X2.001 Y39.463 E0.18368
G1 X0.000 Y39.514 E0.18368
G1 X-2.001 Y39.463 E0.18368
