; generated by Slic3r 1.2.9 on 2016-10-20 at 15:50:38

; external perimeters extrusion width = 0.50mm
; perimeters extrusion width = 0.50mm
; infill extrusion width = 0.50mm
; solid infill extrusion width = 0.50mm
; top infill extrusion width = 0.50mm

M107
;Basic settings: Layer height: {layer_height} Walls: {wall_thickness} Fill: {fill_density}
;Print time: {print_time}
;Filament used: {filament_amount}m {filament_weight}g
;Filament cost: {filament_cost}
;M190 S{print_bed_temperature} ;Uncomment to add your own bed temperature line
;M109 S{print_temperature} ;Uncomment to add your own temperature line
G21        ;metric values
G90        ;absolute positioning
M83
G10 P0 S200
T0
M116


G21 ; set units to millimeters
G90 ; use absolute coordinates
M83 ; use relative distances for extrusion
G1 E-3.20000 F3000.00000
G1 Z0.400 F9000.000
G1 X12.686 Y0.000 F9000.000
G1 Z0.300 F9000.000
G1 E3.20000 F3000.00000
G1 X12.686 Y12.000 E1.10101 F1200.000
G1 X12.670 Y12.607 E0.05567
G1 X12.616 Y13.316 E0.06529
G1 X12.487 Y14.228 E0.08449
G1 X12.389 Y14.720 E0.04606
G1 X12.217 Y15.411 E0.06528
G1 X11.938 Y16.288 E0.08449
G1 X11.679 Y16.951 E0.06529
G1 X11.473 Y17.409 E0.04606
G1 X11.152 Y18.044 E0.06528
G1 X10.684 Y18.837 E0.08449
G1 X10.262 Y19.455 E0.06863
G1 X9.852 Y19.990 E0.06194
G1 X9.528 Y20.374 E0.04606
G1 X8.895 Y21.043 E0.08450
G1 X8.530 Y21.388 E0.04606
G1 X7.990 Y21.852 E0.06528
G1 X7.425 Y22.284 E0.06528
G1 X6.837 Y22.684 E0.06528
G1 X6.044 Y23.152 E0.08450
G1 X5.409 Y23.473 E0.06528
G1 X4.757 Y23.759 E0.06528
G1 X4.090 Y24.007 E0.06528
G1 X3.411 Y24.217 E0.06527
G1 X2.925 Y24.343 E0.04607
G1 X2.228 Y24.487 E0.06528
G1 X1.524 Y24.593 E0.06528
G1 X0.816 Y24.658 E0.06528
G1 X-0.105 Y24.684 E0.08450
G1 X-0.816 Y24.658 E0.06528
G1 X-1.524 Y24.593 E0.06527
G1 X-2.021 Y24.522 E0.04608
G1 X-2.720 Y24.389 E0.06528
G1 X-3.647 Y24.148 E0.08783
G1 X-4.288 Y23.938 E0.06194
G1 X-4.951 Y23.679 E0.06529
G1 X-5.598 Y23.383 E0.06528
G1 X-6.227 Y23.051 E0.06528
G1 X-6.660 Y22.796 E0.04607
G1 X-7.254 Y22.405 E0.06528
G1 X-7.990 Y21.852 E0.08450
G1 X-8.530 Y21.388 E0.06528
G1 X-9.043 Y20.895 E0.06528
G1 X-9.388 Y20.530 E0.04606
G1 X-9.852 Y19.990 E0.06528
G1 X-10.405 Y19.255 E0.08450
G1 X-10.796 Y18.660 E0.06528
G1 X-11.051 Y18.227 E0.04606
G1 X-11.473 Y17.409 E0.08449
G1 X-11.679 Y16.951 E0.04606
G1 X-11.938 Y16.288 E0.06528
G1 X-12.217 Y15.411 E0.08450
G1 X-12.343 Y14.925 E0.04606
G1 X-12.487 Y14.228 E0.06528
G1 X-12.616 Y13.316 E0.08450
G1 X-12.670 Y12.607 E0.06528
G1 X-12.686 Y12.000 E0.05567
G1 X-12.686 Y-12.000 E2.20201
G1 X-12.670 Y-12.607 E0.05567
G1 X-12.616 Y-13.316 E0.06529
G1 X-12.522 Y-14.021 E0.06527
G1 X-12.389 Y-14.720 E0.06528
G1 X-12.159 Y-15.612 E0.08450
G1 X-12.007 Y-16.090 E0.04606
G1 X-11.759 Y-16.757 E0.06528
G1 X-11.383 Y-17.598 E0.08448
G1 X-11.152 Y-18.044 E0.04607
G1 X-10.796 Y-18.660 E0.06528
G1 X-10.405 Y-19.255 E0.06528
G1 X-9.982 Y-19.827 E0.06528
G1 X-9.388 Y-20.530 E0.08450
G1 X-9.043 Y-20.895 E0.04606
G1 X-8.530 Y-21.388 E0.06528
G1 X-7.827 Y-21.982 E0.08450
G1 X-7.425 Y-22.284 E0.04606
G1 X-6.837 Y-22.684 E0.06528
G1 X-6.044 Y-23.152 E0.08450
G1 X-5.598 Y-23.383 E0.04606
G1 X-4.951 Y-23.679 E0.06528
G1 X-4.090 Y-24.007 E0.08450
G1 X-3.411 Y-24.217 E0.06528
G1 X-2.925 Y-24.343 E0.04606
G1 X-2.021 Y-24.522 E0.08450
G1 X-1.316 Y-24.616 E0.06528
G1 X-0.816 Y-24.658 E0.04607
G1 X0.141 Y-24.683 E0.08782
G1 X0.816 Y-24.658 E0.06195 F1200.000
G1 X1.316 Y-24.616 E0.04606
G1 X2.021 Y-24.522 E0.06528
G1 X2.925 Y-24.343 E0.08449
G1 X3.612 Y-24.159 E0.06528
G1 X4.288 Y-23.938 E0.06529
G1 X4.757 Y-23.759 E0.04606
G1 X5.409 Y-23.473 E0.06528
G1 X6.044 Y-23.152 E0.06528
G1 X6.837 Y-22.684 E0.08450
G1 X7.425 Y-22.284 E0.06528
G1 X7.827 Y-21.982 E0.04606
G1 X8.346 Y-21.551 E0.06194
G1 X8.895 Y-21.043 E0.06862
G1 X9.388 Y-20.530 E0.06528
G1 X9.852 Y-19.990 E0.06528
G1 X10.405 Y-19.255 E0.08450
G1 X10.796 Y-18.660 E0.06528
G1 X11.152 Y-18.044 E0.06528
G1 X11.383 Y-17.598 E0.04606
G1 X11.679 Y-16.951 E0.06528
G1 X11.925 Y-16.322 E0.06194
G1 X12.217 Y-15.411 E0.08783
G1 X12.389 Y-14.720 E0.06528
G1 X12.487 Y-14.228 E0.04606
G1 X12.593 Y-13.524 E0.06528
G1 X12.658 Y-12.816 E0.06528
G1 X12.686 Y-12.000 E0.07489
G1 X12.686 Y-0.060 E1.09550
G1 E-3.20000 F3000.00000
G1 Z0.700 F9000.000
G1 X3.316 Y-8.977 F9000.000
G1 Z0.300 F9000.000
G1 E3.20000 F3000.00000
G1 X3.023 Y-8.684 E0.03802 F900.000
G1 X2.704 Y-8.419 E0.03803
G1 X2.362 Y-8.185 E0.03803
G1 X2.000 Y-7.984 E0.03802
G1 X1.621 Y-7.816 E0.03802
G1 X1.228 Y-7.684 E0.03803
G1 X0.824 Y-7.590 E0.03802
G1 X0.414 Y-7.532 E0.03803
G1 X-0.000 Y-7.513 E0.03803
G1 X-0.414 Y-7.532 E0.03802
G1 X-0.824 Y-7.590 E0.03802
G1 X-1.228 Y-7.684 E0.03803
G1 X-1.621 Y-7.816 E0.03803
G1 X-2.000 Y-7.984 E0.03802
G1 X-2.362 Y-8.185 E0.03803
G1 X-2.704 Y-8.419 E0.03802
G1 X-3.000 Y-8.666 E0.03535
G1 X-3.313 Y-8.974 E0.04033
G1 X-3.581 Y-9.296 E0.03839
G1 X-3.815 Y-9.638 E0.03803
G1 X-4.016 Y-10.000 E0.03803
G1 X-4.184 Y-10.379 E0.03802
G1 X-4.316 Y-10.772 E0.03803
G1 X-4.410 Y-11.176 E0.03803
G1 X-4.468 Y-11.586 E0.03803
G1 X-4.487 Y-12.000 E0.03802
G1 X-4.468 Y-12.414 E0.03802
G1 X-4.410 Y-12.828 E0.03839
G1 X-4.306 Y-13.256 E0.04033
G1 X-4.184 Y-13.621 E0.03535
G1 X-4.017 Y-14.000 E0.03802
G1 X-3.815 Y-14.362 E0.03803
G1 X-3.581 Y-14.704 E0.03802
G1 X-3.316 Y-15.023 E0.03802
G1 X-3.023 Y-15.316 E0.03803
G1 X-2.704 Y-15.581 E0.03802
G1 X-2.362 Y-15.815 E0.03803
G1 X-2.000 Y-16.016 E0.03803
G1 X-1.621 Y-16.184 E0.03802
G1 X-1.228 Y-16.316 E0.03803
G1 X-0.821 Y-16.411 E0.03839
G1 X-0.385 Y-16.469 E0.04033
G1 X-0.000 Y-16.487 E0.03535 F900.000
G1 X0.414 Y-16.468 E0.03802
G1 X0.824 Y-16.410 E0.03803
G1 X1.228 Y-16.316 E0.03802
G1 X1.621 Y-16.184 E0.03803
G1 X2.000 Y-16.016 E0.03802
G1 X2.362 Y-15.815 E0.03802
G1 X2.704 Y-15.581 E0.03803
G1 X3.023 Y-15.316 E0.03802
G1 X3.316 Y-15.023 E0.03803
G1 X3.581 Y-14.704 E0.03802
G1 X3.815 Y-14.362 E0.03803
G1 X4.016 Y-14.000 E0.03803
G1 X4.184 Y-13.621 E0.03802
G1 X4.316 Y-13.228 E0.03803
G1 X4.410 Y-12.824 E0.03802
G1 X4.468 Y-12.414 E0.03803
G1 X4.487 Y-12.000 E0.03803
G1 X4.468 Y-11.586 E0.03802
G1 X4.410 Y-11.176 E0.03803
G1 X4.316 Y-10.772 E0.03802
G1 X4.184 Y-10.379 E0.03803
G1 X4.016 Y-10.000 E0.03802
G1 X3.815 Y-9.638 E0.03803
G1 X3.581 Y-9.296 E0.03803
G1 X3.354 Y-9.023 E0.03252
G1 X2.788 Y-9.493 F9000.000
G1 X2.527 Y-9.228 E0.03416 F900.000
G1 X2.260 Y-9.007 E0.03178
G1 X1.974 Y-8.811 E0.03178
G1 X1.672 Y-8.643 E0.03178
G1 X1.355 Y-8.503 E0.03178
G1 X1.026 Y-8.393 E0.03178
G1 X0.689 Y-8.313 E0.03178
G1 X0.346 Y-8.266 E0.03178
G1 X-0.000 Y-8.250 E0.03178
G1 X-0.346 Y-8.266 E0.03178
G1 X-0.689 Y-8.313 E0.03178
G1 X-1.026 Y-8.393 E0.03178
G1 X-1.355 Y-8.503 E0.03178
G1 X-1.672 Y-8.643 E0.03178
G1 X-1.974 Y-8.811 E0.03178
G1 X-2.260 Y-9.007 E0.03178
G1 X-2.506 Y-9.211 E0.02935
G1 X-2.771 Y-9.472 E0.03408
G1 X-2.993 Y-9.740 E0.03191
G1 X-3.189 Y-10.026 E0.03178
G1 X-3.357 Y-10.328 E0.03178
G1 X-3.497 Y-10.645 E0.03178
G1 X-3.607 Y-10.974 E0.03178
G1 X-3.687 Y-11.311 E0.03178
G1 X-3.734 Y-11.654 E0.03178
G1 X-3.750 Y-12.000 E0.03178
G1 X-3.734 Y-12.346 E0.03178
G1 X-3.686 Y-12.691 E0.03191
G1 X-3.599 Y-13.052 E0.03408
G1 X-3.497 Y-13.355 E0.02935
G1 X-3.357 Y-13.672 E0.03178
G1 X-3.189 Y-13.974 E0.03178
G1 X-2.993 Y-14.260 E0.03178
G1 X-2.772 Y-14.527 E0.03178
G1 X-2.527 Y-14.772 E0.03178
G1 X-2.260 Y-14.993 E0.03178
G1 X-1.974 Y-15.189 E0.03178
G1 X-1.672 Y-15.357 E0.03178
G1 X-1.355 Y-15.497 E0.03178
G1 X-1.026 Y-15.607 E0.03178
G1 X-0.688 Y-15.687 E0.03191
G1 X-0.320 Y-15.736 E0.03408
G1 X-0.000 Y-15.750 E0.02935 F900.000
G1 X0.346 Y-15.734 E0.03178
G1 X0.689 Y-15.687 E0.03178
G1 X1.026 Y-15.607 E0.03178
G1 X1.355 Y-15.497 E0.03178
G1 X1.672 Y-15.357 E0.03178
G1 X1.974 Y-15.189 E0.03178
G1 X2.260 Y-14.993 E0.03178
G1 X2.527 Y-14.772 E0.03178
G1 X2.772 Y-14.527 E0.03178
G1 X2.993 Y-14.260 E0.03178
G1 X3.189 Y-13.974 E0.03178
G1 X3.357 Y-13.672 E0.03178
G1 X3.497 Y-13.355 E0.03178
G1 X3.607 Y-13.026 E0.03178
G1 X3.687 Y-12.689 E0.03178
G1 X3.734 Y-12.346 E0.03178
G1 X3.750 Y-12.000 E0.03178
G1 X3.734 Y-11.654 E0.03178
G1 X3.687 Y-11.311 E0.03178
G1 X3.607 Y-10.974 E0.03178
G1 X3.497 Y-10.645 E0.03178
G1 X3.357 Y-10.328 E0.03178
G1 X3.189 Y-10.026 E0.03178
G1 X2.993 Y-9.740 E0.03178
G1 X2.827 Y-9.539 E0.02389
G1 X2.897 Y-9.137 F9000.000
G1 E-3.20000 F3000.00000
G1 Z0.700 F9000.000
G1 X-1.002 Y-19.747 F9000.000
G1 Z0.300 F9000.000
G1 E3.20000 F3000.00000
G1 X-0.440 Y-19.801 E0.05180 F900.000
G1 X0.438 Y-19.802 E0.08059
G1 X0.875 Y-19.765 E0.04021 F900.000
G1 X1.737 Y-19.618 E0.08020
G1 X2.196 Y-19.498 E0.04355
G1 X2.988 Y-19.220 E0.07705
G1 X3.421 Y-19.024 E0.04355
G1 X4.157 Y-18.616 E0.07725
G1 X4.872 Y-18.109 E0.08040
G1 X5.525 Y-17.525 E0.08040
G1 X5.826 Y-17.207 E0.04021
G1 X6.373 Y-16.522 E0.08040
G1 X6.839 Y-15.780 E0.08040
G1 X7.219 Y-14.990 E0.08040
G1 X7.375 Y-14.581 E0.04021
G1 X7.618 Y-13.739 E0.08040
G1 X7.765 Y-12.875 E0.08040
G1 X7.814 Y-12.000 E0.08040
G1 X7.802 Y-11.562 E0.04021
G1 X7.704 Y-10.691 E0.08040
G1 X7.618 Y-10.261 E0.04021
G1 X7.375 Y-9.419 E0.08040
G1 X7.219 Y-9.010 E0.04021
G1 X6.840 Y-8.222 E0.08020
G1 X6.373 Y-7.478 E0.08059
G1 X5.826 Y-6.793 E0.08040
G1 X5.207 Y-6.174 E0.08040
G1 X4.872 Y-5.891 E0.04021
G1 X4.157 Y-5.384 E0.08040
G1 X3.390 Y-4.960 E0.08040
G1 X2.990 Y-4.781 E0.04021
G1 X2.163 Y-4.491 E0.08040
G1 X1.309 Y-4.296 E0.08040
G1 X0.438 Y-4.198 E0.08040
G1 X-0.438 Y-4.198 E0.08040
G1 X-0.875 Y-4.235 E0.04021
G1 X-1.737 Y-4.382 E0.08020
G1 X-2.196 Y-4.502 E0.04355
G1 X-2.990 Y-4.781 E0.07725
G1 X-3.780 Y-5.161 E0.08040
G1 X-4.157 Y-5.384 E0.04021
G1 X-4.872 Y-5.891 E0.08040
G1 X-5.525 Y-6.475 E0.08040
G1 X-6.109 Y-7.128 E0.08040
G1 X-6.373 Y-7.478 E0.04021
G1 X-6.839 Y-8.220 E0.08040
G1 X-7.219 Y-9.010 E0.08040
G1 X-7.509 Y-9.837 E0.08040
G1 X-7.618 Y-10.261 E0.04021
G1 X-7.765 Y-11.125 E0.08040
G1 X-7.802 Y-11.562 E0.04021
G1 X-7.802 Y-12.438 E0.08040
G1 X-7.704 Y-13.309 E0.08040
G1 X-7.509 Y-14.163 E0.08040
G1 X-7.220 Y-14.988 E0.08020
G1 X-6.839 Y-15.780 E0.08059
G1 X-6.616 Y-16.157 E0.04021
G1 X-6.109 Y-16.872 E0.08040
G1 X-5.525 Y-17.525 E0.08040
G1 X-4.872 Y-18.109 E0.08040
G1 X-4.522 Y-18.373 E0.04021
G1 X-3.780 Y-18.839 E0.08040
G1 X-3.390 Y-19.040 E0.04021
G1 X-2.581 Y-19.375 E0.08040
G1 X-1.739 Y-19.618 E0.08040
G1 X-1.062 Y-19.738 E0.06310
G1 X-1.164 Y-20.467 F9000.000
G1 X-0.480 Y-20.536 E0.06311 F900.000
G1 X0.479 Y-20.536 E0.08804
G1 X0.957 Y-20.496 E0.04400 F900.000
G1 X1.432 Y-20.429 E0.04400
G1 X1.902 Y-20.336 E0.04393
G1 X2.401 Y-20.205 E0.04734
G1 X2.824 Y-20.070 E0.04073
G1 X3.271 Y-19.899 E0.04393
G1 X3.741 Y-19.687 E0.04734
G1 X4.136 Y-19.483 E0.04073
G1 X4.549 Y-19.239 E0.04400
G1 X4.948 Y-18.973 E0.04400
G1 X5.331 Y-18.685 E0.04400
G1 X5.697 Y-18.375 E0.04400
G1 X6.046 Y-18.046 E0.04400
G1 X6.375 Y-17.697 E0.04400
G1 X6.685 Y-17.331 E0.04400
G1 X6.973 Y-16.948 E0.04400
G1 X7.239 Y-16.549 E0.04400
G1 X7.483 Y-16.136 E0.04400
G1 X7.703 Y-15.710 E0.04400
G1 X7.899 Y-15.272 E0.04400
G1 X8.070 Y-14.824 E0.04400
G1 X8.216 Y-14.367 E0.04400
G1 X8.335 Y-13.903 E0.04400
G1 X8.429 Y-13.432 E0.04400
G1 X8.496 Y-12.957 E0.04400
G1 X8.536 Y-12.479 E0.04400
G1 X8.550 Y-12.000 E0.04400
G1 X8.536 Y-11.521 E0.04400
G1 X8.496 Y-11.043 E0.04400
G1 X8.429 Y-10.568 E0.04400
G1 X8.335 Y-10.097 E0.04400
G1 X8.216 Y-9.633 E0.04400
G1 X8.070 Y-9.176 E0.04400
G1 X7.899 Y-8.728 E0.04400
G1 X7.703 Y-8.290 E0.04400
G1 X7.483 Y-7.865 E0.04393
G1 X6.973 Y-7.052 E0.08804
G1 X6.685 Y-6.669 E0.04400
G1 X6.375 Y-6.303 E0.04400
G1 X6.046 Y-5.954 E0.04400
G1 X5.697 Y-5.625 E0.04400
G1 X5.331 Y-5.315 E0.04400
G1 X4.948 Y-5.027 E0.04400
G1 X4.549 Y-4.761 E0.04400
G1 X4.136 Y-4.517 E0.04400
G1 X3.710 Y-4.297 E0.04400
G1 X3.272 Y-4.101 E0.04400
G1 X2.824 Y-3.930 E0.04400
G1 X2.367 Y-3.784 E0.04400
G1 X1.903 Y-3.665 E0.04400
G1 X1.432 Y-3.571 E0.04400
G1 X0.957 Y-3.504 E0.04400
G1 X0.479 Y-3.464 E0.04400
G1 X-0.000 Y-3.450 E0.04400
G1 X-0.479 Y-3.464 E0.04400
G1 X-0.957 Y-3.504 E0.04400
G1 X-1.432 Y-3.571 E0.04400
G1 X-1.902 Y-3.664 E0.04393
G1 X-2.401 Y-3.795 E0.04734
G1 X-2.824 Y-3.930 E0.04073
G1 X-3.272 Y-4.101 E0.04400
G1 X-3.710 Y-4.297 E0.04400
G1 X-4.136 Y-4.517 E0.04400
G1 X-4.549 Y-4.761 E0.04400
G1 X-4.948 Y-5.027 E0.04400
G1 X-5.331 Y-5.315 E0.04400
G1 X-5.697 Y-5.625 E0.04400
G1 X-6.046 Y-5.954 E0.04400
G1 X-6.375 Y-6.303 E0.04400
G1 X-6.685 Y-6.669 E0.04400
G1 X-6.973 Y-7.052 E0.04400
G1 X-7.239 Y-7.451 E0.04400
G1 X-7.483 Y-7.864 E0.04400
G1 X-7.703 Y-8.290 E0.04400
G1 X-7.899 Y-8.728 E0.04400
G1 X-8.070 Y-9.176 E0.04400
G1 X-8.216 Y-9.633 E0.04400
G1 X-8.335 Y-10.097 E0.04400
G1 X-8.429 Y-10.568 E0.04400
G1 X-8.496 Y-11.043 E0.04400
G1 X-8.536 Y-11.521 E0.04400
G1 X-8.550 Y-12.000 E0.04400
G1 X-8.536 Y-12.479 E0.04400
G1 X-8.496 Y-12.957 E0.04400
G1 X-8.429 Y-13.432 E0.04400
G1 X-8.335 Y-13.903 E0.04400
G1 X-8.216 Y-14.367 E0.04400
G1 X-8.070 Y-14.824 E0.04400
G1 X-7.899 Y-15.271 E0.04393
G1 X-7.687 Y-15.741 E0.04734
G1 X-7.483 Y-16.136 E0.04073
G1 X-7.239 Y-16.549 E0.04400
G1 X-6.973 Y-16.948 E0.04400
G1 X-6.685 Y-17.331 E0.04400
G1 X-6.375 Y-17.697 E0.04400
G1 X-6.046 Y-18.046 E0.04400
G1 X-5.697 Y-18.375 E0.04400
G1 X-5.331 Y-18.685 E0.04400
G1 X-4.948 Y-18.973 E0.04400
G1 X-4.549 Y-19.239 E0.04400
G1 X-4.136 Y-19.483 E0.04400
G1 X-3.710 Y-19.703 E0.04400
G1 X-3.272 Y-19.899 E0.04400
G1 X-2.824 Y-20.070 E0.04400
G1 X-2.367 Y-20.216 E0.04400
G1 X-1.903 Y-20.335 E0.04400
G1 X-1.224 Y-20.458 E0.06328
G1 X-0.922 Y-20.148 F9000.000
G1 X2.686 Y-16.258 F9000.000
G1 X-0.408 Y-19.352 E0.41228 F900.000
G1 X-1.373 Y-19.249 E0.09142
G1 X1.015 Y-16.861 E0.31819
G1 X-0.117 Y-16.924 E0.10679
G1 X-2.238 Y-19.045 E0.28264
G1 X-3.020 Y-18.759 E0.07846
G1 X-1.048 Y-16.787 E0.26277
G1 X-1.849 Y-16.520 E0.07957
G1 X-3.732 Y-18.402 E0.25083
G1 X-4.380 Y-17.983 E0.07279
G1 X-2.553 Y-16.155 E0.24353
G1 X-3.165 Y-15.699 E0.07193
G1 X-4.963 Y-17.498 E0.23965
G1 X-5.498 Y-16.963 E0.07117
G1 X-3.699 Y-15.165 E0.23965
G1 X-4.155 Y-14.553 E0.07193
G1 X-5.983 Y-16.380 E0.24353
G1 X-6.403 Y-15.732 E0.07278
G1 X-4.520 Y-13.849 E0.25087
G1 X-4.786 Y-13.047 E0.07964
G1 X-6.765 Y-15.026 E0.26373
G1 X-7.050 Y-14.243 E0.07854
G1 X-4.924 Y-12.117 E0.28328
G1 X-4.861 Y-10.985 E0.10679
G1 X-7.258 Y-13.382 E0.31938
G1 X-7.352 Y-12.408 E0.09216
G1 X-4.258 Y-9.314 E0.41230
G1 X-2.686 Y-7.742 F9000.000
G1 X0.408 Y-4.648 E0.41230 F900.000
G1 X1.383 Y-4.741 E0.09225
G1 X-1.015 Y-7.139 E0.31952
G1 X0.117 Y-7.076 E0.10679
G1 X2.238 Y-4.955 E0.28264
G1 X3.020 Y-5.241 E0.07846
G1 X1.048 Y-7.213 E0.26277
G1 X1.849 Y-7.480 E0.07957
G1 X3.732 Y-5.598 E0.25083
G1 X4.385 Y-6.012 E0.07294
G1 X2.553 Y-7.845 E0.24421
G1 X3.165 Y-8.301 E0.07193
G1 X4.963 Y-6.502 E0.23965
G1 X5.498 Y-7.037 E0.07117
G1 X3.699 Y-8.835 E0.23965
G1 X4.155 Y-9.447 E0.07193
G1 X5.988 Y-7.615 E0.24421
G1 X6.406 Y-8.265 E0.07283
G1 X4.520 Y-10.151 E0.25132
G1 X4.787 Y-10.952 E0.07957
G1 X6.759 Y-8.980 E0.26277
G1 X7.045 Y-9.762 E0.07846
G1 X4.924 Y-11.883 E0.28264
G1 X4.861 Y-13.015 E0.10679
G1 X7.259 Y-10.617 E0.31952
G1 X7.352 Y-11.592 E0.09225
G1 X4.258 Y-14.686 E0.41229
G1 X5.690 Y-16.459 F9000.000
G1 X4.459 Y-17.690 E0.16402 F900.000
G1 X7.001 Y-14.080 F9000.000
G1 X2.080 Y-19.001 E0.65575 F900.000
G1 X0.703 Y-19.310 E0.13296
G1 X7.300 Y-12.712 E0.87908
G1 X-0.703 Y-4.690 F9000.000
G1 X-7.300 Y-11.288 E0.87908 F900.000
G1 X-7.009 Y-9.928 E0.13103
G1 X-2.080 Y-4.999 E0.65677
G1 X-4.459 Y-6.310 F9000.000
G1 X-5.690 Y-7.541 E0.16400 F900.000
G1 E-3.20000 F3000.00000
G1 Z0.700 F9000.000
G1 X-1.228 Y7.684 F9000.000
G1 Z0.300 F9000.000
G1 E3.20000 F3000.00000
G1 X-0.821 Y7.589 E0.03839 F900.000
G1 X-0.385 Y7.531 E0.04033
G1 X-0.000 Y7.513 E0.03535 F900.000
G1 X0.414 Y7.532 E0.03802
G1 X0.824 Y7.590 E0.03803
G1 X1.228 Y7.684 E0.03802
G1 X1.621 Y7.816 E0.03803
G1 X2.000 Y7.984 E0.03802
G1 X2.362 Y8.185 E0.03802
G1 X2.704 Y8.419 E0.03803
G1 X3.023 Y8.684 E0.03802
G1 X3.316 Y8.977 E0.03803
G1 X3.581 Y9.296 E0.03802
G1 X3.815 Y9.638 E0.03803
G1 X4.016 Y10.000 E0.03803
G1 X4.184 Y10.379 E0.03802
G1 X4.316 Y10.772 E0.03803
G1 X4.410 Y11.176 E0.03802
G1 X4.468 Y11.586 E0.03803
