; generated by Slic3r 1.2.9 on 2016-10-20 at 17:19:49

; external perimeters extrusion width = 0.50mm
; perimeters extrusion width = 0.50mm
; infill extrusion width = 0.50mm
; solid infill extrusion width = 0.50mm
; top infill extrusion width = 0.50mm

M107
;Basic settings: Layer height: {layer_height} Walls: {wall_thickness} Fill: {fill_density}
;Print time: {print_time}
;Filament used: {filament_amount}m {filament_weight}g
;Filament cost: {filament_cost}
;M190 S{print_bed_temperature} ;Uncomment to add your own bed temperature line
;M109 S{print_temperature} ;Uncomment to add your own temperature line
G21        ;metric values
G90        ;absolute positioning
M83
G10 P0 S200
T0
M116


G21 ; set units to millimeters
G90 ; use absolute coordinates
M83 ; use relative distances for extrusion
G1 E-3.20000 F3000.00000
G1 Z0.400 F9000.000
G1 X-35.791 Y26.226 F9000.000
G1 Z0.300 F9000.000
G1 E3.20000 F3000.00000
G1 X-36.507 Y25.241 E0.11168 F1200.000
G1 X-37.619 Y23.554 E0.18535
G1 X-38.829 Y21.503 E0.21857
G1 X-39.793 Y19.659 E0.19089
G1 X-40.750 Y17.590 E0.20917
G1 X-41.596 Y15.485 E0.20809
G1 X-42.378 Y13.194 E0.22211
G1 X-42.945 Y11.213 E0.18910
G1 X-43.450 Y9.058 E0.20303
G1 X-43.857 Y6.824 E0.20837
G1 X-44.167 Y4.383 E0.22579
G1 X-44.329 Y2.236 E0.19753
G1 X-44.384 Y0.095 E0.19654
G1 X-44.329 Y-2.236 E0.21390
G1 X-44.141 Y-4.629 E0.22022
G1 X-43.885 Y-6.637 E0.18574
G1 X-43.500 Y-8.816 E0.20303
G1 X-42.992 Y-11.030 E0.20839
G1 X-42.314 Y-13.398 E0.22597
G1 X-41.596 Y-15.485 E0.20257
G1 X-40.826 Y-17.414 E0.19058
G1 X-39.815 Y-19.616 E0.22225
G1 X-38.770 Y-21.608 E0.20640
G1 X-37.718 Y-23.396 E0.19036
G1 X-36.384 Y-25.421 E0.22245
G1 X-35.026 Y-27.260 E0.20973
G1 X-33.625 Y-28.972 E0.20306
G1 X-32.236 Y-30.510 E0.19009
G1 X-30.520 Y-32.227 E0.22272
G1 X-28.822 Y-33.753 E0.20947
G1 X-27.101 Y-35.150 E0.20332
G1 X-25.434 Y-36.374 E0.18982
G1 X-23.405 Y-37.712 E0.22299
G1 X-21.464 Y-38.850 E0.20640
G1 X-19.632 Y-39.806 E0.18961
G1 X-17.422 Y-40.822 E0.22321
G1 X-15.304 Y-41.662 E0.20898
G1 X-13.201 Y-42.376 E0.20379
G1 X-11.217 Y-42.944 E0.18936
G1 X-8.845 Y-43.494 E0.22344
G1 X-6.630 Y-43.887 E0.20640
G1 X-4.396 Y-44.166 E0.20658
G1 X-2.328 Y-44.323 E0.19028
G1 X0.021 Y-44.386 E0.21559
G1 X2.178 Y-44.332 E0.19797 F1200.000
G1 X4.585 Y-44.147 E0.22145
G1 X6.630 Y-43.887 E0.18914
G1 X8.819 Y-43.499 E0.20398
G1 X11.037 Y-42.990 E0.20881
G1 X13.201 Y-42.376 E0.20640
G1 X15.504 Y-41.588 E0.22331
G1 X17.422 Y-40.822 E0.18949
G1 X19.441 Y-39.900 E0.20365
G1 X21.464 Y-38.849 E0.20916
G1 X23.405 Y-37.712 E0.20639
G1 X25.434 Y-36.374 E0.22297
G1 X27.101 Y-35.150 E0.18980
G1 X28.822 Y-33.753 E0.20334
G1 X30.520 Y-32.226 E0.20949
G1 X32.113 Y-30.639 E0.20638
G1 X33.740 Y-28.838 E0.22266
G1 X35.049 Y-27.232 E0.19014
G1 X36.362 Y-25.451 E0.20300
G1 X37.625 Y-23.545 E0.20978
G1 X38.770 Y-21.608 E0.20639
G1 X39.891 Y-19.460 E0.22235
G1 X40.758 Y-17.573 E0.19048
G1 X41.581 Y-15.524 E0.20266
G1 X42.327 Y-13.358 E0.21015
G1 X42.992 Y-11.030 E0.22216
G1 X43.500 Y-8.816 E0.20839
G1 X43.885 Y-6.637 E0.20304
G1 X44.142 Y-4.619 E0.18663
G1 X44.329 Y-2.236 E0.21933
G1 X44.384 Y0.095 E0.21389
G1 X44.329 Y2.236 E0.19653
G1 X44.167 Y4.383 E0.19755
G1 X43.885 Y6.637 E0.20843
G1 X43.479 Y8.924 E0.21313
G1 X42.945 Y11.213 E0.21563
G1 X42.327 Y13.358 E0.20481
G1 X41.655 Y15.324 E0.19064
G1 X40.750 Y17.590 E0.22384
G1 X39.793 Y19.658 E0.20911
G1 X38.748 Y21.646 E0.20601
G1 X37.675 Y23.467 E0.19399
G1 X36.507 Y25.242 E0.19489
G1 X35.049 Y27.232 E0.22641
G1 X33.625 Y28.972 E0.20630
G1 X32.089 Y30.664 E0.20963
G1 X30.519 Y32.227 E0.20322
G1 X28.984 Y33.615 E0.18992
G1 X27.101 Y35.150 E0.22285
G1 X25.285 Y36.478 E0.20642
G1 X23.378 Y37.728 E0.20925
G1 X21.463 Y38.850 E0.20359
G1 X19.632 Y39.806 E0.18955
G1 X17.422 Y40.822 E0.22318
G1 X15.331 Y41.653 E0.20642
G1 X13.175 Y42.384 E0.20893
G1 X11.037 Y42.990 E0.20384
G1 X9.028 Y43.457 E0.18931
G1 X6.629 Y43.887 E0.22362
G1 X4.396 Y44.166 E0.20647
G1 X2.124 Y44.333 E0.20900
G1 X0.011 Y44.386 E0.19387
G1 X-2.135 Y44.333 E0.19696
G1 X-4.396 Y44.166 E0.20802
G1 X-6.815 Y43.858 E0.22375
G1 X-8.845 Y43.494 E0.18921
G1 X-11.011 Y42.996 E0.20393
G1 X-13.202 Y42.376 E0.20892
G1 X-15.331 Y41.653 E0.20633
G1 X-17.591 Y40.750 E0.22326
G1 X-19.468 Y39.887 E0.18953
G1 X-21.437 Y38.864 E0.20361
G1 X-23.405 Y37.712 E0.20921
G1 X-25.285 Y36.478 E0.20632
G1 X-27.244 Y35.039 E0.22299
G1 X-28.848 Y33.731 E0.18991
G1 X-30.494 Y32.250 E0.20323
G1 X-32.113 Y30.639 E0.20950
G1 X-33.740 Y28.838 E0.22269
G1 X-35.049 Y27.232 E0.19007
G1 X-35.756 Y26.274 E0.10925
G1 E-3.20000 F3000.00000
G1 Z0.700 F9000.000
G1 X-16.956 Y12.703 F9000.000
G1 Z0.300 F9000.000
G1 E3.20000 F3000.00000
G1 X-17.832 Y11.440 E0.14106 F900.000
G1 X-18.590 Y10.161 E0.13637
G1 X-19.271 Y8.804 E0.13931
G1 X-19.852 Y7.401 E0.13931
G1 X-20.331 Y5.960 E0.13935
G1 X-20.705 Y4.489 E0.13929
G1 X-20.969 Y3.027 E0.13626
G1 X-21.132 Y1.518 E0.13930
G1 X-21.186 Y0.000 E0.13932
G1 X-21.133 Y-1.484 E0.13627
G1 X-20.969 Y-3.026 E0.14229
G1 X-20.705 Y-4.489 E0.13633
G1 X-20.331 Y-5.960 E0.13929
G1 X-19.852 Y-7.401 E0.13935
G1 X-19.271 Y-8.804 E0.13931
G1 X-18.590 Y-10.161 E0.13931
G1 X-17.832 Y-11.440 E0.13637
G1 X-16.956 Y-12.703 E0.14106
G1 X-16.005 Y-13.881 E0.13889
G1 X-14.974 Y-14.988 E0.13882
G1 X-13.881 Y-16.005 E0.13699
G1 X-12.703 Y-16.956 E0.13886
G1 X-11.443 Y-17.830 E0.14068
G1 X-10.159 Y-18.592 E0.13701
G1 X-8.806 Y-19.270 E0.13887
G1 X-7.389 Y-19.856 E0.14067
G1 X-5.972 Y-20.327 E0.13700
G1 X-4.506 Y-20.702 E0.13884
G1 X-3.016 Y-20.971 E0.13890
G1 X-1.492 Y-21.133 E0.14066
G1 X0.000 Y-21.186 E0.13698 F900.000
G1 X1.492 Y-21.133 E0.13698
G1 X3.016 Y-20.971 E0.14066
G1 X4.506 Y-20.702 E0.13890
G1 X5.972 Y-20.327 E0.13884
G1 X7.389 Y-19.856 E0.13700
G1 X8.806 Y-19.270 E0.14067
G1 X10.159 Y-18.592 E0.13889
G1 X11.460 Y-17.819 E0.13883
G1 X12.687 Y-16.967 E0.13701
G1 X13.881 Y-16.005 E0.14068
G1 X14.988 Y-14.974 E0.13885
G1 X16.005 Y-13.881 E0.13698
G1 X16.956 Y-12.703 E0.13886
G1 X17.832 Y-11.440 E0.14106
G1 X18.590 Y-10.161 E0.13637
G1 X19.271 Y-8.804 E0.13931
G1 X19.852 Y-7.401 E0.13931
G1 X20.331 Y-5.960 E0.13935
G1 X20.705 Y-4.489 E0.13929
G1 X20.969 Y-3.027 E0.13626
G1 X21.132 Y-1.518 E0.13930
G1 X21.186 Y-0.000 E0.13932
G1 X21.133 Y1.484 E0.13627
G1 X20.969 Y3.026 E0.14229
G1 X20.705 Y4.489 E0.13633
G1 X20.331 Y5.960 E0.13929
G1 X19.852 Y7.401 E0.13935
G1 X19.271 Y8.804 E0.13931
G1 X18.590 Y10.161 E0.13931
G1 X17.832 Y11.440 E0.13637
G1 X16.956 Y12.703 E0.14106
G1 X16.005 Y13.881 E0.13889
G1 X14.974 Y14.988 E0.13882
G1 X13.881 Y16.005 E0.13698
G1 X12.703 Y16.956 E0.13885
G1 X11.443 Y17.830 E0.14068
G1 X10.159 Y18.592 E0.13701
G1 X8.806 Y19.269 E0.13883
G1 X7.408 Y19.849 E0.13889
G1 X5.953 Y20.332 E0.14067
G1 X4.506 Y20.702 E0.13700
G1 X3.017 Y20.970 E0.13884
G1 X1.512 Y21.132 E0.13885
G1 X0.000 Y21.186 E0.13884
G1 X-1.492 Y21.133 E0.13699
G1 X-3.016 Y20.971 E0.14066
G1 X-4.506 Y20.702 E0.13890
G1 X-5.972 Y20.327 E0.13884
G1 X-7.389 Y19.856 E0.13700
G1 X-8.806 Y19.270 E0.14067
G1 X-10.159 Y18.592 E0.13889
G1 X-11.460 Y17.819 E0.13883
G1 X-12.687 Y16.967 E0.13701
G1 X-13.881 Y16.006 E0.14065
G1 X-14.974 Y14.988 E0.13702
G1 X-16.005 Y13.881 E0.13882
G1 X-16.918 Y12.750 E0.13338
G1 X-16.345 Y12.288 F9000.000
G1 X-17.213 Y11.042 E0.13929 F900.000
G1 X-17.944 Y9.809 E0.13158
G1 X-18.601 Y8.498 E0.13449
G1 X-19.162 Y7.144 E0.13447
G1 X-19.624 Y5.753 E0.13450
G1 X-19.986 Y4.332 E0.13448
G1 X-20.240 Y2.922 E0.13148
G1 X-20.398 Y1.465 E0.13449
G1 X-20.450 Y0.000 E0.13448
G1 X-20.399 Y-1.432 E0.13147
G1 X-20.240 Y-2.922 E0.13747
G1 X-19.986 Y-4.332 E0.13150
G1 X-19.624 Y-5.753 E0.13448
G1 X-19.162 Y-7.144 E0.13450
G1 X-18.601 Y-8.498 E0.13447
G1 X-17.944 Y-9.809 E0.13449
G1 X-17.213 Y-11.042 E0.13158
G1 X-16.366 Y-12.262 E0.13623
G1 X-15.449 Y-13.399 E0.13404
G1 X-14.453 Y-14.467 E0.13401
G1 X-13.399 Y-15.449 E0.13220
G1 X-12.262 Y-16.366 E0.13403
G1 X-11.045 Y-17.210 E0.13584
G1 X-9.806 Y-17.946 E0.13220
G1 X-8.500 Y-18.600 E0.13403
G1 X-7.132 Y-19.166 E0.13584
G1 X-5.765 Y-19.621 E0.13220
G1 X-4.350 Y-19.982 E0.13402
G1 X-2.912 Y-20.242 E0.13404
G1 X-1.440 Y-20.399 E0.13583
G1 X0.000 Y-20.450 E0.13219 F900.000
G1 X1.440 Y-20.399 E0.13219
G1 X2.912 Y-20.242 E0.13583
G1 X4.350 Y-19.982 E0.13404
G1 X5.765 Y-19.621 E0.13402
G1 X7.132 Y-19.166 E0.13220
G1 X8.500 Y-18.600 E0.13584
G1 X9.806 Y-17.946 E0.13404
G1 X11.062 Y-17.200 E0.13402
G1 X12.246 Y-16.378 E0.13220
G1 X13.399 Y-15.449 E0.13584
G1 X14.467 Y-14.453 E0.13402
G1 X15.449 Y-13.399 E0.13220
G1 X16.366 Y-12.262 E0.13403
G1 X17.213 Y-11.042 E0.13623
G1 X17.944 Y-9.809 E0.13158
G1 X18.601 Y-8.498 E0.13449
G1 X19.162 Y-7.144 E0.13447
G1 X19.624 Y-5.753 E0.13450
G1 X19.986 Y-4.332 E0.13448
G1 X20.240 Y-2.922 E0.13148
G1 X20.398 Y-1.465 E0.13449
G1 X20.450 Y-0.000 E0.13448
G1 X20.399 Y1.432 E0.13147
G1 X20.240 Y2.922 E0.13747
G1 X19.986 Y4.332 E0.13150
G1 X19.624 Y5.753 E0.13448
G1 X19.162 Y7.144 E0.13450
G1 X18.601 Y8.498 E0.13447
G1 X17.944 Y9.809 E0.13449
G1 X17.213 Y11.042 E0.13158
G1 X16.366 Y12.262 E0.13623
G1 X15.449 Y13.399 E0.13404
G1 X14.453 Y14.467 E0.13401
G1 X13.399 Y15.449 E0.13220
G1 X12.262 Y16.366 E0.13403
G1 X11.045 Y17.210 E0.13584
G1 X9.806 Y17.946 E0.13220
G1 X8.500 Y18.600 E0.13402
G1 X7.151 Y19.159 E0.13404
G1 X5.746 Y19.626 E0.13584
G1 X4.350 Y19.982 E0.13220
G1 X2.912 Y20.242 E0.13402
G1 X1.460 Y20.398 E0.13403
G1 X0.000 Y20.450 E0.13402
G1 X-1.440 Y20.399 E0.13219
G1 X-2.912 Y20.242 E0.13583
G1 X-4.350 Y19.982 E0.13404
G1 X-5.765 Y19.621 E0.13402
G1 X-7.132 Y19.166 E0.13220
G1 X-8.500 Y18.600 E0.13584
G1 X-9.806 Y17.946 E0.13404
G1 X-11.062 Y17.200 E0.13402
G1 X-12.246 Y16.378 E0.13220
G1 X-13.399 Y15.449 E0.13583
G1 X-14.453 Y14.467 E0.13221
G1 X-15.449 Y13.399 E0.13401
G1 X-16.308 Y12.335 E0.12547
G1 X-16.743 Y12.331 F9000.000
G1 X-27.210 Y2.790 F9000.000
G1 X-28.027 Y3.417 E0.09451 F900.000
G1 X-28.979 Y3.811 E0.09451
G1 X-30.000 Y3.946 E0.09451
G1 X-31.021 Y3.811 E0.09451
G1 X-31.973 Y3.417 E0.09451
G1 X-32.790 Y2.790 E0.09451
G1 X-33.417 Y1.973 E0.09451
G1 X-33.811 Y1.021 E0.09451
G1 X-33.946 Y-0.000 E0.09451
G1 X-33.811 Y-1.021 E0.09451
G1 X-33.426 Y-1.952 E0.09239
G1 X-32.793 Y-2.788 E0.09622
G1 X-31.973 Y-3.417 E0.09486
G1 X-31.021 Y-3.811 E0.09451
G1 X-30.023 Y-3.943 E0.09239 F900.000
G1 X-28.982 Y-3.813 E0.09622
G1 X-28.027 Y-3.417 E0.09486
G1 X-27.210 Y-2.790 E0.09451
G1 X-26.583 Y-1.973 E0.09451
G1 X-26.189 Y-1.021 E0.09451
G1 X-26.054 Y0.000 E0.09451
G1 X-26.189 Y1.021 E0.09451
G1 X-26.583 Y1.973 E0.09451
G1 X-27.173 Y2.743 E0.08901
G1 X-27.735 Y2.265 F9000.000
G1 X-28.398 Y2.775 E0.07674 F900.000
G1 X-29.171 Y3.095 E0.07674
G1 X-30.000 Y3.204 E0.07674
G1 X-30.829 Y3.095 E0.07674
G1 X-31.602 Y2.775 E0.07674
G1 X-32.265 Y2.265 E0.07674
G1 X-32.775 Y1.602 E0.07674
G1 X-33.095 Y0.829 E0.07674
G1 X-33.204 Y-0.000 E0.07674
G1 X-33.095 Y-0.829 E0.07674
G1 X-32.783 Y-1.583 E0.07485
G1 X-32.267 Y-2.265 E0.07845
G1 X-31.602 Y-2.775 E0.07686
G1 X-30.829 Y-3.095 E0.07674
G1 X-30.020 Y-3.201 E0.07485 F900.000
G1 X-29.172 Y-3.095 E0.07845
G1 X-28.398 Y-2.775 E0.07686
G1 X-27.735 Y-2.265 E0.07674
G1 X-27.225 Y-1.602 E0.07674
G1 X-26.905 Y-0.829 E0.07674
G1 X-26.796 Y0.000 E0.07674
G1 X-26.905 Y0.829 E0.07674
G1 X-27.225 Y1.602 E0.07674
G1 X-27.698 Y2.218 E0.07123
G1 X-27.648 Y2.656 F9000.000
G1 E-3.20000 F3000.00000
G1 Z0.700 F9000.000
G1 X26.054 Y0.000 F9000.000
G1 Z0.300 F9000.000
G1 E3.20000 F3000.00000
G1 X26.189 Y-1.021 E0.09451 F900.000
G1 X26.583 Y-1.973 E0.09451
G1 X27.210 Y-2.790 E0.09451
G1 X28.027 Y-3.417 E0.09451
G1 X28.979 Y-3.811 E0.09451
G1 X29.977 Y-3.943 E0.09239 F900.000
G1 X31.018 Y-3.813 E0.09622
G1 X31.973 Y-3.417 E0.09486
G1 X32.793 Y-2.788 E0.09486
G1 X33.426 Y-1.952 E0.09622
G1 X33.811 Y-1.021 E0.09239
G1 X33.946 Y0.000 E0.09451
G1 X33.811 Y1.021 E0.09451
G1 X33.417 Y1.973 E0.09451
G1 X32.790 Y2.790 E0.09451
G1 X31.973 Y3.417 E0.09451
G1 X31.021 Y3.811 E0.09451
G1 X30.000 Y3.946 E0.09451
G1 X28.979 Y3.811 E0.09451
G1 X28.027 Y3.417 E0.09451
G1 X27.210 Y2.790 E0.09451
G1 X26.583 Y1.973 E0.09451
G1 X26.189 Y1.021 E0.09451
G1 X26.062 Y0.059 E0.08901
G1 X26.796 Y0.000 F9000.000
G1 X26.905 Y-0.829 E0.07674 F900.000
G1 X27.225 Y-1.602 E0.07674
G1 X27.735 Y-2.265 E0.07674
G1 X28.398 Y-2.775 E0.07674
G1 X29.171 Y-3.095 E0.07674
G1 X29.980 Y-3.201 E0.07485 F900.000
G1 X30.828 Y-3.095 E0.07845
G1 X31.602 Y-2.775 E0.07686
G1 X32.267 Y-2.265 E0.07686
G1 X32.783 Y-1.583 E0.07845
G1 X33.095 Y-0.829 E0.07485
G1 X33.204 Y0.000 E0.07674
G1 X33.095 Y0.829 E0.07674
G1 X32.775 Y1.602 E0.07674
G1 X32.265 Y2.265 E0.07674
G1 X31.602 Y2.775 E0.07674
G1 X30.829 Y3.095 E0.07674
G1 X30.000 Y3.204 E0.07674
G1 X29.171 Y3.095 E0.07674
G1 X28.398 Y2.775 E0.07674
G1 X27.735 Y2.265 E0.07674
G1 X27.225 Y1.602 E0.07674
G1 X26.905 Y0.829 E0.07674
G1 X26.804 Y0.059 E0.07123
G1 X26.459 Y-0.215 F9000.000
G1 E-3.20000 F3000.00000
G1 Z0.700 F9000.000
G1 X39.203 Y-4.848 F9000.000
G1 Z0.300 F9000.000
G1 E3.20000 F3000.00000
G1 X39.312 Y-3.984 E0.07989 F900.000
G1 X39.462 Y-2.024 E0.18042
G1 X39.514 Y0.000 E0.18574
G1 X39.462 Y2.024 E0.18574
G1 X39.312 Y3.984 E0.18042
G1 X39.057 Y5.993 E0.18579
G1 X38.710 Y7.929 E0.18042
G1 X38.253 Y9.901 E0.18575
G1 X37.702 Y11.827 E0.18379
G1 X37.055 Y13.721 E0.18368
G1 X36.313 Y15.580 E0.18362
G1 X35.462 Y17.428 E0.18664
G1 X34.550 Y19.175 E0.18087
G1 X33.534 Y20.900 E0.18368
G1 X32.455 Y22.537 E0.17986
G1 X31.233 Y24.204 E0.18966
G1 X29.983 Y25.737 E0.18148
G1 X28.624 Y27.239 E0.18585
G1 X27.225 Y28.639 E0.18156
G1 X25.739 Y29.981 E0.18369
G1 X24.188 Y31.246 E0.18369
G1 X22.574 Y32.431 E0.18369
G1 X20.902 Y33.533 E0.18369
G1 X19.177 Y34.548 E0.18369
G1 X17.402 Y35.475 E0.18369
G1 X15.583 Y36.311 E0.18369
G1 X13.724 Y37.054 E0.18369
G1 X11.830 Y37.702 E0.18369
G1 X9.905 Y38.252 E0.18369
G1 X7.954 Y38.705 E0.18369
G1 X5.984 Y39.058 E0.18369
G1 X3.998 Y39.311 E0.18366
G1 X1.987 Y39.464 E0.18509
G1 X0.000 Y39.514 E0.18232
G1 X-1.987 Y39.464 E0.18241
G1 X-3.998 Y39.311 E0.18500
G1 X-5.984 Y39.058 E0.18366
G1 X-7.954 Y38.705 E0.18369
G1 X-9.905 Y38.252 E0.18369
G1 X-11.830 Y37.702 E0.18369
G1 X-13.724 Y37.054 E0.18369
G1 X-15.562 Y36.320 E0.18156
G1 X-17.403 Y35.475 E0.18585
G1 X-19.177 Y34.548 E0.18366
G1 X-20.902 Y33.533 E0.18369
G1 X-22.574 Y32.431 E0.18369
G1 X-24.188 Y31.246 E0.18369
G1 X-25.739 Y29.981 E0.18369
G1 X-27.225 Y28.639 E0.18369
G1 X-28.640 Y27.223 E0.18369
G1 X-29.983 Y25.737 E0.18369
G1 X-31.247 Y24.186 E0.18358
G1 X-32.455 Y22.537 E0.18756
G1 X-33.535 Y20.898 E0.18012
G1 X-34.548 Y19.178 E0.18313
G1 X-35.462 Y17.428 E0.18113
G1 X-36.313 Y15.580 E0.18670
G1 X-37.055 Y13.721 E0.18362
G1 X-37.702 Y11.827 E0.18368
G1 X-38.253 Y9.901 E0.18379
G1 X-38.710 Y7.929 E0.18575
G1 X-39.057 Y5.993 E0.18042
G1 X-39.312 Y3.984 E0.18579
G1 X-39.462 Y2.024 E0.18041
G1 X-39.514 Y-0.000 E0.18574
G1 X-39.462 Y-2.024 E0.18574
G1 X-39.312 Y-3.984 E0.18041
G1 X-39.057 Y-5.993 E0.18579
G1 X-38.710 Y-7.929 E0.18042
G1 X-38.253 Y-9.901 E0.18575
G1 X-37.702 Y-11.827 E0.18379
G1 X-37.055 Y-13.721 E0.18368
G1 X-36.313 Y-15.581 E0.18369
G1 X-35.477 Y-17.400 E0.18369
G1 X-34.550 Y-19.175 E0.18369
G1 X-33.534 Y-20.900 E0.18369
G1 X-32.433 Y-22.572 E0.18369
G1 X-31.248 Y-24.185 E0.18369
G1 X-29.983 Y-25.737 E0.18369
G1 X-28.640 Y-27.223 E0.18369
G1 X-27.225 Y-28.639 E0.18369
G1 X-25.739 Y-29.981 E0.18369
G1 X-24.188 Y-31.246 E0.18369
G1 X-22.574 Y-32.431 E0.18369
G1 X-20.902 Y-33.533 E0.18369
G1 X-19.177 Y-34.549 E0.18369
G1 X-17.402 Y-35.475 E0.18369
G1 X-15.583 Y-36.311 E0.18369
G1 X-13.724 Y-37.054 E0.18369
G1 X-11.830 Y-37.702 E0.18369
G1 X-9.905 Y-38.252 E0.18369
G1 X-7.954 Y-38.705 E0.18369
G1 X-5.984 Y-39.058 E0.18369
G1 X-3.998 Y-39.311 E0.18366
G1 X-1.988 Y-39.464 E0.18499
G1 X0.008 Y-39.514 E0.18313
G1 X1.987 Y-39.464 E0.18162
G1 X3.998 Y-39.311 E0.18509 F900.000
G1 X5.984 Y-39.058 E0.18366
G1 X7.954 Y-38.705 E0.18369
G1 X9.905 Y-38.252 E0.18369
G1 X11.830 Y-37.702 E0.18369
G1 X13.724 Y-37.054 E0.18369
G1 X15.583 Y-36.311 E0.18369
G1 X17.402 Y-35.475 E0.18369
G1 X19.177 Y-34.549 E0.18369
G1 X20.902 Y-33.533 E0.18369
G1 X22.574 Y-32.431 E0.18369
