; generated by Slic3r 1.2.9 on 2016-10-20 at 09:45:39

; external perimeters extrusion width = 0.50mm
; perimeters extrusion width = 0.50mm
; infill extrusion width = 0.50mm
; solid infill extrusion width = 0.50mm
; top infill extrusion width = 0.50mm

M107
;Basic settings: Layer height: {layer_height} Walls: {wall_thickness} Fill: {fill_density}
;Print time: {print_time}
;Filament used: {filament_amount}m {filament_weight}g
;Filament cost: {filament_cost}
;M190 S{print_bed_temperature} ;Uncomment to add your own bed temperature line
;M109 S{print_temperature} ;Uncomment to add your own temperature line
G21        ;metric values
G90        ;absolute positioning
M83
G10 P0 S200
T0
M116


G21 ; set units to millimeters
G90 ; use absolute coordinates
M83 ; use relative distances for extrusion
G1 E-3.20000 F3000.00000
G1 Z0.400 F9000.000
G1 X40.308 Y27.282 F9000.000
G1 Z0.300 F9000.000
G1 E3.20000 F3000.00000
G1 X39.606 Y28.312 E0.11444 F1200.000
G1 X38.324 Y30.025 E0.19630
G1 X36.735 Y31.949 E0.22891
G1 X35.173 Y33.661 E0.21260
G1 X33.661 Y35.173 E0.19629
G1 X31.949 Y36.735 E0.21260
G1 X30.025 Y38.324 E0.22891
G1 X28.131 Y39.734 E0.21667
G1 X26.246 Y41.004 E0.20852
G1 X24.419 Y42.118 E0.19629
G1 X22.230 Y43.313 E0.22890
G1 X20.143 Y44.322 E0.21261
G1 X18.177 Y45.164 E0.19629
G1 X15.839 Y46.036 E0.22889
G1 X13.588 Y46.749 E0.21672
G1 X11.391 Y47.333 E0.20850
G1 X9.301 Y47.788 E0.19629
G1 X7.017 Y48.176 E0.21260
G1 X4.539 Y48.473 E0.22891
G1 X2.228 Y48.634 E0.21256
G1 X0.089 Y48.685 E0.19633
G1 X-2.405 Y48.625 E0.22889
G1 X-4.761 Y48.450 E0.21671
G1 X-7.016 Y48.176 E0.20848
G1 X-9.126 Y47.822 E0.19632
G1 X-11.391 Y47.333 E0.21260
G1 X-13.801 Y46.687 E0.22891
G1 X-16.007 Y45.978 E0.21260
G1 X-18.177 Y45.164 E0.21258
G1 X-20.143 Y44.322 E0.19632
G1 X-22.387 Y43.232 E0.22888
G1 X-24.265 Y42.206 E0.19632
G1 X-26.246 Y41.004 E0.21260
G1 X-28.167 Y39.709 E0.21260
G1 X-30.165 Y38.214 E0.22891
G1 X-31.949 Y36.735 E0.21260
G1 X-33.532 Y35.296 E0.19629
G1 X-35.296 Y33.532 E0.22891
G1 X-36.852 Y31.814 E0.21260
G1 X-38.214 Y30.165 E0.19629
G1 X-39.709 Y28.167 E0.22891
G1 X-40.908 Y26.396 E0.19630
G1 X-42.118 Y24.419 E0.21260
G1 X-43.232 Y22.388 E0.21260
G1 X-44.322 Y20.143 E0.22891
G1 X-45.246 Y17.970 E0.21670
G1 X-46.036 Y15.839 E0.20849
G1 X-46.687 Y13.801 E0.19630
G1 X-47.333 Y11.391 E0.22890
G1 X-47.822 Y9.126 E0.21260
G1 X-48.202 Y6.841 E0.21260
G1 X-48.456 Y4.716 E0.19630
G1 X-48.634 Y2.228 E0.22891
G1 X-48.685 Y0.089 E0.19630
G1 X-48.635 Y-2.183 E0.20849
G1 X-48.473 Y-4.539 E0.21671
G1 X-48.176 Y-7.017 E0.22890
G1 X-47.822 Y-9.126 E0.19630
G1 X-47.343 Y-11.348 E0.20850
G1 X-46.738 Y-13.631 E0.21670
G1 X-45.978 Y-16.007 E0.22891
G1 X-45.230 Y-18.012 E0.19630
G1 X-44.322 Y-20.143 E0.21260
G1 X-43.313 Y-22.230 E0.21261
G1 X-42.118 Y-24.419 E0.22890
G1 X-41.004 Y-26.246 E0.19629
G1 X-39.734 Y-28.130 E0.20850
G1 X-38.324 Y-30.025 E0.21670
G1 X-36.735 Y-31.949 E0.22891
G1 X-35.173 Y-33.661 E0.21260
G1 X-33.661 Y-35.173 E0.19629
G1 X-31.949 Y-36.735 E0.21260
G1 X-30.025 Y-38.324 E0.22891
G1 X-28.312 Y-39.606 E0.19629
G1 X-26.396 Y-40.908 E0.21260
G1 X-24.265 Y-42.207 E0.22891
G1 X-22.388 Y-43.232 E0.19629
G1 X-20.305 Y-44.248 E0.21260
G1 X-18.177 Y-45.164 E0.21260
G1 X-15.839 Y-46.036 E0.22891
G1 X-13.801 Y-46.687 E0.19630
G1 X-11.564 Y-47.291 E0.21260
G1 X-9.126 Y-47.822 E0.22891
G1 X-7.016 Y-48.176 E0.19630
G1 X-4.716 Y-48.456 E0.21259
G1 X-2.405 Y-48.625 E0.21260
G1 X0.089 Y-48.685 E0.22890
G1 X2.405 Y-48.625 E0.21260 F1200.000
G1 X4.539 Y-48.473 E0.19629
G1 X6.841 Y-48.202 E0.21260
G1 X9.301 Y-47.788 E0.22891
G1 X11.391 Y-47.333 E0.19629
G1 X13.631 Y-46.738 E0.21261
G1 X16.007 Y-45.978 E0.22890
G1 X18.012 Y-45.230 E0.19630
G1 X20.143 Y-44.322 E0.21259
G1 X22.230 Y-43.313 E0.21260
G1 X24.419 Y-42.118 E0.22891
G1 X26.246 Y-41.004 E0.19629
G1 X28.130 Y-39.734 E0.20850
G1 X30.025 Y-38.324 E0.21669
G1 X31.949 Y-36.735 E0.22891
G1 X33.532 Y-35.296 E0.19629
G1 X35.173 Y-33.661 E0.21260
G1 X36.852 Y-31.814 E0.22891
G1 X38.214 Y-30.165 E0.19629
G1 X39.606 Y-28.312 E0.21260
G1 X41.004 Y-26.246 E0.22891
G1 X42.118 Y-24.419 E0.19629
G1 X43.232 Y-22.387 E0.21263
G1 X44.322 Y-20.143 E0.22888
G1 X45.164 Y-18.177 E0.19632
G1 X45.978 Y-16.007 E0.21258
G1 X46.738 Y-13.631 E0.22891
G1 X47.291 Y-11.564 E0.19629
G1 X47.778 Y-9.345 E0.20850
G1 X48.176 Y-7.016 E0.21672
G1 X48.473 Y-4.539 E0.22888
G1 X48.625 Y-2.405 E0.19631
G1 X48.685 Y-0.089 E0.21258
G1 X48.625 Y2.405 E0.22891
G1 X48.456 Y4.716 E0.21260
G1 X48.202 Y6.841 E0.19629
G1 X47.822 Y9.126 E0.21260
G1 X47.291 Y11.564 E0.22891
G1 X46.738 Y13.631 E0.19629
G1 X46.036 Y15.839 E0.21260
G1 X45.164 Y18.176 E0.22888
G1 X44.322 Y20.143 E0.19633
G1 X43.313 Y22.230 E0.21260
G1 X42.118 Y24.419 E0.22891
G1 X41.004 Y26.246 E0.19629
G1 X40.342 Y27.232 E0.10895
G1 E-3.20000 F3000.00000
G1 Z0.700 F9000.000
G1 X0.000 Y31.804 F9000.000
G1 Z0.300 F9000.000
G1 E3.20000 F3000.00000
G1 X0.892 Y31.922 E0.08253 F900.000
G1 X1.723 Y32.266 E0.08253
G1 X2.437 Y32.813 E0.08253
G1 X2.984 Y33.527 E0.08253
G1 X3.330 Y34.363 E0.08300
G1 X3.442 Y35.276 E0.08442
G1 X3.328 Y36.142 E0.08011
G1 X2.984 Y36.973 E0.08253
G1 X2.437 Y37.687 E0.08253
G1 X1.723 Y38.234 E0.08253
G1 X0.892 Y38.578 E0.08253
G1 X0.000 Y38.696 E0.08253
G1 X-0.866 Y38.582 E0.08011
G1 X-1.719 Y38.237 E0.08442
G1 X-2.437 Y37.687 E0.08300
G1 X-2.984 Y36.973 E0.08253
G1 X-3.328 Y36.142 E0.08253
G1 X-3.446 Y35.250 E0.08253
G1 X-3.328 Y34.358 E0.08253
G1 X-2.984 Y33.527 E0.08253
G1 X-2.437 Y32.813 E0.08253
G1 X-1.719 Y32.263 E0.08300
G1 X-0.866 Y31.918 E0.08442
G1 X-0.059 Y31.812 E0.07461 F900.000
G1 X0.000 Y32.546 F9000.000
G1 X0.700 Y32.638 E0.06476 F900.000
G1 X1.352 Y32.908 E0.06476
G1 X1.912 Y33.338 E0.06476
G1 X2.342 Y33.898 E0.06476
G1 X2.612 Y34.552 E0.06493
G1 X2.701 Y35.273 E0.06665
G1 X2.612 Y35.950 E0.06265
G1 X2.342 Y36.602 E0.06476
G1 X1.912 Y37.162 E0.06476
G1 X1.352 Y37.592 E0.06476
G1 X0.700 Y37.862 E0.06476
G1 X0.000 Y37.954 E0.06476
G1 X-0.677 Y37.865 E0.06265
G1 X-1.351 Y37.593 E0.06665
G1 X-1.912 Y37.162 E0.06493
G1 X-2.342 Y36.602 E0.06476
G1 X-2.612 Y35.950 E0.06476
G1 X-2.704 Y35.250 E0.06476
G1 X-2.612 Y34.550 E0.06476
G1 X-2.342 Y33.898 E0.06476
G1 X-1.912 Y33.338 E0.06476
G1 X-1.351 Y32.907 E0.06493
G1 X-0.677 Y32.635 E0.06665
G1 X-0.059 Y32.554 E0.05714 F900.000
G1 X0.215 Y32.209 F9000.000
G1 E-3.20000 F3000.00000
G1 Z0.700 F9000.000
G1 X-32.977 Y7.242 F9000.000
G1 Z0.300 F9000.000
G1 E3.20000 F3000.00000
G1 X-33.533 Y7.967 E0.08384 F900.000
G1 X-34.402 Y8.634 E0.10050
G1 X-35.414 Y9.053 E0.10050
G1 X-36.500 Y9.196 E0.10050
G1 X-37.586 Y9.053 E0.10050
G1 X-38.598 Y8.634 E0.10050
G1 X-39.467 Y7.967 E0.10050
G1 X-40.134 Y7.098 E0.10050
G1 X-40.553 Y6.086 E0.10050
G1 X-40.696 Y5.000 E0.10050
G1 X-40.553 Y3.914 E0.10050
G1 X-40.134 Y2.902 E0.10050
G1 X-39.467 Y2.033 E0.10050
G1 X-38.598 Y1.366 E0.10050
G1 X-37.586 Y0.947 E0.10050
G1 X-37.386 Y0.921 E0.01853
G1 X-36.500 Y0.804 E0.08197 F900.000
G1 X-35.414 Y0.947 E0.10050
G1 X-34.402 Y1.366 E0.10050
G1 X-33.533 Y2.033 E0.10050
G1 X-32.866 Y2.902 E0.10050
G1 X-32.447 Y3.914 E0.10050
G1 X-32.304 Y5.000 E0.10050
G1 X-32.447 Y6.086 E0.10050
G1 X-32.866 Y7.098 E0.10050
G1 X-32.940 Y7.194 E0.01115
G1 X-33.560 Y6.794 F9000.000
G1 X-34.058 Y7.442 E0.07495 F900.000
G1 X-34.773 Y7.991 E0.08273
G1 X-35.606 Y8.336 E0.08273
G1 X-36.500 Y8.454 E0.08273
G1 X-37.394 Y8.336 E0.08273
G1 X-38.227 Y7.991 E0.08273
G1 X-38.942 Y7.442 E0.08273
G1 X-39.491 Y6.727 E0.08273
G1 X-39.836 Y5.894 E0.08273
G1 X-39.954 Y5.000 E0.08273
G1 X-39.836 Y4.106 E0.08273
G1 X-39.491 Y3.273 E0.08273
G1 X-38.942 Y2.558 E0.08273
G1 X-38.227 Y2.009 E0.08273
G1 X-37.394 Y1.664 E0.08273
G1 X-37.290 Y1.650 E0.00965
G1 X-36.500 Y1.546 E0.07308 F900.000
G1 X-35.606 Y1.664 E0.08273
G1 X-34.773 Y2.009 E0.08273
G1 X-34.058 Y2.558 E0.08273
G1 X-33.509 Y3.273 E0.08273
G1 X-33.164 Y4.106 E0.08273
G1 X-33.046 Y5.000 E0.08273
G1 X-33.164 Y5.894 E0.08273
G1 X-33.524 Y6.747 E0.08492
G1 X-33.378 Y7.150 F9000.000
G1 E-3.20000 F3000.00000
G1 Z0.700 F9000.000
G1 X-35.414 Y-0.947 F9000.000
G1 Z0.300 F9000.000
G1 E3.20000 F3000.00000
G1 X-36.500 Y-0.804 E0.10050 F900.000
G1 X-37.586 Y-0.947 E0.10050
G1 X-38.598 Y-1.366 E0.10050
G1 X-39.467 Y-2.033 E0.10050
G1 X-40.134 Y-2.902 E0.10050
G1 X-40.553 Y-3.914 E0.10050
G1 X-40.696 Y-5.000 E0.10050
G1 X-40.553 Y-6.086 E0.10050
G1 X-40.134 Y-7.098 E0.10050
G1 X-39.467 Y-7.967 E0.10050
G1 X-38.598 Y-8.634 E0.10050
G1 X-37.586 Y-9.053 E0.10050
G1 X-36.700 Y-9.169 E0.08197
G1 X-36.500 Y-9.196 E0.01853 F900.000
G1 X-35.414 Y-9.053 E0.10050
G1 X-34.402 Y-8.634 E0.10050
G1 X-33.533 Y-7.967 E0.10050
G1 X-32.866 Y-7.098 E0.10050
G1 X-32.447 Y-6.086 E0.10050
G1 X-32.304 Y-5.000 E0.10050
G1 X-32.447 Y-3.914 E0.10050
G1 X-32.866 Y-2.902 E0.10050
G1 X-33.533 Y-2.033 E0.10050
G1 X-34.402 Y-1.366 E0.10050
G1 X-35.359 Y-0.970 E0.09499
G1 X-35.606 Y-1.664 F9000.000
G1 X-36.500 Y-1.546 E0.08273 F900.000
G1 X-37.394 Y-1.664 E0.08273
G1 X-38.227 Y-2.009 E0.08273
G1 X-38.942 Y-2.558 E0.08273
G1 X-39.491 Y-3.273 E0.08273
G1 X-39.836 Y-4.106 E0.08273
G1 X-39.954 Y-5.000 E0.08273
G1 X-39.836 Y-5.894 E0.08273
G1 X-39.491 Y-6.727 E0.08273
G1 X-38.942 Y-7.442 E0.08273
G1 X-38.227 Y-7.991 E0.08273
G1 X-37.394 Y-8.336 E0.08273
G1 X-36.604 Y-8.440 E0.07308
G1 X-36.500 Y-8.454 E0.00965 F900.000
G1 X-35.606 Y-8.336 E0.08273
G1 X-34.773 Y-7.991 E0.08273
G1 X-34.058 Y-7.442 E0.08273
G1 X-33.509 Y-6.727 E0.08273
G1 X-33.164 Y-5.894 E0.08273
G1 X-33.046 Y-5.000 E0.08273
G1 X-33.164 Y-4.106 E0.08273
G1 X-33.509 Y-3.273 E0.08273
G1 X-34.058 Y-2.558 E0.08273
G1 X-34.773 Y-2.009 E0.08273
G1 X-35.551 Y-1.687 E0.07722
G1 X-35.726 Y-1.282 F9000.000
G1 X-31.141 Y-1.534 F9000.000
G1 X-31.133 Y-1.814 E0.02570 F900.000
G1 X-30.971 Y-3.651 E0.16924
G1 X-30.712 Y-5.415 E0.16359
G1 X-30.345 Y-7.192 E0.16644
G1 X-29.876 Y-8.944 E0.16644
G1 X-29.305 Y-10.666 E0.16644
G1 X-28.636 Y-12.352 E0.16644
G1 X-27.869 Y-13.997 E0.16649
G1 X-26.992 Y-15.620 E0.16924
G1 X-26.056 Y-17.137 E0.16359
G1 X-25.015 Y-18.623 E0.16644
G1 X-23.890 Y-20.046 E0.16644
G1 X-22.684 Y-21.401 E0.16644
G1 X-21.401 Y-22.684 E0.16644
G1 X-20.046 Y-23.890 E0.16644
G1 X-18.623 Y-25.015 E0.16644
G1 X-17.137 Y-26.056 E0.16644
G1 X-15.593 Y-27.008 E0.16644
G1 X-13.996 Y-27.869 E0.16644
G1 X-12.352 Y-28.636 E0.16644
G1 X-10.666 Y-29.305 E0.16644
G1 X-8.944 Y-29.876 E0.16644
G1 X-7.192 Y-30.345 E0.16644
G1 X-5.415 Y-30.712 E0.16644
G1 X-3.620 Y-30.975 E0.16649
G1 X-1.782 Y-31.134 E0.16924
G1 X-0.000 Y-31.186 E0.16359 F900.000
G1 X1.813 Y-31.133 E0.16644
G1 X3.620 Y-30.975 E0.16644
G1 X5.415 Y-30.712 E0.16644
G1 X7.192 Y-30.345 E0.16644
G1 X8.914 Y-29.884 E0.16359
G1 X10.666 Y-29.306 E0.16924
G1 X12.352 Y-28.636 E0.16649
G1 X13.996 Y-27.869 E0.16644
G1 X15.593 Y-27.008 E0.16644
G1 X17.137 Y-26.056 E0.16644
G1 X18.622 Y-25.016 E0.16633
G1 X19.998 Y-23.933 E0.16061
G1 X21.402 Y-22.684 E0.17245
G1 X22.705 Y-21.378 E0.16924
G1 X23.890 Y-20.046 E0.16359
G1 X25.015 Y-18.623 E0.16644
G1 X26.056 Y-17.137 E0.16644
G1 X27.008 Y-15.593 E0.16644
G1 X27.869 Y-13.996 E0.16644
G1 X28.622 Y-12.380 E0.16359
G1 X29.305 Y-10.667 E0.16924
G1 X29.876 Y-8.944 E0.16649
G1 X30.345 Y-7.192 E0.16644
G1 X30.712 Y-5.415 E0.16644
G1 X30.971 Y-3.651 E0.16359
G1 X31.133 Y-1.814 E0.16924
G1 X31.186 Y-0.000 E0.16649
G1 X31.133 Y1.814 E0.16650
G1 X30.971 Y3.651 E0.16924
G1 X30.712 Y5.415 E0.16359
G1 X30.345 Y7.192 E0.16644
G1 X29.876 Y8.944 E0.16644
G1 X29.305 Y10.666 E0.16644
G1 X28.636 Y12.352 E0.16644
G1 X27.869 Y13.996 E0.16644
G1 X27.008 Y15.593 E0.16644
G1 X26.056 Y17.137 E0.16644
G1 X25.015 Y18.623 E0.16644
G1 X23.890 Y20.046 E0.16644
G1 X22.684 Y21.401 E0.16644
G1 X21.401 Y22.684 E0.16644
G1 X20.046 Y23.890 E0.16644
G1 X18.623 Y25.015 E0.16644
G1 X17.137 Y26.056 E0.16644
G1 X15.593 Y27.008 E0.16644
G1 X14.024 Y27.854 E0.16359
G1 X12.352 Y28.636 E0.16929
G1 X10.637 Y29.315 E0.16929
G1 X8.944 Y29.876 E0.16359
G1 X7.191 Y30.346 E0.16649
G1 X5.385 Y30.717 E0.16924
G1 X3.620 Y30.975 E0.16359
G1 X1.813 Y31.133 E0.16644
G1 X-0.000 Y31.186 E0.16644
G1 X-1.814 Y31.133 E0.16650
G1 X-3.651 Y30.971 E0.16924
G1 X-5.415 Y30.712 E0.16359
G1 X-7.192 Y30.345 E0.16644
G1 X-8.944 Y29.876 E0.16644
G1 X-10.666 Y29.305 E0.16644
G1 X-12.352 Y28.636 E0.16644
G1 X-13.996 Y27.869 E0.16644
G1 X-15.593 Y27.008 E0.16644
G1 X-17.138 Y26.055 E0.16649
G1 X-18.647 Y24.996 E0.16924
G1 X-20.046 Y23.890 E0.16359
G1 X-21.401 Y22.684 E0.16644
G1 X-22.684 Y21.401 E0.16644
G1 X-23.890 Y20.046 E0.16644
G1 X-25.015 Y18.623 E0.16644
G1 X-26.056 Y17.137 E0.16649
G1 X-27.023 Y15.566 E0.16924
G1 X-27.869 Y13.996 E0.16359
G1 X-28.636 Y12.352 E0.16644
G1 X-29.305 Y10.666 E0.16644
G1 X-29.866 Y8.974 E0.16359
G1 X-30.345 Y7.193 E0.16924
G1 X-30.712 Y5.415 E0.16649
G1 X-30.975 Y3.620 E0.16644
G1 X-31.133 Y1.813 E0.16644
G1 X-31.186 Y-0.000 E0.16644
G1 X-31.143 Y-1.474 E0.13529
G1 X-30.406 Y-1.513 F9000.000
G1 X-30.399 Y-1.771 E0.02370 F900.000
G1 X-30.240 Y-3.565 E0.16531
G1 X-29.988 Y-5.288 E0.15969
G1 X-29.629 Y-7.022 E0.16252
G1 X-29.171 Y-8.733 E0.16251
G1 X-28.614 Y-10.415 E0.16252
G1 X-27.960 Y-12.061 E0.16251
G1 X-27.211 Y-13.666 E0.16253
G1 X-26.355 Y-15.251 E0.16531
G1 X-25.441 Y-16.733 E0.15969
G1 X-24.425 Y-18.184 E0.16251
G1 X-23.326 Y-19.573 E0.16252
G1 X-22.149 Y-20.896 E0.16251
G1 X-20.896 Y-22.149 E0.16251
G1 X-19.573 Y-23.326 E0.16251
G1 X-18.184 Y-24.425 E0.16252
G1 X-16.733 Y-25.441 E0.16251
G1 X-15.225 Y-26.371 E0.16251
G1 X-13.666 Y-27.211 E0.16251
G1 X-12.061 Y-27.960 E0.16252
G1 X-10.415 Y-28.614 E0.16252
G1 X-8.733 Y-29.171 E0.16251
G1 X-7.022 Y-29.629 E0.16251
G1 X-5.288 Y-29.988 E0.16252
G1 X-3.535 Y-30.244 E0.16253
G1 X-1.740 Y-30.400 E0.16531
G1 X-0.000 Y-30.450 E0.15969 F900.000
G1 X1.771 Y-30.399 E0.16252
G1 X3.535 Y-30.244 E0.16251
G1 X5.288 Y-29.988 E0.16251
G1 X7.022 Y-29.629 E0.16252
G1 X8.704 Y-29.179 E0.15969
G1 X10.414 Y-28.614 E0.16531
G1 X12.061 Y-27.960 E0.16253
G1 X13.666 Y-27.211 E0.16252
G1 X15.225 Y-26.371 E0.16252
G1 X16.733 Y-25.441 E0.16251
G1 X18.183 Y-24.425 E0.16247
G1 X19.525 Y-23.369 E0.15668
G1 X20.896 Y-22.149 E0.16842
G1 X22.169 Y-20.873 E0.16531
G1 X23.326 Y-19.573 E0.15969
G1 X24.425 Y-18.184 E0.16252
G1 X25.441 Y-16.733 E0.16252
G1 X26.371 Y-15.225 E0.16251
G1 X27.211 Y-13.666 E0.16251
G1 X27.947 Y-12.089 E0.15970
G1 X28.614 Y-10.415 E0.16531
G1 X29.171 Y-8.733 E0.16253
G1 X29.629 Y-7.022 E0.16252
G1 X29.988 Y-5.288 E0.16252
G1 X30.240 Y-3.565 E0.15969
G1 X30.399 Y-1.771 E0.16531
G1 X30.450 Y-0.000 E0.16253
G1 X30.399 Y1.771 E0.16253
G1 X30.240 Y3.565 E0.16531
G1 X29.988 Y5.288 E0.15969
G1 X29.629 Y7.022 E0.16251
G1 X29.171 Y8.733 E0.16251
G1 X28.614 Y10.415 E0.16252
G1 X27.960 Y12.061 E0.16251
G1 X27.211 Y13.666 E0.16251
G1 X26.371 Y15.225 E0.16252
G1 X25.441 Y16.733 E0.16251
G1 X24.425 Y18.184 E0.16252
G1 X23.326 Y19.573 E0.16252
G1 X22.149 Y20.896 E0.16251
G1 X20.896 Y22.149 E0.16252
G1 X19.573 Y23.326 E0.16251
G1 X18.184 Y24.425 E0.16252
G1 X16.733 Y25.441 E0.16252
G1 X15.225 Y26.371 E0.16251
G1 X13.693 Y27.197 E0.15970
G1 X12.061 Y27.960 E0.16533
G1 X10.385 Y28.623 E0.16533
G1 X8.733 Y29.171 E0.15969
G1 X7.022 Y29.629 E0.16253
G1 X5.257 Y29.992 E0.16531
G1 X3.535 Y30.244 E0.15969
G1 X1.771 Y30.399 E0.16251
G1 X0.000 Y30.450 E0.16252
G1 X-1.771 Y30.399 E0.16253
G1 X-3.565 Y30.240 E0.16531
G1 X-5.288 Y29.988 E0.15969
G1 X-7.022 Y29.629 E0.16252
G1 X-8.733 Y29.171 E0.16251
G1 X-10.415 Y28.614 E0.16251
G1 X-12.061 Y27.960 E0.16251
G1 X-13.666 Y27.211 E0.16252
G1 X-15.225 Y26.371 E0.16252
G1 X-16.733 Y25.441 E0.16253
G1 X-18.208 Y24.406 E0.16531
G1 X-19.573 Y23.326 E0.15969
G1 X-20.896 Y22.149 E0.16251
G1 X-22.149 Y20.896 E0.16251
G1 X-23.326 Y19.573 E0.16251
G1 X-24.425 Y18.184 E0.16252
G1 X-25.441 Y16.732 E0.16253
G1 X-26.385 Y15.198 E0.16531
G1 X-27.211 Y13.666 E0.15969
G1 X-27.960 Y12.061 E0.16251
G1 X-28.614 Y10.415 E0.16251
G1 X-29.161 Y8.762 E0.15969
G1 X-29.629 Y7.022 E0.16531
G1 X-29.988 Y5.288 E0.16253
G1 X-30.244 Y3.535 E0.16251
G1 X-30.399 Y1.771 E0.16251
G1 X-30.450 Y-0.000 E0.16252
G1 X-30.408 Y-1.453 E0.13333
G1 X-30.626 Y-1.648 F9000.000
G1 E-3.20000 F3000.00000
G1 Z0.700 F9000.000
