; generated by Slic3r 1.2.9 on 2016-10-21 at 11:55:18

; external perimeters extrusion width = 0.50mm
; perimeters extrusion width = 0.50mm
; infill extrusion width = 0.50mm
; solid infill extrusion width = 0.50mm
; top infill extrusion width = 0.50mm

M107
;Basic settings: Layer height: {layer_height} Walls: {wall_thickness} Fill: {fill_density}
;Print time: {print_time}
;Filament used: {filament_amount}m {filament_weight}g
;Filament cost: {filament_cost}
;M190 S{print_bed_temperature} ;Uncomment to add your own bed temperature line
;M109 S{print_temperature} ;Uncomment to add your own temperature line
G21        ;metric values
G90        ;absolute positioning
M83
G10 P0 S200
T0
M116


G21 ; set units to millimeters
G90 ; use absolute coordinates
M83 ; use relative distances for extrusion
G1 E-3.20000 F3000.00000
G1 Z0.400 F9000.000
G1 X11.117 Y1.195 F9000.000
G1 Z0.300 F9000.000
G1 E3.20000 F3000.00000
G1 X11.051 Y1.722 E0.04873 F951.983
G1 X10.956 Y2.247 E0.04892
G1 X10.768 Y3.023 E0.07325
G1 X10.525 Y3.783 E0.07325
G1 X10.228 Y4.525 E0.07327
G1 X9.879 Y5.243 E0.07323
G1 X9.480 Y5.934 E0.07325
G1 X9.032 Y6.595 E0.07329
G1 X8.539 Y7.223 E0.07321
G1 X8.002 Y7.813 E0.07325
G1 X7.424 Y8.364 E0.07325
G1 X6.809 Y8.873 E0.07325
G1 X6.158 Y9.336 E0.07325
G1 X5.477 Y9.751 E0.07325
G1 X4.767 Y10.117 E0.07325
G1 X4.033 Y10.432 E0.07325
G1 X3.279 Y10.693 E0.07325
G1 X2.507 Y10.899 E0.07325
G1 X1.724 Y11.050 E0.07325
G1 X0.931 Y11.145 E0.07325
G1 X0.133 Y11.183 E0.07325
G1 X-0.665 Y11.164 E0.07325
G1 X-1.460 Y11.088 E0.07325
G1 X-2.247 Y10.956 E0.07325
G1 X-3.023 Y10.768 E0.07331
G1 X-3.783 Y10.525 E0.07319
G1 X-4.524 Y10.228 E0.07325
G1 X-5.243 Y9.879 E0.07325
G1 X-5.934 Y9.480 E0.07325
G1 X-6.595 Y9.032 E0.07326
G1 X-7.223 Y8.539 E0.07324
G1 X-7.813 Y8.002 E0.07325
G1 X-8.365 Y7.424 E0.07329
G1 X-8.873 Y6.809 E0.07321
G1 X-9.336 Y6.158 E0.07325
G1 X-9.751 Y5.477 E0.07325
G1 X-10.118 Y4.765 E0.07347
G1 X-10.432 Y4.033 E0.07303
G1 X-10.693 Y3.278 E0.07334
G1 X-10.956 Y2.247 E0.09761
G1 X-11.088 Y1.460 E0.07325
G1 X-11.164 Y0.665 E0.07325
G1 X-11.183 Y-0.132 E0.07312
G1 X-11.145 Y-0.931 E0.07338
G1 X-11.050 Y-1.724 E0.07325
G1 X-10.900 Y-2.506 E0.07309
G1 X-10.693 Y-3.278 E0.07337
G1 X-10.432 Y-4.033 E0.07329
G1 X-10.117 Y-4.767 E0.07323
G1 X-9.751 Y-5.477 E0.07327
G1 X-9.336 Y-6.158 E0.07325
G1 X-8.873 Y-6.809 E0.07325
G1 X-8.364 Y-7.424 E0.07325
G1 X-7.814 Y-8.002 E0.07320
G1 X-7.224 Y-8.538 E0.07317
G1 X-6.596 Y-9.032 E0.07332
G1 X-5.934 Y-9.480 E0.07330
G1 X-5.243 Y-9.879 E0.07325
G1 X-4.525 Y-10.228 E0.07323
G1 X-3.783 Y-10.525 E0.07327
G1 X-3.023 Y-10.768 E0.07323
G1 X-2.248 Y-10.956 E0.07315
G1 X-1.460 Y-11.088 E0.07337
G1 X-0.667 Y-11.164 E0.07303
G1 X0.133 Y-11.183 E0.07347
G1 X0.667 Y-11.164 E0.04898 F951.983
G1 X1.460 Y-11.088 E0.07307
G1 X2.507 Y-10.899 E0.09770
G1 X3.278 Y-10.693 E0.07316
G1 X3.783 Y-10.525 E0.04888
G1 X4.766 Y-10.118 E0.09761
G1 X5.477 Y-9.751 E0.07334
G1 X6.158 Y-9.336 E0.07325
G1 X6.596 Y-9.032 E0.04885
G1 X7.424 Y-8.365 E0.09760
G1 X7.813 Y-8.002 E0.04884
G1 X8.364 Y-7.424 E0.07325
G1 X9.033 Y-6.595 E0.09770
G1 X9.480 Y-5.935 E0.07317
G1 X9.751 Y-5.477 E0.04887
G1 X10.228 Y-4.524 E0.09769
G1 X10.525 Y-3.783 E0.07326
G1 X10.693 Y-3.277 E0.04893
G1 X10.956 Y-2.247 E0.09756
G1 X11.088 Y-1.460 E0.07325
G1 X11.145 Y-0.931 E0.04879
G1 X11.183 Y0.133 E0.09770
G1 X11.164 Y0.665 E0.04879
G1 X11.123 Y1.136 E0.04335
G1 E-3.20000 F3000.00000
G1 Z0.700 F9000.000
G1 X4.413 Y0.464 F9000.000
G1 Z0.300 F9000.000
G1 E3.20000 F3000.00000
G1 X4.340 Y0.923 E0.04261 F713.987
G1 X4.220 Y1.371 E0.04261
G1 X4.054 Y1.805 E0.04261
G1 X3.843 Y2.219 E0.04261
G1 X3.590 Y2.608 E0.04261
G1 X3.298 Y2.969 E0.04261
G1 X2.969 Y3.298 E0.04261
G1 X2.608 Y3.590 E0.04261
G1 X2.219 Y3.843 E0.04261
G1 X1.805 Y4.054 E0.04261
G1 X1.371 Y4.220 E0.04261
G1 X0.923 Y4.340 E0.04261
G1 X0.464 Y4.413 E0.04261
G1 X0.000 Y4.437 E0.04261
G1 X-0.464 Y4.413 E0.04261
G1 X-0.923 Y4.340 E0.04261
G1 X-1.371 Y4.220 E0.04261
G1 X-1.805 Y4.054 E0.04261
G1 X-2.219 Y3.843 E0.04261
G1 X-2.608 Y3.590 E0.04261
G1 X-2.969 Y3.298 E0.04261
G1 X-3.298 Y2.969 E0.04261
G1 X-3.590 Y2.608 E0.04261
G1 X-3.843 Y2.219 E0.04261
G1 X-4.054 Y1.805 E0.04261
G1 X-4.220 Y1.371 E0.04261
G1 X-4.340 Y0.923 E0.04261
G1 X-4.413 Y0.464 E0.04261
G1 X-4.437 Y-0.000 E0.04261
G1 X-4.413 Y-0.464 E0.04261
G1 X-4.340 Y-0.923 E0.04261
G1 X-4.220 Y-1.371 E0.04261
G1 X-4.054 Y-1.805 E0.04261
G1 X-3.843 Y-2.219 E0.04261
G1 X-3.590 Y-2.608 E0.04261
G1 X-3.298 Y-2.969 E0.04261
G1 X-2.969 Y-3.298 E0.04261
G1 X-2.608 Y-3.590 E0.04261
G1 X-2.219 Y-3.843 E0.04262
G1 X-1.805 Y-4.054 E0.04261
G1 X-1.371 Y-4.220 E0.04261
G1 X-0.923 Y-4.340 E0.04261
G1 X-0.464 Y-4.413 E0.04261
G1 X-0.000 Y-4.437 E0.04261 F713.987
G1 X0.464 Y-4.413 E0.04261
G1 X0.923 Y-4.340 E0.04261
G1 X1.371 Y-4.220 E0.04261
G1 X1.805 Y-4.054 E0.04261
G1 X2.219 Y-3.843 E0.04261
G1 X2.608 Y-3.590 E0.04261
G1 X2.969 Y-3.298 E0.04261
G1 X3.298 Y-2.969 E0.04261
G1 X3.590 Y-2.608 E0.04261
G1 X3.843 Y-2.219 E0.04261
G1 X4.054 Y-1.805 E0.04261
G1 X4.220 Y-1.371 E0.04261
G1 X4.340 Y-0.923 E0.04261
G1 X4.413 Y-0.464 E0.04261
G1 X4.437 Y-0.000 E0.04261
G1 X4.416 Y0.404 E0.03711
G1 X3.681 Y0.365 F9000.000
G1 X3.620 Y0.769 E0.03750 F713.987
G1 X3.519 Y1.144 E0.03554
G1 X3.381 Y1.505 E0.03554
G1 X3.205 Y1.850 E0.03554
G1 X2.994 Y2.175 E0.03554
G1 X2.750 Y2.476 E0.03554
G1 X2.476 Y2.750 E0.03554
G1 X2.175 Y2.994 E0.03554
G1 X1.850 Y3.205 E0.03554
G1 X1.505 Y3.381 E0.03554
G1 X1.144 Y3.519 E0.03554
G1 X0.769 Y3.620 E0.03554
G1 X0.387 Y3.680 E0.03554
G1 X0.000 Y3.701 E0.03554
G1 X-0.387 Y3.680 E0.03554
G1 X-0.769 Y3.620 E0.03554
G1 X-1.144 Y3.519 E0.03554
G1 X-1.505 Y3.381 E0.03554
G1 X-1.850 Y3.205 E0.03554
G1 X-2.175 Y2.994 E0.03554
G1 X-2.476 Y2.750 E0.03554
G1 X-2.750 Y2.476 E0.03554
G1 X-2.994 Y2.175 E0.03554
G1 X-3.205 Y1.850 E0.03554
G1 X-3.381 Y1.505 E0.03554
G1 X-3.519 Y1.144 E0.03554
G1 X-3.620 Y0.769 E0.03554
G1 X-3.680 Y0.387 E0.03554
G1 X-3.701 Y-0.000 E0.03554
G1 X-3.680 Y-0.387 E0.03554
G1 X-3.620 Y-0.769 E0.03554
G1 X-3.519 Y-1.144 E0.03554
G1 X-3.381 Y-1.505 E0.03554
G1 X-3.205 Y-1.850 E0.03554
G1 X-2.994 Y-2.175 E0.03554
G1 X-2.750 Y-2.476 E0.03554
G1 X-2.476 Y-2.750 E0.03554
G1 X-2.175 Y-2.994 E0.03554
G1 X-1.850 Y-3.205 E0.03554
G1 X-1.505 Y-3.381 E0.03554
G1 X-1.144 Y-3.519 E0.03554
G1 X-0.769 Y-3.620 E0.03554
G1 X-0.387 Y-3.680 E0.03554
G1 X-0.000 Y-3.701 E0.03554 F713.987
G1 X0.387 Y-3.680 E0.03554
G1 X0.769 Y-3.620 E0.03554
G1 X1.144 Y-3.520 E0.03554
G1 X1.505 Y-3.381 E0.03554
G1 X1.850 Y-3.205 E0.03554
G1 X2.175 Y-2.994 E0.03554
G1 X2.476 Y-2.750 E0.03554
G1 X2.750 Y-2.476 E0.03554
G1 X2.994 Y-2.175 E0.03554
G1 X3.205 Y-1.850 E0.03554
G1 X3.381 Y-1.505 E0.03554
G1 X3.519 Y-1.144 E0.03554
G1 X3.620 Y-0.769 E0.03554
G1 X3.680 Y-0.387 E0.03554
G1 X3.701 Y-0.000 E0.03554
G1 X3.685 Y0.305 E0.02807
G1 X4.002 Y0.605 F9000.000
G1 E-3.20000 F3000.00000
G1 Z0.700 F9000.000
G1 X-5.817 Y2.445 F9000.000
G1 Z0.300 F9000.000
G1 E3.20000 F3000.00000
G1 X-6.057 Y1.781 E0.06482 F713.987
G1 X-6.169 Y1.342 E0.04156
G1 X-6.249 Y0.899 E0.04134
G1 X-6.298 Y0.450 E0.04135
G1 X-6.314 Y0.002 E0.04116
G1 X-6.298 Y-0.451 E0.04156
G1 X-6.249 Y-0.899 E0.04134
G1 X-6.169 Y-1.342 E0.04135
G1 X-6.058 Y-1.779 E0.04135
G1 X-5.916 Y-2.206 E0.04135
G1 X-5.744 Y-2.621 E0.04116
G1 X-5.541 Y-3.026 E0.04156
G1 X-5.311 Y-3.413 E0.04134
G1 X-5.054 Y-3.784 E0.04135
G1 X-4.772 Y-4.135 E0.04135
G1 X-4.464 Y-4.464 E0.04135
G1 X-4.135 Y-4.772 E0.04135
G1 X-3.784 Y-5.054 E0.04135
G1 X-3.413 Y-5.311 E0.04135
G1 X-3.026 Y-5.541 E0.04135
G1 X-2.623 Y-5.743 E0.04135
G1 X-2.206 Y-5.916 E0.04135
G1 X-1.779 Y-6.058 E0.04135
G1 X-1.342 Y-6.169 E0.04135
G1 X-0.899 Y-6.249 E0.04134
G1 X-0.448 Y-6.298 E0.04156
G1 X-0.000 Y-6.314 E0.04116
G1 X0.448 Y-6.298 E0.04116
G1 X0.899 Y-6.249 E0.04156 F713.987
G1 X1.342 Y-6.169 E0.04132
G1 X1.781 Y-6.057 E0.04156
G1 X2.206 Y-5.916 E0.04116
G1 X2.623 Y-5.743 E0.04135
G1 X3.026 Y-5.541 E0.04135
G1 X3.413 Y-5.311 E0.04135
G1 X3.784 Y-5.054 E0.04135
G1 X4.135 Y-4.772 E0.04135
G1 X4.464 Y-4.464 E0.04135
G1 X4.772 Y-4.135 E0.04135
G1 X5.054 Y-3.784 E0.04135
G1 X5.310 Y-3.415 E0.04116
G1 X5.541 Y-3.026 E0.04156
G1 X5.743 Y-2.623 E0.04134
G1 X5.916 Y-2.206 E0.04135
G1 X6.057 Y-1.781 E0.04116
G1 X6.169 Y-1.342 E0.04156
G1 X6.249 Y-0.899 E0.04134
G1 X6.298 Y-0.450 E0.04135
G1 X6.314 Y-0.000 E0.04135
G1 X6.298 Y0.450 E0.04135
G1 X6.249 Y0.899 E0.04135
G1 X6.169 Y1.342 E0.04135
G1 X6.058 Y1.779 E0.04135
G1 X5.916 Y2.206 E0.04135
G1 X5.743 Y2.623 E0.04135
G1 X5.541 Y3.026 E0.04135
G1 X5.311 Y3.413 E0.04135
G1 X5.054 Y3.784 E0.04135
G1 X4.772 Y4.135 E0.04135
G1 X4.464 Y4.464 E0.04135
G1 X4.135 Y4.772 E0.04135
G1 X3.784 Y5.054 E0.04135
G1 X3.413 Y5.311 E0.04135
G1 X3.026 Y5.541 E0.04135
G1 X2.623 Y5.743 E0.04135
G1 X2.206 Y5.916 E0.04135
G1 X1.779 Y6.058 E0.04135
G1 X1.342 Y6.169 E0.04135
G1 X0.899 Y6.249 E0.04135
G1 X0.450 Y6.298 E0.04135
G1 X-0.000 Y6.314 E0.04135
G1 X-0.450 Y6.298 E0.04135
G1 X-0.899 Y6.249 E0.04135
G1 X-1.342 Y6.169 E0.04135
G1 X-1.777 Y6.058 E0.04116
G1 X-2.206 Y5.916 E0.04154
G1 X-2.625 Y5.742 E0.04154
G1 X-3.026 Y5.541 E0.04116
G1 X-3.413 Y5.311 E0.04135
G1 X-3.783 Y5.054 E0.04134
G1 X-4.136 Y4.770 E0.04156
G1 X-4.464 Y4.464 E0.04116
G1 X-4.771 Y4.135 E0.04134
G1 X-5.055 Y3.782 E0.04156
G1 X-5.311 Y3.413 E0.04116
G1 X-5.541 Y3.026 E0.04135
G1 X-5.794 Y2.500 E0.05348
G1 X-6.473 Y2.782 F9000.000
G1 X-6.605 Y2.464 E0.03161 F713.987
G1 X-6.763 Y1.988 E0.04597
G1 X-6.889 Y1.498 E0.04638
G1 X-6.978 Y1.003 E0.04617
G1 X-7.032 Y0.503 E0.04617
G1 X-7.050 Y0.002 E0.04597
G1 X-7.032 Y-0.503 E0.04638
G1 X-6.978 Y-1.003 E0.04617
G1 X-6.889 Y-1.499 E0.04617
G1 X-6.764 Y-1.986 E0.04617
G1 X-6.605 Y-2.464 E0.04617
G1 X-6.413 Y-2.927 E0.04597
G1 X-6.187 Y-3.379 E0.04638
G1 X-5.931 Y-3.811 E0.04617
G1 X-5.644 Y-4.225 E0.04617
G1 X-5.328 Y-4.617 E0.04617
G1 X-4.985 Y-4.985 E0.04617
G1 X-4.617 Y-5.328 E0.04617
G1 X-4.225 Y-5.644 E0.04617
G1 X-3.811 Y-5.931 E0.04617
G1 X-3.379 Y-6.187 E0.04617
G1 X-2.929 Y-6.413 E0.04617
G1 X-2.464 Y-6.605 E0.04617
G1 X-1.986 Y-6.764 E0.04617
G1 X-1.499 Y-6.889 E0.04617
G1 X-1.003 Y-6.978 E0.04617
G1 X-0.501 Y-7.032 E0.04638
G1 X-0.000 Y-7.050 E0.04597
G1 X0.501 Y-7.032 E0.04597
G1 X1.003 Y-6.978 E0.04638 F713.987
G1 X1.498 Y-6.889 E0.04616
G1 X1.988 Y-6.763 E0.04638
G1 X2.464 Y-6.605 E0.04597
G1 X2.929 Y-6.413 E0.04617
G1 X3.379 Y-6.187 E0.04617
G1 X3.811 Y-5.931 E0.04617
G1 X4.225 Y-5.644 E0.04617
G1 X4.617 Y-5.328 E0.04617
G1 X4.985 Y-4.985 E0.04617
G1 X5.328 Y-4.617 E0.04617
G1 X5.644 Y-4.225 E0.04617
G1 X5.929 Y-3.813 E0.04597
G1 X6.187 Y-3.379 E0.04638
G1 X6.413 Y-2.929 E0.04617
G1 X6.605 Y-2.464 E0.04617
G1 X6.763 Y-1.988 E0.04597
G1 X6.889 Y-1.498 E0.04638
G1 X6.978 Y-1.003 E0.04617
G1 X7.032 Y-0.503 E0.04617
G1 X7.050 Y-0.000 E0.04617
G1 X7.032 Y0.503 E0.04617
G1 X6.978 Y1.003 E0.04617
G1 X6.889 Y1.499 E0.04617
G1 X6.764 Y1.986 E0.04617
G1 X6.605 Y2.464 E0.04617
G1 X6.413 Y2.929 E0.04617
G1 X6.187 Y3.379 E0.04617
G1 X5.931 Y3.811 E0.04617
G1 X5.644 Y4.225 E0.04617
G1 X5.328 Y4.617 E0.04617
G1 X4.985 Y4.985 E0.04617
G1 X4.617 Y5.328 E0.04617
G1 X4.225 Y5.644 E0.04617
G1 X3.811 Y5.931 E0.04617
G1 X3.379 Y6.187 E0.04617
G1 X2.929 Y6.413 E0.04617
G1 X2.464 Y6.605 E0.04617
G1 X1.986 Y6.764 E0.04617
G1 X1.499 Y6.889 E0.04617
G1 X1.003 Y6.978 E0.04617
G1 X0.503 Y7.032 E0.04617
G1 X-0.000 Y7.050 E0.04617
G1 X-0.503 Y7.032 E0.04617
G1 X-1.003 Y6.978 E0.04617
G1 X-1.499 Y6.889 E0.04617
G1 X-1.984 Y6.765 E0.04597
G1 X-2.464 Y6.605 E0.04637
G1 X-2.931 Y6.412 E0.04637
G1 X-3.379 Y6.187 E0.04597
G1 X-3.811 Y5.931 E0.04617
G1 X-4.225 Y5.644 E0.04617
G1 X-4.618 Y5.326 E0.04638
G1 X-4.985 Y4.985 E0.04597
G1 X-5.328 Y4.617 E0.04617
G1 X-5.645 Y4.223 E0.04638
G1 X-5.931 Y3.811 E0.04597
G1 X-6.187 Y3.379 E0.04617
G1 X-6.450 Y2.837 E0.05521
G1 X-6.269 Y2.505 F9000.000
G1 X-4.913 Y2.177 F9000.000
G1 X-5.120 Y1.632 E0.11158 F600.000
G1 X-5.252 Y1.142 E0.09721
G1 X-5.347 Y0.532 E0.11827
G1 X-5.374 Y-0.030 E0.10775
G1 X-5.347 Y-0.532 E0.09634 F600.000
G1 X-5.263 Y-1.088 E0.10773
G1 X-5.155 Y-1.514 E0.08407
G1 X-5.034 Y-1.877 E0.07345
G1 X-4.890 Y-2.231 E0.07310
G1 X-4.639 Y-2.712 E0.10401
G1 X-4.330 Y-3.183 E0.10774
G1 X-4.014 Y-3.574 E0.09634
G1 X-3.618 Y-3.973 E0.10774
G1 X-3.221 Y-4.302 E0.09875
G1 X-2.575 Y-4.716 E0.14685
G1 X-2.159 Y-4.921 E0.08896
G1 X-1.632 Y-5.120 E0.10773
G1 X-1.143 Y-5.252 E0.09716
G1 X-0.532 Y-5.347 E0.11833
G1 X-0.000 Y-5.375 E0.10205
G1 X0.532 Y-5.347 E0.10205
G1 X1.142 Y-5.252 E0.11827
G1 X1.516 Y-5.155 E0.07390
G1 X2.233 Y-4.889 E0.14648
G1 X2.712 Y-4.639 E0.10364
G1 X3.183 Y-4.330 E0.10774
G1 X3.574 Y-4.014 E0.09634
G1 X3.973 Y-3.618 E0.10774
G1 X4.302 Y-3.221 E0.09875
G1 X4.518 Y-2.906 E0.07310
G1 X4.716 Y-2.575 E0.07388
G1 X4.921 Y-2.159 E0.08890
G1 X5.120 Y-1.632 E0.10773
G1 X5.252 Y-1.142 E0.09722
G1 X5.341 Y-0.591 E0.10689
G1 X5.374 Y-0.030 E0.10772
G1 X5.359 Y0.383 E0.07918
G1 X5.318 Y0.765 E0.07346
G1 X5.252 Y1.143 E0.07347
G1 X5.101 Y1.689 E0.10854
G1 X4.898 Y2.213 E0.10775
G1 X4.669 Y2.661 E0.09634
G1 X4.365 Y3.134 E0.10773
G1 X4.061 Y3.519 E0.09385
G1 X3.519 Y4.061 E0.14685
G1 X3.134 Y4.365 E0.09385
G1 X2.661 Y4.669 E0.10773
G1 X2.213 Y4.898 E0.09634
G1 X1.689 Y5.101 E0.10775
G1 X1.143 Y5.252 E0.10854
G1 X0.591 Y5.341 E0.10695
G1 X-0.000 Y5.375 E0.11344
G1 X-0.383 Y5.359 E0.07348
G1 X-1.143 Y5.252 E0.14686
G1 X-1.689 Y5.101 E0.10854
G1 X-2.213 Y4.898 E0.10775
G1 X-2.661 Y4.669 E0.09634
G1 X-3.134 Y4.365 E0.10773
G1 X-3.520 Y4.060 E0.09422
G1 X-3.799 Y3.799 E0.07309
G1 X-4.061 Y3.519 E0.07340
G1 X-4.365 Y3.134 E0.09391
G1 X-4.669 Y2.661 E0.10773
G1 X-4.889 Y2.232 E0.09242
G1 E-3.20000 F3000.00000
G1 Z0.700 F9000.000
G1 X-3.642 Y1.622 F9000.000
G1 Z0.600 F9000.000
G1 E3.20000 F3000.00000
G1 X-3.792 Y1.232 E0.02267 F979.484
G1 X-3.900 Y0.829 E0.02267
G1 X-3.965 Y0.417 E0.02267
G1 X-3.987 Y0.000 E0.02267
G1 X-3.965 Y-0.417 E0.02267
G1 X-3.900 Y-0.829 E0.02267
G1 X-3.792 Y-1.232 E0.02267
G1 X-3.642 Y-1.622 E0.02267
G1 X-3.453 Y-1.993 E0.02267
G1 X-3.225 Y-2.343 E0.02267
G1 X-2.963 Y-2.668 E0.02267
G1 X-2.668 Y-2.963 E0.02267
G1 X-2.343 Y-3.225 E0.02267
G1 X-1.993 Y-3.453 E0.02267
G1 X-1.622 Y-3.642 E0.02267
G1 X-1.232 Y-3.792 E0.02267
G1 X-0.828 Y-3.900 E0.02273
G1 X-0.405 Y-3.965 E0.02323
G1 X0.000 Y-3.987 E0.02206 F979.484
G1 X0.417 Y-3.965 E0.02267
G1 X0.829 Y-3.900 E0.02267
G1 X1.232 Y-3.792 E0.02267
G1 X1.622 Y-3.642 E0.02267
G1 X1.993 Y-3.453 E0.02267
G1 X2.343 Y-3.225 E0.02267
G1 X2.668 Y-2.963 E0.02267
G1 X2.963 Y-2.668 E0.02267
G1 X3.225 Y-2.343 E0.02267
G1 X3.453 Y-1.993 E0.02267
G1 X3.642 Y-1.622 E0.02267
G1 X3.792 Y-1.232 E0.02267
G1 X3.900 Y-0.829 E0.02267
G1 X3.965 Y-0.417 E0.02267
G1 X3.987 Y-0.000 E0.02267
G1 X3.965 Y0.417 E0.02267
G1 X3.900 Y0.829 E0.02267
G1 X3.792 Y1.232 E0.02267
G1 X3.642 Y1.622 E0.02267
G1 X3.453 Y1.993 E0.02267
G1 X3.225 Y2.343 E0.02267
G1 X2.963 Y2.668 E0.02267
G1 X2.668 Y2.963 E0.02267
G1 X2.343 Y3.225 E0.02267
G1 X1.993 Y3.453 E0.02267
G1 X1.622 Y3.642 E0.02267
G1 X1.232 Y3.792 E0.02267
G1 X0.829 Y3.900 E0.02267
G1 X0.417 Y3.965 E0.02267
G1 X-0.000 Y3.987 E0.02267
G1 X-0.417 Y3.965 E0.02267
G1 X-0.829 Y3.900 E0.02267
G1 X-1.232 Y3.792 E0.02267
G1 X-1.622 Y3.642 E0.02267
G1 X-1.993 Y3.453 E0.02267
G1 X-2.343 Y3.225 E0.02267
G1 X-2.668 Y2.963 E0.02267
G1 X-2.963 Y2.668 E0.02267
G1 X-3.225 Y2.343 E0.02267
G1 X-3.453 Y1.993 E0.02267
G1 X-3.615 Y1.675 E0.01941
G1 X-3.227 Y1.477 F9000.000
G1 X-3.377 Y1.097 E0.02220 F979.484
G1 X-3.473 Y0.738 E0.02019
G1 X-3.531 Y0.371 E0.02019
G1 X-3.550 Y0.000 E0.02019
G1 X-3.531 Y-0.371 E0.02019
G1 X-3.473 Y-0.738 E0.02019
G1 X-3.377 Y-1.097 E0.02019
G1 X-3.243 Y-1.444 E0.02019
G1 X-3.075 Y-1.775 E0.02019
G1 X-2.872 Y-2.087 E0.02019
G1 X-2.638 Y-2.376 E0.02019
G1 X-2.376 Y-2.638 E0.02019
G1 X-2.087 Y-2.872 E0.02019
G1 X-1.775 Y-3.075 E0.02019
G1 X-1.444 Y-3.243 E0.02019
G1 X-1.097 Y-3.377 E0.02019
G1 X-0.738 Y-3.473 E0.02021
G1 X-0.360 Y-3.532 E0.02075
G1 X0.000 Y-3.550 E0.01961 F979.484
G1 X0.371 Y-3.531 E0.02019
G1 X0.738 Y-3.473 E0.02019
G1 X1.097 Y-3.377 E0.02019
G1 X1.444 Y-3.243 E0.02019
