; generated by Slic3r 1.2.9 on 2016-10-20 at 11:02:25

; external perimeters extrusion width = 0.50mm
; perimeters extrusion width = 0.50mm
; infill extrusion width = 0.50mm
; solid infill extrusion width = 0.50mm
; top infill extrusion width = 0.50mm

M107
;Basic settings: Layer height: {layer_height} Walls: {wall_thickness} Fill: {fill_density}
;Print time: {print_time}
;Filament used: {filament_amount}m {filament_weight}g
;Filament cost: {filament_cost}
;M190 S{print_bed_temperature} ;Uncomment to add your own bed temperature line
;M109 S{print_temperature} ;Uncomment to add your own temperature line
G21        ;metric values
G90        ;absolute positioning
M83
G10 P0 S200
T0
M116


G21 ; set units to millimeters
G90 ; use absolute coordinates
M83 ; use relative distances for extrusion
G1 E-3.20000 F3000.00000
G1 Z0.400 F9000.000
G1 X0.000 Y11.185 F9000.000
G1 Z0.300 F9000.000
G1 E3.20000 F3000.00000
G1 X-12.591 Y11.185 E1.15525 F1200.000
G1 X-13.762 Y11.112 E0.10761
G1 X-14.718 Y10.961 E0.08879
G1 X-15.346 Y10.815 E0.05922
G1 X-15.660 Y10.727 E0.02987
G1 X-16.574 Y10.415 E0.08863
G1 X-17.459 Y10.024 E0.08878
G1 X-18.029 Y9.721 E0.05923
G1 X-18.308 Y9.557 E0.02967
G1 X-19.112 Y9.019 E0.08880
G1 X-19.868 Y8.413 E0.08886
G1 X-20.568 Y7.744 E0.08883
G1 X-21.207 Y7.018 E0.08881
G1 X-21.782 Y6.238 E0.08883
G1 X-22.287 Y5.412 E0.08885
G1 X-22.719 Y4.543 E0.08903
G1 X-23.073 Y3.645 E0.08861
G1 X-23.265 Y3.029 E0.05919
G1 X-23.487 Y2.086 E0.08883
G1 X-23.626 Y1.128 E0.08883
G1 X-23.682 Y0.162 E0.08883
G1 X-23.654 Y-0.806 E0.08883
G1 X-23.626 Y-1.128 E0.02967
G1 X-23.487 Y-2.086 E0.08877
G1 X-23.266 Y-3.028 E0.08878
G1 X-22.963 Y-3.948 E0.08887
G1 X-22.582 Y-4.838 E0.08887
G1 X-22.126 Y-5.693 E0.08885
G1 X-21.598 Y-6.504 E0.08884
G1 X-21.207 Y-7.017 E0.05918
G1 X-20.568 Y-7.744 E0.08883
G1 X-20.339 Y-7.976 E0.02992
G1 X-19.622 Y-8.622 E0.08854
G1 X-18.849 Y-9.206 E0.08887
G1 X-18.029 Y-9.721 E0.08883
G1 X-17.459 Y-10.023 E0.05918
G1 X-16.574 Y-10.415 E0.08883
G1 X-15.658 Y-10.728 E0.08883
G1 X-15.346 Y-10.815 E0.02967
G1 X-14.400 Y-11.021 E0.08883
G1 X-13.440 Y-11.144 E0.08883
G1 X-12.591 Y-11.185 E0.07796
G1 X12.798 Y-11.179 E2.32945
G1 X13.762 Y-11.112 E0.08866 F1200.000
G1 X14.400 Y-11.021 E0.05918
G1 X14.718 Y-10.961 E0.02967
G1 X15.658 Y-10.728 E0.08883
G1 X16.271 Y-10.528 E0.05921
G1 X17.167 Y-10.163 E0.08880
G1 X17.459 Y-10.023 E0.02967
G1 X18.308 Y-9.557 E0.08883
G1 X18.849 Y-9.206 E0.05918
G1 X19.622 Y-8.623 E0.08883
G1 X19.868 Y-8.413 E0.02967
G1 X20.568 Y-7.744 E0.08883
G1 X21.001 Y-7.266 E0.05924
G1 X21.598 Y-6.503 E0.08881
G1 X22.126 Y-5.693 E0.08878
G1 X22.287 Y-5.412 E0.02967
G1 X22.582 Y-4.838 E0.05920
G1 X22.963 Y-3.949 E0.08881
G1 X23.266 Y-3.028 E0.08893
G1 X23.487 Y-2.086 E0.08873
G1 X23.543 Y-1.768 E0.02967
G1 X23.626 Y-1.128 E0.05919
G1 X23.682 Y-0.162 E0.08881
G1 X23.682 Y0.162 E0.02967
G1 X23.626 Y1.128 E0.08883
G1 X23.543 Y1.769 E0.05926
G1 X23.348 Y2.717 E0.08879
G1 X23.073 Y3.644 E0.08879
G1 X22.963 Y3.949 E0.02967
G1 X22.717 Y4.547 E0.05934
G1 X22.287 Y5.412 E0.08866
G1 X21.782 Y6.238 E0.08883
G1 X21.598 Y6.504 E0.02968
G1 X21.001 Y7.266 E0.08883
G1 X20.341 Y7.974 E0.08883
G1 X19.868 Y8.413 E0.05918
G1 X19.115 Y9.017 E0.08858
G1 X18.307 Y9.557 E0.08912
G1 X17.459 Y10.023 E0.08879
G1 X16.574 Y10.415 E0.08885
G1 X15.660 Y10.727 E0.08856
G1 X15.346 Y10.815 E0.02992
G1 X14.717 Y10.961 E0.05925
G1 X13.762 Y11.112 E0.08876
G1 X12.591 Y11.185 E0.10760
G1 X0.060 Y11.185 E1.14975
G1 E-3.20000 F3000.00000
G1 Z0.700 F9000.000
G1 X-12.500 Y4.938 F9000.000
G1 Z0.300 F9000.000
G1 E3.20000 F3000.00000
G1 X-14.719 Y3.844 E0.22697 F900.000
G1 X-15.202 Y3.521 E0.05326
G1 X-15.638 Y3.138 E0.05327
G1 X-16.021 Y2.702 E0.05326
G1 X-16.344 Y2.219 E0.05326
G1 X-16.600 Y1.698 E0.05326
G1 X-16.787 Y1.149 E0.05326
G1 X-16.901 Y0.576 E0.05356
G1 X-16.937 Y-0.022 E0.05501
G1 X-16.900 Y-0.579 E0.05121
G1 X-16.786 Y-1.152 E0.05356
G1 X-16.590 Y-1.718 E0.05501
G1 X-16.344 Y-2.219 E0.05121
G1 X-16.019 Y-2.704 E0.05356
G1 X-15.621 Y-3.153 E0.05501
G1 X-15.202 Y-3.521 E0.05121
G1 X-14.719 Y-3.844 E0.05326
G1 X-14.198 Y-4.100 E0.05326
G1 X-13.646 Y-4.288 E0.05356
G1 X-13.057 Y-4.402 E0.05501
G1 X-12.500 Y-4.438 E0.05121
G1 X-11.921 Y-4.400 E0.05327
G1 X-11.348 Y-4.286 E0.05356
G1 X-10.782 Y-4.090 E0.05501
G1 X-10.281 Y-3.844 E0.05121
G1 X-9.798 Y-3.521 E0.05326
G1 X-9.362 Y-3.138 E0.05326
G1 X-8.984 Y-2.708 E0.05251
G1 X-8.679 Y-2.265 E0.04937
G1 X-8.400 Y-1.698 E0.05795
G1 X-8.213 Y-1.149 E0.05326
G1 X-8.100 Y-0.579 E0.05326
G1 X-8.062 Y-0.000 E0.05327
G1 X-8.100 Y0.579 E0.05326
G1 X-8.213 Y1.149 E0.05326
G1 X-8.400 Y1.698 E0.05326
G1 X-8.679 Y2.265 E0.05795
G1 X-8.984 Y2.708 E0.04937
G1 X-9.362 Y3.138 E0.05251
G1 X-9.798 Y3.521 E0.05326
G1 X-10.284 Y3.845 E0.05356
G1 X-10.823 Y4.108 E0.05501
G1 X-11.351 Y4.287 E0.05121
G1 X-11.921 Y4.400 E0.05326
G1 X-12.500 Y4.438 E0.05330
G1 X-12.500 Y4.878 E0.04032
G1 X-12.500 Y3.701 F9000.000
G1 X-12.983 Y3.669 E0.04442 F900.000
G1 X-13.236 Y3.619 E0.02367
G1 X-13.236 Y3.755 E0.01245
G1 X-14.350 Y3.205 E0.11401
G1 X-14.753 Y2.936 E0.04442
G1 X-15.117 Y2.617 E0.04442
G1 X-15.436 Y2.253 E0.04442
G1 X-15.705 Y1.850 E0.04442
G1 X-15.919 Y1.416 E0.04442
G1 X-16.075 Y0.958 E0.04442
G1 X-16.170 Y0.482 E0.04452
G1 X-16.200 Y-0.020 E0.04617
G1 X-16.169 Y-0.483 E0.04255
G1 X-16.075 Y-0.959 E0.04452
G1 X-15.910 Y-1.435 E0.04617
G1 X-15.705 Y-1.850 E0.04255
G1 X-15.436 Y-2.254 E0.04452
G1 X-15.102 Y-2.630 E0.04617
G1 X-14.753 Y-2.936 E0.04255
G1 X-14.350 Y-3.205 E0.04442
G1 X-13.916 Y-3.419 E0.04442
G1 X-13.457 Y-3.575 E0.04452
G1 X-12.963 Y-3.671 E0.04617
G1 X-12.500 Y-3.701 E0.04255 F900.000
G1 X-12.017 Y-3.669 E0.04442
G1 X-11.541 Y-3.575 E0.04452
G1 X-11.065 Y-3.410 E0.04617
G1 X-10.650 Y-3.205 E0.04255
G1 X-10.247 Y-2.936 E0.04442
G1 X-9.883 Y-2.617 E0.04442
G1 X-9.566 Y-2.255 E0.04415
G1 X-9.315 Y-1.892 E0.04052
G1 X-9.081 Y-1.416 E0.04862
G1 X-8.925 Y-0.958 E0.04442
G1 X-8.831 Y-0.483 E0.04442
G1 X-8.799 Y-0.000 E0.04442
G1 X-8.831 Y0.483 E0.04442
G1 X-8.925 Y0.958 E0.04442
G1 X-9.081 Y1.416 E0.04442
G1 X-9.315 Y1.892 E0.04862
G1 X-9.566 Y2.255 E0.04052
G1 X-9.883 Y2.617 E0.04415
G1 X-10.247 Y2.936 E0.04442
G1 X-10.650 Y3.206 E0.04452
G1 X-11.103 Y3.426 E0.04617
G1 X-11.542 Y3.575 E0.04255
G1 X-12.017 Y3.669 E0.04442
G1 X-12.440 Y3.697 E0.03891
G1 X-12.708 Y4.043 F9000.000
G1 X8.099 Y0.576 F9000.000
G1 X8.063 Y-0.022 E0.05501 F900.000
G1 X8.100 Y-0.579 E0.05121
G1 X8.214 Y-1.152 E0.05356
G1 X8.410 Y-1.718 E0.05501
G1 X8.656 Y-2.219 E0.05121
G1 X8.979 Y-2.702 E0.05326
G1 X9.362 Y-3.138 E0.05327
G1 X9.798 Y-3.521 E0.05326
G1 X10.281 Y-3.844 E0.05326
G1 X10.802 Y-4.100 E0.05326
G1 X11.354 Y-4.288 E0.05356
G1 X11.943 Y-4.402 E0.05501
G1 X12.500 Y-4.438 E0.05121 F900.000
G1 X13.079 Y-4.400 E0.05326
G1 X13.649 Y-4.287 E0.05326
G1 X14.198 Y-4.100 E0.05326
G1 X14.719 Y-3.844 E0.05326
G1 X15.202 Y-3.521 E0.05326
G1 X15.638 Y-3.138 E0.05326
G1 X16.021 Y-2.702 E0.05327
G1 X16.344 Y-2.219 E0.05327
G1 X16.600 Y-1.698 E0.05326
G1 X16.787 Y-1.149 E0.05326
G1 X16.900 Y-0.579 E0.05326
G1 X16.938 Y-0.000 E0.05327
G1 X16.900 Y0.579 E0.05326
G1 X16.787 Y1.149 E0.05327
G1 X16.600 Y1.698 E0.05326
G1 X16.344 Y2.219 E0.05326
G1 X16.021 Y2.702 E0.05327
G1 X15.638 Y3.138 E0.05326
G1 X15.202 Y3.521 E0.05327
G1 X14.719 Y3.844 E0.05326
G1 X14.198 Y4.100 E0.05326
G1 X13.649 Y4.287 E0.05327
G1 X13.079 Y4.400 E0.05326
G1 X12.500 Y4.438 E0.05326
G1 X11.921 Y4.400 E0.05326
G1 X11.351 Y4.287 E0.05326
G1 X10.802 Y4.100 E0.05327
G1 X10.281 Y3.844 E0.05326
G1 X9.798 Y3.521 E0.05326
G1 X9.362 Y3.138 E0.05326
G1 X8.979 Y2.702 E0.05327
G1 X8.656 Y2.219 E0.05326
G1 X8.400 Y1.698 E0.05326
G1 X8.213 Y1.149 E0.05327
G1 X8.111 Y0.635 E0.04805
G1 X8.830 Y0.482 F9000.000
G1 X8.800 Y-0.020 E0.04617 F900.000
G1 X8.831 Y-0.483 E0.04255
G1 X8.925 Y-0.959 E0.04452
G1 X9.090 Y-1.435 E0.04617
G1 X9.295 Y-1.850 E0.04255
G1 X9.564 Y-2.253 E0.04442
G1 X9.883 Y-2.617 E0.04442
G1 X10.247 Y-2.936 E0.04442
G1 X10.650 Y-3.205 E0.04442
G1 X11.084 Y-3.419 E0.04442
G1 X11.543 Y-3.575 E0.04452
G1 X12.037 Y-3.671 E0.04617
G1 X12.500 Y-3.701 E0.04255 F900.000
G1 X12.983 Y-3.669 E0.04442
G1 X13.458 Y-3.575 E0.04442
G1 X13.916 Y-3.419 E0.04442
G1 X14.350 Y-3.205 E0.04442
G1 X14.753 Y-2.936 E0.04442
G1 X15.117 Y-2.617 E0.04442
G1 X15.436 Y-2.253 E0.04442
G1 X15.705 Y-1.850 E0.04442
G1 X15.919 Y-1.416 E0.04442
G1 X16.075 Y-0.958 E0.04442
G1 X16.169 Y-0.483 E0.04442
G1 X16.201 Y-0.000 E0.04442
G1 X16.169 Y0.483 E0.04442
G1 X16.075 Y0.958 E0.04442
G1 X15.919 Y1.416 E0.04442
G1 X15.705 Y1.850 E0.04442
G1 X15.436 Y2.253 E0.04442
G1 X15.117 Y2.617 E0.04442
G1 X14.753 Y2.936 E0.04442
G1 X14.350 Y3.205 E0.04442
G1 X13.916 Y3.419 E0.04442
G1 X13.458 Y3.575 E0.04442
G1 X12.983 Y3.669 E0.04442
G1 X12.500 Y3.701 E0.04442
G1 X12.017 Y3.669 E0.04442
G1 X11.542 Y3.575 E0.04442
G1 X11.084 Y3.419 E0.04442
G1 X10.650 Y3.205 E0.04442
G1 X10.247 Y2.936 E0.04442
G1 X9.883 Y2.617 E0.04442
G1 X9.564 Y2.253 E0.04442
G1 X9.295 Y1.850 E0.04442
G1 X9.081 Y1.416 E0.04442
G1 X8.925 Y0.958 E0.04442
G1 X8.842 Y0.541 E0.03901
G1 X8.465 Y0.320 F9000.000
G1 X11.148 Y5.281 F9000.000
G1 X10.573 Y5.524 E0.05726 F900.000
G1 X10.002 Y5.980 E0.06700
G1 X9.362 Y5.473 E0.07495
G1 X8.648 Y5.281 E0.06785
G1 X8.073 Y5.524 E0.05726
G1 X7.502 Y5.980 E0.06700
G1 X6.862 Y5.473 E0.07495
G1 X6.148 Y5.281 E0.06785
G1 X5.573 Y5.524 E0.05726
G1 X5.002 Y5.980 E0.06700
G1 X4.362 Y5.473 E0.07495
G1 X3.648 Y5.281 E0.06785
G1 X3.073 Y5.524 E0.05726
G1 X2.502 Y5.980 E0.06700
G1 X1.862 Y5.473 E0.07495
G1 X1.148 Y5.281 E0.06785
G1 X0.573 Y5.524 E0.05726
G1 X0.002 Y5.980 E0.06700
G1 X-0.638 Y5.473 E0.07495
G1 X-1.352 Y5.281 E0.06785
G1 X-1.927 Y5.524 E0.05726
G1 X-2.498 Y5.980 E0.06700
G1 X-3.138 Y5.473 E0.07495
G1 X-3.852 Y5.281 E0.06785
G1 X-4.427 Y5.524 E0.05725
G1 X-4.998 Y5.980 E0.06700
G1 X-5.638 Y5.473 E0.07495
G1 X-6.352 Y5.281 E0.06785
G1 X-6.927 Y5.524 E0.05726
G1 X-7.498 Y5.980 E0.06700
G1 X-8.138 Y5.473 E0.07495
G1 X-8.852 Y5.281 E0.06785
G1 X-9.427 Y5.524 E0.05726
G1 X-9.998 Y5.980 E0.06700
G1 X-10.638 Y5.473 E0.07495
G1 X-11.352 Y5.281 E0.06785
G1 X-11.927 Y5.524 E0.05726
G1 X-12.888 Y6.292 E0.11292
G1 X-13.128 Y6.282 E0.02197
G1 X-13.663 Y6.205 E0.04958
G1 X-14.195 Y6.081 E0.05015
G1 X-14.715 Y5.912 E0.05015
G1 X-15.218 Y5.698 E0.05015
G1 X-15.700 Y5.442 E0.05015
G1 X-16.159 Y5.145 E0.05015
G1 X-16.590 Y4.809 E0.05015
G1 X-16.991 Y4.437 E0.05015
G1 X-17.358 Y4.032 E0.05015
G1 X-17.688 Y3.597 E0.05015
G1 X-17.980 Y3.135 E0.05015
G1 X-18.231 Y2.649 E0.05015
G1 X-18.438 Y2.143 E0.05015
G1 X-18.601 Y1.622 E0.05015
G1 X-18.719 Y1.088 E0.05015
G1 X-18.790 Y0.546 E0.05015
G1 X-18.813 Y-0.000 E0.05015
G1 X-18.790 Y-0.546 E0.05015
G1 X-18.719 Y-1.088 E0.05013
G1 X-18.601 Y-1.624 E0.05039
G1 X-18.438 Y-2.143 E0.04992
G1 X-18.231 Y-2.649 E0.05015
G1 X-17.980 Y-3.135 E0.05015
G1 X-17.688 Y-3.597 E0.05015
G1 X-17.358 Y-4.032 E0.05015
G1 X-16.991 Y-4.437 E0.05015
G1 X-16.590 Y-4.809 E0.05015
G1 X-16.159 Y-5.145 E0.05015
G1 X-15.700 Y-5.442 E0.05015
G1 X-15.218 Y-5.698 E0.05015
G1 X-14.715 Y-5.912 E0.05015
G1 X-14.195 Y-6.081 E0.05015
G1 X-13.663 Y-6.205 E0.05015
G1 X-13.128 Y-6.282 E0.04958
G1 X-12.888 Y-6.292 E0.02197
G1 X-11.865 Y-5.474 E0.12027
G1 X-11.148 Y-5.281 E0.06813
G1 X-10.573 Y-5.524 E0.05726
G1 X-10.002 Y-5.980 E0.06700
G1 X-9.362 Y-5.473 E0.07495
G1 X-8.648 Y-5.281 E0.06785
G1 X-8.073 Y-5.524 E0.05726
G1 X-7.502 Y-5.980 E0.06700
G1 X-6.862 Y-5.473 E0.07495
G1 X-6.148 Y-5.281 E0.06785
G1 X-5.573 Y-5.524 E0.05726
G1 X-5.002 Y-5.980 E0.06700
G1 X-4.362 Y-5.473 E0.07495
G1 X-3.648 Y-5.281 E0.06785
G1 X-3.073 Y-5.524 E0.05726
G1 X-2.502 Y-5.980 E0.06700
G1 X-1.862 Y-5.473 E0.07495
G1 X-1.148 Y-5.281 E0.06785
G1 X-0.573 Y-5.524 E0.05726
G1 X-0.002 Y-5.980 E0.06700
G1 X0.638 Y-5.473 E0.07495
G1 X1.352 Y-5.281 E0.06785
G1 X1.927 Y-5.524 E0.05726
G1 X2.498 Y-5.980 E0.06700
G1 X3.138 Y-5.473 E0.07495
G1 X3.852 Y-5.281 E0.06785
G1 X4.427 Y-5.524 E0.05726
G1 X4.998 Y-5.980 E0.06700
G1 X5.638 Y-5.473 E0.07495
G1 X6.352 Y-5.281 E0.06785
G1 X6.927 Y-5.524 E0.05726
G1 X7.498 Y-5.980 E0.06700
G1 X8.138 Y-5.473 E0.07495
G1 X8.852 Y-5.281 E0.06785
G1 X9.427 Y-5.524 E0.05726
G1 X9.998 Y-5.980 E0.06700
G1 X10.638 Y-5.473 E0.07495
G1 X11.352 Y-5.281 E0.06785
G1 X11.927 Y-5.524 E0.05726
G1 X12.892 Y-6.295 E0.11335
G1 X13.122 Y-6.283 E0.02109
G1 X13.663 Y-6.205 E0.05015
G1 X14.195 Y-6.081 E0.05015
G1 X14.715 Y-5.912 E0.05015
G1 X15.218 Y-5.698 E0.05015
G1 X15.700 Y-5.442 E0.05015
G1 X16.159 Y-5.145 E0.05015
G1 X16.590 Y-4.809 E0.05015
G1 X16.991 Y-4.437 E0.05014
G1 X17.358 Y-4.032 E0.05015
G1 X17.688 Y-3.597 E0.05015
G1 X17.980 Y-3.135 E0.05015
G1 X18.231 Y-2.649 E0.05015
G1 X18.438 Y-2.143 E0.05015
G1 X18.601 Y-1.622 E0.05015
G1 X18.719 Y-1.088 E0.05015
G1 X18.789 Y-0.549 E0.04992
G1 X18.813 Y0.000 E0.05039
G1 X18.790 Y0.546 E0.05013
G1 X18.719 Y1.088 E0.05015
G1 X18.601 Y1.622 E0.05015
G1 X18.438 Y2.143 E0.05015
G1 X18.231 Y2.649 E0.05014
G1 X17.980 Y3.135 E0.05015
G1 X17.688 Y3.597 E0.05015
G1 X17.358 Y4.032 E0.05015
G1 X16.991 Y4.437 E0.05015
G1 X16.590 Y4.809 E0.05015
G1 X16.159 Y5.145 E0.05015
G1 X15.700 Y5.442 E0.05015
G1 X15.218 Y5.698 E0.05015
G1 X14.715 Y5.912 E0.05015
G1 X14.195 Y6.081 E0.05015
G1 X13.663 Y6.205 E0.05015
G1 X13.128 Y6.282 E0.04958
G1 X12.888 Y6.292 E0.02197
G1 X11.865 Y5.474 E0.12027
G1 X11.206 Y5.297 E0.06262
G1 X11.201 Y6.057 F9000.000
G1 X10.952 Y6.162 E0.02474 F900.000
G1 X10.005 Y6.920 E0.11135
G1 X9.025 Y6.144 E0.11471
G1 X8.701 Y6.057 E0.03075
G1 X8.452 Y6.162 E0.02474
G1 X7.505 Y6.920 E0.11135
G1 X6.525 Y6.144 E0.11471
G1 X6.201 Y6.057 E0.03075
G1 X5.952 Y6.162 E0.02474
G1 X5.005 Y6.920 E0.11135
G1 X4.025 Y6.144 E0.11471
G1 X3.701 Y6.057 E0.03075
G1 X3.452 Y6.162 E0.02474
G1 X2.505 Y6.920 E0.11135
G1 X1.525 Y6.144 E0.11471
G1 X1.201 Y6.057 E0.03075
G1 X0.952 Y6.162 E0.02474
G1 X0.005 Y6.920 E0.11135
G1 X-0.975 Y6.144 E0.11471
G1 X-1.299 Y6.057 E0.03075
G1 X-1.548 Y6.162 E0.02474
G1 X-2.495 Y6.920 E0.11135
G1 X-3.475 Y6.144 E0.11471
G1 X-3.799 Y6.057 E0.03075
G1 X-4.048 Y6.162 E0.02473
G1 X-4.995 Y6.920 E0.11135
G1 X-5.975 Y6.144 E0.11471
G1 X-6.299 Y6.057 E0.03075
G1 X-6.548 Y6.162 E0.02474
G1 X-7.495 Y6.920 E0.11135
G1 X-8.475 Y6.144 E0.11471
G1 X-8.799 Y6.057 E0.03075
G1 X-9.048 Y6.162 E0.02474
G1 X-9.995 Y6.920 E0.11135
G1 X-10.975 Y6.144 E0.11471
G1 X-11.299 Y6.057 E0.03075
G1 X-11.548 Y6.162 E0.02474
G1 X-12.645 Y7.040 E0.12892
G1 X-13.196 Y7.015 E0.05063
G1 X-13.798 Y6.929 E0.05580
G1 X-14.393 Y6.791 E0.05599
G1 X-14.973 Y6.602 E0.05600
G1 X-15.535 Y6.363 E0.05600
G1 X-16.074 Y6.077 E0.05600
G1 X-16.586 Y5.745 E0.05600
G1 X-17.067 Y5.370 E0.05599
G1 X-17.515 Y4.955 E0.05600
G1 X-17.924 Y4.502 E0.05600
G1 X-18.293 Y4.016 E0.05600
G1 X-18.619 Y3.500 E0.05599
G1 X-18.899 Y2.958 E0.05600
G1 X-19.131 Y2.393 E0.05600
G1 X-19.313 Y1.811 E0.05600
G1 X-19.444 Y1.215 E0.05599
G1 X-19.523 Y0.610 E0.05600
G1 X-19.550 Y-0.000 E0.05600
G1 X-19.523 Y-0.610 E0.05600
G1 X-19.444 Y-1.215 E0.05599
G1 X-19.312 Y-1.813 E0.05624
G1 X-19.131 Y-2.393 E0.05575
G1 X-18.899 Y-2.958 E0.05599
G1 X-18.619 Y-3.500 E0.05600
G1 X-18.293 Y-4.016 E0.05599
G1 X-17.924 Y-4.503 E0.05600
G1 X-17.515 Y-4.955 E0.05600
G1 X-17.067 Y-5.370 E0.05599
G1 X-16.586 Y-5.745 E0.05600
G1 X-16.074 Y-6.077 E0.05600
G1 X-15.535 Y-6.363 E0.05600
G1 X-14.973 Y-6.602 E0.05600
G1 X-14.393 Y-6.791 E0.05599
G1 X-13.798 Y-6.929 E0.05600
G1 X-13.196 Y-7.015 E0.05580
G1 X-12.645 Y-7.040 E0.05063
G1 X-11.526 Y-6.144 E0.13151
G1 X-11.201 Y-6.057 E0.03085
G1 X-10.952 Y-6.162 E0.02473
G1 X-10.005 Y-6.920 E0.11135
G1 X-9.025 Y-6.144 E0.11471
G1 X-8.701 Y-6.057 E0.03075
G1 X-8.452 Y-6.162 E0.02473
G1 X-7.505 Y-6.920 E0.11135
G1 X-6.525 Y-6.144 E0.11471
G1 X-6.201 Y-6.057 E0.03075
G1 X-5.952 Y-6.162 E0.02473
G1 X-5.005 Y-6.920 E0.11135
G1 X-4.025 Y-6.144 E0.11471
G1 X-3.701 Y-6.057 E0.03075
G1 X-3.452 Y-6.162 E0.02473
G1 X-2.505 Y-6.920 E0.11135
G1 X-1.525 Y-6.144 E0.11471
G1 X-1.201 Y-6.057 E0.03075
G1 X-0.952 Y-6.162 E0.02474
G1 X-0.005 Y-6.920 E0.11135
G1 X0.975 Y-6.144 E0.11471
G1 X1.299 Y-6.057 E0.03075
G1 X1.548 Y-6.162 E0.02474
