; generated by Slic3r 1.2.9 on 2016-10-21 at 09:39:38

; external perimeters extrusion width = 0.50mm
; perimeters extrusion width = 0.50mm
; infill extrusion width = 0.50mm
; solid infill extrusion width = 0.50mm
; top infill extrusion width = 0.50mm

M107
;Basic settings: Layer height: {layer_height} Walls: {wall_thickness} Fill: {fill_density}
;Print time: {print_time}
;Filament used: {filament_amount}m {filament_weight}g
;Filament cost: {filament_cost}
;M190 S{print_bed_temperature} ;Uncomment to add your own bed temperature line
;M109 S{print_temperature} ;Uncomment to add your own temperature line
G21        ;metric values
G90        ;absolute positioning
M83
G10 P0 S200
T0
M116


G21 ; set units to millimeters
G90 ; use absolute coordinates
M83 ; use relative distances for extrusion
G1 E-3.20000 F3000.00000
G1 Z0.400 F9000.000
G1 X43.224 Y-10.030 F9000.000
G1 Z0.300 F9000.000
G1 E3.20000 F3000.00000
G1 X43.495 Y-8.842 E0.11184 F1200.000
G1 X43.887 Y-6.627 E0.20633
G1 X44.147 Y-4.584 E0.18897
G1 X44.323 Y-2.343 E0.20632
G1 X44.384 Y0.095 E0.22368
G1 X44.332 Y2.154 E0.18896
G1 X44.166 Y4.396 E0.20633
G1 X43.858 Y6.815 E0.22368
G1 X43.495 Y8.842 E0.18896
G1 X42.991 Y11.033 E0.20632
G1 X42.321 Y13.377 E0.22368
G1 X41.654 Y15.326 E0.18897
G1 X40.825 Y17.416 E0.20633
G1 X39.807 Y19.632 E0.22368
G1 X38.853 Y21.457 E0.18896
G1 X37.717 Y23.397 E0.20632
G1 X36.375 Y25.433 E0.22368
G1 X35.040 Y27.243 E0.20632
G1 X33.739 Y28.839 E0.18897
G1 X32.104 Y30.648 E0.22368
G1 X30.648 Y32.104 E0.18896
G1 X28.983 Y33.615 E0.20632
G1 X27.093 Y35.156 E0.22368
G1 X25.433 Y36.375 E0.18897
G1 X23.558 Y37.617 E0.20632
G1 X21.457 Y38.853 E0.22367
G1 X19.462 Y39.890 E0.20633
G1 X17.590 Y40.750 E0.18897
G1 X15.326 Y41.654 E0.22368
G1 X13.377 Y42.321 E0.18896
G1 X11.217 Y42.944 E0.20633
G1 X8.842 Y43.495 E0.22368
G1 X6.628 Y43.887 E0.20632
G1 X4.584 Y44.147 E0.18897
G1 X2.154 Y44.332 E0.22368
G1 X0.095 Y44.384 E0.18897
G1 X-2.154 Y44.332 E0.20632
G1 X-4.584 Y44.147 E0.22368
G1 X-6.627 Y43.887 E0.18897
G1 X-8.842 Y43.495 E0.20633
G1 X-11.217 Y42.944 E0.22367
G1 X-13.197 Y42.377 E0.18897
G1 X-15.326 Y41.654 E0.20632
G1 X-17.590 Y40.750 E0.22368
G1 X-19.462 Y39.890 E0.18897
G1 X-21.457 Y38.853 E0.20633
G1 X-23.558 Y37.617 E0.22368
G1 X-25.433 Y36.375 E0.20632
G1 X-27.243 Y35.040 E0.20632
G1 X-28.839 Y33.739 E0.18897
G1 X-30.511 Y32.235 E0.20633
G1 X-32.235 Y30.511 E0.22368
G1 X-33.615 Y28.983 E0.18896
G1 X-35.040 Y27.243 E0.20633
G1 X-36.483 Y25.278 E0.22368
G1 X-37.617 Y23.558 E0.18896
G1 X-38.761 Y21.623 E0.20633
G1 X-39.890 Y19.462 E0.22368
G1 X-40.825 Y17.416 E0.20632
G1 X-41.589 Y15.504 E0.18897
G1 X-42.377 Y13.197 E0.22368
G1 X-42.944 Y11.217 E0.18897
G1 X-43.457 Y9.027 E0.20632
G1 X-43.887 Y6.628 E0.22368
G1 X-44.147 Y4.584 E0.18897
G1 X-44.323 Y2.343 E0.20633
G1 X-44.381 Y-0.217 E0.23490
G1 X-44.323 Y-2.343 E0.19509
G1 X-44.147 Y-4.584 E0.20632
G1 X-43.858 Y-6.815 E0.20632
G1 X-43.495 Y-8.842 E0.18897
G1 X-42.944 Y-11.217 E0.22368
G1 X-42.377 Y-13.197 E0.18897
G1 X-41.654 Y-15.326 E0.20633
G1 X-40.750 Y-17.590 E0.22368
G1 X-39.890 Y-19.462 E0.18897
G1 X-38.853 Y-21.457 E0.20633
G1 X-37.617 Y-23.558 E0.22368
G1 X-36.483 Y-25.278 E0.18896
G1 X-35.156 Y-27.093 E0.20632
G1 X-33.615 Y-28.983 E0.22368
G1 X-32.235 Y-30.511 E0.18897
G1 X-30.648 Y-32.104 E0.20632
G1 X-28.839 Y-33.739 E0.22368
G1 X-27.093 Y-35.156 E0.20633
G1 X-25.278 Y-36.483 E0.20632
G1 X-23.558 Y-37.617 E0.18897
G1 X-21.623 Y-38.761 E0.20633
G1 X-19.462 Y-39.890 E0.22368
G1 X-17.590 Y-40.750 E0.18896
G1 X-15.504 Y-41.589 E0.20633
G1 X-13.197 Y-42.377 E0.22368
G1 X-11.217 Y-42.944 E0.18897
G1 X-9.027 Y-43.457 E0.20632
G1 X-6.628 Y-43.887 E0.22368
G1 X-4.584 Y-44.147 E0.18897
G1 X-2.343 Y-44.323 E0.20632
G1 X0.217 Y-44.381 E0.23490
G1 X2.343 Y-44.323 E0.19509 F1200.000
G1 X4.584 Y-44.147 E0.20632
G1 X6.815 Y-43.858 E0.20632
G1 X8.842 Y-43.495 E0.18897
G1 X11.217 Y-42.944 E0.22368
G1 X13.377 Y-42.321 E0.20633
G1 X15.326 Y-41.654 E0.18897
G1 X17.701 Y-40.699 E0.23490
G1 X19.632 Y-39.807 E0.19509
G1 X21.623 Y-38.761 E0.20632
G1 X23.397 Y-37.717 E0.18897
G1 X25.278 Y-36.483 E0.20633
G1 X27.243 Y-35.040 E0.22368
G1 X28.983 Y-33.615 E0.20632
G1 X30.511 Y-32.235 E0.18897
G1 X32.104 Y-30.648 E0.20632
G1 X33.615 Y-28.983 E0.20632
G1 X35.156 Y-27.093 E0.22368
G1 X36.483 Y-25.278 E0.20632
G1 X37.617 Y-23.558 E0.18897
G1 X38.761 Y-21.623 E0.20633
G1 X39.807 Y-19.632 E0.20632
G1 X40.825 Y-17.416 E0.22368
G1 X41.589 Y-15.504 E0.18896
G1 X42.321 Y-13.377 E0.20633
G1 X42.944 Y-11.217 E0.20633
G1 X43.210 Y-10.089 E0.10634
G1 E-3.20000 F3000.00000
G1 Z0.700 F9000.000
G1 X20.702 Y-4.503 F9000.000
G1 Z0.300 F9000.000
G1 E3.20000 F3000.00000
G1 X20.971 Y-3.015 E0.13876 F900.000
G1 X21.132 Y-1.511 E0.13876
G1 X21.186 Y-0.000 E0.13876
G1 X21.132 Y1.511 E0.13876
G1 X20.971 Y3.015 E0.13876
G1 X20.702 Y4.503 E0.13876
G1 X20.328 Y5.969 E0.13876
G1 X19.851 Y7.404 E0.13876
G1 X19.272 Y8.801 E0.13876
G1 X18.595 Y10.154 E0.13876
G1 X17.823 Y11.454 E0.13876
G1 X16.961 Y12.697 E0.13876
G1 X16.012 Y13.874 E0.13876
G1 X14.981 Y14.981 E0.13876
G1 X13.874 Y16.012 E0.13876
G1 X12.697 Y16.961 E0.13876
G1 X11.454 Y17.823 E0.13876
G1 X10.154 Y18.595 E0.13876
G1 X8.829 Y19.258 E0.13590
G1 X7.405 Y19.850 E0.14154
G1 X5.969 Y20.328 E0.13884
G1 X4.503 Y20.702 E0.13876
G1 X3.015 Y20.971 E0.13876
G1 X1.542 Y21.129 E0.13590
G1 X0.001 Y21.186 E0.14154
G1 X-1.511 Y21.132 E0.13884
G1 X-3.015 Y20.971 E0.13876
G1 X-4.503 Y20.702 E0.13876
G1 X-5.969 Y20.328 E0.13876
G1 X-7.404 Y19.851 E0.13876
G1 X-8.772 Y19.284 E0.13590
G1 X-10.153 Y18.595 E0.14154
G1 X-11.454 Y17.823 E0.13884
G1 X-12.697 Y16.961 E0.13876
G1 X-13.874 Y16.012 E0.13876
G1 X-14.981 Y14.981 E0.13876
G1 X-16.012 Y13.874 E0.13876
G1 X-16.961 Y12.697 E0.13876
G1 X-17.823 Y11.454 E0.13876
G1 X-18.595 Y10.154 E0.13876
G1 X-19.272 Y8.801 E0.13876
G1 X-19.851 Y7.404 E0.13876
G1 X-20.328 Y5.969 E0.13876
G1 X-20.702 Y4.503 E0.13876
G1 X-20.965 Y3.046 E0.13590
G1 X-21.132 Y1.512 E0.14154
G1 X-21.186 Y0.000 E0.13884
G1 X-21.132 Y-1.511 E0.13876
G1 X-20.971 Y-3.015 E0.13876
G1 X-20.702 Y-4.503 E0.13876
G1 X-20.328 Y-5.969 E0.13876
G1 X-19.851 Y-7.404 E0.13876
G1 X-19.284 Y-8.772 E0.13590
G1 X-18.595 Y-10.153 E0.14154
G1 X-17.823 Y-11.454 E0.13884
G1 X-16.961 Y-12.697 E0.13876
G1 X-16.012 Y-13.874 E0.13876
G1 X-14.981 Y-14.981 E0.13876
G1 X-13.874 Y-16.012 E0.13876
G1 X-12.697 Y-16.961 E0.13876
G1 X-11.480 Y-17.805 E0.13590
G1 X-10.154 Y-18.594 E0.14154
G1 X-8.801 Y-19.272 E0.13884
G1 X-7.404 Y-19.851 E0.13876
G1 X-5.969 Y-20.328 E0.13876
G1 X-4.503 Y-20.702 E0.13876
G1 X-3.015 Y-20.971 E0.13876
G1 X-1.511 Y-21.132 E0.13876
G1 X-0.031 Y-21.185 E0.13590 F900.000
G1 X1.511 Y-21.132 E0.14154
G1 X3.015 Y-20.971 E0.13884
G1 X4.503 Y-20.702 E0.13876
G1 X5.969 Y-20.328 E0.13876
G1 X7.404 Y-19.851 E0.13876
G1 X8.801 Y-19.272 E0.13876
G1 X10.154 Y-18.595 E0.13876
G1 X11.454 Y-17.823 E0.13876
G1 X12.697 Y-16.961 E0.13876
G1 X13.874 Y-16.012 E0.13876
G1 X14.981 Y-14.981 E0.13876
G1 X16.012 Y-13.874 E0.13876
G1 X16.941 Y-12.721 E0.13590
G1 X17.823 Y-11.455 E0.14154
G1 X18.595 Y-10.154 E0.13884
G1 X19.258 Y-8.829 E0.13590
G1 X19.850 Y-7.405 E0.14154
G1 X20.328 Y-5.969 E0.13884
G1 X20.687 Y-4.562 E0.13326
G1 X19.975 Y-4.380 F9000.000
G1 X20.242 Y-2.910 E0.13703 F900.000
G1 X20.398 Y-1.459 E0.13394
G1 X20.450 Y-0.000 E0.13394
G1 X20.398 Y1.459 E0.13394
G1 X20.242 Y2.910 E0.13394
G1 X19.983 Y4.347 E0.13394
G1 X19.622 Y5.762 E0.13394
G1 X19.161 Y7.147 E0.13394
G1 X18.602 Y8.495 E0.13394
G1 X17.949 Y9.801 E0.13394
G1 X17.204 Y11.056 E0.13394
G1 X16.371 Y12.255 E0.13394
G1 X15.455 Y13.392 E0.13394
G1 X14.461 Y14.461 E0.13394
G1 X13.392 Y15.455 E0.13394
G1 X12.255 Y16.371 E0.13394
G1 X11.056 Y17.204 E0.13394
G1 X9.801 Y17.949 E0.13394
G1 X8.523 Y18.589 E0.13113
G1 X7.147 Y19.161 E0.13672
G1 X5.762 Y19.622 E0.13397
G1 X4.347 Y19.983 E0.13394
G1 X2.910 Y20.242 E0.13394
G1 X1.489 Y20.395 E0.13113
G1 X0.000 Y20.450 E0.13672
G1 X-1.459 Y20.398 E0.13397
G1 X-2.910 Y20.242 E0.13394
G1 X-4.347 Y19.983 E0.13394
G1 X-5.762 Y19.622 E0.13394
G1 X-7.147 Y19.161 E0.13394
G1 X-8.467 Y18.614 E0.13113
G1 X-9.801 Y17.949 E0.13672
G1 X-11.056 Y17.204 E0.13397
G1 X-12.255 Y16.371 E0.13394
G1 X-13.392 Y15.455 E0.13394
G1 X-14.461 Y14.461 E0.13394
G1 X-15.455 Y13.392 E0.13394
G1 X-16.371 Y12.255 E0.13394
G1 X-17.204 Y11.056 E0.13394
G1 X-17.949 Y9.801 E0.13394
G1 X-18.602 Y8.495 E0.13394
G1 X-19.161 Y7.147 E0.13394
G1 X-19.622 Y5.762 E0.13394
G1 X-19.983 Y4.347 E0.13394
G1 X-20.237 Y2.941 E0.13113
G1 X-20.398 Y1.459 E0.13672
G1 X-20.450 Y0.000 E0.13397
G1 X-20.398 Y-1.459 E0.13394
G1 X-20.242 Y-2.910 E0.13394
G1 X-19.983 Y-4.347 E0.13394
G1 X-19.622 Y-5.762 E0.13394
G1 X-19.161 Y-7.147 E0.13394
G1 X-18.614 Y-8.467 E0.13113
G1 X-17.949 Y-9.801 E0.13672
G1 X-17.204 Y-11.056 E0.13397
G1 X-16.371 Y-12.255 E0.13394
G1 X-15.455 Y-13.392 E0.13394
G1 X-14.461 Y-14.461 E0.13394
G1 X-13.392 Y-15.455 E0.13394
G1 X-12.255 Y-16.371 E0.13394
G1 X-11.081 Y-17.186 E0.13113
G1 X-9.801 Y-17.949 E0.13672
G1 X-8.495 Y-18.602 E0.13397
G1 X-7.147 Y-19.161 E0.13394
G1 X-5.762 Y-19.622 E0.13394
G1 X-4.347 Y-19.983 E0.13394
G1 X-2.910 Y-20.242 E0.13394
G1 X-1.459 Y-20.398 E0.13394
G1 X-0.031 Y-20.449 E0.13113 F900.000
G1 X1.459 Y-20.398 E0.13672
G1 X2.910 Y-20.242 E0.13397
G1 X4.347 Y-19.983 E0.13394
G1 X5.762 Y-19.622 E0.13394
G1 X7.147 Y-19.161 E0.13394
G1 X8.495 Y-18.602 E0.13394
G1 X9.801 Y-17.949 E0.13394
G1 X11.056 Y-17.204 E0.13394
G1 X12.255 Y-16.371 E0.13394
G1 X13.392 Y-15.455 E0.13394
G1 X14.461 Y-14.461 E0.13394
G1 X15.455 Y-13.392 E0.13394
G1 X16.352 Y-12.279 E0.13113
G1 X17.204 Y-11.057 E0.13672
G1 X17.949 Y-9.801 E0.13397
G1 X18.589 Y-8.523 E0.13113
G1 X19.161 Y-7.147 E0.13672
G1 X19.622 Y-5.762 E0.13397
G1 X19.960 Y-4.438 E0.12534
G1 X20.354 Y-4.254 F9000.000
G1 X39.083 Y-5.788 F9000.000
G1 X39.311 Y-3.998 E0.16556 F900.000
G1 X39.463 Y-2.001 E0.18368
G1 X39.514 Y-0.002 E0.18354
G1 X39.454 Y2.122 E0.19491
G1 X39.311 Y3.998 E0.17260
G1 X39.058 Y5.984 E0.18368
G1 X38.705 Y7.954 E0.18368
G1 X38.253 Y9.904 E0.18368
G1 X37.702 Y11.829 E0.18368
G1 X37.054 Y13.723 E0.18368
G1 X36.312 Y15.583 E0.18368
G1 X35.476 Y17.402 E0.18368
G1 X34.549 Y19.176 E0.18368
G1 X33.533 Y20.901 E0.18368
G1 X32.432 Y22.573 E0.18368
G1 X31.247 Y24.187 E0.18368
G1 X29.982 Y25.738 E0.18368
G1 X28.639 Y27.224 E0.18368
G1 X27.224 Y28.639 E0.18368
G1 X25.738 Y29.982 E0.18368
G1 X24.187 Y31.247 E0.18368
G1 X22.573 Y32.432 E0.18368
G1 X20.901 Y33.533 E0.18368
G1 X19.176 Y34.549 E0.18368
G1 X17.402 Y35.476 E0.18368
G1 X15.583 Y36.312 E0.18368
G1 X13.723 Y37.054 E0.18368
G1 X11.829 Y37.702 E0.18368
G1 X9.904 Y38.253 E0.18368
G1 X7.954 Y38.705 E0.18368
G1 X5.984 Y39.058 E0.18368
G1 X3.998 Y39.311 E0.18368
G1 X2.001 Y39.463 E0.18368
G1 X-0.000 Y39.514 E0.18368
G1 X-2.001 Y39.463 E0.18368
G1 X-3.998 Y39.311 E0.18368
G1 X-5.984 Y39.058 E0.18368
G1 X-7.954 Y38.705 E0.18368
G1 X-9.904 Y38.253 E0.18368
G1 X-11.829 Y37.702 E0.18368
G1 X-13.723 Y37.054 E0.18368
G1 X-15.583 Y36.312 E0.18368
G1 X-17.402 Y35.476 E0.18368
G1 X-19.176 Y34.549 E0.18368
G1 X-20.901 Y33.533 E0.18368
G1 X-22.573 Y32.432 E0.18368
G1 X-24.187 Y31.247 E0.18368
G1 X-25.738 Y29.982 E0.18368
G1 X-27.224 Y28.639 E0.18368
G1 X-28.639 Y27.224 E0.18368
G1 X-29.982 Y25.738 E0.18368
G1 X-31.247 Y24.187 E0.18368
G1 X-32.432 Y22.573 E0.18368
G1 X-33.533 Y20.901 E0.18368
G1 X-34.549 Y19.176 E0.18368
G1 X-35.475 Y17.403 E0.18354
G1 X-36.357 Y15.470 E0.19491
G1 X-37.054 Y13.723 E0.17260
G1 X-37.702 Y11.829 E0.18368
G1 X-38.253 Y9.904 E0.18368
G1 X-38.705 Y7.954 E0.18368
G1 X-39.058 Y5.984 E0.18368
G1 X-39.311 Y3.998 E0.18368
G1 X-39.463 Y2.001 E0.18368
G1 X-39.514 Y-0.000 E0.18368
G1 X-39.463 Y-2.001 E0.18368
G1 X-39.311 Y-3.998 E0.18368
G1 X-39.058 Y-5.984 E0.18368
G1 X-38.705 Y-7.954 E0.18368
G1 X-38.253 Y-9.904 E0.18368
G1 X-37.702 Y-11.829 E0.18368
G1 X-37.054 Y-13.723 E0.18368
G1 X-36.312 Y-15.583 E0.18368
G1 X-35.476 Y-17.402 E0.18368
G1 X-34.549 Y-19.176 E0.18368
G1 X-33.533 Y-20.901 E0.18368
G1 X-32.432 Y-22.573 E0.18368
G1 X-31.247 Y-24.187 E0.18368
G1 X-29.982 Y-25.738 E0.18368
G1 X-28.639 Y-27.224 E0.18368
G1 X-27.224 Y-28.639 E0.18368
G1 X-25.738 Y-29.982 E0.18368
G1 X-24.187 Y-31.247 E0.18368
G1 X-22.573 Y-32.432 E0.18368
G1 X-20.901 Y-33.533 E0.18368
G1 X-19.176 Y-34.549 E0.18368
G1 X-17.402 Y-35.476 E0.18368
G1 X-15.583 Y-36.312 E0.18368
G1 X-13.723 Y-37.054 E0.18368
G1 X-11.829 Y-37.702 E0.18368
G1 X-9.904 Y-38.253 E0.18368
G1 X-7.954 Y-38.705 E0.18368
G1 X-5.984 Y-39.058 E0.18368
G1 X-3.998 Y-39.311 E0.18368
G1 X-2.003 Y-39.463 E0.18354
G1 X0.121 Y-39.511 E0.19491
G1 X2.001 Y-39.463 E0.17260
G1 X3.998 Y-39.311 E0.18368 F900.000
G1 X5.984 Y-39.058 E0.18368
G1 X7.954 Y-38.705 E0.18368
G1 X9.904 Y-38.253 E0.18368
G1 X11.829 Y-37.702 E0.18368
G1 X13.723 Y-37.054 E0.18368
G1 X15.583 Y-36.312 E0.18368
G1 X17.402 Y-35.476 E0.18368
G1 X19.176 Y-34.549 E0.18368
G1 X20.901 Y-33.533 E0.18368
G1 X22.573 Y-32.432 E0.18368
G1 X24.187 Y-31.247 E0.18368
G1 X25.738 Y-29.982 E0.18368
G1 X27.224 Y-28.639 E0.18368
G1 X28.639 Y-27.224 E0.18368
G1 X29.982 Y-25.738 E0.18368
G1 X31.247 Y-24.187 E0.18368
G1 X32.432 Y-22.573 E0.18368
G1 X33.533 Y-20.901 E0.18368
G1 X34.549 Y-19.176 E0.18368
G1 X35.476 Y-17.402 E0.18368
G1 X36.312 Y-15.583 E0.18368
G1 X37.054 Y-13.723 E0.18368
G1 X37.702 Y-11.829 E0.18368
G1 X38.253 Y-9.904 E0.18368
G1 X38.705 Y-7.954 E0.18368
G1 X39.076 Y-5.847 E0.19628
G1 X39.805 Y-5.940 F9000.000
G1 X40.043 Y-4.072 E0.17278 F900.000
G1 X40.198 Y-2.039 E0.18710
G1 X40.250 Y-0.001 E0.18705
G1 X40.189 Y2.160 E0.19833
G1 X40.043 Y4.072 E0.17592
G1 X39.786 Y6.095 E0.18710
G1 X39.426 Y8.102 E0.18710
G1 X38.965 Y10.089 E0.18710
G1 X38.404 Y12.049 E0.18710
G1 X37.744 Y13.979 E0.18710
G1 X36.988 Y15.873 E0.18710
G1 X36.137 Y17.726 E0.18710
G1 X35.192 Y19.533 E0.18710
G1 X34.158 Y21.291 E0.18710
G1 X33.036 Y22.993 E0.18710
G1 X31.829 Y24.637 E0.18710
G1 X30.540 Y26.218 E0.18710
G1 X29.173 Y27.731 E0.18710
G1 X27.731 Y29.173 E0.18710
G1 X26.218 Y30.540 E0.18710
G1 X24.637 Y31.829 E0.18710
G1 X22.993 Y33.036 E0.18710
G1 X21.291 Y34.158 E0.18710
G1 X19.533 Y35.192 E0.18710
G1 X17.726 Y36.137 E0.18710
G1 X15.873 Y36.988 E0.18710
G1 X13.979 Y37.744 E0.18710
G1 X12.049 Y38.404 E0.18710
G1 X10.089 Y38.965 E0.18710
G1 X8.102 Y39.426 E0.18710
G1 X6.095 Y39.786 E0.18710
G1 X4.072 Y40.043 E0.18710
G1 X2.039 Y40.198 E0.18711
G1 X0.000 Y40.250 E0.18710
G1 X-2.039 Y40.198 E0.18710
G1 X-4.072 Y40.043 E0.18710
G1 X-6.095 Y39.786 E0.18710
G1 X-8.102 Y39.426 E0.18710
G1 X-10.089 Y38.965 E0.18710
G1 X-12.049 Y38.404 E0.18710
G1 X-13.979 Y37.744 E0.18710
G1 X-15.873 Y36.988 E0.18710
G1 X-17.726 Y36.137 E0.18710
G1 X-19.533 Y35.192 E0.18710
G1 X-21.291 Y34.158 E0.18710
G1 X-22.993 Y33.036 E0.18710
G1 X-24.637 Y31.829 E0.18710
G1 X-26.218 Y30.540 E0.18710
G1 X-27.731 Y29.173 E0.18710
G1 X-29.173 Y27.731 E0.18710
G1 X-30.540 Y26.218 E0.18710
G1 X-31.829 Y24.637 E0.18710
G1 X-33.036 Y22.993 E0.18710
G1 X-34.158 Y21.291 E0.18710
G1 X-35.192 Y19.533 E0.18710
G1 X-36.136 Y17.726 E0.18705
G1 X-37.033 Y15.760 E0.19833
G1 X-37.744 Y13.979 E0.17592
G1 X-38.404 Y12.049 E0.18710
G1 X-38.965 Y10.089 E0.18710
G1 X-39.426 Y8.102 E0.18710
G1 X-39.786 Y6.095 E0.18710
G1 X-40.043 Y4.072 E0.18710
G1 X-40.198 Y2.039 E0.18710
G1 X-40.250 Y0.000 E0.18710
G1 X-40.198 Y-2.039 E0.18710
G1 X-40.043 Y-4.072 E0.18710
G1 X-39.786 Y-6.095 E0.18711
G1 X-39.426 Y-8.102 E0.18710
G1 X-38.965 Y-10.089 E0.18710
G1 X-38.404 Y-12.049 E0.18710
G1 X-37.744 Y-13.979 E0.18710
G1 X-36.988 Y-15.873 E0.18710
G1 X-36.137 Y-17.726 E0.18710
G1 X-35.192 Y-19.533 E0.18710
G1 X-34.158 Y-21.291 E0.18710
G1 X-33.036 Y-22.993 E0.18710
G1 X-31.829 Y-24.637 E0.18710
G1 X-30.540 Y-26.218 E0.18710
G1 X-29.173 Y-27.731 E0.18710
G1 X-27.731 Y-29.173 E0.18710
G1 X-26.218 Y-30.540 E0.18710
G1 X-24.637 Y-31.829 E0.18710
G1 X-22.993 Y-33.036 E0.18710
G1 X-21.291 Y-34.158 E0.18710
G1 X-19.533 Y-35.192 E0.18710
G1 X-17.726 Y-36.137 E0.18710
G1 X-15.873 Y-36.988 E0.18710
G1 X-13.979 Y-37.744 E0.18710
G1 X-12.049 Y-38.404 E0.18710
G1 X-10.089 Y-38.965 E0.18710
