; generated by Slic3r 1.2.9 on 2016-10-21 at 14:00:37

; external perimeters extrusion width = 0.50mm
; perimeters extrusion width = 0.50mm
; infill extrusion width = 0.50mm
; solid infill extrusion width = 0.50mm
; top infill extrusion width = 0.50mm

M107
;Basic settings: Layer height: {layer_height} Walls: {wall_thickness} Fill: {fill_density}
;Print time: {print_time}
;Filament used: {filament_amount}m {filament_weight}g
;Filament cost: {filament_cost}
;M190 S{print_bed_temperature} ;Uncomment to add your own bed temperature line
;M109 S{print_temperature} ;Uncomment to add your own temperature line
G21        ;metric values
G90        ;absolute positioning
M83
G10 P0 S200
T0
M116


G21 ; set units to millimeters
G90 ; use absolute coordinates
M83 ; use relative distances for extrusion
G1 E-3.20000 F3000.00000
G1 Z0.400 F9000.000
G1 X43.029 Y9.985 F9000.000
G1 Z0.300 F9000.000
G1 E3.20000 F3000.00000
G1 X42.750 Y11.167 E0.11138 F1200.000
G1 X42.186 Y13.137 E0.18803
G1 X41.401 Y15.434 E0.22275
G1 X40.566 Y17.511 E0.20539
G1 X39.711 Y19.374 E0.18804
G1 X38.587 Y21.526 E0.22275
G1 X37.447 Y23.452 E0.20540
G1 X36.319 Y25.164 E0.18806
G1 X34.998 Y26.971 E0.20537
G1 X33.464 Y28.852 E0.22275
G1 X32.090 Y30.373 E0.18803
G1 X30.510 Y31.959 E0.20540
G1 X28.709 Y33.587 E0.22275
G1 X26.971 Y34.998 E0.20539
G1 X25.164 Y36.319 E0.20537
G1 X23.452 Y37.447 E0.18806
G1 X21.360 Y38.678 E0.22274
G1 X19.374 Y39.711 E0.20541
G1 X17.511 Y40.566 E0.18803
G1 X15.257 Y41.467 E0.22275
G1 X13.089 Y42.200 E0.20998
G1 X10.984 Y42.798 E0.20079
G1 X8.987 Y43.261 E0.18806
G1 X6.784 Y43.661 E0.20541
G1 X4.376 Y43.967 E0.22274
G1 X2.143 Y44.132 E0.20539
G1 X0.095 Y44.184 E0.18804
G1 X-2.332 Y44.123 E0.22275
G1 X-4.564 Y43.948 E0.20539
G1 X-6.784 Y43.661 E0.20538
G1 X-8.802 Y43.299 E0.18805
G1 X-11.167 Y42.750 E0.22275
G1 X-13.137 Y42.186 E0.18804
G1 X-15.257 Y41.467 E0.20540
G1 X-17.511 Y40.566 E0.22275
G1 X-19.374 Y39.711 E0.18804
G1 X-21.360 Y38.678 E0.20539
G1 X-23.292 Y37.547 E0.20540
G1 X-25.319 Y36.211 E0.22275
G1 X-27.120 Y34.882 E0.20540
G1 X-28.709 Y33.587 E0.18804
G1 X-30.510 Y31.959 E0.22274
G1 X-32.123 Y30.336 E0.20999
G1 X-33.587 Y28.709 E0.20080
G1 X-34.882 Y27.120 E0.18804
G1 X-36.319 Y25.164 E0.22275
G1 X-37.547 Y23.292 E0.20540
G1 X-38.678 Y21.360 E0.20539
G1 X-39.627 Y19.544 E0.18804
G1 X-40.641 Y17.337 E0.22275
G1 X-41.467 Y15.257 E0.20539
G1 X-42.130 Y13.317 E0.18804
G1 X-42.798 Y10.983 E0.22275
G1 X-43.308 Y8.752 E0.20999
G1 X-43.689 Y6.597 E0.20080
G1 X-43.948 Y4.564 E0.18804
G1 X-44.132 Y2.143 E0.22275
G1 X-44.183 Y-0.145 E0.20998
G1 X-44.123 Y-2.332 E0.20080
G1 X-43.967 Y-4.376 E0.18804
G1 X-43.661 Y-6.784 E0.22275
G1 X-43.261 Y-8.987 E0.20539
G1 X-42.798 Y-10.983 E0.18804
G1 X-42.130 Y-13.317 E0.22275
G1 X-41.467 Y-15.257 E0.18803
G1 X-40.641 Y-17.337 E0.20540
G1 X-39.627 Y-19.543 E0.22275
G1 X-38.678 Y-21.360 E0.18804
G1 X-37.547 Y-23.292 E0.20539
G1 X-36.211 Y-25.319 E0.22275
G1 X-34.882 Y-27.120 E0.20540
G1 X-33.464 Y-28.852 E0.20539
G1 X-32.090 Y-30.373 E0.18804
G1 X-30.373 Y-32.090 E0.22275
G1 X-28.670 Y-33.619 E0.20998
G1 X-26.971 Y-34.998 E0.20080
G1 X-25.319 Y-36.211 E0.18804
G1 X-23.292 Y-37.547 E0.22275
G1 X-21.526 Y-38.587 E0.18803
G1 X-19.544 Y-39.627 E0.20540
G1 X-17.337 Y-40.641 E0.22275
G1 X-15.257 Y-41.467 E0.20539
G1 X-13.137 Y-42.186 E0.20539
G1 X-11.167 Y-42.750 E0.18804
G1 X-8.802 Y-43.299 E0.22275
G1 X-6.784 Y-43.661 E0.18804
G1 X-4.564 Y-43.948 E0.20539
G1 X-2.143 Y-44.132 E0.22275
G1 X0.144 Y-44.183 E0.20996
G1 X2.332 Y-44.123 E0.20082 F1200.000
G1 X4.376 Y-43.967 E0.18804
G1 X6.597 Y-43.689 E0.20539
G1 X8.802 Y-43.299 E0.20540
G1 X10.983 Y-42.798 E0.20539
G1 X13.137 Y-42.186 E0.20539
G1 X15.257 Y-41.467 E0.20540
G1 X17.337 Y-40.641 E0.20539
G1 X19.544 Y-39.627 E0.22275
G1 X21.526 Y-38.587 E0.20540
G1 X23.452 Y-37.447 E0.20540
G1 X25.163 Y-36.319 E0.18803
G1 X26.971 Y-34.998 E0.20540
G1 X28.709 Y-33.587 E0.20539
G1 X30.373 Y-32.090 E0.20540
G1 X31.959 Y-30.510 E0.20540
G1 X33.464 Y-28.852 E0.20540
G1 X34.882 Y-27.120 E0.20539
G1 X36.211 Y-25.319 E0.20539
G1 X37.447 Y-23.452 E0.20540
G1 X38.678 Y-21.360 E0.22275
G1 X39.711 Y-19.374 E0.20540
G1 X40.641 Y-17.337 E0.20540
G1 X41.467 Y-15.257 E0.20539
G1 X42.130 Y-13.317 E0.18804
G1 X42.750 Y-11.167 E0.20540
G1 X43.261 Y-8.987 E0.20540
G1 X43.661 Y-6.784 E0.20539
G1 X43.948 Y-4.564 E0.20540
G1 X44.123 Y-2.332 E0.20540
G1 X44.184 Y0.094 E0.22272
G1 X44.123 Y2.332 E0.20543
G1 X43.948 Y4.564 E0.20539
G1 X43.661 Y6.784 E0.20540
G1 X43.299 Y8.802 E0.18803
G1 X43.043 Y9.927 E0.10587
G1 E-3.20000 F3000.00000
G1 Z0.700 F9000.000
G1 X13.958 Y7.768 F9000.000
G1 Z0.300 F9000.000
G1 E3.20000 F3000.00000
G1 X13.701 Y9.724 E0.18101 F900.000
G1 X13.421 Y10.398 E0.06697
G1 X12.977 Y10.977 E0.06697
G1 X12.398 Y11.421 E0.06697
G1 X12.232 Y11.490 E0.01644
G1 X12.232 Y11.958 E0.04296
G1 X11.000 Y11.796 E0.11405
G1 X9.768 Y11.958 E0.11405
G1 X9.768 Y11.490 E0.04296
G1 X9.602 Y11.421 E0.01644
G1 X9.023 Y10.977 E0.06697
G1 X8.579 Y10.398 E0.06697
G1 X8.510 Y10.232 E0.01644
G1 X8.042 Y10.232 E0.04296
G1 X8.204 Y9.000 E0.11405
G1 X8.042 Y7.768 E0.11405
G1 X8.510 Y7.768 E0.04296
G1 X8.579 Y7.602 E0.01644
G1 X9.023 Y7.023 E0.06697
G1 X9.602 Y6.579 E0.06697
G1 X9.768 Y6.510 E0.01644
G1 X9.768 Y6.042 E0.04296 F900.000
G1 X11.724 Y6.299 E0.18101
G1 X12.398 Y6.579 E0.06697
G1 X12.977 Y7.023 E0.06697
G1 X13.421 Y7.602 E0.06697
G1 X13.490 Y7.768 E0.01644
G1 X13.898 Y7.768 E0.03746
G1 X13.119 Y8.503 F9000.000
G1 X12.984 Y9.532 E0.09517 F900.000
G1 X12.779 Y10.027 E0.04919
G1 X12.452 Y10.452 E0.04919
G1 X12.027 Y10.779 E0.04919
G1 X11.497 Y10.998 E0.05265
G1 X11.497 Y11.119 E0.01110
G1 X11.000 Y11.054 E0.04597
G1 X10.503 Y11.119 E0.04597
G1 X10.503 Y10.998 E0.01110
G1 X9.973 Y10.779 E0.05265
G1 X9.548 Y10.452 E0.04919
G1 X9.221 Y10.027 E0.04920
G1 X9.002 Y9.497 E0.05265
G1 X8.881 Y9.497 E0.01110
G1 X8.946 Y9.000 E0.04597
G1 X8.881 Y8.503 E0.04597
G1 X9.002 Y8.503 E0.01110
G1 X9.221 Y7.973 E0.05265
G1 X9.548 Y7.548 E0.04920
G1 X9.973 Y7.221 E0.04919
G1 X10.503 Y7.002 E0.05265
G1 X10.503 Y6.881 E0.01110 F900.000
G1 X11.532 Y7.016 E0.09517
G1 X12.027 Y7.221 E0.04919
G1 X12.452 Y7.548 E0.04920
G1 X12.779 Y7.973 E0.04919
G1 X12.998 Y8.503 E0.05265
G1 X13.059 Y8.503 E0.00559
G1 X13.518 Y8.538 F9000.000
G1 X12.232 Y-6.042 F9000.000
G1 X11.000 Y-6.204 E0.11405 F900.000
G1 X9.768 Y-6.042 E0.11405
G1 X9.768 Y-6.510 E0.04296
G1 X9.602 Y-6.579 E0.01644
G1 X9.023 Y-7.023 E0.06697
G1 X8.592 Y-7.585 E0.06497
G1 X8.300 Y-8.271 E0.06841
G1 X8.204 Y-9.000 E0.06747
G1 X8.299 Y-9.724 E0.06696
G1 X8.579 Y-10.398 E0.06697
G1 X9.023 Y-10.977 E0.06697
G1 X9.606 Y-11.425 E0.06747
G1 X10.298 Y-11.703 E0.06841
G1 X11.000 Y-11.796 E0.06497 F900.000
G1 X11.724 Y-11.701 E0.06697
G1 X12.398 Y-11.421 E0.06697
G1 X12.977 Y-10.977 E0.06697
G1 X13.421 Y-10.398 E0.06697
G1 X13.701 Y-9.724 E0.06697
G1 X13.796 Y-9.000 E0.06696
G1 X13.701 Y-8.276 E0.06697
G1 X13.421 Y-7.602 E0.06697
G1 X12.977 Y-7.023 E0.06697
G1 X12.398 Y-6.579 E0.06697
G1 X12.232 Y-6.510 E0.01644
G1 X12.232 Y-6.102 E0.03746
G1 X11.497 Y-6.881 F9000.000
G1 X11.000 Y-6.946 E0.04597 F900.000
G1 X10.503 Y-6.881 E0.04597
G1 X10.503 Y-7.002 E0.01110
G1 X9.973 Y-7.221 E0.05265
G1 X9.548 Y-7.548 E0.04919
G1 X9.232 Y-7.959 E0.04752
G1 X9.016 Y-8.467 E0.05064
G1 X8.946 Y-9.000 E0.04937
G1 X9.016 Y-9.532 E0.04919
G1 X9.221 Y-10.027 E0.04919
G1 X9.548 Y-10.452 E0.04919
G1 X9.975 Y-10.780 E0.04937
G1 X10.486 Y-10.986 E0.05064
G1 X11.000 Y-11.054 E0.04752 F900.000
G1 X11.532 Y-10.984 E0.04919
G1 X12.027 Y-10.779 E0.04919
G1 X12.452 Y-10.452 E0.04919
G1 X12.779 Y-10.027 E0.04919
G1 X12.984 Y-9.532 E0.04919
G1 X13.054 Y-9.000 E0.04919
G1 X12.984 Y-8.468 E0.04919
G1 X12.779 Y-7.973 E0.04919
G1 X12.452 Y-7.548 E0.04919
G1 X12.027 Y-7.221 E0.04919
G1 X11.497 Y-7.002 E0.05265
G1 X11.497 Y-6.941 E0.00559
G1 X11.462 Y-6.482 F9000.000
G1 X7.780 Y-4.887 F9000.000
G1 X8.279 Y-3.984 E0.09457 F900.000
G1 X8.681 Y-3.002 E0.09737
G1 X8.957 Y-2.044 E0.09148
G1 X9.130 Y-1.029 E0.09453
G1 X9.187 Y0.000 E0.09453
G1 X9.130 Y1.029 E0.09453
G1 X8.957 Y2.044 E0.09453
G1 X8.671 Y3.036 E0.09473
G1 X8.262 Y4.015 E0.09737
G1 X7.779 Y4.888 E0.09148
G1 X7.183 Y5.728 E0.09453
G1 X6.497 Y6.497 E0.09453
G1 X5.728 Y7.183 E0.09453
G1 X4.888 Y7.779 E0.09453
G1 X3.986 Y8.278 E0.09453
G1 X3.034 Y8.672 E0.09453
G1 X2.044 Y8.957 E0.09453
G1 X1.029 Y9.130 E0.09453
G1 X-0.000 Y9.187 E0.09453
G1 X-1.029 Y9.130 E0.09453
G1 X-2.044 Y8.957 E0.09453
G1 X-3.034 Y8.672 E0.09453
G1 X-3.986 Y8.278 E0.09453
G1 X-4.888 Y7.779 E0.09453
G1 X-5.728 Y7.183 E0.09453
G1 X-6.497 Y6.497 E0.09453
G1 X-7.183 Y5.728 E0.09453
G1 X-7.779 Y4.888 E0.09453
G1 X-8.278 Y3.986 E0.09453
G1 X-8.672 Y3.034 E0.09453
G1 X-8.957 Y2.044 E0.09453
G1 X-9.130 Y1.029 E0.09453
G1 X-9.187 Y0.000 E0.09453
G1 X-9.130 Y-1.031 E0.09473
G1 X-8.948 Y-2.076 E0.09737
G1 X-8.672 Y-3.034 E0.09148
G1 X-8.278 Y-3.986 E0.09453
G1 X-7.779 Y-4.888 E0.09453
G1 X-7.183 Y-5.728 E0.09453
G1 X-6.497 Y-6.497 E0.09453
G1 X-5.728 Y-7.183 E0.09453
G1 X-4.888 Y-7.779 E0.09453
G1 X-3.986 Y-8.278 E0.09453
G1 X-3.034 Y-8.672 E0.09453
G1 X-2.042 Y-8.958 E0.09472
G1 X-0.995 Y-9.132 E0.09737
G1 X-0.000 Y-9.187 E0.09148 F900.000
G1 X1.029 Y-9.130 E0.09453
G1 X2.044 Y-8.957 E0.09453
G1 X3.034 Y-8.672 E0.09453
G1 X3.986 Y-8.278 E0.09453
G1 X4.888 Y-7.779 E0.09453
G1 X5.728 Y-7.183 E0.09453
G1 X6.497 Y-6.497 E0.09453
G1 X7.183 Y-5.728 E0.09453
G1 X7.746 Y-4.936 E0.08918
G1 X7.146 Y-4.510 F9000.000
G1 X7.614 Y-3.666 E0.08857 F900.000
G1 X7.985 Y-2.760 E0.08979
G1 X8.239 Y-1.880 E0.08402
G1 X8.398 Y-0.946 E0.08695
G1 X8.451 Y0.000 E0.08695
G1 X8.398 Y0.946 E0.08695
G1 X8.239 Y1.880 E0.08695
G1 X7.976 Y2.792 E0.08702
G1 X7.598 Y3.695 E0.08979
G1 X7.155 Y4.496 E0.08402
G1 X6.607 Y5.269 E0.08695
G1 X5.976 Y5.976 E0.08695
G1 X5.269 Y6.607 E0.08695
G1 X4.496 Y7.155 E0.08695
G1 X3.667 Y7.614 E0.08695
G1 X2.791 Y7.976 E0.08695
G1 X1.880 Y8.239 E0.08695
G1 X0.946 Y8.398 E0.08695
G1 X-0.000 Y8.451 E0.08695
G1 X-0.946 Y8.398 E0.08695
G1 X-1.880 Y8.239 E0.08695
G1 X-2.791 Y7.976 E0.08695
G1 X-3.667 Y7.614 E0.08695
G1 X-4.496 Y7.155 E0.08695
G1 X-5.269 Y6.607 E0.08695
G1 X-5.976 Y5.976 E0.08695
G1 X-6.607 Y5.269 E0.08695
G1 X-7.155 Y4.496 E0.08695
G1 X-7.614 Y3.667 E0.08695
G1 X-7.976 Y2.791 E0.08695
G1 X-8.239 Y1.880 E0.08695
G1 X-8.398 Y0.946 E0.08695
G1 X-8.451 Y0.000 E0.08695
G1 X-8.398 Y-0.947 E0.08702
G1 X-8.230 Y-1.911 E0.08979
G1 X-7.976 Y-2.791 E0.08402
G1 X-7.614 Y-3.667 E0.08695
G1 X-7.155 Y-4.496 E0.08695
G1 X-6.607 Y-5.269 E0.08695
G1 X-5.976 Y-5.976 E0.08695
G1 X-5.269 Y-6.607 E0.08695
G1 X-4.496 Y-7.155 E0.08695
G1 X-3.667 Y-7.614 E0.08695
G1 X-2.791 Y-7.976 E0.08695
G1 X-1.880 Y-8.239 E0.08702
G1 X-0.914 Y-8.399 E0.08979
G1 X-0.000 Y-8.451 E0.08402 F900.000
G1 X0.946 Y-8.398 E0.08695
G1 X1.880 Y-8.239 E0.08695
G1 X2.791 Y-7.976 E0.08695
G1 X3.667 Y-7.614 E0.08695
G1 X4.496 Y-7.155 E0.08695
G1 X5.269 Y-6.607 E0.08695
G1 X5.976 Y-5.976 E0.08695
G1 X6.607 Y-5.269 E0.08695
G1 X7.111 Y-4.559 E0.07988
G1 X7.545 Y-4.518 F9000.000
G1 E-3.20000 F3000.00000
G1 Z0.700 F9000.000
G1 X-8.299 Y-8.276 F9000.000
G1 Z0.300 F9000.000
G1 E3.20000 F3000.00000
G1 X-8.579 Y-7.602 E0.06697 F900.000
G1 X-9.023 Y-7.023 E0.06697
G1 X-9.602 Y-6.579 E0.06696
G1 X-10.276 Y-6.299 E0.06697
G1 X-11.000 Y-6.204 E0.06697
G1 X-11.724 Y-6.299 E0.06697
G1 X-12.398 Y-6.579 E0.06697
G1 X-12.977 Y-7.023 E0.06696
G1 X-13.421 Y-7.602 E0.06696
G1 X-13.703 Y-8.281 E0.06747
G1 X-13.793 Y-9.022 E0.06841
G1 X-13.701 Y-9.724 E0.06497
G1 X-13.421 Y-10.398 E0.06697
G1 X-12.977 Y-10.977 E0.06697
G1 X-12.394 Y-11.425 E0.06747
G1 X-11.702 Y-11.703 E0.06841
G1 X-11.000 Y-11.796 E0.06497 F900.000
G1 X-10.276 Y-11.701 E0.06696
G1 X-9.602 Y-11.421 E0.06697
G1 X-9.023 Y-10.977 E0.06697
G1 X-8.579 Y-10.398 E0.06696
G1 X-8.299 Y-9.724 E0.06697
G1 X-8.204 Y-9.000 E0.06697
G1 X-8.292 Y-8.336 E0.06146
G1 X-9.016 Y-8.468 F9000.000
G1 X-9.221 Y-7.973 E0.04919 F900.000
G1 X-9.548 Y-7.548 E0.04919
G1 X-9.973 Y-7.221 E0.04919
G1 X-10.468 Y-7.016 E0.04919
G1 X-11.000 Y-6.946 E0.04919
G1 X-11.532 Y-7.016 E0.04919
G1 X-12.027 Y-7.221 E0.04919
G1 X-12.452 Y-7.548 E0.04919
G1 X-12.779 Y-7.973 E0.04919
G1 X-12.985 Y-8.470 E0.04937
G1 X-13.052 Y-9.018 E0.05064
G1 X-12.984 Y-9.532 E0.04752
G1 X-12.779 Y-10.027 E0.04919
G1 X-12.452 Y-10.452 E0.04919
G1 X-12.025 Y-10.780 E0.04937
G1 X-11.514 Y-10.986 E0.05064
G1 X-11.000 Y-11.054 E0.04752 F900.000
G1 X-10.468 Y-10.984 E0.04919
G1 X-9.973 Y-10.779 E0.04919
G1 X-9.548 Y-10.452 E0.04919
G1 X-9.221 Y-10.027 E0.04919
G1 X-9.016 Y-9.532 E0.04919
G1 X-8.946 Y-9.000 E0.04919
G1 X-9.008 Y-8.528 E0.04369
G1 X-8.746 Y-8.174 F9000.000
G1 X-10.949 Y6.211 F9000.000
G1 X-10.276 Y6.299 E0.06221 F900.000
G1 X-9.602 Y6.579 E0.06697
G1 X-9.023 Y7.023 E0.06697
G1 X-8.579 Y7.602 E0.06697
G1 X-8.299 Y8.276 E0.06697
G1 X-8.204 Y9.000 E0.06696
G1 X-8.299 Y9.724 E0.06696
G1 X-8.579 Y10.398 E0.06697
G1 X-9.023 Y10.977 E0.06697
G1 X-9.585 Y11.408 E0.06497
G1 X-10.271 Y11.700 E0.06841
G1 X-11.000 Y11.796 E0.06747
G1 X-11.724 Y11.701 E0.06696
G1 X-12.398 Y11.421 E0.06697
G1 X-12.977 Y10.977 E0.06697
G1 X-13.408 Y10.415 E0.06497
G1 X-13.700 Y9.729 E0.06841
G1 X-13.796 Y9.000 E0.06747
G1 X-13.701 Y8.276 E0.06696
G1 X-13.421 Y7.602 E0.06697
G1 X-12.977 Y7.023 E0.06697
G1 X-12.394 Y6.575 E0.06747
G1 X-11.702 Y6.297 E0.06841
G1 X-11.008 Y6.205 E0.06422 F900.000
G1 X-11.000 Y6.946 F9000.000
G1 X-10.468 Y7.016 E0.04919 F900.000
G1 X-9.973 Y7.221 E0.04919
G1 X-9.548 Y7.548 E0.04919
G1 X-9.221 Y7.973 E0.04919
G1 X-9.016 Y8.468 E0.04919
G1 X-8.946 Y9.000 E0.04919
G1 X-9.016 Y9.532 E0.04919
G1 X-9.221 Y10.027 E0.04919
G1 X-9.548 Y10.452 E0.04919
G1 X-9.959 Y10.768 E0.04752
G1 X-10.467 Y10.984 E0.05064
G1 X-11.000 Y11.054 E0.04937
G1 X-11.532 Y10.984 E0.04919
G1 X-12.027 Y10.779 E0.04919
G1 X-12.452 Y10.452 E0.04919
G1 X-12.768 Y10.041 E0.04752
G1 X-12.984 Y9.533 E0.05064
G1 X-13.054 Y9.000 E0.04937
G1 X-12.984 Y8.468 E0.04919
G1 X-12.779 Y7.973 E0.04919
G1 X-12.452 Y7.548 E0.04919
G1 X-12.025 Y7.220 E0.04937
G1 X-11.514 Y7.014 E0.05064
G1 X-11.059 Y6.954 E0.04202 F900.000
G1 X-10.785 Y6.609 F9000.000
G1 X30.338 Y24.985 F9000.000
G1 X29.830 Y25.608 E0.07373 F900.000
G1 X28.495 Y27.086 E0.18275
G1 X27.086 Y28.495 E0.18275
G1 X25.608 Y29.830 E0.18275
G1 X24.064 Y31.089 E0.18275
G1 X22.459 Y32.267 E0.18275
G1 X20.796 Y33.364 E0.18275
G1 X19.079 Y34.374 E0.18275
G1 X17.314 Y35.296 E0.18269
G1 X15.458 Y36.146 E0.18734
G1 X13.654 Y36.867 E0.17823
G1 X11.769 Y37.511 E0.18275
G1 X9.854 Y38.059 E0.18275
G1 X7.914 Y38.509 E0.18275
G1 X5.953 Y38.861 E0.18275
G1 X3.977 Y39.112 E0.18275
G1 X1.991 Y39.264 E0.18275
G1 X-0.000 Y39.314 E0.18275
G1 X-1.991 Y39.264 E0.18275
G1 X-3.977 Y39.112 E0.18275
G1 X-5.953 Y38.861 E0.18275
G1 X-7.914 Y38.509 E0.18275
G1 X-9.854 Y38.059 E0.18275
G1 X-11.769 Y37.511 E0.18275
G1 X-13.654 Y36.867 E0.18275
G1 X-15.504 Y36.128 E0.18275
G1 X-17.314 Y35.296 E0.18275
G1 X-19.079 Y34.374 E0.18275
G1 X-20.796 Y33.364 E0.18275
G1 X-22.459 Y32.267 E0.18275
G1 X-24.064 Y31.089 E0.18275
G1 X-25.608 Y29.830 E0.18269
G1 X-27.121 Y28.460 E0.18734
G1 X-28.495 Y27.086 E0.17823
G1 X-29.830 Y25.608 E0.18275
G1 X-31.089 Y24.064 E0.18275
G1 X-32.267 Y22.459 E0.18275
G1 X-33.364 Y20.796 E0.18275
G1 X-34.374 Y19.079 E0.18275
G1 X-35.296 Y17.314 E0.18275
G1 X-36.128 Y15.504 E0.18275
G1 X-36.867 Y13.654 E0.18275
G1 X-37.511 Y11.769 E0.18275
G1 X-38.059 Y9.854 E0.18275
G1 X-38.509 Y7.914 E0.18275
G1 X-38.861 Y5.953 E0.18275
G1 X-39.112 Y3.977 E0.18275
G1 X-39.264 Y1.991 E0.18275
G1 X-39.314 Y-0.000 E0.18275
G1 X-39.264 Y-1.991 E0.18275
G1 X-39.112 Y-3.977 E0.18275
G1 X-38.861 Y-5.953 E0.18275
G1 X-38.509 Y-7.914 E0.18275
G1 X-38.059 Y-9.854 E0.18275
G1 X-37.511 Y-11.769 E0.18275
G1 X-36.867 Y-13.654 E0.18275
G1 X-36.128 Y-15.504 E0.18275
G1 X-35.296 Y-17.314 E0.18275
G1 X-34.374 Y-19.079 E0.18275
G1 X-33.364 Y-20.796 E0.18275
G1 X-32.267 Y-22.459 E0.18275
G1 X-31.089 Y-24.064 E0.18275
G1 X-29.830 Y-25.608 E0.18275
G1 X-28.495 Y-27.086 E0.18275
G1 X-27.086 Y-28.495 E0.18275
G1 X-25.608 Y-29.830 E0.18275
G1 X-24.064 Y-31.089 E0.18275
