; generated by Slic3r 1.2.9 on 2016-10-21 at 14:55:51

; external perimeters extrusion width = 0.50mm
; perimeters extrusion width = 0.50mm
; infill extrusion width = 0.50mm
; solid infill extrusion width = 0.50mm
; top infill extrusion width = 0.50mm

M107
;Basic settings: Layer height: {layer_height} Walls: {wall_thickness} Fill: {fill_density}
;Print time: {print_time}
;Filament used: {filament_amount}m {filament_weight}g
;Filament cost: {filament_cost}
;M190 S{print_bed_temperature} ;Uncomment to add your own bed temperature line
;M109 S{print_temperature} ;Uncomment to add your own temperature line
G21        ;metric values
G90        ;absolute positioning
M83
G10 P0 S200
T0
M116


G21 ; set units to millimeters
G90 ; use absolute coordinates
M83 ; use relative distances for extrusion
G1 E-3.20000 F3000.00000
G1 Z0.400 F9000.000
G1 X41.702 Y-10.012 F9000.000
G1 Z0.300 F9000.000
G1 E3.20000 F3000.00000
G1 X41.982 Y-8.824 E0.11200 F1200.000
G1 X42.387 Y-6.614 E0.20607
G1 X42.654 Y-4.581 E0.18813
G1 X42.836 Y-2.343 E0.20607
G1 X42.900 Y0.095 E0.22372
G1 X42.840 Y2.267 E0.19942
G1 X42.689 Y4.246 E0.18206
G1 X42.391 Y6.590 E0.21678
G1 X42.041 Y8.543 E0.18206
G1 X41.554 Y10.661 E0.19942
G1 X40.904 Y12.933 E0.21678
G1 X40.262 Y14.811 E0.18206
G1 X39.460 Y16.831 E0.19947
G1 X39.163 Y17.512 E0.06816
G1 X38.546 Y18.831 E0.13357
G1 X38.194 Y19.535 E0.07223
G1 X37.169 Y21.423 E0.19711
G1 X36.389 Y22.723 E0.13907
G1 X35.245 Y24.459 E0.19074
G1 X34.674 Y25.262 E0.09046
G1 X33.900 Y26.292 E0.11824
G1 X32.586 Y27.904 E0.19074
G1 X31.848 Y28.744 E0.10261
G1 X31.129 Y29.520 E0.09711
G1 X30.369 Y30.302 E0.10001
G1 X29.520 Y31.129 E0.10869
G1 X28.744 Y31.848 E0.09712
G1 X27.978 Y32.522 E0.09364
G1 X26.966 Y33.366 E0.12084
G1 X26.215 Y33.959 E0.08786
G1 X25.262 Y34.674 E0.10927
G1 X24.459 Y35.245 E0.09046
G1 X22.723 Y36.389 E0.19074
G1 X21.423 Y37.169 E0.13907
G1 X19.535 Y38.194 E0.19711
G1 X18.831 Y38.546 E0.07223
G1 X16.942 Y39.414 E0.19075
G1 X15.283 Y40.085 E0.16419
G1 X13.350 Y40.770 E0.18815
G1 X11.009 Y41.463 E0.22401
G1 X9.015 Y41.942 E0.18813
G1 X6.808 Y42.356 E0.20607
G1 X4.387 Y42.675 E0.22401
G1 X2.343 Y42.836 E0.18813
G1 X0.098 Y42.900 E0.20607
G1 X-2.267 Y42.840 E0.21707
G1 X-4.246 Y42.689 E0.18206
G1 X-6.403 Y42.419 E0.19942
G1 X-8.728 Y42.002 E0.21678
G1 X-10.661 Y41.554 E0.18206
G1 X-12.752 Y40.961 E0.19942
G1 X-14.988 Y40.196 E0.21678
G1 X-16.942 Y39.414 E0.19309
G1 X-18.831 Y38.546 E0.19074
G1 X-19.535 Y38.194 E0.07223
G1 X-21.423 Y37.169 E0.19711
G1 X-22.723 Y36.389 E0.13907
G1 X-24.459 Y35.245 E0.19074
G1 X-25.262 Y34.674 E0.09046
G1 X-26.215 Y33.959 E0.10927
G1 X-26.966 Y33.366 E0.08786
G1 X-27.978 Y32.522 E0.12084
G1 X-28.744 Y31.848 E0.09364
G1 X-29.520 Y31.129 E0.09711
G1 X-30.302 Y30.369 E0.10001
G1 X-31.061 Y29.591 E0.09972
G1 X-31.911 Y28.673 E0.11477
G1 X-32.586 Y27.904 E0.09393
G1 X-33.306 Y27.040 E0.10319
G1 X-33.959 Y26.215 E0.09654
G1 X-35.190 Y24.539 E0.19074
G1 X-35.999 Y23.336 E0.13300
G1 X-36.440 Y22.639 E0.07570
G1 X-37.121 Y21.505 E0.12142
G1 X-37.542 Y20.762 E0.07831
G1 X-38.504 Y18.919 E0.19074
G1 X-39.202 Y17.426 E0.15122
G1 X-40.085 Y15.283 E0.21268
G1 X-40.770 Y13.350 E0.18815
G1 X-41.412 Y11.198 E0.20607
G1 X-41.982 Y8.824 E0.22401
G1 X-42.356 Y6.808 E0.18813
G1 X-42.654 Y4.581 E0.20607
G1 X-42.846 Y2.148 E0.22400
G1 X-42.900 Y0.098 E0.18813
G1 X-42.849 Y-2.078 E0.19971
G1 X-42.670 Y-4.434 E0.21678
G1 X-42.419 Y-6.403 E0.18206
G1 X-42.041 Y-8.543 E0.19942
G1 X-41.506 Y-10.845 E0.21678
G1 X-40.961 Y-12.752 E0.18206
G1 X-40.262 Y-14.811 E0.19942
G1 X-39.460 Y-16.831 E0.19947
G1 X-39.163 Y-17.512 E0.06816
G1 X-38.238 Y-19.451 E0.19711
G1 X-37.495 Y-20.848 E0.14515
G1 X-36.440 Y-22.639 E0.19075
G1 X-35.947 Y-23.415 E0.08438
G1 X-35.245 Y-24.459 E0.11534
G1 X-34.730 Y-25.186 E0.08178
G1 X-33.900 Y-26.292 E0.12692
G1 X-32.586 Y-27.904 E0.19074
G1 X-31.848 Y-28.744 E0.10261
G1 X-31.129 Y-29.520 E0.09712
G1 X-30.369 Y-30.302 E0.10001
G1 X-29.520 Y-31.129 E0.10869
G1 X-28.744 Y-31.848 E0.09712
G1 X-27.978 Y-32.522 E0.09364
G1 X-27.040 Y-33.306 E0.11216
G1 X-26.215 Y-33.959 E0.09654
G1 X-25.262 Y-34.674 E0.10927
G1 X-24.459 Y-35.245 E0.09046
G1 X-22.723 Y-36.389 E0.19074
G1 X-21.505 Y-37.121 E0.13039
G1 X-20.762 Y-37.542 E0.07831
G1 X-18.919 Y-38.504 E0.19075
G1 X-17.426 Y-39.202 E0.15123
G1 X-15.442 Y-40.025 E0.19706
G1 X-13.164 Y-40.830 E0.22171
G1 X-11.198 Y-41.412 E0.18813
G1 X-9.015 Y-41.942 E0.20607
G1 X-6.614 Y-42.387 E0.22400
G1 X-4.581 Y-42.654 E0.18813
G1 X-2.343 Y-42.836 E0.20607
G1 X-0.098 Y-42.900 E0.20607
G1 X0.913 Y-42.879 E0.09275
G1 X2.267 Y-42.840 E0.12432 F1200.000
G1 X4.434 Y-42.670 E0.19942
G1 X6.403 Y-42.419 E0.18206
G1 X8.543 Y-42.041 E0.19942
G1 X10.845 Y-41.506 E0.21678
G1 X12.752 Y-40.961 E0.18206
G1 X14.811 Y-40.262 E0.19942
G1 X16.942 Y-39.414 E0.21046
G1 X18.831 Y-38.546 E0.19073
G1 X19.535 Y-38.194 E0.07223
G1 X21.423 Y-37.169 E0.19710
G1 X22.723 Y-36.389 E0.13908
G1 X24.459 Y-35.245 E0.19074
G1 X25.262 Y-34.674 E0.09046
G1 X26.215 Y-33.959 E0.10927
G1 X26.966 Y-33.366 E0.08785
G1 X27.978 Y-32.522 E0.12084
G1 X28.744 Y-31.848 E0.09364
G1 X29.520 Y-31.129 E0.09712
G1 X30.302 Y-30.369 E0.10001
G1 X31.061 Y-29.591 E0.09972
G1 X31.911 Y-28.673 E0.11477
G1 X32.586 Y-27.904 E0.09393
G1 X33.306 Y-27.040 E0.10319
G1 X33.959 Y-26.215 E0.09653
G1 X35.190 Y-24.539 E0.19074
G1 X35.947 Y-23.415 E0.12431
G1 X36.389 Y-22.723 E0.07541
G1 X37.169 Y-21.423 E0.13907
G1 X38.194 Y-19.535 E0.19711
G1 X38.546 Y-18.831 E0.07223
G1 X39.452 Y-16.852 E0.19971
G1 X40.085 Y-15.283 E0.15523
G1 X40.770 Y-13.350 E0.18815
G1 X41.412 Y-11.198 E0.20607
G1 X41.688 Y-10.070 E0.10650
G1 E-3.20000 F3000.00000
G1 Z0.700 F9000.000
G1 X-6.943 Y7.931 F9000.000
G1 Z0.300 F9000.000
G1 E3.20000 F3000.00000
G1 X-6.826 Y8.820 E0.08230 F900.000
G1 X-6.826 Y9.180 E0.03303
G1 X-6.944 Y10.077 E0.08301
G1 X-7.411 Y11.162 E0.10836
G1 X-7.997 Y11.926 E0.08837
G1 X-8.936 Y12.653 E0.10899
G1 X-9.963 Y13.065 E0.10148
G1 X-11.000 Y13.195 E0.09591
G1 X-12.037 Y13.065 E0.09591
G1 X-13.064 Y12.653 E0.10148
G1 X-14.003 Y11.926 E0.10899
G1 X-14.574 Y11.181 E0.08611
G1 X-14.731 Y10.857 E0.03305
G1 X-15.057 Y10.069 E0.07822
G1 X-15.174 Y9.180 E0.08230
G1 X-15.174 Y8.820 E0.03303
G1 X-15.056 Y7.923 E0.08301
G1 X-14.589 Y6.838 E0.10836
G1 X-14.003 Y6.074 E0.08837
G1 X-13.064 Y5.347 E0.10899
G1 X-12.040 Y4.937 E0.10116
G1 X-11.382 Y4.850 E0.06096
G1 X-10.993 Y4.806 E0.03591 F900.000
G1 X-9.963 Y4.935 E0.09524
G1 X-8.936 Y5.347 E0.10148
G1 X-7.997 Y6.074 E0.10899
G1 X-7.426 Y6.819 E0.08611
G1 X-7.269 Y7.143 E0.03305
G1 X-6.966 Y7.875 E0.07271
G1 X-7.660 Y8.123 F9000.000
G1 X-7.562 Y8.868 E0.06899 F900.000
G1 X-7.562 Y9.132 E0.02418
G1 X-7.660 Y9.880 E0.06924
G1 X-8.050 Y10.787 E0.09059
G1 X-8.523 Y11.403 E0.07121
G1 X-9.305 Y12.009 E0.09082
G1 X-10.148 Y12.347 E0.08334
G1 X-11.000 Y12.453 E0.07875
G1 X-11.852 Y12.347 E0.07875
G1 X-12.695 Y12.009 E0.08334
G1 X-13.477 Y11.403 E0.09082
G1 X-13.945 Y10.794 E0.07041
G1 X-14.059 Y10.556 E0.02419
G1 X-14.340 Y9.877 E0.06744
G1 X-14.438 Y9.132 E0.06899
G1 X-14.438 Y8.868 E0.02418
G1 X-14.340 Y8.120 E0.06924
G1 X-13.950 Y7.213 E0.09059
G1 X-13.477 Y6.597 E0.07121
G1 X-12.695 Y5.991 E0.09082
G1 X-11.853 Y5.654 E0.08323
G1 X-11.293 Y5.580 E0.05185
G1 X-10.997 Y5.547 E0.02724 F900.000
G1 X-10.148 Y5.653 E0.07851
G1 X-9.305 Y5.991 E0.08334
G1 X-8.523 Y6.597 E0.09082
G1 X-8.055 Y7.206 E0.07042
G1 X-7.683 Y8.067 E0.08610
G1 X-7.278 Y8.241 F9000.000
G1 X-4.381 Y4.381 F9000.000
G1 X-5.366 Y3.098 E0.14840 F900.000
G1 X-5.985 Y1.604 E0.14840
G1 X-6.196 Y0.000 E0.14840
G1 X-5.985 Y-1.604 E0.14840
G1 X-5.366 Y-3.098 E0.14840
G1 X-4.381 Y-4.381 E0.14840
G1 X-3.098 Y-5.366 E0.14840
G1 X-1.604 Y-5.985 E0.14840
G1 X-0.214 Y-6.168 E0.12855
G1 X-0.000 Y-6.196 E0.01985 F900.000
G1 X1.604 Y-5.985 E0.14840
G1 X3.098 Y-5.366 E0.14840
G1 X4.381 Y-4.381 E0.14840
G1 X5.366 Y-3.098 E0.14840
G1 X5.985 Y-1.604 E0.14840
G1 X6.196 Y0.000 E0.14840
G1 X5.985 Y1.604 E0.14840
G1 X5.366 Y3.098 E0.14840
G1 X4.381 Y4.381 E0.14840
G1 X3.098 Y5.366 E0.14840
G1 X1.604 Y5.985 E0.14840
G1 X-0.000 Y6.196 E0.14840
G1 X-1.604 Y5.985 E0.14840
G1 X-3.098 Y5.366 E0.14840
G1 X-4.334 Y4.418 E0.14290
G1 X-3.856 Y3.856 F9000.000
G1 X-4.723 Y2.727 E0.13063 F900.000
G1 X-5.268 Y1.412 E0.13063
G1 X-5.454 Y0.000 E0.13063
G1 X-5.268 Y-1.412 E0.13063
G1 X-4.723 Y-2.727 E0.13063
G1 X-3.856 Y-3.856 E0.13063
G1 X-2.727 Y-4.723 E0.13063
G1 X-1.412 Y-5.268 E0.13063
G1 X-0.118 Y-5.438 E0.11967
G1 X-0.000 Y-5.454 E0.01096 F900.000
G1 X1.412 Y-5.268 E0.13063
G1 X2.727 Y-4.723 E0.13063
G1 X3.856 Y-3.856 E0.13063
G1 X4.723 Y-2.727 E0.13063
G1 X5.268 Y-1.412 E0.13063
G1 X5.454 Y0.000 E0.13063
G1 X5.268 Y1.412 E0.13063
G1 X4.723 Y2.727 E0.13063
G1 X3.856 Y3.856 E0.13063
G1 X2.727 Y4.723 E0.13063
G1 X1.412 Y5.268 E0.13063
G1 X-0.000 Y5.454 E0.13063
G1 X-1.412 Y5.268 E0.13063
G1 X-2.727 Y4.723 E0.13063
G1 X-3.809 Y3.893 E0.12512
G1 X-4.247 Y3.943 F9000.000
G1 E-3.20000 F3000.00000
G1 Z0.700 F9000.000
G1 X7.997 Y-6.074 F9000.000
G1 Z0.300 F9000.000
G1 E3.20000 F3000.00000
G1 X7.426 Y-6.819 E0.08611 F900.000
G1 X7.269 Y-7.143 E0.03305
G1 X6.943 Y-7.931 E0.07822
G1 X6.826 Y-8.820 E0.08230
G1 X6.826 Y-9.180 E0.03303
G1 X6.944 Y-10.077 E0.08301
G1 X7.411 Y-11.162 E0.10836
G1 X7.997 Y-11.926 E0.08837
G1 X8.936 Y-12.653 E0.10900
G1 X9.960 Y-13.063 E0.10116
G1 X10.618 Y-13.150 E0.06096
G1 X11.007 Y-13.194 E0.03591 F900.000
G1 X12.037 Y-13.065 E0.09524
G1 X13.064 Y-12.653 E0.10148
G1 X14.003 Y-11.926 E0.10900
G1 X14.574 Y-11.181 E0.08611
G1 X14.731 Y-10.857 E0.03305
G1 X15.057 Y-10.069 E0.07822
G1 X15.174 Y-9.180 E0.08230
G1 X15.174 Y-8.820 E0.03303
G1 X15.056 Y-7.923 E0.08301
G1 X14.589 Y-6.838 E0.10836
G1 X14.003 Y-6.074 E0.08837
G1 X13.064 Y-5.347 E0.10900
G1 X12.037 Y-4.935 E0.10148
G1 X11.000 Y-4.805 E0.09591
G1 X9.963 Y-4.935 E0.09591
G1 X8.936 Y-5.347 E0.10148
G1 X8.044 Y-6.037 E0.10349
G1 X8.523 Y-6.597 F9000.000
G1 X8.055 Y-7.206 E0.07041 F900.000
G1 X7.660 Y-8.123 E0.09160
G1 X7.562 Y-8.868 E0.06899
G1 X7.562 Y-9.132 E0.02418
G1 X7.660 Y-9.880 E0.06924
G1 X8.050 Y-10.787 E0.09059
G1 X8.523 Y-11.403 E0.07121
G1 X9.305 Y-12.009 E0.09082
G1 X10.147 Y-12.346 E0.08323
G1 X10.707 Y-12.420 E0.05185
G1 X11.003 Y-12.453 E0.02724 F900.000
G1 X11.852 Y-12.347 E0.07851
G1 X12.695 Y-12.009 E0.08334
G1 X13.477 Y-11.403 E0.09082
G1 X13.945 Y-10.794 E0.07041
G1 X14.340 Y-9.877 E0.09160
G1 X14.438 Y-9.132 E0.06899
G1 X14.438 Y-8.868 E0.02418
G1 X14.340 Y-8.120 E0.06924
G1 X13.950 Y-7.213 E0.09059
G1 X13.477 Y-6.597 E0.07121
G1 X12.695 Y-5.991 E0.09082
G1 X11.852 Y-5.653 E0.08334
G1 X11.000 Y-5.547 E0.07875
G1 X10.148 Y-5.653 E0.07875
G1 X9.305 Y-5.991 E0.08334
G1 X8.570 Y-6.561 E0.08532
G1 X8.132 Y-6.511 F9000.000
G1 X10.081 Y4.921 F9000.000
G1 X10.618 Y4.850 E0.04968 F900.000
G1 X11.007 Y4.806 E0.03591 F900.000
G1 X12.037 Y4.935 E0.09524
G1 X13.064 Y5.347 E0.10148
G1 X14.003 Y6.074 E0.10900
G1 X14.574 Y6.819 E0.08611
G1 X14.731 Y7.143 E0.03305
G1 X15.057 Y7.931 E0.07822
G1 X15.174 Y8.820 E0.08230
G1 X15.174 Y9.180 E0.03303
G1 X15.056 Y10.077 E0.08301
G1 X14.589 Y11.162 E0.10836
G1 X14.003 Y11.926 E0.08837
G1 X13.064 Y12.653 E0.10900
G1 X12.037 Y13.065 E0.10148
G1 X11.000 Y13.195 E0.09591
G1 X9.963 Y13.065 E0.09591
G1 X8.936 Y12.653 E0.10148
G1 X7.997 Y11.926 E0.10900
G1 X7.426 Y11.181 E0.08611
G1 X7.269 Y10.857 E0.03305
G1 X6.943 Y10.069 E0.07822
G1 X6.826 Y9.180 E0.08230
G1 X6.826 Y8.820 E0.03303
G1 X6.944 Y7.923 E0.08301
G1 X7.411 Y6.838 E0.10836
G1 X7.997 Y6.074 E0.08837
G1 X8.936 Y5.347 E0.10899
G1 X9.960 Y4.937 E0.10116
G1 X10.022 Y4.928 E0.00577
G1 X10.147 Y5.654 F9000.000
G1 X10.707 Y5.580 E0.05185 F900.000
G1 X11.003 Y5.547 E0.02724 F900.000
G1 X11.852 Y5.653 E0.07851
G1 X12.695 Y5.991 E0.08334
G1 X13.477 Y6.597 E0.09082
G1 X13.945 Y7.206 E0.07041
G1 X14.340 Y8.123 E0.09160
G1 X14.438 Y8.868 E0.06899
G1 X14.438 Y9.132 E0.02418
G1 X14.340 Y9.880 E0.06924
G1 X13.950 Y10.787 E0.09059
G1 X13.477 Y11.403 E0.07121
G1 X12.695 Y12.009 E0.09082
G1 X11.852 Y12.347 E0.08334
G1 X11.000 Y12.453 E0.07875
G1 X10.148 Y12.347 E0.07875
G1 X9.305 Y12.009 E0.08334
G1 X8.523 Y11.403 E0.09082
G1 X8.055 Y10.794 E0.07041
G1 X7.660 Y9.877 E0.09160
G1 X7.562 Y9.132 E0.06899
G1 X7.562 Y8.868 E0.02418
G1 X7.660 Y8.120 E0.06924
G1 X8.050 Y7.213 E0.09059
G1 X8.523 Y6.597 E0.07121
G1 X9.305 Y5.991 E0.09082
G1 X10.092 Y5.676 E0.07773
G1 X10.269 Y5.273 F9000.000
G1 E-3.20000 F3000.00000
G1 Z0.700 F9000.000
G1 X-7.411 Y-6.838 F9000.000
G1 Z0.300 F9000.000
G1 E3.20000 F3000.00000
G1 X-7.997 Y-6.074 E0.08837 F900.000
G1 X-8.936 Y-5.347 E0.10899
G1 X-9.963 Y-4.935 E0.10148
G1 X-11.000 Y-4.805 E0.09591
G1 X-12.037 Y-4.935 E0.09591
G1 X-13.064 Y-5.347 E0.10148
G1 X-14.003 Y-6.074 E0.10899
G1 X-14.574 Y-6.819 E0.08611
G1 X-14.731 Y-7.143 E0.03305
G1 X-15.057 Y-7.931 E0.07822
G1 X-15.174 Y-8.820 E0.08230
G1 X-15.174 Y-9.180 E0.03303
G1 X-15.056 Y-10.077 E0.08301
G1 X-14.589 Y-11.162 E0.10836
G1 X-14.003 Y-11.926 E0.08837
G1 X-13.064 Y-12.653 E0.10899
G1 X-12.040 Y-13.063 E0.10116
G1 X-11.382 Y-13.150 E0.06096
G1 X-10.993 Y-13.194 E0.03591 F900.000
G1 X-9.963 Y-13.065 E0.09524
G1 X-8.936 Y-12.653 E0.10148
G1 X-7.997 Y-11.926 E0.10899
G1 X-7.426 Y-11.181 E0.08611
G1 X-7.269 Y-10.857 E0.03305
G1 X-6.943 Y-10.069 E0.07822
G1 X-6.826 Y-9.180 E0.08230
G1 X-6.826 Y-8.820 E0.03303
G1 X-6.944 Y-7.923 E0.08301
G1 X-7.387 Y-6.893 E0.10286
G1 X-8.050 Y-7.213 F9000.000
G1 X-8.523 Y-6.597 E0.07121 F900.000
G1 X-9.305 Y-5.991 E0.09082
G1 X-10.148 Y-5.653 E0.08334
G1 X-11.000 Y-5.547 E0.07875
G1 X-11.852 Y-5.653 E0.07875
G1 X-12.695 Y-5.991 E0.08334
G1 X-13.477 Y-6.597 E0.09082
G1 X-13.945 Y-7.206 E0.07041
G1 X-14.340 Y-8.123 E0.09160
G1 X-14.438 Y-8.868 E0.06899
G1 X-14.438 Y-9.132 E0.02418
G1 X-14.340 Y-9.880 E0.06924
G1 X-13.950 Y-10.787 E0.09059
G1 X-13.477 Y-11.403 E0.07121
G1 X-12.695 Y-12.009 E0.09082
G1 X-11.853 Y-12.346 E0.08323
G1 X-11.293 Y-12.420 E0.05185
G1 X-10.997 Y-12.453 E0.02724 F900.000
G1 X-10.148 Y-12.347 E0.07851
G1 X-9.305 Y-12.009 E0.08334
G1 X-8.523 Y-11.403 E0.09082
G1 X-8.055 Y-10.794 E0.07041
G1 X-7.660 Y-9.877 E0.09160
G1 X-7.562 Y-9.132 E0.06899
G1 X-7.562 Y-8.868 E0.02418
G1 X-7.660 Y-8.120 E0.06924
G1 X-8.026 Y-7.268 E0.08509
G1 X-7.867 Y-6.857 F9000.000
G1 X33.453 Y-18.068 F9000.000
G1 X34.143 Y-16.748 E0.13668 F900.000
G1 X34.949 Y-14.994 E0.17709
G1 X35.502 Y-13.632 E0.13489
G1 X36.168 Y-11.752 E0.18304
G1 X36.733 Y-9.843 E0.18267
G1 X37.198 Y-7.907 E0.18267
G1 X37.561 Y-5.949 E0.18267
G1 X37.821 Y-3.975 E0.18267
G1 X37.977 Y-1.990 E0.18267
G1 X38.029 Y0.001 E0.18272
G1 X37.980 Y1.926 E0.17674
G1 X37.834 Y3.847 E0.17678
G1 X37.591 Y5.759 E0.17678
G1 X37.251 Y7.655 E0.17678
G1 X36.815 Y9.532 E0.17678
G1 X36.285 Y11.385 E0.17678
G1 X35.662 Y13.208 E0.17678
G1 X34.947 Y14.997 E0.17682
G1 X34.143 Y16.748 E0.17676
G1 X33.251 Y18.456 E0.17678
G1 X32.273 Y20.116 E0.17678
G1 X31.213 Y21.725 E0.17678
G1 X30.073 Y23.278 E0.17678
G1 X28.850 Y24.777 E0.17748
G1 X27.563 Y26.201 E0.17612
G1 X26.201 Y27.563 E0.17669
G1 X24.777 Y28.850 E0.17612
G1 X23.278 Y30.073 E0.17748
G1 X21.725 Y31.213 E0.17678
G1 X20.116 Y32.273 E0.17678
G1 X18.456 Y33.251 E0.17678
G1 X16.748 Y34.143 E0.17678
G1 X14.994 Y34.949 E0.17709
G1 X13.632 Y35.502 E0.13489
G1 X11.752 Y36.168 E0.18304
G1 X9.843 Y36.733 E0.18267
G1 X7.907 Y37.198 E0.18267
G1 X5.949 Y37.561 E0.18267
G1 X3.975 Y37.821 E0.18267
G1 X1.990 Y37.977 E0.18267
G1 X-0.001 Y38.029 E0.18272
G1 X-1.926 Y37.980 E0.17674
G1 X-3.847 Y37.834 E0.17678
G1 X-5.759 Y37.591 E0.17678
G1 X-7.655 Y37.251 E0.17678
G1 X-9.532 Y36.815 E0.17678
G1 X-11.385 Y36.285 E0.17678
G1 X-13.208 Y35.662 E0.17678
G1 X-14.997 Y34.947 E0.17682
G1 X-16.748 Y34.143 E0.17676
G1 X-18.456 Y33.251 E0.17678
G1 X-20.116 Y32.273 E0.17678
G1 X-21.725 Y31.213 E0.17678
G1 X-23.278 Y30.073 E0.17678
G1 X-24.777 Y28.850 E0.17748
G1 X-26.201 Y27.563 E0.17612
G1 X-26.891 Y26.891 E0.08835
G1 X-27.563 Y26.201 E0.08835
G1 X-28.850 Y24.777 E0.17612
G1 X-30.073 Y23.278 E0.17748
G1 X-31.213 Y21.725 E0.17678
G1 X-32.273 Y20.116 E0.17678
G1 X-33.251 Y18.456 E0.17678
G1 X-34.143 Y16.748 E0.17678
