; generated by Slic3r 1.2.9 on 2017-02-20 at 10:58:33

; external perimeters extrusion width = 0.40mm
; perimeters extrusion width = 0.40mm
; infill extrusion width = 0.40mm
; solid infill extrusion width = 0.40mm
; top infill extrusion width = 0.40mm

M107
M83
T0
M116
G21 ; set units to millimeters
G90 ; use absolute coordinates
M83 ; use relative distances for extrusion
G1 E-3.20000 F3000.00000
G1 Z0.400 F15000.000
G1 X0.000 Y22.161 F15000.000
G1 Z0.300 F15000.000
G1 E3.20000 F3000.00000
G1 X-12.776 Y22.161 E0.98457 F960.000
G1 X-14.423 Y21.766 E0.13052
G1 X-15.347 Y21.096 E0.08796
G1 X-17.197 Y19.246 E0.20163
G1 X-17.449 Y18.965 E0.02911
G1 X-28.491 Y5.351 E1.35084
G1 X-28.816 Y4.879 E0.04418
G1 X-34.481 Y-4.933 E0.87316
G1 X-34.955 Y-7.055 E0.16758
G1 X-34.870 Y-7.956 E0.06970
G1 X-34.682 Y-9.063 E0.08654
G1 X-34.406 Y-10.151 E0.08653
G1 X-34.044 Y-11.214 E0.08653
G1 X-33.721 Y-11.980 E0.06405
G1 X-33.215 Y-12.982 E0.08653
G1 X-32.465 Y-14.181 E0.10901
G1 X-31.969 Y-14.848 E0.06405
G1 X-31.237 Y-15.700 E0.08653
G1 X-30.440 Y-16.491 E0.08653
G1 X-29.350 Y-17.392 E0.10901
G1 X-28.546 Y-17.950 E0.07538
G1 X-22.874 Y-21.586 E0.51923
G1 X-20.912 Y-22.161 E0.15755
G1 X20.912 Y-22.161 E3.22320
G1 X22.874 Y-21.586 E0.15755
G1 X28.546 Y-17.950 E0.51923 F960.000
G1 X29.582 Y-17.215 E0.09786
G1 X30.440 Y-16.491 E0.08653
G1 X31.237 Y-15.700 E0.08654
G1 X31.785 Y-15.075 E0.06405
G1 X32.465 Y-14.181 E0.08654
G1 X33.070 Y-13.236 E0.08653
G1 X33.721 Y-11.980 E0.10901
G1 X34.146 Y-10.941 E0.08654
G1 X34.486 Y-9.871 E0.08653
G1 X34.682 Y-9.063 E0.06405
G1 X34.870 Y-7.955 E0.08657
G1 X34.955 Y-7.057 E0.06956
G1 X34.481 Y-4.933 E0.16767
G1 X28.816 Y4.879 E0.87316
G1 X28.491 Y5.351 E0.04418
G1 X17.449 Y18.965 E1.35087
G1 X17.197 Y19.246 E0.02911
G1 X15.347 Y21.096 E0.20163
G1 X13.903 Y21.981 E0.13052
G1 X12.776 Y22.161 E0.08796
G1 X0.060 Y22.161 E0.97994
G1 E-3.20000 F3000.00000
G1 Z0.700 F15000.000
G1 X-4.363 Y-1.049 F15000.000
G1 Z0.300 F15000.000
G1 E3.20000 F3000.00000
G1 X-4.658 Y-1.023 E0.02278 F600.000
G1 X-5.070 Y-1.077 E0.03206
G1 X-5.348 Y-1.178 E0.02278
G1 X-5.597 Y-1.322 E0.02218
G1 X-5.818 Y-1.507 E0.02218
G1 X-6.003 Y-1.728 E0.02218
G1 X-6.147 Y-1.977 E0.02218
G1 X-6.248 Y-2.255 E0.02277
G1 X-6.300 Y-2.651 E0.03079
G1 X-6.300 Y-9.691 E0.54258
G1 X-6.276 Y-9.962 E0.02092
G1 X-6.202 Y-10.240 E0.02218
G1 X-6.080 Y-10.501 E0.02218
G1 X-5.915 Y-10.736 E0.02218
G1 X-5.711 Y-10.940 E0.02218
G1 X-5.476 Y-11.105 E0.02218
G1 X-5.215 Y-11.227 E0.02218
G1 X-4.938 Y-11.301 E0.02208
G1 X-4.689 Y-11.325 E0.01926 F600.000
G1 X-4.366 Y-11.302 E0.02496
G1 X-4.078 Y-11.225 E0.02302
G1 X-3.709 Y-11.033 E0.03206
G1 X-3.482 Y-10.843 E0.02278
G1 X-3.297 Y-10.622 E0.02218
G1 X-3.153 Y-10.373 E0.02218
G1 X-3.052 Y-10.095 E0.02277
G1 X-3.000 Y-9.699 E0.03079
G1 X-3.000 Y-2.659 E0.54258
G1 X-3.024 Y-2.388 E0.02092
G1 X-3.098 Y-2.110 E0.02218
G1 X-3.220 Y-1.849 E0.02218
G1 X-3.385 Y-1.614 E0.02218
G1 X-3.589 Y-1.410 E0.02218
G1 X-3.824 Y-1.245 E0.02218
G1 X-4.085 Y-1.123 E0.02218
G1 X-4.305 Y-1.064 E0.01756
G1 X-4.472 Y-0.774 F15000.000
G1 X7.953 Y17.539 F15000.000
G1 X-12.367 Y17.539 E1.56604 F720.000
G1 X-13.232 Y16.675 E0.09421
G1 X-13.114 Y16.558 E0.01280
G1 X-13.114 Y15.711 E0.06527
G1 X-8.714 Y15.711 E0.33909
G1 X-8.714 Y9.939 E0.44476
G1 X-13.114 Y9.939 E0.33909
G1 X-13.114 Y9.092 E0.06527
G1 X-13.626 Y8.581 E0.05578
G1 X-13.633 Y8.350 E0.01775
G1 X-13.696 Y7.856 E0.03842
G1 X-13.839 Y7.250 E0.04801
G1 X-13.934 Y6.935 E0.02530
G1 X-14.112 Y6.488 E0.03709
G1 X-14.326 Y6.057 E0.03709
G1 X-14.576 Y5.646 E0.03709
G1 X-14.860 Y5.257 E0.03709
G1 X-15.175 Y4.894 E0.03709
G1 X-15.520 Y4.558 E0.03709
G1 X-15.892 Y4.252 E0.03709
G1 X-16.288 Y3.979 E0.03709
G1 X-16.706 Y3.740 E0.03709
G1 X-17.142 Y3.536 E0.03709
G1 X-17.593 Y3.370 E0.03709
G1 X-18.058 Y3.243 E0.03709
G1 X-18.531 Y3.155 E0.03709
G1 X-19.010 Y3.107 E0.03709
G1 X-19.491 Y3.099 E0.03708
G1 X-20.764 Y3.185 E0.09838
G1 X-21.559 Y3.172 E0.06127
G1 X-22.350 Y3.091 E0.06128
G1 X-23.131 Y2.943 E0.06127
G1 X-23.897 Y2.729 E0.06127
G1 X-24.645 Y2.450 E0.06154
G1 X-24.969 Y2.299 E0.02752
G1 X-25.111 Y2.054 E0.02183
G1 X-24.922 Y1.848 E0.02152
G1 X-24.401 Y2.089 E0.04431
G1 X-23.671 Y2.353 E0.05982
G1 X-22.921 Y2.553 E0.05982
G1 X-22.156 Y2.687 E0.05982
G1 X-21.383 Y2.753 E0.05982
G1 X-20.607 Y2.753 E0.05982
G1 X-19.833 Y2.685 E0.05982
G1 X-19.069 Y2.550 E0.05982
G1 X-18.319 Y2.350 E0.05982
G1 X-17.590 Y2.085 E0.05982
G1 X-16.886 Y1.758 E0.05982
G1 X-16.213 Y1.371 E0.05982
G1 X-15.576 Y0.927 E0.05982
G1 X-14.980 Y0.430 E0.05982
G1 X-14.430 Y-0.117 E0.05982
G1 X-13.929 Y-0.710 E0.05982
G1 X-13.549 Y-1.249 E0.05078
G1 X-13.093 Y-2.010 E0.06837
G1 X-12.760 Y-2.717 E0.06027
G1 X-12.491 Y-3.445 E0.05982
G1 X-12.286 Y-4.194 E0.05982
G1 X-12.167 Y-4.848 E0.05127
G1 X-7.159 Y-10.099 E0.55919
G1 X-6.912 Y-9.988 E0.02084
G1 X-6.936 Y-9.719 E0.02076 F720.000
G1 X-6.936 Y-2.609 E0.54794
G1 X-6.869 Y-2.103 E0.03937
G1 X-6.725 Y-1.707 E0.03242
G1 X-6.525 Y-1.362 E0.03075
G1 X-6.269 Y-1.056 E0.03076
G1 X-5.963 Y-0.800 E0.03075
G1 X-5.618 Y-0.600 E0.03075
G1 X-5.222 Y-0.456 E0.03243
G1 X-4.672 Y-0.384 E0.04279
G1 X-4.252 Y-0.420 E0.03243
G1 X-3.867 Y-0.524 E0.03076
G1 X-3.505 Y-0.692 E0.03075
G1 X-3.178 Y-0.921 E0.03075
G1 X-2.896 Y-1.203 E0.03076
G1 X-2.667 Y-1.530 E0.03075
G1 X-2.499 Y-1.892 E0.03075
G1 X-2.395 Y-2.277 E0.03075
G1 X-2.364 Y-2.631 E0.02734
G1 X-2.364 Y-5.528 E0.22331
G1 X-2.031 Y-5.571 E0.02589
G1 X-1.954 Y-5.272 E0.02375
G1 X-1.852 Y-5.016 E0.02131
G1 X-1.644 Y-4.641 E0.03298
G1 X-1.481 Y-4.418 E0.02131
G1 X-1.172 Y-4.093 E0.03458
G1 X3.532 Y-0.563 E0.45326
G1 X3.913 Y-0.369 E0.03289
G1 X4.341 Y-0.236 E0.03452
G1 X4.957 Y-0.183 E0.04768
G1 X5.567 Y-0.289 E0.04768
G1 X5.981 Y-0.458 E0.03452
G1 X6.307 Y-0.660 E0.02952
G1 X8.039 Y-1.960 E0.16687
G1 X8.367 Y-2.228 E0.03265
G1 X8.687 Y-2.538 E0.03433
G1 X8.979 Y-2.874 E0.03433
G1 X9.243 Y-3.233 E0.03434
G1 X9.475 Y-3.614 E0.03433
G1 X9.674 Y-4.012 E0.03433
G1 X9.839 Y-4.426 E0.03433
G1 X9.968 Y-4.852 E0.03433
G1 X10.062 Y-5.288 E0.03433
G1 X10.118 Y-5.730 E0.03434
G1 X10.137 Y-6.175 E0.03433
G1 X10.101 Y-7.014 E0.06470
G1 X12.170 Y-4.845 E0.23095
G1 X12.196 Y-4.639 E0.01603
G1 X12.362 Y-3.885 E0.05946
G1 X12.591 Y-3.149 E0.05946
G1 X12.884 Y-2.435 E0.05946
G1 X13.237 Y-1.749 E0.05946
G1 X13.647 Y-1.095 E0.05946
G1 X14.113 Y-0.480 E0.05946
G1 X14.630 Y0.093 E0.05946
G1 X15.194 Y0.619 E0.05946
G1 X15.803 Y1.095 E0.05958
G1 X16.471 Y1.528 E0.06136
G1 X17.129 Y1.879 E0.05745
G1 X17.838 Y2.183 E0.05946
G1 X18.571 Y2.425 E0.05946
G1 X19.321 Y2.603 E0.05946
G1 X20.085 Y2.715 E0.05946
G1 X20.855 Y2.760 E0.05946
G1 X21.626 Y2.740 E0.05946
G1 X22.393 Y2.652 E0.05946
G1 X23.149 Y2.499 E0.05946
G1 X23.889 Y2.282 E0.05946
G1 X24.608 Y2.001 E0.05946
G1 X24.917 Y1.848 E0.02652
G1 X25.110 Y2.055 E0.02180
G1 X24.969 Y2.299 E0.02171
G1 X24.645 Y2.450 E0.02758
G1 X23.897 Y2.729 E0.06150
G1 X23.131 Y2.943 E0.06127
G1 X22.350 Y3.091 E0.06128
G1 X21.559 Y3.172 E0.06128
G1 X20.764 Y3.185 E0.06127
G1 X19.491 Y3.099 E0.09838
G1 X19.010 Y3.107 E0.03708
G1 X18.531 Y3.155 E0.03709
G1 X18.058 Y3.243 E0.03709
G1 X17.595 Y3.370 E0.03697
G1 X17.157 Y3.529 E0.03596
G1 X16.706 Y3.740 E0.03835
G1 X16.288 Y3.979 E0.03709
G1 X15.892 Y4.252 E0.03709
G1 X15.520 Y4.558 E0.03709
G1 X15.175 Y4.894 E0.03709
G1 X14.860 Y5.257 E0.03709
G1 X14.576 Y5.646 E0.03709
G1 X14.326 Y6.057 E0.03709
G1 X14.112 Y6.488 E0.03709
G1 X13.934 Y6.935 E0.03709
G1 X13.795 Y7.396 E0.03709
G1 X13.694 Y7.867 E0.03709
G1 X13.633 Y8.350 E0.03758
G1 X13.626 Y8.581 E0.01775
G1 X13.114 Y9.092 E0.05578
G1 X13.114 Y9.939 E0.06527
G1 X8.714 Y9.939 E0.33909
G1 X8.714 Y15.711 E0.44476
G1 X13.114 Y15.711 E0.33909
G1 X13.114 Y16.558 E0.06527
G1 X13.232 Y16.675 E0.01280
G1 X12.367 Y17.539 E0.09421
G1 X8.013 Y17.539 E0.33554
G1 X-1.927 Y-7.131 F15000.000
G1 X-2.047 Y-6.788 E0.02806 F600.000
G1 X-2.364 Y-6.842 E0.02481
G1 X-2.364 Y-9.741 E0.22343
G1 X-2.431 Y-10.247 E0.03937
G1 X-2.575 Y-10.643 E0.03242
G1 X-2.775 Y-10.988 E0.03075
G1 X-3.110 Y-11.388 E0.04019
G1 X2.559 Y-11.389 E0.43690
G1 X2.646 Y-11.128 E0.02117
G1 X-1.180 Y-8.252 E0.36888 F600.000
G1 X-1.547 Y-7.850 E0.04195
G1 X-1.856 Y-7.331 E0.04658
G1 X-1.907 Y-7.188 E0.01169
G1 X-1.307 Y-6.978 F15000.000
G1 X-1.400 Y-6.713 E0.02159 F720.000
G1 X-1.459 Y-6.363 E0.02735
G1 X-1.467 Y-6.168 E0.01511
G1 X-1.437 Y-5.814 E0.02735
G1 X-1.349 Y-5.470 E0.02735
G1 X-1.276 Y-5.288 E0.01511
G1 X-1.108 Y-4.984 E0.02678
G1 X-0.992 Y-4.826 E0.01511
G1 X-0.748 Y-4.569 E0.02735
G1 X3.870 Y-1.104 E0.44491
G1 X4.153 Y-0.960 E0.02446
G1 X4.463 Y-0.864 E0.02504
G1 X4.929 Y-0.824 E0.03607
G1 X5.391 Y-0.904 E0.03607
G1 X5.692 Y-1.026 E0.02503
G1 X5.947 Y-1.185 E0.02321
G1 X7.647 Y-2.460 E0.16373
G1 X7.944 Y-2.703 E0.02955
G1 X8.225 Y-2.976 E0.03020
G1 X8.482 Y-3.271 E0.03020
G1 X8.714 Y-3.587 E0.03020
G1 X8.918 Y-3.922 E0.03020
G1 X9.093 Y-4.272 E0.03020
G1 X9.238 Y-4.636 E0.03020
G1 X9.352 Y-5.011 E0.03020
G1 X9.434 Y-5.395 E0.03020
G1 X9.484 Y-5.783 E0.03020
G1 X9.500 Y-6.175 E0.03020
G1 X9.484 Y-6.567 E0.03020
G1 X9.434 Y-6.955 E0.03020
G1 X9.352 Y-7.342 E0.03050
G1 X9.187 Y-7.845 E0.04077
G1 X8.921 Y-8.423 E0.04903
G1 X8.714 Y-8.763 E0.03065
G1 X8.351 Y-9.230 E0.04561
G1 X8.626 Y-9.481 E0.02873
G1 X12.400 Y-5.525 E0.42132
G1 X12.722 Y-5.525 E0.02484
G1 X12.823 Y-4.748 E0.06036
G1 X12.977 Y-4.048 E0.05523
G1 X13.190 Y-3.364 E0.05523
G1 X13.462 Y-2.701 E0.05523
G1 X13.789 Y-2.064 E0.05523
G1 X14.171 Y-1.457 E0.05523
G1 X14.603 Y-0.886 E0.05523
G1 X15.083 Y-0.354 E0.05523
G1 X15.608 Y0.135 E0.05523
G1 X16.172 Y0.577 E0.05527
G1 X16.795 Y0.980 E0.05712
G1 X17.404 Y1.306 E0.05329
G1 X18.063 Y1.588 E0.05523
G1 X18.744 Y1.813 E0.05523
G1 X19.441 Y1.978 E0.05523
G1 X20.150 Y2.082 E0.05523
G1 X20.865 Y2.124 E0.05523
G1 X21.582 Y2.105 E0.05523
G1 X22.294 Y2.024 E0.05523
G1 X22.996 Y1.882 E0.05523
G1 X23.684 Y1.680 E0.05523
G1 X24.351 Y1.419 E0.05523
G1 X24.994 Y1.101 E0.05523
G1 X25.607 Y0.730 E0.05523
G1 X26.185 Y0.307 E0.05523
G1 X26.790 Y-0.222 E0.06196
G1 X27.040 Y-0.017 E0.02491
G1 X25.419 Y2.790 E0.24980
G1 X24.891 Y3.037 E0.04496
G1 X24.094 Y3.334 E0.06552
G1 X23.276 Y3.562 E0.06544
G1 X22.442 Y3.720 E0.06544
G1 X21.597 Y3.807 E0.06544
G1 X20.748 Y3.821 E0.06544
G1 X19.474 Y3.735 E0.09841
G1 X19.046 Y3.742 E0.03297
G1 X18.621 Y3.784 E0.03297
G1 X18.200 Y3.863 E0.03297
G1 X17.788 Y3.976 E0.03293
G1 X17.400 Y4.117 E0.03184
G1 X16.998 Y4.304 E0.03415
G1 X16.627 Y4.517 E0.03297
G1 X16.275 Y4.760 E0.03297
G1 X15.945 Y5.032 E0.03297
G1 X15.638 Y5.330 E0.03297
G1 X15.358 Y5.654 E0.03297
G1 X15.106 Y5.999 E0.03297
G1 X14.883 Y6.365 E0.03297
G1 X14.693 Y6.748 E0.03297
G1 X14.535 Y7.145 E0.03297
G1 X14.411 Y7.555 E0.03297
G1 X14.321 Y7.973 E0.03297
G1 X14.267 Y8.400 E0.03314
G1 X14.254 Y8.852 E0.03483
G1 X13.750 Y9.356 E0.05495
G1 X13.750 Y10.575 E0.09396
G1 X9.350 Y10.575 E0.33909
G1 X9.350 Y15.075 E0.34679
G1 X13.750 Y15.075 E0.33909
G1 X13.750 Y16.294 E0.09396
G1 X14.131 Y16.675 E0.04150
G1 X12.631 Y18.175 E0.16348
G1 X-12.631 Y18.175 E1.94679
G1 X-14.131 Y16.675 E0.16348
G1 X-13.750 Y16.294 E0.04150
G1 X-13.750 Y15.075 E0.09396
G1 X-9.350 Y15.075 E0.33909
G1 X-9.350 Y10.575 E0.34679
G1 X-13.750 Y10.575 E0.33909
G1 X-13.750 Y9.356 E0.09396
G1 X-14.254 Y8.852 E0.05495
G1 X-14.267 Y8.400 E0.03483
G1 X-14.322 Y7.969 E0.03344
G1 X-14.535 Y7.145 E0.06559
G1 X-14.693 Y6.748 E0.03297
G1 X-14.883 Y6.365 E0.03297
G1 X-15.106 Y5.999 E0.03297
G1 X-15.358 Y5.654 E0.03297
G1 X-15.638 Y5.330 E0.03297
G1 X-15.945 Y5.032 E0.03297
G1 X-16.275 Y4.760 E0.03297
G1 X-16.627 Y4.517 E0.03297
G1 X-16.998 Y4.304 E0.03297
G1 X-17.386 Y4.124 E0.03297
G1 X-17.788 Y3.976 E0.03297
G1 X-18.200 Y3.863 E0.03297
G1 X-18.621 Y3.784 E0.03297
G1 X-19.046 Y3.742 E0.03297
G1 X-19.474 Y3.735 E0.03297
G1 X-20.748 Y3.821 E0.09841
G1 X-21.597 Y3.807 E0.06544
G1 X-22.442 Y3.720 E0.06544
G1 X-23.276 Y3.562 E0.06544
G1 X-24.094 Y3.334 E0.06544
G1 X-24.891 Y3.037 E0.06555
G1 X-25.419 Y2.791 E0.04491
G1 X-27.045 Y-0.025 E0.25053
G1 X-26.780 Y-0.228 E0.02572
G1 X-26.584 Y-0.034 E0.02132
G1 X-26.030 Y0.428 E0.05556
G1 X-25.438 Y0.839 E0.05556
G1 X-24.813 Y1.198 E0.05556
G1 X-24.159 Y1.501 E0.05556
G1 X-23.481 Y1.746 E0.05556
G1 X-22.784 Y1.931 E0.05556
G1 X-22.074 Y2.056 E0.05556
G1 X-21.356 Y2.118 E0.05556
G1 X-20.635 Y2.117 E0.05556
G1 X-19.916 Y2.054 E0.05556
G1 X-19.206 Y1.929 E0.05556
G1 X-18.510 Y1.743 E0.05556
G1 X-17.832 Y1.497 E0.05556
G1 X-17.179 Y1.193 E0.05556
G1 X-16.554 Y0.834 E0.05556
G1 X-15.962 Y0.422 E0.05556
G1 X-15.409 Y-0.040 E0.05556
G1 X-14.898 Y-0.549 E0.05556
G1 X-14.432 Y-1.099 E0.05556
G1 X-14.082 Y-1.596 E0.04682
G1 X-13.655 Y-2.309 E0.06411
G1 X-13.346 Y-2.963 E0.05572
G1 X-13.096 Y-3.639 E0.05556
G1 X-12.906 Y-4.335 E0.05556
G1 X-12.777 Y-5.046 E0.05567
G1 X-12.736 Y-5.525 E0.03708
G1 X-12.400 Y-5.525 E0.02592
G1 X-6.323 Y-11.895 E0.67844
G1 X-6.187 Y-11.999 E0.01323
G1 X-6.071 Y-12.023 E0.00909
G1 X6.028 Y-12.025 E0.93240
G1 X6.134 Y-12.012 E0.00821
G1 X6.205 Y-11.985 E0.00591 F720.000
G1 X6.323 Y-11.895 E0.01143
G1 X8.323 Y-9.799 E0.22324
G1 X8.079 Y-9.536 E0.02763
G1 X7.646 Y-9.890 E0.04308
G1 X5.823 Y-11.251 E0.17530
G1 X5.405 Y-11.442 E0.03545
G1 X5.088 Y-11.511 E0.02504
G1 X4.763 Y-11.525 E0.02504
G1 X4.309 Y-11.446 E0.03548
G1 X4.008 Y-11.324 E0.02503
G1 X3.753 Y-11.165 E0.02322
G1 X-0.750 Y-7.779 E0.43417
G1 X-1.034 Y-7.469 E0.03241
G1 X-1.287 Y-7.034 E0.03875
G1 X-1.585 Y-6.941 F15000.000
G1 E-3.20000 F3000.00000
G1 Z0.700 F15000.000
G1 X20.623 Y-17.539 F15000.000
G1 Z0.300 F15000.000
G1 E3.20000 F3000.00000
G1 X22.523 Y-16.322 E0.17390 F720.000
G1 X26.036 Y-14.070 E0.32155 F720.000
G1 X26.669 Y-13.627 E0.05955
G1 X27.249 Y-13.148 E0.05794
G1 X27.626 Y-12.782 E0.04055
G1 X27.788 Y-12.625 E0.01739
G1 X28.284 Y-12.059 E0.05794
G1 X28.732 Y-11.456 E0.05794
G1 X29.131 Y-10.818 E0.05794
G1 X29.477 Y-10.151 E0.05794
G1 X29.769 Y-9.458 E0.05795
G1 X30.004 Y-8.744 E0.05794
G1 X30.181 Y-8.013 E0.05794
G1 X30.300 Y-7.267 E0.05825
G1 X30.324 Y-6.976 E0.02243
G1 X30.181 Y-6.729 E0.02206
G1 X29.910 Y-6.786 E0.02135
G1 X29.835 Y-7.501 E0.05540
G1 X29.708 Y-8.183 E0.05348
G1 X29.502 Y-8.927 E0.05946
G1 X29.233 Y-9.650 E0.05946
G1 X28.903 Y-10.347 E0.05946
G1 X28.513 Y-11.013 E0.05946
G1 X28.068 Y-11.643 E0.05946
G1 X27.570 Y-12.233 E0.05946
G1 X27.023 Y-12.777 E0.05946
G1 X26.431 Y-13.272 E0.05946
G1 X25.938 Y-13.617 E0.04638
G1 X25.138 Y-14.096 E0.07188
G1 X24.432 Y-14.426 E0.06009
G1 X23.707 Y-14.692 E0.05946
G1 X22.962 Y-14.893 E0.05946
G1 X22.197 Y-15.031 E0.05989
G1 X21.326 Y-15.102 E0.06741
G1 X20.663 Y-15.105 E0.05105
G1 X19.894 Y-15.043 E0.05946
G1 X19.133 Y-14.914 E0.05946
G1 X18.381 Y-14.719 E0.05993
G1 X17.551 Y-14.414 E0.06814
G1 X16.956 Y-14.144 E0.05030
G1 X16.284 Y-13.766 E0.05946
G1 X15.647 Y-13.331 E0.05946
G1 X15.050 Y-12.842 E0.05946
G1 X14.497 Y-12.304 E0.05946
G1 X13.992 Y-11.721 E0.05946
G1 X13.540 Y-11.095 E0.05946
G1 X13.143 Y-10.434 E0.05946
G1 X12.805 Y-9.740 E0.05946
G1 X12.583 Y-9.162 E0.04775
G1 X8.024 Y-13.942 E0.50907
G1 X7.548 Y-14.332 E0.04739
G1 X6.956 Y-14.614 E0.05055
G1 X6.499 Y-14.727 E0.03628
G1 X6.091 Y-14.761 E0.03158
G1 X-6.091 Y-14.761 E0.93881
G1 X-6.499 Y-14.727 E0.03158
G1 X-6.937 Y-14.619 E0.03473
G1 X-7.351 Y-14.442 E0.03474
G1 X-7.732 Y-14.200 E0.03473
G1 X-8.037 Y-13.927 E0.03158
G1 X-12.583 Y-9.162 E0.50750
G1 X-12.813 Y-9.757 E0.04915
G1 X-13.154 Y-10.454 E0.05982
G1 X-13.555 Y-11.118 E0.05982
G1 X-14.012 Y-11.746 E0.05982
G1 X-14.522 Y-12.331 E0.05982
G1 X-15.081 Y-12.870 E0.05982
G1 X-15.684 Y-13.358 E0.05982
G1 X-16.327 Y-13.793 E0.05982
G1 X-17.006 Y-14.169 E0.05982
G1 X-17.715 Y-14.486 E0.05982
G1 X-18.448 Y-14.739 E0.05982
G1 X-19.201 Y-14.929 E0.05982
G1 X-19.974 Y-15.053 E0.06032
G1 X-20.871 Y-15.106 E0.06929
G1 X-21.517 Y-15.097 E0.04981
G1 X-22.290 Y-15.018 E0.05982
G1 X-23.052 Y-14.873 E0.05982
G1 X-23.799 Y-14.662 E0.05982
G1 X-24.525 Y-14.387 E0.05982
G1 X-25.224 Y-14.050 E0.05982
G1 X-25.892 Y-13.654 E0.05982
G1 X-26.522 Y-13.201 E0.05982
G1 X-27.111 Y-12.696 E0.05982
G1 X-27.654 Y-12.141 E0.05982
G1 X-28.146 Y-11.541 E0.05982
