; generated by Slic3r 1.2.9 on 2016-12-19 at 12:29:55

; external perimeters extrusion width = 0.50mm
; perimeters extrusion width = 0.50mm
; infill extrusion width = 0.50mm
; solid infill extrusion width = 0.50mm
; top infill extrusion width = 0.50mm

M107
;Basic settings: Layer height: {layer_height} Walls: {wall_thickness} Fill: {fill_density}
;Print time: {print_time}
;Filament used: {filament_amount}m {filament_weight}g
;Filament cost: {filament_cost}
;M190 S{print_bed_temperature} ;Uncomment to add your own bed temperature line
;M109 S{print_temperature} ;Uncomment to add your own temperature line
G21        ;metric values
G90        ;absolute positioning
M83
G10 P0 S200
T0
M116


G21 ; set units to millimeters
G90 ; use absolute coordinates
M83 ; use relative distances for extrusion
G1 E-3.20000 F3000.00000
G1 Z0.400 F9000.000
G1 X-11.228 Y-3.209 F9000.000
G1 Z0.300 F9000.000
G1 E3.20000 F3000.00000
G1 X-11.049 Y-3.795 E0.05625 F1095.251
G1 X-10.827 Y-4.388 E0.05808
G1 X-10.436 Y-5.251 E0.08696
G1 X-9.995 Y-6.047 E0.08344
G1 X-9.483 Y-6.822 E0.08524
G1 X-8.911 Y-7.554 E0.08527
G1 X-8.214 Y-8.310 E0.09433
G1 X-7.602 Y-8.871 E0.07613
G1 X-6.873 Y-9.447 E0.08529
G1 X-6.062 Y-9.988 E0.08942
G1 X-5.290 Y-10.416 E0.08099
G1 X-4.446 Y-10.804 E0.08525
G1 X-3.311 Y-11.205 E0.11046
G1 X-2.558 Y-11.402 E0.07141
G1 X-1.472 Y-11.590 E0.10106
G1 X-0.621 Y-11.668 E0.07846
G1 X0.382 Y-11.677 E0.09198
G1 X1.014 Y-11.639 E0.05808 F1095.251
G1 X1.935 Y-11.522 E0.08520
G1 X2.844 Y-11.332 E0.08524
G1 X3.736 Y-11.070 E0.08526
G1 X4.608 Y-10.737 E0.08564
G1 X5.442 Y-10.339 E0.08485
G1 X6.329 Y-9.824 E0.09412
G1 X7.011 Y-9.347 E0.07632
G1 X7.731 Y-8.760 E0.08524
G1 X8.403 Y-8.119 E0.08525
G1 X9.138 Y-7.285 E0.10191
G1 X9.602 Y-6.660 E0.07144
G1 X10.084 Y-5.903 E0.08237
G1 X10.580 Y-4.963 E0.09751
G1 X10.892 Y-4.231 E0.07297
G1 X11.194 Y-3.353 E0.08525
G1 X11.425 Y-2.453 E0.08523
G1 X11.611 Y-1.331 E0.10433
G1 X11.680 Y-0.390 E0.08659
G1 X11.680 Y0.390 E0.07158
G1 X11.619 Y1.244 E0.07851
G1 X11.482 Y2.168 E0.08576
G1 X11.275 Y3.068 E0.08469
G1 X10.996 Y3.954 E0.08524
G1 X10.647 Y4.815 E0.08527
G1 X10.233 Y5.641 E0.08471
G1 X9.583 Y6.686 E0.11295
G1 X9.095 Y7.339 E0.07480
G1 X8.403 Y8.119 E0.09567
G1 X7.731 Y8.761 E0.08526
G1 X7.011 Y9.348 E0.08524
G1 X6.277 Y9.856 E0.08193
G1 X5.607 Y10.253 E0.07146
G1 X4.603 Y10.739 E0.10234
G1 X3.818 Y11.045 E0.07725
G1 X2.896 Y11.321 E0.08834
G1 X2.063 Y11.503 E0.07819
G1 X1.137 Y11.631 E0.08579
G1 X0.209 Y11.684 E0.08527
G1 X-0.715 Y11.664 E0.08482
G1 X-1.618 Y11.573 E0.08329
G1 X-2.515 Y11.412 E0.08362
G1 X-3.374 Y11.187 E0.08146
G1 X-4.170 Y10.914 E0.07722
G1 X-5.024 Y10.548 E0.08522
G1 X-5.846 Y10.115 E0.08524
G1 X-6.632 Y9.618 E0.08531
G1 X-7.388 Y9.051 E0.08679
G1 X-8.071 Y8.447 E0.08363
G1 X-8.792 Y7.696 E0.09550
G1 X-9.307 Y7.061 E0.07497
G1 X-9.838 Y6.300 E0.08522
G1 X-10.308 Y5.498 E0.08525
G1 X-10.790 Y4.483 E0.10309
G1 X-11.061 Y3.762 E0.07069
G1 X-11.315 Y2.906 E0.08193
G1 X-11.510 Y1.998 E0.08520
G1 X-11.633 Y1.077 E0.08527
G1 X-11.681 Y0.149 E0.08526
G1 X-11.656 Y-0.780 E0.08525
G1 X-11.557 Y-1.704 E0.08524
G1 X-11.372 Y-2.680 E0.09118
G1 X-11.245 Y-3.151 E0.04474
G1 E-3.20000 F3000.00000
G1 Z0.700 F9000.000
G1 X-3.042 Y-0.814 F9000.000
G1 Z0.300 F9000.000
G1 E3.20000 F3000.00000
G1 X-2.953 Y-1.096 E0.02715 F821.439
G1 X-2.723 Y-1.584 E0.04948
G1 X-2.413 Y-2.025 E0.04945
G1 X-2.215 Y-2.239 E0.02674
G1 X-1.808 Y-2.579 E0.04865
G1 X-1.562 Y-2.735 E0.02674
G1 X-1.073 Y-2.962 E0.04945
G1 X-0.544 Y-3.104 E0.05025
G1 X-0.012 Y-3.150 E0.04902 F821.439
G1 X0.284 Y-3.138 E0.02715
G1 X0.815 Y-3.045 E0.04948
G1 X1.330 Y-2.858 E0.05025
G1 X1.804 Y-2.585 E0.05025
G1 X2.218 Y-2.239 E0.04945
G1 X2.415 Y-2.025 E0.02674
G1 X2.726 Y-1.584 E0.04945
G1 X2.955 Y-1.096 E0.04945
G1 X3.044 Y-0.819 E0.02674
G1 X3.140 Y-0.288 E0.04945
G1 X3.142 Y0.259 E0.05025
G1 X3.050 Y0.799 E0.05026
G1 X2.866 Y1.315 E0.05026
G1 X2.618 Y1.750 E0.04594
G1 X3.668 Y1.750 E0.09631
G1 X3.668 Y5.950 E0.38535
G1 X-3.665 Y5.950 E0.67275
G1 X-3.665 Y1.750 E0.38535
G1 X-2.615 Y1.750 E0.09631
G1 X-2.863 Y1.315 E0.04594
G1 X-3.047 Y0.799 E0.05025
G1 X-3.140 Y0.260 E0.05025
G1 X-3.137 Y-0.288 E0.05025
G1 X-3.053 Y-0.755 E0.04352
G1 X-3.251 Y-1.024 F9000.000
G1 X-3.472 Y-5.861 F9000.000
G1 X-3.018 Y-6.107 E0.04738 F821.439
G1 X-2.511 Y-6.333 E0.05098
G1 X-2.001 Y-6.512 E0.04964
G1 X-1.478 Y-6.651 E0.04962
G1 X-0.944 Y-6.747 E0.04975
G1 X-0.399 Y-6.801 E0.05029
G1 X0.136 Y-6.812 E0.04910
G1 X0.665 Y-6.780 E0.04857
G1 X1.215 Y-6.704 E0.05098 F821.439
G1 X1.743 Y-6.587 E0.04962
G1 X2.261 Y-6.428 E0.04973
G1 X2.764 Y-6.228 E0.04968
G1 X3.251 Y-5.988 E0.04974
G1 X3.715 Y-5.712 E0.04962
G1 X4.158 Y-5.398 E0.04977
G1 X4.574 Y-5.051 E0.04971
G1 X4.961 Y-4.672 E0.04971
G1 X5.317 Y-4.262 E0.04977
G1 X5.638 Y-3.828 E0.04955
G1 X5.930 Y-3.357 E0.05081
G1 X6.173 Y-2.887 E0.04861
G1 X6.383 Y-2.387 E0.04979
G1 X6.553 Y-1.872 E0.04971
G1 X6.681 Y-1.346 E0.04969
G1 X6.767 Y-0.806 E0.05015
G1 X6.809 Y-0.271 E0.04929
G1 X6.809 Y0.271 E0.04966
G1 X6.766 Y0.812 E0.04978
G1 X6.681 Y1.346 E0.04967
G1 X6.553 Y1.873 E0.04971
G1 X6.383 Y2.387 E0.04971
G1 X6.173 Y2.887 E0.04975
G1 X5.925 Y3.367 E0.04962
G1 X5.638 Y3.828 E0.04976
G1 X5.316 Y4.264 E0.04977
G1 X4.961 Y4.672 E0.04962
G1 X4.403 Y5.219 E0.07166
G1 X4.403 Y1.015 E0.38574
G1 X3.759 Y1.015 E0.05907
G1 X3.878 Y0.320 E0.06464
G1 X3.875 Y-0.356 E0.06203
G1 X3.759 Y-0.997 E0.05975
G1 X3.641 Y-1.366 E0.03556
G1 X3.364 Y-1.955 E0.05975
G1 X2.989 Y-2.488 E0.05975
G1 X2.727 Y-2.773 E0.03557
G1 X2.227 Y-3.190 E0.05975
G1 X1.641 Y-3.527 E0.06203
G1 X1.005 Y-3.758 E0.06203
G1 X0.363 Y-3.871 E0.05983
G1 X-0.029 Y-3.887 E0.03599
G1 X-0.672 Y-3.831 E0.05927
G1 X-1.325 Y-3.656 E0.06201
G1 X-1.916 Y-3.382 E0.05975
G1 X-2.243 Y-3.174 E0.03556
G1 X-2.724 Y-2.773 E0.05747
G1 X-2.986 Y-2.488 E0.03556
G1 X-3.361 Y-1.955 E0.05975
G1 X-3.639 Y-1.365 E0.05983
G1 X-3.758 Y-0.991 E0.03598
G1 X-3.872 Y-0.356 E0.05927
G1 X-3.875 Y0.320 E0.06201
G1 X-3.757 Y1.015 E0.06464
G1 X-4.400 Y1.015 E0.05907
G1 X-4.400 Y5.253 E0.38891
G1 X-5.140 Y4.471 E0.09876
G1 X-5.479 Y4.049 E0.04968
G1 X-5.783 Y3.601 E0.04971
G1 X-6.051 Y3.130 E0.04971
G1 X-6.281 Y2.638 E0.04977
G1 X-6.470 Y2.132 E0.04962
G1 X-6.619 Y1.611 E0.04974
G1 X-6.726 Y1.080 E0.04967
G1 X-6.791 Y0.542 E0.04974
G1 X-6.812 Y0.000 E0.04971
G1 X-6.791 Y-0.541 E0.04971
G1 X-6.726 Y-1.079 E0.04975
G1 X-6.619 Y-1.610 E0.04962
G1 X-6.470 Y-2.131 E0.04975
G1 X-6.280 Y-2.639 E0.04978
G1 X-6.051 Y-3.129 E0.04961
G1 X-5.783 Y-3.600 E0.04972
G1 X-5.479 Y-4.048 E0.04966
G1 X-5.134 Y-4.477 E0.05052
G1 X-4.769 Y-4.865 E0.04887
G1 X-4.367 Y-5.229 E0.04976
G1 X-3.935 Y-5.561 E0.05004
G1 X-3.523 Y-5.829 E0.04503
G1 X-3.924 Y-6.446 F9000.000
G1 X-3.344 Y-6.767 E0.06085 F821.439
G1 X-2.783 Y-7.017 E0.05635
G1 X-2.217 Y-7.216 E0.05506
G1 X-1.638 Y-7.369 E0.05499
G1 X-1.046 Y-7.476 E0.05514
G1 X-0.442 Y-7.536 E0.05566
G1 X0.151 Y-7.548 E0.05445
G1 X0.737 Y-7.513 E0.05388
G1 X1.346 Y-7.429 E0.05635 F821.439
G1 X1.931 Y-7.299 E0.05505
G1 X2.505 Y-7.122 E0.05510
G1 X3.063 Y-6.901 E0.05505
G1 X3.602 Y-6.636 E0.05511
G1 X4.117 Y-6.329 E0.05499
G1 X4.607 Y-5.982 E0.05514
G1 X5.068 Y-5.597 E0.05508
G1 X5.497 Y-5.177 E0.05508
G1 X5.891 Y-4.723 E0.05515
G1 X6.247 Y-4.241 E0.05496
G1 X6.570 Y-3.721 E0.05618
G1 X6.840 Y-3.199 E0.05394
G1 X7.073 Y-2.644 E0.05516
G1 X7.260 Y-2.074 E0.05508
G1 X7.402 Y-1.491 E0.05507
G1 X7.498 Y-0.893 E0.05552
G1 X7.545 Y-0.300 E0.05464
G1 X7.545 Y0.300 E0.05503
G1 X7.497 Y0.899 E0.05515
G1 X7.402 Y1.492 E0.05504
G1 X7.260 Y2.075 E0.05508
G1 X7.073 Y2.645 E0.05508
G1 X6.840 Y3.199 E0.05512
G1 X6.565 Y3.731 E0.05499
G1 X6.247 Y4.241 E0.05513
G1 X5.890 Y4.725 E0.05515
G1 X5.497 Y5.177 E0.05499
G1 X5.068 Y5.597 E0.05510
G1 X4.607 Y5.982 E0.05508
G1 X4.117 Y6.329 E0.05510
G1 X3.604 Y6.635 E0.05482
G1 X3.063 Y6.901 E0.05531
G1 X2.504 Y7.123 E0.05513
G1 X1.932 Y7.299 E0.05499
G1 X1.328 Y7.432 E0.05672
G1 X0.750 Y7.513 E0.05354
G1 X0.151 Y7.549 E0.05509
G1 X-0.453 Y7.536 E0.05538
G1 X-1.044 Y7.477 E0.05449
G1 X-1.624 Y7.373 E0.05414
G1 X-2.212 Y7.218 E0.05578
G1 X-2.783 Y7.018 E0.05552
G1 X-3.332 Y6.774 E0.05507
G1 X-3.860 Y6.488 E0.05508
G1 X-4.364 Y6.160 E0.05515
G1 X-4.839 Y5.794 E0.05499
G1 X-5.274 Y5.401 E0.05385
G1 X-5.695 Y4.955 E0.05628
G1 X-6.071 Y4.486 E0.05511
G1 X-6.408 Y3.990 E0.05508
G1 X-6.705 Y3.468 E0.05508
G1 X-6.959 Y2.923 E0.05514
G1 X-7.169 Y2.362 E0.05499
G1 X-7.334 Y1.785 E0.05511
G1 X-7.453 Y1.197 E0.05504
G1 X-7.524 Y0.600 E0.05511
G1 X-7.548 Y0.000 E0.05508
G1 X-7.524 Y-0.600 E0.05508
G1 X-7.453 Y-1.196 E0.05512
G1 X-7.335 Y-1.784 E0.05499
G1 X-7.169 Y-2.361 E0.05512
G1 X-6.959 Y-2.924 E0.05516
G1 X-6.705 Y-3.467 E0.05499
G1 X-6.408 Y-3.989 E0.05509
G1 X-6.071 Y-4.486 E0.05506
G1 X-5.689 Y-4.960 E0.05590
G1 X-5.284 Y-5.390 E0.05421
G1 X-4.839 Y-5.794 E0.05514
G1 X-4.360 Y-6.162 E0.05541
G1 X-3.974 Y-6.413 E0.04221
G1 X-3.576 Y-6.248 F9000.000
G1 X1.443 Y-4.143 F9000.000
G1 X-0.744 Y-6.330 E0.28743 F821.439
G1 X-1.645 Y-6.178 E0.08494
G1 X0.199 Y-4.334 E0.24232
G1 X-0.758 Y-4.237 E0.08936
G1 X-2.446 Y-5.925 E0.22187
G1 X-3.158 Y-5.583 E0.07340
G1 X-1.561 Y-3.986 E0.20993
G1 X-2.256 Y-3.628 E0.07271
G1 X-3.803 Y-5.175 E0.20332
G1 X-4.371 Y-4.689 E0.06946
G1 X-2.851 Y-3.169 E0.19985
G1 X-3.363 Y-2.627 E0.06928
G1 X-4.895 Y-4.159 E0.20137
G1 X-5.344 Y-3.555 E0.06999
G1 X-3.783 Y-1.993 E0.20522
G1 X-4.102 Y-1.259 E0.07443
G1 X-5.727 Y-2.883 E0.21351
G1 X-6.036 Y-2.138 E0.07494
G1 X-4.295 Y-0.398 E0.22871
G1 X-4.385 Y0.565 E0.08996
G1 X-6.251 Y-1.301 E0.24526
G1 X-6.355 Y-0.350 E0.08886
G1 X-4.850 Y1.155 E0.19780
G1 X-4.850 Y2.209 E0.09793
G1 X-6.291 Y0.767 E0.18947
G1 X-5.887 Y2.226 E0.14067
G1 X-5.521 Y2.591 E0.04806
G1 E-3.20000 F3000.00000
G1 Z0.700 F9000.000
G1 X4.326 Y-0.207 F9000.000
G1 Z0.300 F9000.000
G1 E3.20000 F3000.00000
G1 X6.179 Y1.646 E0.24355 F821.439
G1 X5.924 Y2.445 E0.07793
G1 X4.852 Y1.373 E0.14083
G1 X6.333 Y0.746 F9000.000
G1 X4.147 Y-1.440 E0.28730 F821.439
G1 X6.117 Y-1.577 F9000.000
G1 X1.583 Y-6.111 E0.59585 F821.439
G1 X0.298 Y-6.343 E0.12141
G1 X6.344 Y-0.297 E0.79463
G1 X4.865 Y-3.883 F9000.000
G1 X3.882 Y-4.866 E0.12921 F821.439
G1 X5.227 Y2.928 F9000.000
G1 X4.859 Y4.217 E0.12299 F600.000
G1 X3.335 Y6.337 F9000.000
G1 X2.509 Y6.514 E0.07749 F600.000
G1 X2.511 Y6.522 F9000.000
G1 X1.757 Y6.636 E0.14601 F600.000
G1 X1.196 Y6.697 E0.10810
G1 X0.135 Y6.749 E0.20342
G1 X-0.937 Y6.717 E0.20549
G1 X-1.469 Y6.670 E0.10220
G1 X-2.494 Y6.518 E0.19843
G1 X-2.494 Y6.521 F9000.000
G1 X-3.330 Y6.336 E0.07853 F600.000
G1 X-4.819 Y4.275 F9000.000
G1 X-5.232 Y2.932 E0.12897 F600.000
G1 E-3.20000 F3000.00000
G1 Z0.700 F9000.000
G1 X-3.447 Y2.932 F9000.000
G1 Z0.600 F9000.000
G1 E3.20000 F3000.00000
G1 X-3.447 Y1.900 E0.05604 F1084.392
G1 X-2.357 Y1.900 E0.05922
G1 X-2.726 Y1.252 E0.04051
G1 X-2.902 Y0.761 E0.02834
G1 X-2.989 Y0.247 E0.02834
G1 X-2.987 Y-0.274 E0.02834
G1 X-2.895 Y-0.782 E0.02804
G1 X-2.813 Y-1.041 E0.01477
G1 X-2.593 Y-1.508 E0.02804
G1 X-2.293 Y-1.935 E0.02833
G1 X-1.934 Y-2.292 E0.02754
G1 X-1.715 Y-2.460 E0.01496
G1 X-1.490 Y-2.603 E0.01450
G1 X-1.022 Y-2.821 E0.02804
G1 X-0.518 Y-2.955 E0.02833
G1 X-0.013 Y-3.000 E0.02754 F1084.392
G1 X0.267 Y-2.988 E0.01525
G1 X0.776 Y-2.899 E0.02806
G1 X1.266 Y-2.721 E0.02834
G1 X1.718 Y-2.461 E0.02834
G1 X2.118 Y-2.127 E0.02834
G1 X2.455 Y-1.728 E0.02834
G1 X2.714 Y-1.282 E0.02804
G1 X2.819 Y-1.031 E0.01477
G1 X2.953 Y-0.538 E0.02774
G1 X2.990 Y-0.269 E0.01477
G1 X2.992 Y0.247 E0.02804
G1 X2.904 Y0.761 E0.02834
G1 X2.729 Y1.252 E0.02834
G1 X2.360 Y1.900 E0.04051
G1 X3.450 Y1.900 E0.05922
G1 X3.450 Y5.800 E0.21190
G1 X-3.447 Y5.800 E0.37475
G1 X-3.447 Y2.992 E0.15260
G1 X-3.794 Y2.732 F9000.000
G1 X-4.199 Y-5.925 F9000.000
G1 X-3.714 Y-6.241 E0.03148 F1084.392
G1 X-3.244 Y-6.496 E0.02903
G1 X-2.676 Y-6.752 E0.03386
G1 X-2.133 Y-6.943 E0.03129
G1 X-1.576 Y-7.090 E0.03133
G1 X-1.007 Y-7.193 E0.03139
G1 X-0.410 Y-7.251 E0.03257
G1 X0.145 Y-7.262 E0.03018
G1 X0.633 Y-7.233 E0.02657
G1 X1.298 Y-7.147 E0.03640 F1084.392
G1 X1.858 Y-7.022 E0.03119
G1 X2.411 Y-6.852 E0.03142
G1 X2.946 Y-6.640 E0.03128
G1 X3.491 Y-6.370 E0.03304
G1 X3.961 Y-6.090 E0.02973
G1 X4.433 Y-5.755 E0.03143
G1 X4.876 Y-5.385 E0.03138
G1 X5.289 Y-4.981 E0.03138
G1 X5.668 Y-4.544 E0.03142
G1 X6.010 Y-4.082 E0.03125
G1 X6.333 Y-3.556 E0.03352
G1 X6.581 Y-3.078 E0.02928
G1 X6.805 Y-2.544 E0.03143
G1 X6.986 Y-1.996 E0.03138
G1 X7.122 Y-1.435 E0.03135
G1 X7.215 Y-0.848 E0.03232
G1 X7.259 Y-0.289 E0.03046
G1 X7.259 Y0.289 E0.03136
G1 X7.213 Y0.866 E0.03146
G1 X7.122 Y1.435 E0.03133
G1 X6.986 Y1.996 E0.03139
G1 X6.819 Y2.503 E0.02900
G1 X6.580 Y3.079 E0.03388
G1 X6.316 Y3.590 E0.03123
G1 X6.011 Y4.081 E0.03141
G1 X5.667 Y4.546 E0.03142
G1 X5.289 Y4.981 E0.03133
G1 X4.876 Y5.385 E0.03139
G1 X4.433 Y5.756 E0.03138
G1 X3.886 Y6.143 E0.03644
G1 X3.886 Y1.465 E0.25421
G1 X3.115 Y1.465 E0.04185
G1 X3.327 Y0.872 E0.03419
G1 X3.428 Y0.283 E0.03247
G1 X3.425 Y-0.299 E0.03165
G1 X3.381 Y-0.625 E0.01787
G1 X3.232 Y-1.173 E0.03084
G1 X3.105 Y-1.476 E0.01786
G1 X2.812 Y-1.980 E0.03165
G1 X2.427 Y-2.437 E0.03247
G1 X1.968 Y-2.820 E0.03247
G1 X1.450 Y-3.118 E0.03247
G1 X0.889 Y-3.322 E0.03247
G1 X0.314 Y-3.423 E0.03171
G1 X-0.024 Y-3.436 E0.01836
G1 X-0.594 Y-3.386 E0.03112
G1 X-1.171 Y-3.232 E0.03245
G1 X-1.700 Y-2.986 E0.03165
G1 X-1.965 Y-2.818 E0.01711
G1 X-2.221 Y-2.621 E0.01754
G1 X-2.627 Y-2.216 E0.03112
G1 X-2.971 Y-1.728 E0.03245
G1 X-3.219 Y-1.201 E0.03165
G1 X-3.319 Y-0.888 E0.01787
G1 X-3.422 Y-0.314 E0.03165
G1 X-3.425 Y0.283 E0.03247
G1 X-3.325 Y0.872 E0.03247
G1 X-3.113 Y1.465 E0.03419
G1 X-3.883 Y1.465 E0.04185
G1 X-3.883 Y6.132 E0.25359
G1 X-4.201 Y5.925 E0.02065
G1 X-4.655 Y5.575 E0.03112
G1 X-5.084 Y5.187 E0.03141
G1 X-5.479 Y4.768 E0.03133
G1 X-5.841 Y4.316 E0.03142
G1 X-6.165 Y3.839 E0.03138
G1 X-6.451 Y3.337 E0.03138
G1 X-6.696 Y2.813 E0.03142
G1 X-6.898 Y2.273 E0.03133
G1 X-7.057 Y1.717 E0.03140
G1 X-7.171 Y1.152 E0.03133
G1 X-7.239 Y0.577 E0.03143
G1 X-7.262 Y0.000 E0.03138
G1 X-7.239 Y-0.577 E0.03138
G1 X-7.171 Y-1.151 E0.03141
G1 X-7.057 Y-1.716 E0.03133
G1 X-6.898 Y-2.272 E0.03141
G1 X-6.695 Y-2.814 E0.03143
G1 X-6.451 Y-3.336 E0.03133
G1 X-6.165 Y-3.838 E0.03139
G1 X-5.842 Y-4.315 E0.03133
G1 X-5.460 Y-4.788 E0.03301
G1 X-5.084 Y-5.186 E0.02976
G1 X-4.656 Y-5.574 E0.03141
G1 X-4.247 Y-5.888 E0.02801
G1 E-3.20000 F3000.00000
G1 Z1.000 F9000.000
G1 X3.326 Y6.307 F9000.000
G1 Z0.600 F9000.000
G1 E3.20000 F3000.00000
G1 X3.357 Y6.438 E0.00731 F1084.392
G1 X2.947 Y6.640 E0.02484 F1084.392
G1 X2.410 Y6.853 E0.03140
G1 X1.860 Y7.022 E0.03125
G1 X1.239 Y7.157 E0.03451
G1 X0.722 Y7.228 E0.02836
G1 X0.145 Y7.263 E0.03140
G1 X-0.446 Y7.250 E0.03214
G1 X-0.999 Y7.195 E0.03020
G1 X-1.535 Y7.099 E0.02959
G1 X-2.118 Y6.948 E0.03269
G1 X-2.678 Y6.752 E0.03229
G1 X-3.362 Y6.433 E0.04098
G1 X-3.312 Y6.236 E0.01105
G1 X3.310 Y6.236 E0.35978
G1 X3.313 Y6.249 E0.00070
G1 X3.589 Y6.809 F9000.000
G1 X3.124 Y7.039 E0.02819 F1084.392
G1 X2.554 Y7.265 E0.03329
G1 X1.970 Y7.444 E0.03319
G1 X1.315 Y7.586 E0.03642
G1 X0.765 Y7.662 E0.03018
G1 X0.154 Y7.699 E0.03328
G1 X-0.472 Y7.685 E0.03402
G1 X-1.059 Y7.627 E0.03205
G1 X-1.628 Y7.525 E0.03142
G1 X-2.244 Y7.365 E0.03458
G1 X-2.839 Y7.157 E0.03422
G1 X-3.398 Y6.909 E0.03325
G1 X-3.937 Y6.617 E0.03326
G1 X-4.454 Y6.280 E0.03352
G1 X-4.935 Y5.910 E0.03300
G1 X-5.389 Y5.499 E0.03329
G1 X-5.808 Y5.054 E0.03321
G1 X-6.192 Y4.576 E0.03331
G1 X-6.536 Y4.069 E0.03326
G1 X-6.838 Y3.537 E0.03326
G1 X-7.098 Y2.982 E0.03330
G1 X-7.312 Y2.409 E0.03321
G1 X-7.480 Y1.820 E0.03328
G1 X-7.601 Y1.221 E0.03321
G1 X-7.674 Y0.612 E0.03331
G1 X-7.698 Y0.000 E0.03326
G1 X-7.674 Y-0.611 E0.03326
G1 X-7.601 Y-1.220 E0.03329
G1 X-7.480 Y-1.819 E0.03321
G1 X-7.312 Y-2.408 E0.03329
G1 X-7.097 Y-2.982 E0.03331
G1 X-6.838 Y-3.536 E0.03321
G1 X-6.536 Y-4.068 E0.03327
G1 X-6.192 Y-4.575 E0.03324
G1 X-5.788 Y-5.074 E0.03490
G1 X-5.389 Y-5.498 E0.03161
G1 X-4.935 Y-5.909 E0.03330
G1 X-4.439 Y-6.290 E0.03401
G1 X-3.937 Y-6.616 E0.03251
G1 X-3.438 Y-6.887 E0.03084
G1 X-2.838 Y-7.157 E0.03574
G1 X-2.261 Y-7.360 E0.03324
