; generated by Slic3r 1.2.9 on 2016-11-22 at 12:30:36

; external perimeters extrusion width = 0.50mm
; perimeters extrusion width = 0.50mm
; infill extrusion width = 0.50mm
; solid infill extrusion width = 0.50mm
; top infill extrusion width = 0.50mm

M107
;Basic settings: Layer height: {layer_height} Walls: {wall_thickness} Fill: {fill_density}
;Print time: {print_time}
;Filament used: {filament_amount}m {filament_weight}g
;Filament cost: {filament_cost}
;M190 S{print_bed_temperature} ;Uncomment to add your own bed temperature line
;M109 S{print_temperature} ;Uncomment to add your own temperature line
G21        ;metric values
G90        ;absolute positioning
M83
G10 P0 S200
T0
M116


G21 ; set units to millimeters
G90 ; use absolute coordinates
M83 ; use relative distances for extrusion
G1 E-3.20000 F3000.00000
G1 Z0.400 F9000.000
G1 X0.000 Y14.336 F9000.000
G1 Z0.300 F9000.000
G1 E3.20000 F3000.00000
G1 X-21.000 Y14.336 E1.92676 F1200.000
G1 X-21.477 Y14.318 E0.04377
G1 X-22.113 Y14.249 E0.05870
G1 X-22.740 Y14.124 E0.05870
G1 X-23.355 Y13.946 E0.05870
G1 X-23.951 Y13.714 E0.05870
G1 X-24.525 Y13.431 E0.05870
G1 X-25.072 Y13.099 E0.05870
G1 X-25.588 Y12.721 E0.05870
G1 X-25.838 Y12.512 E0.02990
G1 X-26.300 Y12.069 E0.05870
G1 X-26.721 Y11.588 E0.05871
G1 X-27.099 Y11.072 E0.05870
G1 X-27.529 Y10.337 E0.07808
G1 X-27.834 Y9.661 E0.06809
G1 X-28.040 Y9.055 E0.05870
G1 X-28.192 Y8.434 E0.05870
G1 X-28.290 Y7.801 E0.05870
G1 X-28.332 Y7.162 E0.05881
G1 X-28.332 Y-10.671 E1.63619
G1 X-28.303 Y-10.996 E0.02992
G1 X-28.245 Y-11.326 E0.03075
G1 X-28.159 Y-11.649 E0.03063
G1 X-28.045 Y-11.964 E0.03076
G1 X-27.904 Y-12.267 E0.03070
G1 X-27.737 Y-12.557 E0.03067
G1 X-27.545 Y-12.832 E0.03072
G1 X-27.331 Y-13.088 E0.03069
G1 X-27.094 Y-13.325 E0.03070
G1 X-26.832 Y-13.545 E0.03149
G1 X-26.557 Y-13.737 E0.03072
G1 X-26.275 Y-13.900 E0.02987
G1 X-25.972 Y-14.042 E0.03070
G1 X-25.657 Y-14.157 E0.03075
G1 X-25.326 Y-14.245 E0.03143
G1 X-24.996 Y-14.303 E0.03075
G1 X-24.661 Y-14.332 E0.03082
G1 X24.661 Y-14.332 E4.52540
G1 X24.996 Y-14.303 E0.03083 F1200.000
G1 X25.326 Y-14.245 E0.03072
G1 X25.649 Y-14.159 E0.03063
G1 X25.964 Y-14.045 E0.03077
G1 X26.267 Y-13.904 E0.03070
G1 X26.564 Y-13.733 E0.03147
G1 X26.838 Y-13.540 E0.03072
G1 X27.094 Y-13.325 E0.03069
G1 X27.331 Y-13.088 E0.03068
G1 X27.546 Y-12.831 E0.03072
G1 X27.737 Y-12.557 E0.03073
G1 X27.904 Y-12.267 E0.03068
G1 X28.045 Y-11.964 E0.03069
G1 X28.157 Y-11.657 E0.02991
G1 X28.244 Y-11.335 E0.03068
G1 X28.302 Y-11.005 E0.03072
G1 X28.332 Y-10.672 E0.03070
G1 X28.336 Y6.999 E1.62129
G1 X28.318 Y7.477 E0.04387
G1 X28.249 Y8.113 E0.05870
G1 X28.124 Y8.740 E0.05870
G1 X27.946 Y9.355 E0.05870
G1 X27.714 Y9.951 E0.05870
G1 X27.431 Y10.525 E0.05870
G1 X27.155 Y10.986 E0.04930
G1 X26.913 Y11.339 E0.03930
G1 X26.512 Y11.838 E0.05870
G1 X26.069 Y12.300 E0.05870
G1 X25.420 Y12.850 E0.07808
G1 X24.807 Y13.268 E0.06809
G1 X24.246 Y13.576 E0.05870
G1 X23.661 Y13.834 E0.05871
G1 X23.055 Y14.040 E0.05870
G1 X22.434 Y14.192 E0.05870
G1 X21.801 Y14.290 E0.05870
G1 X21.000 Y14.336 E0.07365
G1 X0.060 Y14.336 E1.92126
G1 E-3.20000 F3000.00000
G1 Z0.700 F9000.000
G1 X5.614 Y9.400 F9000.000
G1 Z0.300 F9000.000
G1 E3.20000 F3000.00000
G1 X4.229 Y7.000 E0.25427 F900.000
G1 X5.614 Y4.600 E0.25427
G1 X8.386 Y4.600 E0.25427 F900.000
G1 X9.771 Y7.000 E0.25427
G1 X8.386 Y9.400 E0.25427
G1 X5.674 Y9.400 E0.24876
G1 X5.238 Y9.537 F9000.000
G1 E-3.20000 F3000.00000
G1 Z0.700 F9000.000
G1 X4.536 Y-0.511 F9000.000
G1 Z0.300 F9000.000
G1 E3.20000 F3000.00000
G1 X4.536 Y-4.490 E0.36511 F900.000
G1 X4.893 Y-4.191 E0.04278
G1 X5.203 Y-3.994 E0.03367 F900.000
G1 X5.755 Y-3.736 E0.05593
G1 X6.368 Y-3.572 E0.05822
G1 X6.975 Y-3.519 E0.05593
G1 X7.342 Y-3.535 E0.03367
G1 X7.942 Y-3.640 E0.05593
G1 X8.515 Y-3.849 E0.05593
G1 X8.840 Y-4.018 E0.03367
G1 X9.463 Y-4.455 E0.06977
G1 X9.464 Y4.342 E0.80713
G1 X9.137 Y4.430 E0.03108
G1 X8.810 Y3.864 E0.05994
G1 X5.190 Y3.864 E0.33220
G1 X4.863 Y4.430 E0.05997
G1 X4.536 Y4.343 E0.03107
G1 X4.536 Y-0.451 E0.43983
G1 X3.800 Y-0.451 F9000.000
G1 X3.800 Y-6.430 E0.54855 F900.000
G1 X4.165 Y-6.494 E0.03398
G1 X4.370 Y-5.930 E0.05505
G1 X4.619 Y-5.500 E0.04560
G1 X4.955 Y-5.099 E0.04799
G1 X5.329 Y-4.785 E0.04479
G1 X5.557 Y-4.640 E0.02482
G1 X6.008 Y-4.430 E0.04560
G1 X6.496 Y-4.299 E0.04641
G1 X6.991 Y-4.256 E0.04560
G1 X7.262 Y-4.267 E0.02482
G1 X7.751 Y-4.354 E0.04560
G1 X8.218 Y-4.524 E0.04560
G1 X8.458 Y-4.649 E0.02482
G1 X8.858 Y-4.929 E0.04479
G1 X9.228 Y-5.298 E0.04799
G1 X9.513 Y-5.706 E0.04560
G1 X9.727 Y-6.164 E0.04641
G1 X9.815 Y-6.494 E0.03136
G1 X10.199 Y-6.444 E0.03551
G1 X10.203 Y6.925 E1.22662 F900.000
G1 X10.187 Y7.279 E0.03245
G1 X10.152 Y7.549 E0.02496
G1 X10.032 Y8.010 E0.04376
G1 X9.898 Y8.356 E0.03403
G1 X9.621 Y8.835 E0.05078
G1 X9.451 Y9.057 E0.02561
G1 X9.057 Y9.451 E0.05117
G1 X8.666 Y9.736 E0.04439
G1 X8.358 Y9.897 E0.03181
G1 X7.912 Y10.063 E0.04376
G1 X7.551 Y10.152 E0.03403
G1 X7.279 Y10.187 E0.02522
G1 X6.728 Y10.188 E0.05053
G1 X6.258 Y10.109 E0.04377
G1 X5.902 Y10.005 E0.03403
G1 X5.648 Y9.900 E0.02521
G1 X5.334 Y9.736 E0.03246
G1 X4.943 Y9.451 E0.04439
G1 X4.549 Y9.057 E0.05117
G1 X4.379 Y8.835 E0.02561
G1 X4.103 Y8.358 E0.05053
G1 X3.936 Y7.912 E0.04376
G1 X3.848 Y7.551 E0.03403
G1 X3.800 Y7.088 E0.04272
G1 X3.800 Y-0.391 E0.68623
G1 X4.147 Y-0.651 F9000.000
G1 E-3.20000 F3000.00000
G1 Z0.700 F9000.000
G1 X10.045 Y-6.867 F9000.000
G1 Z0.300 F9000.000
G1 E3.20000 F3000.00000
G1 X10.051 Y-10.600 E0.34245 F900.000
G1 E-3.20000 F3000.00000
G1 Z0.700 F9000.000
G1 X3.950 Y-10.600 F9000.000
G1 Z0.300 F9000.000
G1 E3.20000 F3000.00000
G1 X3.955 Y-6.863 E0.34282 F900.000
G1 E-3.20000 F3000.00000
G1 Z0.700 F9000.000
G1 X9.014 Y-3.136 F9000.000
G1 Z0.300 F9000.000
G1 E3.20000 F3000.00000
G1 X8.667 Y-3.483 E0.04918 F900.000
G1 X7.825 Y-3.189 E0.08942
G1 X9.014 Y-2.000 E0.16857
G1 X9.014 Y-0.863 E0.11393
G1 X6.809 Y-3.068 E0.31261
G1 X5.430 Y-3.311 E0.14031
G1 X9.015 Y0.274 E0.50806
G1 X9.015 Y1.410 E0.11393
G1 X4.985 Y-2.619 E0.57121
G1 X4.985 Y-1.483 E0.11392
G1 X9.015 Y2.547 E0.57123
G1 X8.747 Y3.415 E0.09109
G1 X4.985 Y-0.346 E0.53321
G1 X4.985 Y0.790 E0.11392
G1 X7.610 Y3.415 E0.37211
G1 X6.474 Y3.415 E0.11392
G1 X4.985 Y1.927 E0.21101
G1 X4.985 Y3.063 E0.11392
G1 X5.337 Y3.415 E0.04991
G1 X4.604 Y4.742 F9000.000
G1 X4.186 Y6.303 E0.14833 F600.000
G1 E-3.20000 F3000.00000
G1 Z0.700 F9000.000
G1 X9.396 Y4.742 F9000.000
G1 Z0.300 F9000.000
G1 E3.20000 F3000.00000
G1 X9.814 Y6.303 E0.14835 F600.000
G1 E-3.20000 F3000.00000
G1 Z0.700 F9000.000
G1 X18.229 Y7.000 F9000.000
G1 Z0.300 F9000.000
G1 E3.20000 F3000.00000
G1 X19.614 Y4.600 E0.25427 F900.000
G1 X22.386 Y4.600 E0.25427 F900.000
G1 X23.771 Y7.000 E0.25427
G1 X22.386 Y9.400 E0.25427
G1 X19.614 Y9.400 E0.25427
G1 X18.259 Y7.052 E0.24876
G1 X17.922 Y6.743 F9000.000
G1 E-3.20000 F3000.00000
G1 Z0.700 F9000.000
G1 X21.438 Y3.864 F9000.000
G1 Z0.300 F9000.000
G1 E3.20000 F3000.00000
G1 X19.190 Y3.864 E0.20633 F900.000
G1 X18.863 Y4.430 E0.05997
G1 X18.536 Y4.343 E0.03107
G1 X18.536 Y-4.490 E0.81045
G1 X18.893 Y-4.191 E0.04278
G1 X19.203 Y-3.994 E0.03367 F900.000
G1 X19.755 Y-3.736 E0.05593
G1 X20.368 Y-3.572 E0.05822
G1 X20.975 Y-3.519 E0.05593
G1 X21.342 Y-3.535 E0.03367
G1 X21.942 Y-3.640 E0.05593
G1 X22.515 Y-3.849 E0.05593
G1 X22.840 Y-4.018 E0.03367
G1 X23.463 Y-4.455 E0.06977
G1 X23.464 Y4.342 E0.80713
G1 X23.137 Y4.430 E0.03108
G1 X22.810 Y3.864 E0.05994
G1 X21.498 Y3.864 E0.12036
G1 X24.200 Y3.864 F9000.000
G1 X24.203 Y6.925 E0.28088 F900.000
G1 X24.187 Y7.279 E0.03245
G1 X24.152 Y7.549 E0.02496
G1 X24.032 Y8.010 E0.04376
G1 X23.898 Y8.356 E0.03403
G1 X23.621 Y8.835 E0.05078
G1 X23.262 Y9.262 E0.05117
G1 X22.835 Y9.621 E0.05117
G1 X22.666 Y9.736 E0.01880
G1 X22.358 Y9.897 E0.03181
G1 X21.912 Y10.063 E0.04376
G1 X21.551 Y10.152 E0.03403
G1 X21.000 Y10.200 E0.05078
G1 X20.728 Y10.188 E0.02496
G1 X20.258 Y10.109 E0.04377
G1 X19.902 Y10.005 E0.03403
G1 X19.648 Y9.900 E0.02521
G1 X19.463 Y9.811 E0.01880
G1 X19.165 Y9.621 E0.03245
G1 X18.738 Y9.262 E0.05117
G1 X18.379 Y8.835 E0.05117
G1 X18.103 Y8.358 E0.05053
G1 X17.936 Y7.912 E0.04376
G1 X17.848 Y7.551 E0.03403
G1 X17.800 Y7.088 E0.04272
G1 X17.800 Y-6.430 E1.24028
G1 X18.165 Y-6.494 E0.03398
G1 X18.370 Y-5.930 E0.05505
G1 X18.619 Y-5.500 E0.04560
G1 X18.955 Y-5.099 E0.04799
G1 X19.329 Y-4.785 E0.04479
G1 X19.557 Y-4.640 E0.02482
G1 X20.008 Y-4.430 E0.04560
G1 X20.496 Y-4.299 E0.04641
G1 X20.991 Y-4.256 E0.04560
G1 X21.262 Y-4.267 E0.02482
G1 X21.751 Y-4.354 E0.04560
G1 X22.218 Y-4.524 E0.04560
G1 X22.458 Y-4.649 E0.02482
G1 X22.858 Y-4.929 E0.04479
G1 X23.228 Y-5.298 E0.04799
G1 X23.513 Y-5.706 E0.04560
G1 X23.727 Y-6.164 E0.04641
G1 X23.815 Y-6.494 E0.03136
G1 X24.199 Y-6.444 E0.03551
G1 X24.200 Y3.804 E0.94024 F900.000
G1 X23.853 Y4.064 F9000.000
G1 X24.045 Y-6.867 F9000.000
G1 X24.051 Y-10.600 E0.34245 F900.000
G1 E-3.20000 F3000.00000
G1 Z0.700 F9000.000
G1 X17.950 Y-10.600 F9000.000
G1 Z0.300 F9000.000
G1 E3.20000 F3000.00000
G1 X17.955 Y-6.863 E0.34282 F900.000
G1 E-3.20000 F3000.00000
G1 Z0.700 F9000.000
G1 X23.014 Y-3.136 F9000.000
G1 Z0.300 F9000.000
G1 E3.20000 F3000.00000
G1 X22.667 Y-3.483 E0.04918 F900.000
G1 X21.825 Y-3.189 E0.08942
G1 X23.014 Y-2.000 E0.16857
G1 X23.014 Y-0.863 E0.11393
G1 X20.809 Y-3.068 E0.31261
G1 X19.430 Y-3.311 E0.14031
G1 X23.015 Y0.274 E0.50806
G1 X23.015 Y1.410 E0.11393
G1 X18.985 Y-2.619 E0.57121
G1 X18.985 Y-1.483 E0.11392
G1 X23.015 Y2.547 E0.57123
G1 X22.747 Y3.415 E0.09109
G1 X18.985 Y-0.346 E0.53321
G1 X18.985 Y0.790 E0.11392
G1 X21.610 Y3.415 E0.37211
G1 X20.474 Y3.415 E0.11392
G1 X18.985 Y1.927 E0.21101
G1 X18.985 Y3.063 E0.11392
G1 X19.337 Y3.415 E0.04991
G1 X18.604 Y4.742 F9000.000
G1 X18.186 Y6.303 E0.14833 F600.000
G1 E-3.20000 F3000.00000
G1 Z0.700 F9000.000
G1 X23.396 Y4.742 F9000.000
G1 Z0.300 F9000.000
G1 E3.20000 F3000.00000
G1 X23.814 Y6.303 E0.14835 F600.000
G1 E-3.20000 F3000.00000
G1 Z0.700 F9000.000
G1 X-4.229 Y7.000 F9000.000
G1 Z0.300 F9000.000
G1 E3.20000 F3000.00000
G1 X-5.614 Y9.400 E0.25427 F900.000
G1 X-8.386 Y9.400 E0.25427
G1 X-9.771 Y7.000 E0.25427
G1 X-8.386 Y4.600 E0.25427
G1 X-5.614 Y4.600 E0.25427 F900.000
G1 X-4.259 Y6.948 E0.24876
G1 X-3.922 Y7.257 F9000.000
G1 X-6.426 Y-3.575 F9000.000
G1 X-6.058 Y-3.640 E0.03433 F900.000
G1 X-5.485 Y-3.849 E0.05593
G1 X-5.160 Y-4.018 E0.03367
G1 X-4.537 Y-4.455 E0.06977
G1 X-4.536 Y4.342 E0.80713
G1 X-4.863 Y4.430 E0.03108
G1 X-5.190 Y3.864 E0.05994
G1 X-8.810 Y3.864 E0.33220
G1 X-9.137 Y4.430 E0.05997
G1 X-9.464 Y4.343 E0.03107
G1 X-9.464 Y-4.490 E0.81045
G1 X-9.107 Y-4.191 E0.04278
G1 X-8.797 Y-3.994 E0.03367 F900.000
G1 X-8.245 Y-3.736 E0.05593
G1 X-7.632 Y-3.572 E0.05822
G1 X-7.025 Y-3.519 E0.05593
G1 X-6.658 Y-3.535 E0.03367
G1 X-6.485 Y-3.565 E0.01609
G1 X-6.613 Y-4.289 F9000.000
G1 X-6.249 Y-4.354 E0.03393 F900.000
G1 X-5.782 Y-4.524 E0.04560
G1 X-5.542 Y-4.649 E0.02482
G1 X-5.142 Y-4.929 E0.04479
G1 X-4.772 Y-5.298 E0.04799
G1 X-4.487 Y-5.706 E0.04560
G1 X-4.273 Y-6.164 E0.04641
G1 X-4.185 Y-6.494 E0.03136
G1 X-3.801 Y-6.444 E0.03551
G1 X-3.797 Y6.925 E1.22662 F900.000
G1 X-3.813 Y7.279 E0.03245
G1 X-3.848 Y7.549 E0.02496
G1 X-3.968 Y8.010 E0.04376
G1 X-4.102 Y8.356 E0.03403
G1 X-4.229 Y8.600 E0.02522
G1 X-4.549 Y9.057 E0.05117
G1 X-4.943 Y9.451 E0.05117
G1 X-5.165 Y9.621 E0.02561
G1 X-5.463 Y9.811 E0.03246
G1 X-5.642 Y9.897 E0.01815
G1 X-6.088 Y10.063 E0.04376
G1 X-6.449 Y10.152 E0.03403
G1 X-7.000 Y10.200 E0.05078
G1 X-7.272 Y10.188 E0.02496
G1 X-7.742 Y10.109 E0.04377
G1 X-8.098 Y10.005 E0.03403
G1 X-8.352 Y9.900 E0.02521
G1 X-8.666 Y9.736 E0.03246
G1 X-9.057 Y9.451 E0.04439
G1 X-9.451 Y9.057 E0.05117
G1 X-9.771 Y8.600 E0.05117
G1 X-9.897 Y8.358 E0.02496
G1 X-10.064 Y7.912 E0.04376
G1 X-10.152 Y7.551 E0.03403
G1 X-10.187 Y7.279 E0.02522
G1 X-10.203 Y6.925 E0.03245
G1 X-10.200 Y-6.430 E1.22534
G1 X-9.835 Y-6.494 E0.03398
G1 X-9.630 Y-5.930 E0.05505
G1 X-9.381 Y-5.500 E0.04560
G1 X-9.045 Y-5.099 E0.04799
G1 X-8.671 Y-4.785 E0.04479
G1 X-8.443 Y-4.640 E0.02482
G1 X-7.992 Y-4.430 E0.04560
G1 X-7.504 Y-4.299 E0.04641
G1 X-7.009 Y-4.256 E0.04560
G1 X-6.672 Y-4.279 E0.03094
G1 X-6.384 Y-3.999 F9000.000
G1 E-3.20000 F3000.00000
G1 Z0.700 F9000.000
G1 X-3.955 Y-6.867 F9000.000
G1 Z0.300 F9000.000
G1 E3.20000 F3000.00000
G1 X-3.949 Y-10.600 E0.34245 F900.000
G1 E-3.20000 F3000.00000
G1 Z0.700 F9000.000
G1 X-10.050 Y-10.600 F9000.000
G1 Z0.300 F9000.000
G1 E3.20000 F3000.00000
G1 X-10.045 Y-6.863 E0.34282 F900.000
G1 E-3.20000 F3000.00000
G1 Z0.700 F9000.000
G1 X-4.986 Y-3.136 F9000.000
G1 Z0.300 F9000.000
G1 E3.20000 F3000.00000
G1 X-5.333 Y-3.483 E0.04918 F900.000
G1 X-6.175 Y-3.189 E0.08942
G1 X-4.986 Y-2.000 E0.16857
G1 X-4.986 Y-0.863 E0.11393
G1 X-7.191 Y-3.068 E0.31261
G1 X-8.570 Y-3.311 E0.14031
G1 X-4.985 Y0.274 E0.50806
G1 X-4.985 Y1.410 E0.11393
G1 X-9.015 Y-2.619 E0.57121
G1 X-9.015 Y-1.483 E0.11392
G1 X-4.985 Y2.547 E0.57123
G1 X-5.253 Y3.415 E0.09109
G1 X-9.015 Y-0.346 E0.53321
G1 X-9.015 Y0.790 E0.11392
G1 X-6.390 Y3.415 E0.37211
G1 X-7.526 Y3.415 E0.11392
G1 X-9.015 Y1.927 E0.21101
G1 X-9.015 Y3.063 E0.11392
G1 X-8.663 Y3.415 E0.04991
G1 X-9.396 Y4.742 F9000.000
G1 X-9.814 Y6.303 E0.14833 F600.000
G1 E-3.20000 F3000.00000
G1 Z0.700 F9000.000
G1 X-4.604 Y4.742 F9000.000
G1 Z0.300 F9000.000
G1 E3.20000 F3000.00000
G1 X-4.186 Y6.303 E0.14835 F600.000
G1 E-3.20000 F3000.00000
G1 Z0.700 F9000.000
G1 X-18.229 Y7.000 F9000.000
G1 Z0.300 F9000.000
G1 E3.20000 F3000.00000
G1 X-19.614 Y9.400 E0.25427 F900.000
G1 X-22.386 Y9.400 E0.25427
G1 X-23.771 Y7.000 E0.25427
G1 X-22.386 Y4.600 E0.25427
G1 X-19.614 Y4.600 E0.25427 F900.000
G1 X-18.259 Y6.948 E0.24876
G1 X-17.922 Y7.257 F9000.000
G1 X-23.464 Y-1.448 F9000.000
G1 X-23.464 Y-4.490 E0.27917 F900.000
G1 X-23.107 Y-4.191 E0.04278
G1 X-22.797 Y-3.994 E0.03367 F900.000
G1 X-22.245 Y-3.736 E0.05593
G1 X-21.632 Y-3.572 E0.05822
G1 X-21.025 Y-3.519 E0.05593
G1 X-20.658 Y-3.535 E0.03367
G1 X-20.058 Y-3.640 E0.05593
G1 X-19.485 Y-3.849 E0.05593
G1 X-19.160 Y-4.018 E0.03367
G1 X-18.537 Y-4.455 E0.06977
G1 X-18.536 Y4.342 E0.80713
G1 X-18.863 Y4.430 E0.03108
G1 X-19.190 Y3.864 E0.05994
G1 X-22.810 Y3.864 E0.33220
G1 X-23.137 Y4.430 E0.05997
G1 X-23.464 Y4.343 E0.03107
G1 X-23.464 Y-1.388 E0.52577
G1 X-24.200 Y-1.388 F9000.000
G1 X-24.200 Y-6.430 E0.46261 F900.000
G1 X-23.835 Y-6.494 E0.03398
G1 X-23.630 Y-5.930 E0.05505
G1 X-23.381 Y-5.500 E0.04560
G1 X-23.045 Y-5.099 E0.04799
G1 X-22.671 Y-4.785 E0.04479
G1 X-22.443 Y-4.640 E0.02482
G1 X-21.992 Y-4.430 E0.04560
G1 X-21.504 Y-4.299 E0.04641
G1 X-21.009 Y-4.256 E0.04560
G1 X-20.738 Y-4.267 E0.02482
G1 X-20.249 Y-4.354 E0.04560
G1 X-19.782 Y-4.524 E0.04560
G1 X-19.542 Y-4.649 E0.02482
G1 X-19.142 Y-4.929 E0.04479
G1 X-18.772 Y-5.298 E0.04799
G1 X-18.487 Y-5.706 E0.04560
G1 X-18.273 Y-6.164 E0.04641
G1 X-18.185 Y-6.494 E0.03136
G1 X-17.801 Y-6.444 E0.03551
G1 X-17.797 Y6.925 E1.22662 F900.000
G1 X-17.813 Y7.279 E0.03245
G1 X-17.848 Y7.549 E0.02496
G1 X-17.968 Y8.010 E0.04376
G1 X-18.102 Y8.356 E0.03403
G1 X-18.379 Y8.835 E0.05078
G1 X-18.549 Y9.057 E0.02561
G1 X-18.943 Y9.451 E0.05117
G1 X-19.334 Y9.736 E0.04439
G1 X-19.642 Y9.897 E0.03181
G1 X-20.088 Y10.063 E0.04376
G1 X-20.449 Y10.152 E0.03403
G1 X-20.721 Y10.187 E0.02522
G1 X-21.272 Y10.188 E0.05053
G1 X-21.742 Y10.109 E0.04377
G1 X-22.098 Y10.005 E0.03403
G1 X-22.352 Y9.900 E0.02521
G1 X-22.666 Y9.736 E0.03246
G1 X-23.057 Y9.451 E0.04439
G1 X-23.451 Y9.057 E0.05117
G1 X-23.621 Y8.835 E0.02561
G1 X-23.897 Y8.358 E0.05053
G1 X-24.064 Y7.912 E0.04376
G1 X-24.152 Y7.551 E0.03403
G1 X-24.200 Y7.088 E0.04272
G1 X-24.200 Y-1.328 E0.77217
G1 X-23.853 Y-1.588 F9000.000
G1 E-3.20000 F3000.00000
G1 Z0.700 F9000.000
G1 X-17.955 Y-6.867 F9000.000
G1 Z0.300 F9000.000
G1 E3.20000 F3000.00000
G1 X-17.949 Y-10.600 E0.34245 F900.000
G1 E-3.20000 F3000.00000
G1 Z0.700 F9000.000
G1 X-24.050 Y-10.600 F9000.000
G1 Z0.300 F9000.000
G1 E3.20000 F3000.00000
G1 X-24.045 Y-6.863 E0.34282 F900.000
G1 E-3.20000 F3000.00000
G1 Z0.700 F9000.000
G1 X-18.986 Y-3.136 F9000.000
G1 Z0.300 F9000.000
