; generated by Slic3r 1.2.9 on 2017-02-22 at 09:41:42

; external perimeters extrusion width = 0.40mm
; perimeters extrusion width = 0.40mm
; infill extrusion width = 0.40mm
; solid infill extrusion width = 0.40mm
; top infill extrusion width = 0.40mm

M107
M83
T0
M116
G21 ; set units to millimeters
G90 ; use absolute coordinates
M83 ; use relative distances for extrusion
G1 E-3.20000 F3000.00000
G1 Z0.400 F15000.000
G1 X18.336 Y0.000 F15000.000
G1 Z0.300 F15000.000
G1 E3.20000 F3000.00000
G1 X18.336 Y19.700 E1.51819 F960.000
G1 X17.941 Y21.347 E0.13052
G1 X16.843 Y22.637 E0.13052
G1 X14.700 Y23.336 E0.17373
G1 X-14.700 Y23.336 E2.26573
G1 X-16.347 Y22.941 E0.13052
G1 X-17.637 Y21.843 E0.13052
G1 X-18.328 Y19.932 E0.15663
G1 X-18.736 Y13.446 E0.50080
G1 X-18.736 Y-13.446 E2.07251
G1 X-18.328 Y-19.932 E0.50080
G1 X-17.829 Y-21.551 E0.13052
G1 X-16.651 Y-22.768 E0.13052
G1 X-14.700 Y-23.336 E0.15663
G1 X14.700 Y-23.336 E2.26573
G1 X16.347 Y-22.941 E0.13052
G1 X17.637 Y-21.843 E0.13052 F960.000
G1 X18.336 Y-19.700 E0.17373
G1 X18.336 Y-0.060 E1.51357
G1 E-3.20000 F3000.00000
G1 Z0.700 F15000.000
G1 X12.792 Y-0.060 F15000.000
G1 Z0.300 F15000.000
G1 E3.20000 F3000.00000
G1 X12.792 Y17.873 E1.38202 F720.000
G1 X-12.792 Y17.873 E1.97162
G1 X-12.792 Y-17.873 E2.75480
G1 X12.792 Y-17.873 E1.97162 F720.000
G1 X12.792 Y-0.120 E1.36815
G1 X12.156 Y-0.120 F15000.000
G1 X12.156 Y17.237 E1.33766 F720.000
G1 X-12.156 Y17.237 E1.87365
G1 X-12.156 Y-17.238 E2.65683
G1 X12.156 Y-17.238 E1.87365 F720.000
G1 X12.156 Y-0.180 E1.31454
G1 X12.503 Y0.080 F15000.000
G1 E-3.20000 F3000.00000
G1 Z0.700 F15000.000
G1 X-14.114 Y10.508 F15000.000
G1 Z0.300 F15000.000
G1 E3.20000 F3000.00000
G1 X-14.114 Y6.962 E0.27329 F720.000
G1 X-13.714 Y6.562 E0.04359
G1 X-13.714 Y-6.562 E1.01138
G1 X-14.114 Y-6.962 E0.04359
G1 X-14.114 Y-13.038 E0.46828
G1 X-13.714 Y-13.438 E0.04359
G1 X-13.714 Y-18.714 E0.40661
G1 X13.714 Y-18.714 E2.11381
G1 X13.714 Y18.714 E2.88447
G1 X-13.714 Y18.714 E2.11381 F720.000
G1 X-13.714 Y13.438 E0.40661
G1 X-14.114 Y13.038 E0.04359
G1 X-14.114 Y10.568 E0.19036
G1 X-14.750 Y10.568 F15000.000
G1 X-14.750 Y6.699 E0.29821 F720.000
G1 X-14.350 Y6.299 E0.04359
G1 X-14.350 Y-6.299 E0.97080
G1 X-14.750 Y-6.699 E0.04359
G1 X-14.750 Y-13.301 E0.50886
G1 X-14.350 Y-13.701 E0.04359
G1 X-14.350 Y-19.350 E0.43531
G1 X14.350 Y-19.350 E2.21178
G1 X14.350 Y19.350 E2.98244
G1 X-14.350 Y19.350 E2.21178 F720.000
G1 X-14.350 Y13.701 E0.43531
G1 X-14.750 Y13.301 E0.04359
G1 X-14.750 Y10.628 E0.20603
G1 X-14.404 Y10.368 F15000.000
G1 X-13.453 Y13.250 F15000.000
G1 X-13.453 Y6.750 E1.05259 F960.000
G1 X-13.253 Y6.750 F15000.000
G1 X-13.253 Y-6.750 E1.04038 F960.000
G1 X-13.453 Y-6.750 F15000.000
G1 X-13.453 Y-13.250 E1.05259 F960.000
G1 X-13.253 Y-13.250 F15000.000
G1 X-13.253 Y-18.191 E0.38077 F960.000
G1 X-13.248 Y-18.248 E0.00438
G1 X-13.110 Y-18.294 E0.01121
G1 X13.110 Y-18.294 E2.02060
G1 X13.248 Y-18.248 E0.01121
G1 X13.248 Y18.248 E2.81251
G1 X13.110 Y18.294 E0.01121
G1 X-13.110 Y18.294 E2.02060
G1 X-13.248 Y18.248 E0.01121
G1 X-13.253 Y18.191 E0.00438
G1 X-13.253 Y13.250 E0.38077
G1 E-3.20000 F3000.00000
G1 Z0.700 F15000.000
G1 X-12.270 Y13.250 F15000.000
G1 Z0.500 F15000.000
G1 E3.20000 F3000.00000
G1 X-12.270 Y-17.382 E0.88412 F2400.000
G1 X12.270 Y-17.382 E0.70827 F2400.000
G1 X12.270 Y17.382 E1.00339
G1 X-12.270 Y17.382 E0.70827
G1 X-12.270 Y13.310 E0.11753
G1 X-11.913 Y13.310 F15000.000
G1 X-11.913 Y-17.025 E0.87555 F2400.000
G1 X11.912 Y-17.025 E0.68765 F2400.000
G1 X11.912 Y17.025 E0.98277
G1 X-11.913 Y17.025 E0.68765
G1 X-11.913 Y13.370 E0.10549
G1 X-12.259 Y13.110 F15000.000
G1 E-3.20000 F3000.00000
G1 Z0.900 F15000.000
G1 X14.393 Y7.421 F15000.000
G1 Z0.500 F15000.000
G1 E3.20000 F3000.00000
G1 X14.393 Y19.393 E0.34555 F2400.000
G1 X-14.393 Y19.393 E0.83084 F2400.000
G1 X-14.393 Y13.366 E0.17396
G1 X-14.793 Y12.966 E0.01633
G1 X-14.793 Y7.034 E0.17120
G1 X-14.393 Y6.634 E0.01633
G1 X-14.393 Y-6.634 E0.38297
G1 X-14.793 Y-7.034 E0.01633
G1 X-14.793 Y-12.966 E0.17120
G1 X-14.393 Y-13.366 E0.01633
G1 X-14.393 Y-19.393 E0.17396
G1 X14.393 Y-19.393 E0.83084
G1 X14.393 Y7.361 E0.77218
G1 X14.750 Y7.361 F15000.000
G1 X14.750 Y19.750 E0.35759 F2400.000
G1 X-14.750 Y19.750 E0.85145 F2400.000
G1 X-14.750 Y13.514 E0.18000
G1 X-15.150 Y13.114 E0.01633
G1 X-15.150 Y6.886 E0.17973
G1 X-14.750 Y6.486 E0.01633
G1 X-14.750 Y-6.486 E0.37443
G1 X-15.150 Y-6.886 E0.01633
G1 X-15.150 Y-13.114 E0.17973
G1 X-14.750 Y-13.514 E0.01633
G1 X-14.750 Y-19.750 E0.18000
G1 X14.750 Y-19.750 E0.85145
G1 X14.750 Y7.301 E0.78075
G1 X14.404 Y7.561 F15000.000
G1 E-3.20000 F3000.00000
G1 Z0.900 F15000.000
G1 X12.043 Y17.590 F15000.000
G1 Z0.500 F15000.000
G1 E3.20000 F3000.00000
G1 X10.448 Y19.185 E0.06532 F2808.934
G1 X9.941 Y19.185 E0.01467
G1 X11.537 Y17.590 E0.06532
G1 X11.030 Y17.590 E0.01467
G1 X9.435 Y19.185 E0.06532
G1 X8.928 Y19.185 E0.01467
G1 X10.524 Y17.590 E0.06532
G1 X10.017 Y17.590 E0.01467
G1 X8.422 Y19.185 E0.06532
G1 X7.915 Y19.185 E0.01467
G1 X9.510 Y17.590 E0.06532
G1 X9.004 Y17.590 E0.01467
G1 X7.409 Y19.185 E0.06532
G1 X6.902 Y19.185 E0.01467
G1 X8.497 Y17.590 E0.06532
G1 X7.991 Y17.590 E0.01467
G1 X6.395 Y19.185 E0.06532
G1 X5.889 Y19.185 E0.01467
G1 X7.484 Y17.590 E0.06532
G1 X6.978 Y17.590 E0.01467
G1 X5.382 Y19.185 E0.06532
G1 X4.876 Y19.185 E0.01467
G1 X6.471 Y17.590 E0.06532
G1 X5.965 Y17.590 E0.01467
G1 X4.369 Y19.185 E0.06532
G1 X3.863 Y19.185 E0.01467
G1 X5.458 Y17.590 E0.06532
G1 X4.951 Y17.590 E0.01467
G1 X3.356 Y19.185 E0.06532
G1 X2.850 Y19.185 E0.01467
G1 X4.445 Y17.590 E0.06532
G1 X3.938 Y17.590 E0.01467
G1 X2.343 Y19.185 E0.06532
G1 X1.837 Y19.185 E0.01467
G1 X3.432 Y17.590 E0.06532
G1 X2.925 Y17.590 E0.01467
G1 X1.330 Y19.185 E0.06532
G1 X0.823 Y19.185 E0.01467
G1 X2.419 Y17.590 E0.06532
G1 X1.912 Y17.590 E0.01467
G1 X0.317 Y19.185 E0.06532
G1 X-0.190 Y19.185 E0.01467
G1 X1.406 Y17.590 E0.06532
G1 X0.899 Y17.590 E0.01467
G1 X-0.696 Y19.185 E0.06532
G1 X-1.203 Y19.185 E0.01467
G1 X0.393 Y17.590 E0.06532
G1 X-0.114 Y17.590 E0.01467
G1 X-1.709 Y19.185 E0.06532
G1 X-2.216 Y19.185 E0.01467
G1 X-0.621 Y17.590 E0.06532
G1 X-1.127 Y17.590 E0.01467
G1 X-2.722 Y19.185 E0.06532
G1 X-3.229 Y19.185 E0.01467
G1 X-1.634 Y17.590 E0.06532
G1 X-2.140 Y17.590 E0.01467
G1 X-3.736 Y19.185 E0.06532
G1 X-4.242 Y19.185 E0.01467
G1 X-2.647 Y17.590 E0.06532
G1 X-3.153 Y17.590 E0.01467
G1 X-4.749 Y19.185 E0.06532
G1 X-5.255 Y19.185 E0.01467
G1 X-3.660 Y17.590 E0.06532
G1 X-4.166 Y17.590 E0.01467
G1 X-5.762 Y19.185 E0.06532
G1 X-6.268 Y19.185 E0.01467
G1 X-4.673 Y17.590 E0.06532
G1 X-5.179 Y17.590 E0.01467
G1 X-6.775 Y19.185 E0.06532
G1 X-7.281 Y19.185 E0.01467
G1 X-5.686 Y17.590 E0.06532
G1 X-6.193 Y17.590 E0.01467
G1 X-7.788 Y19.185 E0.06532
G1 X-8.294 Y19.185 E0.01467
G1 X-6.699 Y17.590 E0.06532
G1 X-7.206 Y17.590 E0.01467
G1 X-8.801 Y19.185 E0.06532
G1 X-9.308 Y19.185 E0.01467
G1 X-7.712 Y17.590 E0.06532
G1 X-8.219 Y17.590 E0.01467
G1 X-9.814 Y19.185 E0.06532
G1 X-10.321 Y19.185 E0.01467
G1 X-8.725 Y17.590 E0.06532
G1 X-9.232 Y17.590 E0.01467
G1 X-10.827 Y19.185 E0.06532
G1 X-11.334 Y19.185 E0.01467
G1 X-9.738 Y17.590 E0.06532
G1 X-10.245 Y17.590 E0.01467
G1 X-11.840 Y19.185 E0.06532
G1 X-12.347 Y19.185 E0.01467
G1 X-10.752 Y17.590 E0.06532
G1 X-11.258 Y17.590 E0.01467
G1 X-12.853 Y19.185 E0.06532
G1 X-13.360 Y19.185 E0.01467
G1 X-11.765 Y17.590 E0.06532
G1 X-12.271 Y17.590 E0.01467
G1 X-13.866 Y19.185 E0.06532
G1 X-14.185 Y18.997 E0.01071
G1 X-12.477 Y17.289 E0.06993
G1 X-12.477 Y16.783 E0.01467
G1 X-14.185 Y18.491 E0.06993
G1 X-14.185 Y17.984 E0.01467
G1 X-12.477 Y16.276 E0.06993
G1 X-12.477 Y15.770 E0.01467
G1 X-14.185 Y17.478 E0.06993
G1 X-14.185 Y16.971 E0.01467
G1 X-12.477 Y15.263 E0.06993
G1 X-12.477 Y14.757 E0.01467
G1 X-14.185 Y16.465 E0.06993
G1 X-14.185 Y15.958 E0.01467
G1 X-12.477 Y14.250 E0.06993
G1 X-12.477 Y13.744 E0.01467
G1 X-14.185 Y15.451 E0.06993
G1 X-14.185 Y14.945 E0.01467
G1 X-12.477 Y13.237 E0.06993
G1 X-12.477 Y12.731 E0.01467
G1 X-14.185 Y14.438 E0.06993
G1 X-14.185 Y13.932 E0.01467
G1 X-12.477 Y12.224 E0.06993
G1 X-12.477 Y11.717 E0.01467
G1 X-14.185 Y13.425 E0.06993
G1 X-14.388 Y13.121 E0.01058
G1 X-12.477 Y11.211 E0.07822
G1 X-12.477 Y10.704 E0.01467
G1 X-14.585 Y12.812 E0.08630
G1 X-14.585 Y12.306 E0.01467
G1 X-12.477 Y10.198 E0.08630
G1 X-12.477 Y9.691 E0.01467
G1 X-14.585 Y11.799 E0.08630
G1 X-14.585 Y11.293 E0.01467
G1 X-12.477 Y9.185 E0.08630
G1 X-12.477 Y8.678 E0.01467
G1 X-14.585 Y10.786 E0.08630
G1 X-14.585 Y10.279 E0.01467
G1 X-12.477 Y8.172 E0.08630
G1 X-12.477 Y7.665 E0.01467
G1 X-14.585 Y9.773 E0.08630
G1 X-14.585 Y9.266 E0.01467
G1 X-12.477 Y7.159 E0.08630
G1 X-12.477 Y6.652 E0.01467
G1 X-14.585 Y8.760 E0.08630
G1 X-14.585 Y8.253 E0.01467
G1 X-12.477 Y6.145 E0.08630
G1 X-12.477 Y5.639 E0.01467
G1 X-14.585 Y7.747 E0.08630
G1 X-14.585 Y7.240 E0.01467
G1 X-12.477 Y5.132 E0.08630
G1 X-12.477 Y4.626 E0.01467
G1 X-14.185 Y6.334 E0.06993
G1 X-14.185 Y5.827 E0.01467
G1 X-12.477 Y4.119 E0.06993
G1 X-12.477 Y3.613 E0.01467
G1 X-14.185 Y5.321 E0.06993
G1 X-14.185 Y4.814 E0.01467
G1 X-12.477 Y3.106 E0.06993
G1 X-12.477 Y2.600 E0.01467
G1 X-14.185 Y4.307 E0.06993
G1 X-14.185 Y3.801 E0.01467
G1 X-12.477 Y2.093 E0.06993
G1 X-12.477 Y1.586 E0.01467
G1 X-14.185 Y3.294 E0.06993
G1 X-14.185 Y2.788 E0.01467
G1 X-12.477 Y1.080 E0.06993
G1 X-12.477 Y0.573 E0.01467
G1 X-14.185 Y2.281 E0.06993
G1 X-14.185 Y1.775 E0.01467
G1 X-12.477 Y0.067 E0.06993
G1 X-12.477 Y-0.440 E0.01467
G1 X-14.185 Y1.268 E0.06993
G1 X-14.185 Y0.762 E0.01467
G1 X-12.477 Y-0.946 E0.06993
G1 X-12.477 Y-1.453 E0.01467
G1 X-14.185 Y0.255 E0.06993
G1 X-14.185 Y-0.252 E0.01467
G1 X-12.477 Y-1.959 E0.06993
G1 X-12.477 Y-2.466 E0.01467
G1 X-14.185 Y-0.758 E0.06993
G1 X-14.185 Y-1.265 E0.01467
G1 X-12.477 Y-2.972 E0.06993
G1 X-12.477 Y-3.479 E0.01467
G1 X-14.185 Y-1.771 E0.06993
G1 X-14.185 Y-2.278 E0.01467
G1 X-12.477 Y-3.986 E0.06993
G1 X-12.477 Y-4.492 E0.01467
G1 X-14.185 Y-2.784 E0.06993
G1 X-14.185 Y-3.291 E0.01467
G1 X-12.477 Y-4.999 E0.06993
G1 X-12.477 Y-5.505 E0.01467
G1 X-14.185 Y-3.797 E0.06993
G1 X-14.185 Y-4.304 E0.01467
G1 X-12.477 Y-6.012 E0.06993
G1 X-12.477 Y-6.518 E0.01467
G1 X-14.185 Y-4.810 E0.06993
G1 X-14.185 Y-5.317 E0.01467
G1 X-12.477 Y-7.025 E0.06993
G1 X-12.477 Y-7.531 E0.01467
G1 X-14.185 Y-5.824 E0.06993
G1 X-14.185 Y-6.330 E0.01467
G1 X-12.477 Y-8.038 E0.06993
G1 X-12.477 Y-8.544 E0.01467
G1 X-14.266 Y-6.756 E0.07322
G1 X-14.519 Y-7.010 E0.01037
G1 X-12.477 Y-9.051 E0.08358
G1 X-12.477 Y-9.558 E0.01467
G1 X-14.585 Y-7.450 E0.08630
G1 X-14.585 Y-7.956 E0.01467
G1 X-12.477 Y-10.064 E0.08630
G1 X-12.477 Y-10.571 E0.01467
G1 X-14.585 Y-8.463 E0.08630
G1 X-14.585 Y-8.969 E0.01467
G1 X-12.477 Y-11.077 E0.08630
G1 X-12.477 Y-11.584 E0.01467
G1 X-14.585 Y-9.476 E0.08630
G1 X-14.585 Y-9.982 E0.01467
G1 X-12.477 Y-12.090 E0.08630
G1 X-12.477 Y-12.597 E0.01467
G1 X-14.585 Y-10.489 E0.08630
G1 X-14.585 Y-10.996 E0.01467
G1 X-12.477 Y-13.103 E0.08630
G1 X-12.477 Y-13.610 E0.01467
G1 X-14.585 Y-11.502 E0.08630
G1 X-14.585 Y-12.009 E0.01467
G1 X-12.477 Y-14.117 E0.08630
G1 X-12.477 Y-14.623 E0.01467
G1 X-14.585 Y-12.515 E0.08630
G1 X-14.185 Y-13.422 F15000.000
G1 X-12.477 Y-15.130 E0.06993 F2808.934
G1 X-12.477 Y-15.636 E0.01467
G1 X-14.185 Y-13.928 E0.06993
G1 X-14.185 Y-14.435 E0.01467
G1 X-12.477 Y-16.143 E0.06993
G1 X-12.477 Y-16.649 E0.01467
G1 X-14.185 Y-14.941 E0.06993
G1 X-14.185 Y-15.448 E0.01467
G1 X-12.477 Y-17.156 E0.06993
G1 X-14.185 Y-18.994 F15000.000
G1 X-13.994 Y-19.185 E0.00784 F2808.934
G1 X-13.487 Y-19.185 E0.01467
G1 X-14.185 Y-18.487 E0.02858
G1 X-14.185 Y-17.981 E0.01467
G1 X-12.981 Y-19.185 E0.04932
G1 X-12.474 Y-19.185 E0.01467
G1 X-14.185 Y-17.474 E0.07006
G1 X-14.185 Y-16.968 E0.01467
G1 X-11.968 Y-19.185 E0.09080
G1 X-11.461 Y-19.185 E0.01467
G1 X-14.185 Y-16.461 E0.11154
G1 X-14.185 Y-15.955 E0.01467
G1 X-10.955 Y-19.185 E0.13228
G1 X-10.448 Y-19.185 E0.01467
G1 X-12.043 Y-17.590 E0.06532
G1 X-11.537 Y-17.590 E0.01467
G1 X-9.941 Y-19.185 E0.06532
G1 X-9.435 Y-19.185 E0.01467
G1 X-11.030 Y-17.590 E0.06532
G1 X-10.524 Y-17.590 E0.01467
G1 X-8.928 Y-19.185 E0.06532
G1 X-8.422 Y-19.185 E0.01467
G1 X-10.017 Y-17.590 E0.06532
G1 X-9.511 Y-17.590 E0.01467
G1 X-7.915 Y-19.185 E0.06532
G1 X-7.409 Y-19.185 E0.01467
G1 X-9.004 Y-17.590 E0.06532
G1 X-8.497 Y-17.590 E0.01467
G1 X-6.902 Y-19.185 E0.06532
G1 X-6.396 Y-19.185 E0.01467
G1 X-7.991 Y-17.590 E0.06532
G1 X-7.484 Y-17.590 E0.01467
G1 X-5.889 Y-19.185 E0.06532
G1 X-5.382 Y-19.185 E0.01467
G1 X-6.978 Y-17.590 E0.06532
G1 X-6.471 Y-17.590 E0.01467
G1 X-4.876 Y-19.185 E0.06532
G1 X-4.369 Y-19.185 E0.01467
G1 X-5.965 Y-17.590 E0.06532
G1 X-5.458 Y-17.590 E0.01467
G1 X-3.863 Y-19.185 E0.06532
G1 X-3.356 Y-19.185 E0.01467
G1 X-4.952 Y-17.590 E0.06532
G1 X-4.445 Y-17.590 E0.01467
G1 X-2.850 Y-19.185 E0.06532
G1 X-2.343 Y-19.185 E0.01467
G1 X-3.939 Y-17.590 E0.06532
G1 X-3.432 Y-17.590 E0.01467
G1 X-1.837 Y-19.185 E0.06532
G1 X-1.330 Y-19.185 E0.01467
G1 X-2.925 Y-17.590 E0.06532
G1 X-2.419 Y-17.590 E0.01467
G1 X-0.824 Y-19.185 E0.06532
G1 X-0.317 Y-19.185 E0.01467
G1 X-1.912 Y-17.590 E0.06532
G1 X-1.406 Y-17.590 E0.01467
G1 X0.190 Y-19.185 E0.06532
G1 X0.696 Y-19.185 E0.01467
G1 X-0.899 Y-17.590 E0.06532
G1 X-0.393 Y-17.590 E0.01467
G1 X1.203 Y-19.185 E0.06532
G1 X1.709 Y-19.185 E0.01467
G1 X0.114 Y-17.590 E0.06532
G1 X0.620 Y-17.590 E0.01467
G1 X2.216 Y-19.185 E0.06532
G1 X2.722 Y-19.185 E0.01467
G1 X1.127 Y-17.590 E0.06532
G1 X1.633 Y-17.590 E0.01467
G1 X3.229 Y-19.185 E0.06532
G1 X3.735 Y-19.185 E0.01467
G1 X2.140 Y-17.590 E0.06532
G1 X2.647 Y-17.590 E0.01467
G1 X4.242 Y-19.185 E0.06532
G1 X4.748 Y-19.185 E0.01467
G1 X3.153 Y-17.590 E0.06532
G1 X3.660 Y-17.590 E0.01467
G1 X5.255 Y-19.185 E0.06532
G1 X5.762 Y-19.185 E0.01467
G1 X4.166 Y-17.590 E0.06532
G1 X4.673 Y-17.590 E0.01467
G1 X6.268 Y-19.185 E0.06532
G1 X6.775 Y-19.185 E0.01467
G1 X5.179 Y-17.590 E0.06532
G1 X5.686 Y-17.590 E0.01467
G1 X7.281 Y-19.185 E0.06532
G1 X7.788 Y-19.185 E0.01467
G1 X6.192 Y-17.590 E0.06532
G1 X6.699 Y-17.590 E0.01467
G1 X8.294 Y-19.185 E0.06532
G1 X8.801 Y-19.185 E0.01467
G1 X7.206 Y-17.590 E0.06532
G1 X7.712 Y-17.590 E0.01467
G1 X9.307 Y-19.185 E0.06532
G1 X9.814 Y-19.185 E0.01467
G1 X8.219 Y-17.590 E0.06532
G1 X8.725 Y-17.590 E0.01467
G1 X10.321 Y-19.185 E0.06532
G1 X10.827 Y-19.185 E0.01467
G1 X9.232 Y-17.590 E0.06532
G1 X9.738 Y-17.590 E0.01467
G1 X11.334 Y-19.185 E0.06532
G1 X11.840 Y-19.185 E0.01467
G1 X10.245 Y-17.590 E0.06532
G1 X10.751 Y-17.590 E0.01467
G1 X12.347 Y-19.185 E0.06532
G1 X12.853 Y-19.185 E0.01467
G1 X11.258 Y-17.590 E0.06532
G1 X11.764 Y-17.590 E0.01467
G1 X13.360 Y-19.185 E0.06532
G1 X13.866 Y-19.185 E0.01467
G1 X12.271 Y-17.590 E0.06532
G1 X12.477 Y-17.290 F15000.000
G1 X14.185 Y-18.997 E0.06993 F2808.934
G1 X14.185 Y-18.491 E0.01467
G1 X12.477 Y-16.783 E0.06993
G1 X12.477 Y-16.276 E0.01467
G1 X14.185 Y-17.984 E0.06993
G1 X14.185 Y-17.478 E0.01467
G1 X12.477 Y-15.770 E0.06993
G1 X12.477 Y-15.263 E0.01467
G1 X14.185 Y-16.971 E0.06993
G1 X14.185 Y-16.465 E0.01467
G1 X12.477 Y-14.757 E0.06993
G1 X12.477 Y-14.250 E0.01467
G1 X14.185 Y-15.958 E0.06993
G1 X14.185 Y-15.452 E0.01467
G1 X12.477 Y-13.744 E0.06993
G1 X12.477 Y-13.237 E0.01467
G1 X14.185 Y-14.945 E0.06993
G1 X14.185 Y-14.439 E0.01467
G1 X12.477 Y-12.731 E0.06993
G1 X12.477 Y-12.224 E0.01467
G1 X14.185 Y-13.932 E0.06993
G1 X14.185 Y-13.425 E0.01467
G1 X12.477 Y-11.718 E0.06993
G1 X12.477 Y-11.211 E0.01467
G1 X14.185 Y-12.919 E0.06993
G1 X14.185 Y-12.412 E0.01467
G1 X12.477 Y-10.704 E0.06993
G1 X12.477 Y-10.198 E0.01467
G1 X14.185 Y-11.906 E0.06993
G1 X14.185 Y-11.399 E0.01467
G1 X12.477 Y-9.691 E0.06993
G1 X12.477 Y-9.185 E0.01467
G1 X14.185 Y-10.893 E0.06993
G1 X14.185 Y-10.386 E0.01467
G1 X12.477 Y-8.678 E0.06993
G1 X12.477 Y-8.172 E0.01467
G1 X14.185 Y-9.880 E0.06993
G1 X14.185 Y-9.373 E0.01467
G1 X12.477 Y-7.665 E0.06993
G1 X12.477 Y-7.159 E0.01467
G1 X14.185 Y-8.866 E0.06993
G1 X14.185 Y-8.360 E0.01467
G1 X12.477 Y-6.652 E0.06993
G1 X12.477 Y-6.146 E0.01467
G1 X14.185 Y-7.853 E0.06993
