; generated by Slic3r 1.2.9 on 2017-01-27 at 15:57:56

; external perimeters extrusion width = 0.40mm
; perimeters extrusion width = 0.40mm
; infill extrusion width = 0.40mm
; solid infill extrusion width = 0.40mm
; top infill extrusion width = 0.40mm

M107
M83
T0
M116
G21 ; set units to millimeters
G90 ; use absolute coordinates
M83 ; use relative distances for extrusion
G1 E-3.20000 F3000.00000
G1 Z0.400 F15000.000
G1 X24.704 Y34.939 F15000.000
G1 Z0.300 F15000.000
G1 E3.20000 F3000.00000
G1 X10.049 Y45.301 E1.38322 F960.000
G1 X7.950 Y45.968 E0.16973
G1 X-7.950 Y45.968 E1.22534
G1 X-10.049 Y45.301 E0.16973
G1 X-59.549 Y10.301 E4.67201
G1 X-60.666 Y9.028 E0.13052
G1 X-61.086 Y7.333 E0.13461
G1 X-61.086 Y-7.567 E1.14828
G1 X-60.691 Y-9.214 E0.13052
G1 X-59.642 Y-10.468 E0.12600
G1 X-5.533 Y-51.350 E5.22630
G1 X-4.426 Y-52.068 E0.10167
G1 X-3.597 Y-52.459 E0.07062
G1 X-2.723 Y-52.743 E0.07086
G1 X-2.388 Y-52.836 E0.02679
G1 X-1.724 Y-52.940 E0.05181
G1 X-0.806 Y-52.997 E0.07084
G1 X-0.278 Y-52.992 E0.04073
G1 X0.210 Y-52.931 E0.03789 F960.000
G1 X1.113 Y-52.759 E0.07084
G1 X1.971 Y-52.482 E0.06946
G1 X2.902 Y-52.047 E0.07920
G1 X3.515 Y-51.683 E0.05492
G1 X59.602 Y-10.498 E5.36258
G1 X60.696 Y-9.205 E0.13052
G1 X61.086 Y-7.567 E0.12972
G1 X61.086 Y7.333 E1.14828
G1 X60.691 Y8.980 E0.13052
G1 X59.549 Y10.301 E0.13461
G1 X24.753 Y34.904 E3.28416
G1 E-3.20000 F3000.00000
G1 Z0.700 F15000.000
G1 X0.961 Y-40.078 F15000.000
G1 Z0.300 F15000.000
G1 E3.20000 F3000.00000
G1 X0.814 Y-40.032 E0.01190 F960.000
G1 X-0.392 Y-39.815 E0.09439
G1 X-0.583 Y-39.804 E0.01473
G1 X-1.692 Y-39.874 E0.08569
G1 X-1.883 Y-39.910 E0.01498
G1 X-3.053 Y-40.281 E0.09452
G1 X-3.239 Y-40.368 E0.01583
G1 X-4.293 Y-41.040 E0.09636
G1 X-4.443 Y-41.168 E0.01519
G1 X-5.270 Y-42.065 E0.09407
G1 X-5.383 Y-42.221 E0.01482
G1 X-5.918 Y-43.196 E0.08569
G1 X-5.990 Y-43.375 E0.01490
G1 X-6.305 Y-44.560 E0.09449
G1 X-6.332 Y-44.765 E0.01592
G1 X-6.332 Y-46.000 E0.09517
G1 X-6.305 Y-46.205 E0.01592
G1 X-5.990 Y-47.390 E0.09449
G1 X-5.918 Y-47.569 E0.01490
G1 X-5.383 Y-48.544 E0.08569
G1 X-5.270 Y-48.700 E0.01482
G1 X-4.440 Y-49.601 E0.09444
G1 X-4.282 Y-49.734 E0.01592
G1 X-3.243 Y-50.395 E0.09494
G1 X-3.061 Y-50.481 E0.01549
G1 X-1.814 Y-50.870 E0.10062
G1 X-1.669 Y-50.893 E0.01135
G1 X-0.505 Y-50.957 E0.08986
G1 X-0.215 Y-50.929 E0.02244 F960.000
G1 X0.827 Y-50.730 E0.08170
G1 X1.015 Y-50.669 E0.01524
G1 X2.129 Y-50.149 E0.09478
G1 X2.303 Y-50.038 E0.01592
G1 X3.245 Y-49.250 E0.09464
G1 X3.379 Y-49.107 E0.01507
G1 X4.034 Y-48.205 E0.08590
G1 X4.128 Y-48.034 E0.01505
G1 X4.606 Y-46.848 E0.09856
G1 X4.658 Y-46.648 E0.01590
G1 X4.802 Y-45.481 E0.09066
G1 X4.802 Y-45.285 E0.01513
G1 X4.658 Y-44.117 E0.09066
G1 X4.606 Y-43.917 E0.01590
G1 X4.128 Y-42.731 E0.09856
G1 X4.034 Y-42.560 E0.01505
G1 X3.379 Y-41.658 E0.08590
G1 X3.245 Y-41.515 E0.01507
G1 X2.303 Y-40.727 E0.09464
G1 X2.129 Y-40.616 E0.01592
G1 X1.018 Y-40.097 E0.09451
G1 X0.779 Y-40.687 F15000.000
G1 X0.661 Y-40.650 E0.00955 F960.000
G1 X-0.466 Y-40.448 E0.08826
G1 X-1.614 Y-40.506 E0.08853
G1 X-1.728 Y-40.528 E0.00899
G1 X-2.821 Y-40.874 E0.08836
G1 X-2.933 Y-40.926 E0.00950
G1 X-3.912 Y-41.551 E0.08951
G1 X-4.003 Y-41.627 E0.00911
G1 X-4.777 Y-42.468 E0.08807
G1 X-4.844 Y-42.561 E0.00889
G1 X-5.343 Y-43.468 E0.07975
G1 X-5.386 Y-43.576 E0.00894
G1 X-5.680 Y-44.684 E0.08833
G1 X-5.696 Y-44.806 E0.00955
G1 X-5.696 Y-45.959 E0.08881
G1 X-5.680 Y-46.082 E0.00955
G1 X-5.386 Y-47.189 E0.08833
G1 X-5.343 Y-47.297 E0.00894
G1 X-4.844 Y-48.204 E0.07975
G1 X-4.777 Y-48.298 E0.00889
G1 X-4.001 Y-49.140 E0.08829
G1 X-3.906 Y-49.220 E0.00955
G1 X-2.935 Y-49.838 E0.08865
G1 X-2.826 Y-49.889 E0.00930
G1 X-1.687 Y-50.246 E0.09202
G1 X-0.603 Y-50.323 E0.08370
G1 X-0.317 Y-50.301 E0.02210 F960.000
G1 X0.669 Y-50.113 E0.07735
G1 X0.781 Y-50.077 E0.00914
G1 X1.822 Y-49.591 E0.08855
G1 X1.927 Y-49.524 E0.00955
G1 X2.807 Y-48.788 E0.08844
G1 X2.887 Y-48.702 E0.00904
G1 X3.496 Y-47.863 E0.07987
G1 X3.553 Y-47.761 E0.00903
G1 X4.001 Y-46.649 E0.09237
G1 X4.032 Y-46.529 E0.00954
G1 X4.167 Y-45.442 E0.08445
G1 X4.167 Y-45.324 E0.00908
G1 X4.032 Y-44.236 E0.08445
G1 X4.001 Y-44.116 E0.00954
G1 X3.553 Y-43.005 E0.09237
G1 X3.496 Y-42.902 E0.00903
G1 X2.887 Y-42.063 E0.07987
G1 X2.807 Y-41.978 E0.00904
G1 X1.927 Y-41.241 E0.08844
G1 X1.822 Y-41.175 E0.00955
G1 X0.833 Y-40.713 E0.08413
G1 X0.564 Y-41.289 F15000.000
G1 X-0.579 Y-41.078 E0.08960 F960.000
G1 X-1.573 Y-41.145 E0.07678
G1 X-2.627 Y-41.485 E0.08534
G1 X-3.532 Y-42.061 E0.08265
G1 X-4.283 Y-42.870 E0.08509
G1 X-4.781 Y-43.776 E0.07971
G1 X-5.055 Y-44.807 E0.08216
G1 X-5.055 Y-45.958 E0.08875
G1 X-4.781 Y-46.989 E0.08216
G1 X-4.283 Y-47.895 E0.07971
G1 X-3.529 Y-48.706 E0.08530
G1 X-2.628 Y-49.280 E0.08237
G1 X-1.559 Y-49.623 E0.08649
G1 X-0.563 Y-49.687 E0.07690
G1 X0.511 Y-49.496 E0.08406 F960.000
G1 X1.551 Y-49.010 E0.08850
G1 X2.369 Y-48.325 E0.08224
G1 X2.959 Y-47.521 E0.07684
G1 X3.406 Y-46.410 E0.09232
G1 X3.531 Y-45.363 E0.08125
G1 X3.406 Y-44.355 E0.07825
G1 X2.978 Y-43.278 E0.08933
G1 X2.369 Y-42.440 E0.07983
G1 X1.551 Y-41.755 E0.08224
G1 X0.619 Y-41.314 E0.07948
G1 E-3.20000 F3000.00000
G1 Z0.700 F15000.000
G1 X0.619 Y-9.156 F15000.000
G1 Z0.300 F15000.000
G1 E3.20000 F3000.00000
G1 X58.108 Y-9.156 E4.43045 F960.000
G1 X59.039 Y-8.226 E0.10145
G1 X59.039 Y7.991 E1.24973 F960.000
G1 X58.108 Y8.922 E0.10145
G1 X9.911 Y8.922 E3.71431
G1 X9.539 Y9.294 E0.04058
G1 X9.539 Y42.991 E2.59686
G1 X8.608 Y43.922 E0.10145
G1 X-8.608 Y43.922 E1.32679
G1 X-9.539 Y42.991 E0.10145
G1 X-9.539 Y9.294 E2.59686
G1 X-9.911 Y8.922 E0.04058
G1 X-58.108 Y8.922 E3.71431
G1 X-59.039 Y7.991 E0.10145
G1 X-59.039 Y-8.226 E1.24973
G1 X-58.108 Y-9.156 E0.10145
G1 X0.559 Y-9.156 E4.52120
G1 X0.559 Y-8.521 F15000.000
G1 X57.845 Y-8.521 E4.41479 F960.000
G1 X58.403 Y-7.962 E0.06087 F960.000
G1 X58.403 Y7.728 E1.20915
G1 X57.845 Y8.286 E0.06087
G1 X9.276 Y8.286 E3.74301
G1 X8.903 Y8.658 E0.04058
G1 X8.903 Y42.728 E2.62556
G1 X8.345 Y43.286 E0.06087
G1 X-8.345 Y43.286 E1.28621
G1 X-8.903 Y42.728 E0.06087
G1 X-8.903 Y8.658 E2.62556
G1 X-9.276 Y8.286 E0.04058
G1 X-57.845 Y8.286 E3.74301
G1 X-58.403 Y7.728 E0.06087
G1 X-58.403 Y-7.962 E1.20915
G1 X-57.845 Y-8.521 E0.06087
G1 X0.499 Y-8.521 E4.49628
G1 X0.499 Y-7.885 F15000.000
G1 X57.582 Y-7.885 E4.39912 F960.000
G1 X57.768 Y-7.699 E0.02029
G1 X57.768 Y7.464 E1.16857 F960.000
G1 X57.582 Y7.650 E0.02029
G1 X8.640 Y7.650 E3.77170
G1 X8.268 Y8.023 E0.04058
G1 X8.268 Y42.464 E2.65425
G1 X8.082 Y42.650 E0.02029
G1 X-8.082 Y42.650 E1.24563
G1 X-8.268 Y42.464 E0.02029
G1 X-8.268 Y8.023 E2.65425
G1 X-8.640 Y7.650 E0.04058
G1 X-57.582 Y7.650 E3.77170
G1 X-57.768 Y7.464 E0.02029
G1 X-57.768 Y-7.699 E1.16857
G1 X-57.582 Y-7.885 E0.02029
G1 X0.439 Y-7.885 E4.47137
G1 X0.439 Y-7.217 F15000.000
G1 X57.100 Y-7.217 E4.36663 F720.000
G1 X57.100 Y6.983 E1.09433
G1 X7.600 Y6.983 E3.81474 F720.000
G1 X7.600 Y41.983 E2.69729
G1 X-7.600 Y41.983 E1.17140
G1 X-7.600 Y6.983 E2.69729
G1 X-57.100 Y6.983 E3.81474
G1 X-57.100 Y-7.217 E1.09433
G1 X0.379 Y-7.217 E4.42963
G1 X0.639 Y-6.871 F15000.000
G1 X-52.909 Y-6.582 F15000.000
G1 X56.464 Y-6.582 E8.42889 F720.000
G1 X56.464 Y6.347 E0.99636
G1 X6.964 Y6.347 E3.81474 F720.000
G1 X6.964 Y41.347 E2.69729
G1 X-6.964 Y41.347 E1.07343
G1 X-6.964 Y6.347 E2.69729
G1 X-56.464 Y6.347 E3.81474
G1 X-56.464 Y-6.582 E0.99636
G1 X-52.969 Y-6.582 E0.26939
G1 X-55.769 Y5.962 F15000.000
G1 X-56.079 Y5.652 E0.03389 F960.000
G1 X-56.079 Y4.749 E0.06989
G1 X-54.866 Y5.962 E0.13273
G1 X-53.964 Y5.962 E0.06989
G1 X-56.079 Y3.846 E0.23157
G1 X-56.079 Y2.943 E0.06989
G1 X-53.061 Y5.962 E0.33041
G1 X-52.158 Y5.962 E0.06989
G1 X-56.079 Y2.040 E0.42925
G1 X-56.079 Y1.138 E0.06989
G1 X-51.255 Y5.962 E0.52810
G1 X-50.352 Y5.962 E0.06989
G1 X-56.079 Y0.235 E0.62694
G1 X-56.079 Y-0.668 E0.06989
G1 X-49.449 Y5.962 E0.72578
G1 X-48.546 Y5.962 E0.06989
G1 X-56.079 Y-1.571 E0.82462
G1 X-56.079 Y-2.474 E0.06989
G1 X-47.643 Y5.962 E0.92346
G1 X-46.740 Y5.962 E0.06989
G1 X-56.079 Y-3.377 E1.02230
G1 X-56.079 Y-4.280 E0.06989
G1 X-45.838 Y5.962 E1.12114
G1 X-44.935 Y5.962 E0.06989
G1 X-56.079 Y-5.183 E1.21998
G1 X-56.079 Y-6.086 E0.06989
G1 X-44.032 Y5.962 E1.31882
G1 X-43.129 Y5.962 E0.06989
G1 X-55.287 Y-6.196 E1.33094
G1 X-54.384 Y-6.196 E0.06989
G1 X-42.226 Y5.962 E1.33094
G1 X-41.323 Y5.962 E0.06989
G1 X-53.481 Y-6.196 E1.33094
G1 X-52.578 Y-6.196 E0.06989
G1 X-40.420 Y5.962 E1.33094
G1 X-39.517 Y5.962 E0.06989
G1 X-51.675 Y-6.196 E1.33094
G1 X-50.772 Y-6.196 E0.06989
G1 X-38.614 Y5.962 E1.33094
G1 X-37.711 Y5.962 E0.06989
G1 X-49.869 Y-6.196 E1.33094
G1 X-48.967 Y-6.196 E0.06989
G1 X-36.809 Y5.962 E1.33094
G1 X-35.906 Y5.962 E0.06989
G1 X-48.064 Y-6.196 E1.33094
G1 X-47.161 Y-6.196 E0.06989
G1 X-35.003 Y5.962 E1.33094
G1 X-34.100 Y5.962 E0.06989
G1 X-46.258 Y-6.196 E1.33094
G1 X-45.355 Y-6.196 E0.06989
G1 X-33.197 Y5.962 E1.33094
G1 X-32.294 Y5.962 E0.06989
G1 X-44.452 Y-6.196 E1.33094
G1 X-43.549 Y-6.196 E0.06989
G1 X-31.391 Y5.962 E1.33094
G1 X-30.488 Y5.962 E0.06989
G1 X-42.646 Y-6.196 E1.33094
G1 X-41.743 Y-6.196 E0.06989
G1 X-29.585 Y5.962 E1.33094
G1 X-28.683 Y5.962 E0.06989
G1 X-40.840 Y-6.196 E1.33094
G1 X-39.938 Y-6.196 E0.06989
G1 X-27.780 Y5.962 E1.33094
G1 X-26.877 Y5.962 E0.06989
G1 X-39.035 Y-6.196 E1.33094
G1 X-38.132 Y-6.196 E0.06989
G1 X-25.974 Y5.962 E1.33094
G1 X-25.071 Y5.962 E0.06989
G1 X-37.229 Y-6.196 E1.33094
G1 X-36.326 Y-6.196 E0.06989
G1 X-24.168 Y5.962 E1.33094
G1 X-23.265 Y5.962 E0.06989
G1 X-35.423 Y-6.196 E1.33094
G1 X-34.520 Y-6.196 E0.06989
G1 X-22.362 Y5.962 E1.33094
G1 X-21.459 Y5.962 E0.06989
G1 X-33.617 Y-6.196 E1.33094
G1 X-32.714 Y-6.196 E0.06989
G1 X-20.556 Y5.962 E1.33094
G1 X-19.654 Y5.962 E0.06989
G1 X-31.812 Y-6.196 E1.33094
G1 X-30.909 Y-6.196 E0.06989
G1 X-18.751 Y5.962 E1.33094
G1 X-17.848 Y5.962 E0.06989
G1 X-30.006 Y-6.196 E1.33094
G1 X-29.103 Y-6.196 E0.06989
G1 X-16.945 Y5.962 E1.33094
G1 X-16.042 Y5.962 E0.06989
G1 X-28.200 Y-6.196 E1.33094
G1 X-27.297 Y-6.196 E0.06989
G1 X-15.139 Y5.962 E1.33094
G1 X-14.236 Y5.962 E0.06989
G1 X-26.394 Y-6.196 E1.33094
G1 X-25.491 Y-6.196 E0.06989
G1 X-13.333 Y5.962 E1.33094
G1 X-12.430 Y5.962 E0.06989
G1 X-24.588 Y-6.196 E1.33094
G1 X-23.685 Y-6.196 E0.06989
G1 X-11.528 Y5.962 E1.33094
G1 X-10.625 Y5.962 E0.06989
G1 X-22.783 Y-6.196 E1.33094
G1 X-21.880 Y-6.196 E0.06989
G1 X-9.722 Y5.962 E1.33094
G1 X-8.819 Y5.962 E0.06989
G1 X-20.977 Y-6.196 E1.33094
G1 X-20.074 Y-6.196 E0.06989
G1 X-7.916 Y5.962 E1.33094
G1 X-7.013 Y5.962 F15000.000
G1 X-19.171 Y-6.196 E1.33094 F960.000
G1 X-18.268 Y-6.196 E0.06989
G1 X6.579 Y18.651 E2.72004
G1 X6.579 Y17.748 E0.06989
G1 X-17.365 Y-6.196 E2.62120
G1 X-16.462 Y-6.196 E0.06989
G1 X6.579 Y16.845 E2.52235
G1 X6.579 Y15.942 E0.06989
G1 X-15.559 Y-6.196 E2.42351
G1 X-14.657 Y-6.196 E0.06989
G1 X6.579 Y15.039 E2.32467
G1 X6.579 Y14.136 E0.06989
G1 X-13.754 Y-6.196 E2.22583
G1 X-12.851 Y-6.196 E0.06989
G1 X6.579 Y13.233 E2.12699
G1 X6.579 Y12.330 E0.06989
G1 X-11.948 Y-6.196 E2.02815
G1 X-11.045 Y-6.196 E0.06989
G1 X6.579 Y11.428 E1.92931
G1 X6.579 Y10.525 E0.06989
G1 X-10.142 Y-6.196 E1.83047
G1 X-9.239 Y-6.196 E0.06989
G1 X6.579 Y9.622 E1.73163
G1 X6.579 Y8.719 E0.06989
G1 X-8.336 Y-6.196 E1.63279
G1 X-7.433 Y-6.196 E0.06989
G1 X6.579 Y7.816 E1.53394
G1 X6.579 Y6.913 E0.06989
G1 X-6.530 Y-6.196 E1.43510
G1 X-5.628 Y-6.196 E0.06989
G1 X6.579 Y6.010 E1.33626
G1 X7.433 Y5.962 E0.06624
G1 X-4.725 Y-6.196 E1.33094
G1 X-3.822 Y-6.196 E0.06989
G1 X8.336 Y5.962 E1.33094
G1 X9.239 Y5.962 E0.06989
G1 X-2.919 Y-6.196 E1.33094
G1 X-2.016 Y-6.196 E0.06989
G1 X10.142 Y5.962 E1.33094
G1 X11.045 Y5.962 E0.06989
G1 X-1.113 Y-6.196 E1.33094
G1 X-0.210 Y-6.196 E0.06989
G1 X11.948 Y5.962 E1.33094
G1 X12.851 Y5.962 E0.06989
G1 X0.693 Y-6.196 E1.33094
G1 X1.596 Y-6.196 E0.06989
G1 X13.754 Y5.962 E1.33094
G1 X14.656 Y5.962 E0.06989
G1 X2.498 Y-6.196 E1.33094
G1 X3.401 Y-6.196 E0.06989
G1 X15.559 Y5.962 E1.33094
G1 X16.462 Y5.962 E0.06989
G1 X4.304 Y-6.196 E1.33094
G1 X5.207 Y-6.196 E0.06989
G1 X17.365 Y5.962 E1.33094
G1 X18.268 Y5.962 E0.06989
G1 X6.110 Y-6.196 E1.33094
G1 X7.013 Y-6.196 E0.06989
G1 X19.171 Y5.962 E1.33094
G1 X20.074 Y5.962 E0.06989
G1 X7.916 Y-6.196 E1.33094
G1 X8.819 Y-6.196 E0.06989
G1 X20.977 Y5.962 E1.33094
G1 X21.880 Y5.962 E0.06989
G1 X9.722 Y-6.196 E1.33094
G1 X10.625 Y-6.196 E0.06989
G1 X22.782 Y5.962 E1.33094
G1 X23.685 Y5.962 E0.06989
G1 X11.527 Y-6.196 E1.33094
G1 X12.430 Y-6.196 E0.06989
G1 X24.588 Y5.962 E1.33094
G1 X25.491 Y5.962 E0.06989
G1 X13.333 Y-6.196 E1.33094
G1 X14.236 Y-6.196 E0.06989
G1 X26.394 Y5.962 E1.33094
G1 X27.297 Y5.962 E0.06989
G1 X15.139 Y-6.196 E1.33094
G1 X16.042 Y-6.196 E0.06989
G1 X28.200 Y5.962 E1.33094
G1 X29.103 Y5.962 E0.06989
G1 X16.945 Y-6.196 E1.33094
G1 X17.848 Y-6.196 E0.06989
G1 X30.006 Y5.962 E1.33094
G1 X30.909 Y5.962 E0.06989
G1 X18.751 Y-6.196 E1.33094
G1 X19.653 Y-6.196 E0.06989
G1 X31.811 Y5.962 E1.33094
G1 X32.714 Y5.962 E0.06989
G1 X20.556 Y-6.196 E1.33094
G1 X21.459 Y-6.196 E0.06989
G1 X33.617 Y5.962 E1.33094
G1 X34.520 Y5.962 E0.06989
G1 X22.362 Y-6.196 E1.33094
G1 X23.265 Y-6.196 E0.06989
G1 X35.423 Y5.962 E1.33094
G1 X36.326 Y5.962 E0.06989
G1 X24.168 Y-6.196 E1.33094
G1 X25.071 Y-6.196 E0.06989
G1 X37.229 Y5.962 E1.33094
G1 X38.132 Y5.962 E0.06989
G1 X25.974 Y-6.196 E1.33094
G1 X26.877 Y-6.196 E0.06989
G1 X39.035 Y5.962 E1.33094
G1 X39.937 Y5.962 E0.06989
G1 X27.780 Y-6.196 E1.33094
G1 X28.682 Y-6.196 E0.06989
G1 X40.840 Y5.962 E1.33094
G1 X41.743 Y5.962 E0.06989
G1 X29.585 Y-6.196 E1.33094
G1 X30.488 Y-6.196 E0.06989
G1 X42.646 Y5.962 E1.33094
G1 X43.549 Y5.962 E0.06989
G1 X31.391 Y-6.196 E1.33094
G1 X32.294 Y-6.196 E0.06989
G1 X44.452 Y5.962 E1.33094
G1 X45.355 Y5.962 E0.06989
G1 X33.197 Y-6.196 E1.33094
G1 X34.100 Y-6.196 E0.06989
G1 X46.258 Y5.962 E1.33094
G1 X47.161 Y5.962 E0.06989
G1 X35.003 Y-6.196 E1.33094
G1 X35.906 Y-6.196 E0.06989
G1 X48.064 Y5.962 E1.33094
G1 X48.966 Y5.962 E0.06989
G1 X36.808 Y-6.196 E1.33094
G1 X37.711 Y-6.196 E0.06989
G1 X49.869 Y5.962 E1.33094
G1 X50.772 Y5.962 E0.06989
G1 X38.614 Y-6.196 E1.33094
G1 X39.517 Y-6.196 E0.06989
G1 X51.675 Y5.962 E1.33094
G1 X52.578 Y5.962 E0.06989
G1 X40.420 Y-6.196 E1.33094
G1 X41.323 Y-6.196 E0.06989
G1 X53.481 Y5.962 E1.33094
G1 X54.384 Y5.962 E0.06989
G1 X42.226 Y-6.196 E1.33094
G1 X43.129 Y-6.196 E0.06989
G1 X55.287 Y5.962 E1.33094
G1 X56.079 Y5.851 E0.06192
G1 X44.032 Y-6.196 E1.31883
G1 X44.935 Y-6.196 E0.06989
G1 X56.079 Y4.948 E1.21999
G1 X56.079 Y4.045 E0.06989
G1 X45.837 Y-6.196 E1.12115
G1 X46.740 Y-6.196 E0.06989
G1 X56.079 Y3.142 E1.02231
G1 X56.079 Y2.239 E0.06989
G1 X47.643 Y-6.196 E0.92347
G1 X48.546 Y-6.196 E0.06989
G1 X56.079 Y1.337 E0.82463
G1 X56.079 Y0.434 E0.06989
G1 X49.449 Y-6.196 E0.72579
G1 X50.352 Y-6.196 E0.06989
G1 X56.079 Y-0.469 E0.62695
G1 X56.079 Y-1.372 E0.06989
G1 X51.255 Y-6.196 E0.52810
G1 X52.158 Y-6.196 E0.06989
G1 X56.079 Y-2.275 E0.42926
G1 X56.079 Y-3.178 E0.06989
G1 X53.061 Y-6.196 E0.33042
G1 X53.963 Y-6.196 E0.06989
G1 X56.079 Y-4.081 E0.23158
G1 X56.079 Y-4.984 E0.06989
G1 X54.866 Y-6.196 E0.13274
G1 X55.769 Y-6.196 E0.06989
G1 X56.079 Y-5.887 E0.03390
G1 X-6.579 Y6.396 F15000.000
G1 X6.579 Y19.554 E1.44041 F960.000
G1 X6.579 Y20.457 E0.06989
G1 X-6.579 Y7.299 E1.44041
G1 X-6.579 Y8.202 E0.06989
G1 X6.579 Y21.359 E1.44041
G1 X6.579 Y22.262 E0.06989
G1 X-6.579 Y9.104 E1.44041
G1 X-6.579 Y10.007 E0.06989
G1 X6.579 Y23.165 E1.44041
G1 X6.579 Y24.068 E0.06989
G1 X-6.579 Y10.910 E1.44041
G1 X-6.579 Y11.813 E0.06989
G1 X6.579 Y24.971 E1.44041
G1 X6.579 Y25.874 E0.06989
G1 X-6.579 Y12.716 E1.44041
G1 X-6.579 Y13.619 E0.06989
G1 X6.579 Y26.777 E1.44041
G1 X6.579 Y27.680 E0.06989
G1 X-6.579 Y14.522 E1.44041
G1 X-6.579 Y15.425 E0.06989
G1 X6.579 Y28.583 E1.44041
G1 X6.579 Y29.485 E0.06989
G1 X-6.579 Y16.328 E1.44041
G1 X-6.579 Y17.230 E0.06989
G1 X6.579 Y30.388 E1.44041
G1 X6.579 Y31.291 E0.06989
G1 X-6.579 Y18.133 E1.44041
G1 X-6.579 Y19.036 E0.06989
G1 X6.579 Y32.194 E1.44041
G1 X6.579 Y33.097 E0.06989
G1 X-6.579 Y19.939 E1.44041
G1 X-6.579 Y20.842 E0.06989
