; generated by Slic3r 1.2.9 on 2016-09-26 at 12:59:13

; external perimeters extrusion width = 0.50mm
; perimeters extrusion width = 0.50mm
; infill extrusion width = 0.50mm
; solid infill extrusion width = 0.50mm
; top infill extrusion width = 0.50mm

M107
;Basic settings: Layer height: {layer_height} Walls: {wall_thickness} Fill: {fill_density}
;Print time: {print_time}
;Filament used: {filament_amount}m {filament_weight}g
;Filament cost: {filament_cost}
;M190 S{print_bed_temperature} ;Uncomment to add your own bed temperature line
;M109 S{print_temperature} ;Uncomment to add your own temperature line
G21        ;metric values
G90        ;absolute positioning
M83
G10 P0 S200
T0
M116


G21 ; set units to millimeters
G90 ; use absolute coordinates
M83 ; use relative distances for extrusion
G1 E-3.20000 F1500.00000
G1 Z0.400 F9000.000
G1 X10.171 Y-0.432 F9000.000
G1 Z0.300 F9000.000
G1 E3.20000 F1500.00000
G1 X10.182 Y0.157 E0.05401 F1135.611
G1 X10.159 Y0.705 E0.05029
G1 X10.041 Y1.711 E0.09300
G1 X8.555 Y10.499 E0.81774
G1 X8.418 Y11.131 E0.05929
G1 X8.330 Y11.452 E0.03050
G1 X8.079 Y12.182 E0.07090
G1 X7.764 Y12.888 E0.07090
G1 X7.557 Y13.277 E0.04045
G1 X7.147 Y13.932 E0.07087
G1 X6.680 Y14.548 E0.07090
G1 X6.463 Y14.799 E0.03050
G1 X5.922 Y15.351 E0.07089
G1 X5.334 Y15.852 E0.07092
G1 X4.703 Y16.299 E0.07090
G1 X4.036 Y16.689 E0.07090
G1 X3.336 Y17.017 E0.07090
G1 X2.610 Y17.282 E0.07090
G1 X1.864 Y17.481 E0.07091
G1 X1.431 Y17.565 E0.04042
G1 X0.664 Y17.658 E0.07090
G1 X-0.108 Y17.683 E0.07091
G1 X-0.880 Y17.639 E0.07090
G1 X-1.210 Y17.599 E0.03050
G1 X-1.970 Y17.457 E0.07090
G1 X-2.714 Y17.249 E0.07091
G1 X-3.436 Y16.975 E0.07090
G1 X-4.132 Y16.637 E0.07090
G1 X-4.802 Y16.235 E0.07171
G1 X-5.419 Y15.785 E0.07006
G1 X-5.756 Y15.501 E0.04045
G1 X-6.311 Y14.964 E0.07090
G1 X-6.817 Y14.379 E0.07090
G1 X-7.018 Y14.114 E0.03050
G1 X-7.444 Y13.470 E0.07087
G1 X-7.662 Y13.087 E0.04045
G1 X-7.812 Y12.791 E0.03050
G1 X-8.118 Y12.081 E0.07090
G1 X-8.360 Y11.347 E0.07091
G1 X-8.531 Y10.626 E0.06801
G1 X-10.057 Y1.614 E0.83854
G1 X-10.141 Y0.928 E0.06347
G1 X-10.183 Y-0.144 E0.09842
G1 X-10.141 Y-0.928 E0.07203
G1 X-10.083 Y-1.431 E0.04651
G1 X-8.531 Y-10.626 E0.85550
G1 X-8.360 Y-11.347 E0.06802
G1 X-8.119 Y-12.081 E0.07090
G1 X-7.812 Y-12.791 E0.07090
G1 X-7.444 Y-13.470 E0.07090
G1 X-7.018 Y-14.114 E0.07090
G1 X-6.535 Y-14.718 E0.07090
G1 X-6.001 Y-15.276 E0.07090
G1 X-5.419 Y-15.785 E0.07093
G1 X-4.794 Y-16.240 E0.07088
G1 X-4.132 Y-16.637 E0.07090
G1 X-3.436 Y-16.975 E0.07090
G1 X-2.714 Y-17.249 E0.07090
G1 X-1.970 Y-17.457 E0.07090
G1 X-1.210 Y-17.599 E0.07090
G1 X-0.441 Y-17.672 E0.07090
G1 X0.323 Y-17.677 E0.07009
G1 X1.102 Y-17.613 E0.07172 F1135.611
G1 X1.439 Y-17.563 E0.03127
G1 X2.187 Y-17.404 E0.07014
G1 X2.610 Y-17.282 E0.04042
G1 X3.336 Y-17.017 E0.07090
G1 X3.641 Y-16.883 E0.03050
G1 X4.327 Y-16.529 E0.07088
G1 X4.979 Y-16.114 E0.07093
G1 X5.334 Y-15.852 E0.04045
G1 X5.922 Y-15.351 E0.07087
G1 X6.161 Y-15.120 E0.03050
G1 X6.680 Y-14.548 E0.07090
G1 X6.953 Y-14.202 E0.04042
G1 X7.147 Y-13.932 E0.03050
G1 X7.557 Y-13.277 E0.07090
G1 X7.764 Y-12.888 E0.04043
G1 X8.079 Y-12.182 E0.07090
G1 X8.330 Y-11.452 E0.07089
G1 X8.515 Y-10.701 E0.07090
G1 X10.041 Y-1.711 E0.83661
G1 X10.133 Y-1.015 E0.06442
G1 X10.168 Y-0.491 E0.04817
G1 E-3.20000 F1500.00000
G1 Z0.700 F9000.000
G1 X1.498 Y5.878 F9000.000
G1 Z0.300 F9000.000
G1 E3.20000 F1500.00000
G1 X2.009 Y6.194 E0.05514 F851.708
G1 X2.370 Y6.492 E0.04291
G1 X2.688 Y6.835 E0.04291
G1 X2.956 Y7.218 E0.04291
G1 X3.169 Y7.634 E0.04291
G1 X3.325 Y8.075 E0.04291
G1 X3.419 Y8.533 E0.04291
G1 X3.451 Y8.998 E0.04272
G1 X3.427 Y9.404 E0.03734
G1 X3.356 Y9.803 E0.03715
G1 X3.239 Y10.190 E0.03715
G1 X3.077 Y10.562 E0.03715
G1 X2.873 Y10.911 E0.03715
G1 X2.629 Y11.235 E0.03715
G1 X2.350 Y11.527 E0.03715
G1 X2.037 Y11.785 E0.03715
G1 X1.697 Y12.005 E0.03715
G1 X1.334 Y12.183 E0.03715
G1 X0.963 Y12.313 E0.03600
G1 X0.557 Y12.406 E0.03822
G1 X0.154 Y12.447 E0.03722
G1 X-0.251 Y12.442 E0.03715
G1 X-0.653 Y12.388 E0.03722
G1 X-1.057 Y12.284 E0.03822
G1 X-1.423 Y12.144 E0.03600
G1 X-1.781 Y11.955 E0.03715
G1 X-2.115 Y11.726 E0.03715
G1 X-2.420 Y11.460 E0.03715
G1 X-2.692 Y11.159 E0.03715
G1 X-2.919 Y10.839 E0.03600
G1 X-3.120 Y10.475 E0.03822
G1 X-3.271 Y10.098 E0.03722
G1 X-3.377 Y9.708 E0.03715
G1 X-3.437 Y9.307 E0.03715
G1 X-3.449 Y8.902 E0.03715
G1 X-3.414 Y8.499 E0.03715
G1 X-3.332 Y8.103 E0.03715
G1 X-3.204 Y7.718 E0.03715
G1 X-3.032 Y7.352 E0.03715
G1 X-2.818 Y7.008 E0.03722
G1 X-2.556 Y6.683 E0.03822
G1 X-2.277 Y6.407 E0.03600
G1 X-1.958 Y6.158 E0.03715
G1 X-1.496 Y5.879 E0.04955
G1 X-0.438 Y6.033 E0.09806
G1 X0.457 Y6.030 E0.08212
G1 X1.439 Y5.887 E0.09107 F851.708
G1 X1.797 Y5.613 F9000.000
G1 X1.359 Y5.274 F9000.000
G1 X0.980 Y5.362 E0.03567 F851.708
G1 X0.488 Y5.428 E0.04555
G1 X-0.000 Y5.450 E0.04483
G1 X-0.488 Y5.428 E0.04483
G1 X-0.980 Y5.362 E0.04555
G1 X-1.463 Y5.250 E0.04548
G1 X-1.928 Y5.098 E0.04485
G1 X-2.370 Y4.908 E0.04420
G1 X-2.820 Y4.664 E0.04696
G1 X-3.246 Y4.378 E0.04708
G1 X-3.638 Y4.059 E0.04633
G1 X-3.998 Y3.705 E0.04637
G1 X-4.328 Y3.313 E0.04702
G1 X-4.616 Y2.898 E0.04637
G1 X-4.868 Y2.451 E0.04705
G1 X-5.074 Y1.990 E0.04635
G1 X-5.239 Y1.504 E0.04706
G1 X-5.356 Y1.012 E0.04634
G1 X-5.427 Y0.505 E0.04705
G1 X-5.450 Y-0.000 E0.04635
G1 X-5.427 Y-0.505 E0.04635
G1 X-5.356 Y-1.012 E0.04705
G1 X-5.239 Y-1.504 E0.04634
G1 X-5.074 Y-1.990 E0.04706
G1 X-4.868 Y-2.451 E0.04635
G1 X-4.616 Y-2.898 E0.04705
G1 X-4.328 Y-3.313 E0.04637
G1 X-3.998 Y-3.705 E0.04702
G1 X-3.638 Y-4.059 E0.04637
G1 X-3.246 Y-4.378 E0.04633
G1 X-2.820 Y-4.664 E0.04708
G1 X-2.370 Y-4.908 E0.04697
G1 X-1.920 Y-5.101 E0.04490
G1 X-1.449 Y-5.254 E0.04545
G1 X-0.980 Y-5.362 E0.04417
G1 X-0.496 Y-5.428 E0.04485
G1 X-0.007 Y-5.450 E0.04485 F851.708
G1 X0.488 Y-5.429 E0.04548
G1 X0.980 Y-5.362 E0.04557
G1 X1.463 Y-5.250 E0.04548
G1 X1.928 Y-5.098 E0.04485
G1 X2.370 Y-4.908 E0.04420
G1 X2.820 Y-4.664 E0.04696
G1 X3.246 Y-4.378 E0.04708
G1 X3.638 Y-4.059 E0.04633
G1 X3.998 Y-3.705 E0.04637
G1 X4.328 Y-3.313 E0.04702
G1 X4.616 Y-2.898 E0.04637
G1 X4.868 Y-2.451 E0.04705
G1 X5.074 Y-1.990 E0.04635
G1 X5.239 Y-1.504 E0.04706
G1 X5.356 Y-1.012 E0.04634
G1 X5.427 Y-0.505 E0.04705
G1 X5.450 Y-0.000 E0.04635
G1 X5.427 Y0.505 E0.04635
G1 X5.356 Y1.012 E0.04705
G1 X5.239 Y1.504 E0.04634
G1 X5.074 Y1.990 E0.04706
G1 X4.868 Y2.451 E0.04635
G1 X4.616 Y2.898 E0.04705
G1 X4.328 Y3.313 E0.04637
G1 X3.998 Y3.705 E0.04702
G1 X3.638 Y4.059 E0.04637
G1 X3.246 Y4.378 E0.04633
G1 X2.820 Y4.664 E0.04708
G1 X2.370 Y4.908 E0.04696
G1 X1.928 Y5.098 E0.04420
G1 X1.417 Y5.261 E0.04913
G1 X1.254 Y5.649 F9000.000
G1 E-3.20000 F1500.00000
G1 Z0.700 F9000.000
G1 X1.498 Y-5.878 F9000.000
G1 Z0.300 F9000.000
G1 E3.20000 F1500.00000
G1 X0.435 Y-6.033 E0.09862 F851.708
G1 X-0.438 Y-6.033 E0.08004
G1 X-1.496 Y-5.879 E0.09812
G1 X-1.958 Y-6.158 E0.04955
G1 X-2.277 Y-6.407 E0.03715
G1 X-2.565 Y-6.692 E0.03715
G1 X-2.818 Y-7.008 E0.03715
G1 X-3.032 Y-7.352 E0.03715
G1 X-3.204 Y-7.718 E0.03715
G1 X-3.332 Y-8.103 E0.03715
G1 X-3.414 Y-8.499 E0.03715
G1 X-3.449 Y-8.902 E0.03715
G1 X-3.437 Y-9.307 E0.03715
G1 X-3.377 Y-9.708 E0.03715
G1 X-3.271 Y-10.098 E0.03715
G1 X-3.120 Y-10.474 E0.03715
G1 X-2.926 Y-10.829 E0.03715
G1 X-2.692 Y-11.159 E0.03715
G1 X-2.420 Y-11.460 E0.03715
G1 X-2.115 Y-11.726 E0.03715
G1 X-1.781 Y-11.955 E0.03715
G1 X-1.423 Y-12.144 E0.03715
G1 X-1.045 Y-12.289 E0.03715
G1 X-0.652 Y-12.389 E0.03722
G1 X-0.239 Y-12.442 E0.03822
G1 X0.154 Y-12.447 E0.03600 F851.708
G1 X0.556 Y-12.406 E0.03715
G1 X0.952 Y-12.317 E0.03715
G1 X1.334 Y-12.183 E0.03715
G1 X1.697 Y-12.005 E0.03715
G1 X2.037 Y-11.785 E0.03715
G1 X2.350 Y-11.527 E0.03715
G1 X2.629 Y-11.235 E0.03715
G1 X2.873 Y-10.911 E0.03715
G1 X3.077 Y-10.562 E0.03715
G1 X3.239 Y-10.190 E0.03715
G1 X3.356 Y-9.803 E0.03715
G1 X3.427 Y-9.404 E0.03715
G1 X3.451 Y-8.998 E0.03734
G1 X3.419 Y-8.533 E0.04272
G1 X3.325 Y-8.075 E0.04291
G1 X3.169 Y-7.634 E0.04291
G1 X2.956 Y-7.218 E0.04291
G1 X2.688 Y-6.835 E0.04291
G1 X2.370 Y-6.492 E0.04291
G1 X2.009 Y-6.194 E0.04291
G1 X1.549 Y-5.910 E0.04963
G1 X1.330 Y-5.516 F9000.000
G1 X3.515 Y-5.769 F9000.000
G1 X3.520 Y-5.440 E0.03025 F851.708
G1 X3.604 Y-5.104 E0.03178
G1 X3.772 Y-4.789 E0.03271
G1 X3.976 Y-4.562 E0.02798
G1 X4.372 Y-4.182 E0.05039
G1 X4.710 Y-3.796 E0.04704
G1 X5.015 Y-3.384 E0.04706
G1 X5.281 Y-2.950 E0.04672
G1 X5.514 Y-2.489 E0.04740
G1 X5.705 Y-2.013 E0.04704
G1 X5.855 Y-1.522 E0.04706
G1 X5.962 Y-1.025 E0.04672
G1 X6.028 Y-0.512 E0.04740
G1 X6.050 Y-0.000 E0.04705
G1 X6.028 Y0.512 E0.04705
G1 X5.962 Y1.025 E0.04740
G1 X5.855 Y1.522 E0.04672
G1 X5.705 Y2.013 E0.04706
G1 X5.514 Y2.489 E0.04704
G1 X5.281 Y2.950 E0.04740
G1 X5.015 Y3.384 E0.04672
G1 X4.710 Y3.796 E0.04706
G1 X4.372 Y4.182 E0.04704
G1 X3.976 Y4.562 E0.05039
G1 X3.772 Y4.789 E0.02799
G1 X3.604 Y5.104 E0.03270
G1 X3.520 Y5.440 E0.03178
G1 X3.515 Y5.769 E0.03025
G1 X3.573 Y6.050 E0.02628
G1 X3.662 Y6.274 E0.02211
G1 X3.997 Y6.827 E0.05933
G1 X4.193 Y7.236 E0.04161
G1 X4.348 Y7.661 E0.04154
G1 X4.460 Y8.100 E0.04154
G1 X4.527 Y8.548 E0.04154
G1 X4.550 Y9.001 E0.04165
G1 X4.532 Y9.404 E0.03704
G1 X4.478 Y9.806 E0.03715
G1 X4.388 Y10.201 E0.03715
G1 X4.264 Y10.586 E0.03715
G1 X4.106 Y10.959 E0.03712
G1 X3.911 Y11.323 E0.03796
G1 X3.694 Y11.655 E0.03636
G1 X3.444 Y11.973 E0.03715
G1 X3.166 Y12.267 E0.03715
G1 X2.863 Y12.536 E0.03715
G1 X2.537 Y12.777 E0.03715
G1 X2.191 Y12.987 E0.03715
G1 X1.828 Y13.166 E0.03715
G1 X1.450 Y13.312 E0.03715
G1 X1.061 Y13.424 E0.03715
G1 X0.664 Y13.501 E0.03715
G1 X0.261 Y13.542 E0.03715
G1 X-0.144 Y13.547 E0.03715
G1 X-0.548 Y13.516 E0.03715
G1 X-0.947 Y13.450 E0.03715
G1 X-1.339 Y13.348 E0.03715
G1 X-1.720 Y13.212 E0.03715
G1 X-2.088 Y13.042 E0.03715
G1 X-2.439 Y12.841 E0.03715
G1 X-2.771 Y12.609 E0.03715
G1 X-3.081 Y12.348 E0.03715
G1 X-3.366 Y12.061 E0.03715
G1 X-3.625 Y11.749 E0.03715
G1 X-3.855 Y11.416 E0.03715
G1 X-4.054 Y11.064 E0.03715
G1 X-4.222 Y10.695 E0.03715
G1 X-4.356 Y10.313 E0.03715
G1 X-4.455 Y9.921 E0.03715
G1 X-4.520 Y9.521 E0.03715
G1 X-4.548 Y9.117 E0.03715
G1 X-4.540 Y8.712 E0.03715
G1 X-4.497 Y8.310 E0.03715
G1 X-4.418 Y7.913 E0.03715
G1 X-4.304 Y7.524 E0.03715
G1 X-4.155 Y7.148 E0.03715
G1 X-3.974 Y6.784 E0.03725
G1 X-3.663 Y6.274 E0.05484
G1 X-3.573 Y6.050 E0.02217
G1 X-3.515 Y5.769 E0.02628
G1 X-3.520 Y5.440 E0.03025
G1 X-3.604 Y5.104 E0.03178
G1 X-3.772 Y4.789 E0.03270
G1 X-3.976 Y4.562 E0.02806
G1 X-4.342 Y4.213 E0.04635
G1 X-4.653 Y3.867 E0.04270
G1 X-4.935 Y3.500 E0.04247
G1 X-5.190 Y3.109 E0.04278
G1 X-5.415 Y2.697 E0.04311
G1 X-5.606 Y2.275 E0.04247
G1 X-5.764 Y1.836 E0.04279
G1 X-5.888 Y1.387 E0.04278
G1 X-5.978 Y0.926 E0.04311
G1 X-6.032 Y0.466 E0.04247
G1 X-6.050 Y-0.000 E0.04279
G1 X-6.032 Y-0.466 E0.04279
G1 X-5.978 Y-0.926 E0.04247
G1 X-5.888 Y-1.387 E0.04311
G1 X-5.764 Y-1.836 E0.04278
G1 X-5.606 Y-2.275 E0.04279
G1 X-5.415 Y-2.697 E0.04247
G1 X-5.190 Y-3.109 E0.04311
G1 X-4.935 Y-3.500 E0.04278
G1 X-4.653 Y-3.867 E0.04247
G1 X-4.342 Y-4.213 E0.04270
G1 X-3.976 Y-4.562 E0.04635
G1 X-3.772 Y-4.789 E0.02806
G1 X-3.604 Y-5.104 E0.03270
G1 X-3.520 Y-5.440 E0.03178
G1 X-3.515 Y-5.769 E0.03025
G1 X-3.573 Y-6.050 E0.02628
G1 X-3.663 Y-6.274 E0.02217
G1 X-3.974 Y-6.784 E0.05484
G1 X-4.155 Y-7.148 E0.03725
G1 X-4.304 Y-7.524 E0.03715
G1 X-4.418 Y-7.913 E0.03715
G1 X-4.497 Y-8.310 E0.03715
G1 X-4.540 Y-8.712 E0.03715
G1 X-4.548 Y-9.117 E0.03715
G1 X-4.520 Y-9.521 E0.03715
G1 X-4.455 Y-9.920 E0.03712
G1 X-4.353 Y-10.321 E0.03796
G1 X-4.222 Y-10.695 E0.03636
G1 X-4.055 Y-11.064 E0.03712
G1 X-3.850 Y-11.423 E0.03796
G1 X-3.625 Y-11.749 E0.03636
G1 X-3.366 Y-12.061 E0.03715
G1 X-3.081 Y-12.348 E0.03715
G1 X-2.771 Y-12.609 E0.03715
G1 X-2.439 Y-12.841 E0.03715
G1 X-2.088 Y-13.042 E0.03715
G1 X-1.720 Y-13.212 E0.03715
G1 X-1.339 Y-13.348 E0.03715
G1 X-0.947 Y-13.450 E0.03715
G1 X-0.548 Y-13.516 E0.03715
G1 X-0.144 Y-13.547 E0.03715
G1 X0.252 Y-13.542 E0.03636
G1 X0.664 Y-13.501 E0.03796 F851.708
G1 X1.061 Y-13.424 E0.03712
G1 X1.450 Y-13.312 E0.03715
G1 X1.828 Y-13.166 E0.03715
G1 X2.191 Y-12.987 E0.03715
G1 X2.537 Y-12.777 E0.03715
G1 X2.863 Y-12.536 E0.03715
G1 X3.166 Y-12.267 E0.03715
G1 X3.444 Y-11.973 E0.03715
G1 X3.694 Y-11.655 E0.03715
G1 X3.916 Y-11.316 E0.03715
G1 X4.106 Y-10.959 E0.03715
G1 X4.264 Y-10.586 E0.03715
G1 X4.388 Y-10.201 E0.03715
G1 X4.478 Y-9.806 E0.03715
G1 X4.532 Y-9.404 E0.03715
G1 X4.550 Y-9.001 E0.03704
G1 X4.527 Y-8.548 E0.04165
G1 X4.460 Y-8.100 E0.04154
G1 X4.348 Y-7.661 E0.04154
G1 X4.193 Y-7.236 E0.04154
G1 X3.997 Y-6.827 E0.04161
G1 X3.662 Y-6.274 E0.05933
G1 X3.573 Y-6.050 E0.02211
G1 X3.527 Y-5.828 E0.02077
G1 X3.221 Y-5.621 F9000.000
G1 X3.147 Y-5.804 F9000.000
G1 X3.182 Y-6.171 E0.03379 F600.000
G1 X3.297 Y-6.740 E0.05333
G1 X3.174 Y-6.730 E0.01132
G1 X3.101 Y-6.689 E0.00766
G1 X2.624 Y-6.224 E0.06120
G1 X2.224 Y-5.895 F9000.000
G1 X1.777 Y-5.574 E0.05045 F600.000
G1 X1.802 Y-5.539 E0.00391
G1 X2.058 Y-5.443 E0.02510
G1 X3.138 Y-6.496 F9000.000
G1 X3.430 Y-6.946 E0.04922 F600.000
G1 X3.686 Y-7.449 E0.05174
G1 X3.855 Y-7.941 E0.04769
G1 X3.977 Y-8.603 E0.06178
G1 X4.000 Y-9.003 E0.03676
G1 X3.982 Y-9.355 E0.03241
G1 X3.934 Y-9.708 E0.03264
G1 X3.856 Y-10.055 E0.03264
G1 X3.758 Y-10.370 E0.03025
G1 X3.570 Y-10.800 E0.04306
G1 X3.246 Y-11.333 E0.05724
G1 X3.041 Y-11.598 E0.03077
G1 X2.782 Y-11.872 E0.03453
G1 X2.369 Y-12.221 E0.04962
G1 X1.976 Y-12.477 E0.04304
G1 X1.536 Y-12.692 E0.04498
G1 X0.932 Y-12.887 E0.05815
G1 X0.584 Y-12.956 E0.03257
G1 X0.189 Y-12.995 E0.03646
G1 X-0.126 Y-12.995 E0.02891
G1 X-0.744 Y-12.929 E0.05696
G1 X-1.201 Y-12.815 E0.04324
G1 X-1.658 Y-12.638 E0.04498
G1 X-2.143 Y-12.375 E0.05062
G1 X-2.460 Y-12.153 E0.03548
G1 X-2.707 Y-11.942 E0.02983
G1 X-2.957 Y-11.689 E0.03264
G1 X-3.185 Y-11.416 E0.03264
G1 X-3.385 Y-11.131 E0.03191
G1 X-3.620 Y-10.698 E0.04518
G1 X-3.825 Y-10.162 E0.05272
G1 X-3.917 Y-9.810 E0.03337
G1 X-3.972 Y-9.458 E0.03268
G1 X-3.997 Y-8.897 E0.05147
G1 X-3.958 Y-8.430 E0.04304
G1 X-3.864 Y-7.970 E0.04305
G1 X-3.708 Y-7.505 E0.04497
G1 X-3.509 Y-7.081 E0.04306
G1 X-3.139 Y-6.477 E0.06496
G1 X-3.147 Y-5.804 F9000.000
G1 X-3.182 Y-6.171 E0.03379 F600.000
G1 X-3.287 Y-6.718 E0.05108
G1 X-3.180 Y-6.706 E0.00986
G1 X-3.097 Y-6.663 E0.00860
G1 X-2.520 Y-6.130 E0.07197
G1 X-2.167 Y-5.855 F9000.000
G1 X-1.759 Y-5.572 E0.04553 F600.000
G1 X-1.781 Y-5.547 E0.00312
G1 X-2.050 Y-5.446 E0.02633
G1 E-3.20000 F1500.00000
G1 Z0.700 F9000.000
G1 X-2.058 Y5.443 F9000.000
G1 Z0.300 F9000.000
G1 E3.20000 F1500.00000
G1 X-1.782 Y5.547 E0.02706 F600.000
G1 X-1.759 Y5.572 E0.00312
G1 X-2.167 Y5.855 E0.04548
G1 X-2.520 Y6.130 F9000.000
G1 X-3.097 Y6.663 E0.07197 F600.000
G1 X-3.180 Y6.706 E0.00860
G1 X-3.287 Y6.718 E0.00986
G1 X-3.182 Y6.171 E0.05108
G1 X-3.147 Y5.804 E0.03379
G1 X-3.139 Y6.477 F9000.000
G1 X-3.509 Y7.081 E0.06497 F600.000
G1 X-3.708 Y7.505 E0.04306
G1 X-3.864 Y7.970 E0.04497
G1 X-3.958 Y8.430 E0.04305
G1 X-3.997 Y8.897 E0.04304
G1 X-3.972 Y9.458 E0.05147
G1 X-3.917 Y9.810 E0.03268
G1 X-3.828 Y10.154 E0.03263
G1 X-3.619 Y10.700 E0.05359
G1 X-3.378 Y11.140 E0.04606
G1 X-3.185 Y11.416 E0.03090
G1 X-2.957 Y11.689 E0.03264
G1 X-2.707 Y11.942 E0.03264
G1 X-2.460 Y12.153 E0.02982
G1 X-2.143 Y12.375 E0.03548
G1 X-1.658 Y12.638 E0.05062
G1 X-1.214 Y12.810 E0.04371
G1 X-0.747 Y12.928 E0.04418
G1 X-0.126 Y12.995 E0.05729
G1 X0.229 Y12.992 E0.03265
G1 X0.636 Y12.948 E0.03751
G1 X0.932 Y12.886 E0.02778
G1 X1.536 Y12.692 E0.05815
G1 X1.976 Y12.477 E0.04498
G1 X2.369 Y12.221 E0.04304
G1 X2.782 Y11.872 E0.04962
G1 X3.041 Y11.598 E0.03453
G1 X3.246 Y11.333 E0.03077
G1 X3.570 Y10.800 E0.05723
G1 X3.758 Y10.370 E0.04306
G1 X3.856 Y10.055 E0.03025
G1 X3.934 Y9.708 E0.03264
G1 X3.982 Y9.355 E0.03264
G1 X4.000 Y9.003 E0.03241
G1 X3.977 Y8.603 E0.03676
G1 X3.855 Y7.941 E0.06178
G1 X3.686 Y7.449 E0.04769
G1 X3.430 Y6.946 E0.05174
G1 X3.138 Y6.496 E0.04922
G1 X2.624 Y6.224 F9000.000
G1 X3.101 Y6.689 E0.06120 F600.000
G1 X3.174 Y6.730 E0.00766
G1 X3.297 Y6.740 E0.01132
G1 X3.182 Y6.171 E0.05333
G1 X3.147 Y5.804 E0.03379
