; generated by Slic3r 1.2.9 on 2016-09-26 at 14:57:54

; external perimeters extrusion width = 0.50mm
; perimeters extrusion width = 0.50mm
; infill extrusion width = 0.50mm
; solid infill extrusion width = 0.50mm
; top infill extrusion width = 0.50mm

M107
;Basic settings: Layer height: {layer_height} Walls: {wall_thickness} Fill: {fill_density}
;Print time: {print_time}
;Filament used: {filament_amount}m {filament_weight}g
;Filament cost: {filament_cost}
;M190 S{print_bed_temperature} ;Uncomment to add your own bed temperature line
;M109 S{print_temperature} ;Uncomment to add your own temperature line
G21        ;metric values
G90        ;absolute positioning
M83
G10 P0 S200
T0
M116


G21 ; set units to millimeters
G90 ; use absolute coordinates
M83 ; use relative distances for extrusion
G1 Z0.300 F9000.000
G1 E-3.20000 F3000.00000
G1 Z0.700 F9000.000
G1 X-15.523 Y8.016 F9000.000
G1 Z0.300 F9000.000
G1 E3.20000 F3000.00000
G1 X-20.013 Y-0.679 E0.89791 F1200.000
G1 X-20.277 Y-1.250 E0.05766
G1 X-20.547 Y-1.974 E0.07090
G1 X-20.643 Y-2.292 E0.03050
G1 X-20.813 Y-3.013 E0.06801
G1 X-22.339 Y-12.025 E0.83854
G1 X-22.424 Y-12.711 E0.06347
G1 X-22.466 Y-13.783 E0.09842
G1 X-22.424 Y-14.567 E0.07203
G1 X-22.366 Y-15.070 E0.04651
G1 X-20.813 Y-24.265 E0.85550
G1 X-20.643 Y-24.986 E0.06802
G1 X-20.547 Y-25.304 E0.03047
G1 X-20.277 Y-26.028 E0.07094
G1 X-19.944 Y-26.726 E0.07090
G1 X-19.551 Y-27.391 E0.07088
G1 X-19.300 Y-27.753 E0.04045
G1 X-18.818 Y-28.357 E0.07090
G1 X-18.284 Y-28.915 E0.07090
G1 X-17.702 Y-29.424 E0.07093
G1 X-17.431 Y-29.632 E0.03129
G1 X-16.797 Y-30.057 E0.07005
G1 X-16.119 Y-30.429 E0.07094
G1 X-15.411 Y-30.739 E0.07090
G1 X-14.679 Y-30.985 E0.07090
G1 X-14.252 Y-31.096 E0.04042
G1 X-13.493 Y-31.238 E0.07090
G1 X-13.163 Y-31.278 E0.03050
G1 X-12.482 Y-31.322 E0.06260
G1 X12.174 Y-31.602 E2.26236
G1 X12.946 Y-31.577 E0.07087 F1200.000
G1 X13.385 Y-31.532 E0.04045
G1 X13.722 Y-31.482 E0.03127
G1 X14.470 Y-31.323 E0.07014
G1 X14.893 Y-31.201 E0.04042
G1 X15.619 Y-30.936 E0.07090
G1 X15.923 Y-30.802 E0.03050
G1 X16.610 Y-30.448 E0.07088
G1 X17.262 Y-30.033 E0.07093
G1 X17.617 Y-29.771 E0.04045
G1 X18.204 Y-29.270 E0.07087
G1 X18.443 Y-29.039 E0.03050
G1 X18.963 Y-28.467 E0.07090
G1 X19.236 Y-28.121 E0.04042
G1 X19.430 Y-27.851 E0.03050
G1 X19.840 Y-27.196 E0.07090
G1 X20.190 Y-26.507 E0.07090
G1 X20.478 Y-25.790 E0.07089
G1 X20.701 Y-25.050 E0.07092
G1 X20.838 Y-24.418 E0.05929
G1 X22.346 Y-15.482 E0.83154
G1 X22.416 Y-14.934 E0.05062
G1 X22.465 Y-14.081 E0.07842
G1 X22.442 Y-13.214 E0.07955
G1 X22.323 Y-12.208 E0.09300
G1 X20.838 Y-3.420 E0.81774
G1 X20.701 Y-2.788 E0.05929
G1 X20.478 Y-2.048 E0.07090
G1 X10.090 Y25.945 E2.73949
G1 X9.856 Y26.507 E0.05589
G1 X9.505 Y27.196 E0.07093
G1 X9.095 Y27.851 E0.07087
G1 X8.629 Y28.467 E0.07090
G1 X8.109 Y29.039 E0.07090
G1 X7.541 Y29.562 E0.07090
G1 X7.282 Y29.771 E0.03050
G1 X6.652 Y30.218 E0.07090
G1 X5.984 Y30.608 E0.07090
G1 X5.285 Y30.936 E0.07090
G1 X4.559 Y31.201 E0.07090
G1 X3.812 Y31.400 E0.07091
G1 X3.380 Y31.484 E0.04042
G1 X2.612 Y31.577 E0.07090
G1 X1.840 Y31.602 E0.07091
G1 X1.068 Y31.558 E0.07090
G1 X0.738 Y31.518 E0.03050
G1 X-0.021 Y31.376 E0.07090
G1 X-0.765 Y31.167 E0.07091
G1 X-1.488 Y30.894 E0.07090
G1 X-2.183 Y30.556 E0.07090
G1 X-2.853 Y30.154 E0.07171
G1 X-3.470 Y29.704 E0.07006
G1 X-3.808 Y29.420 E0.04045
G1 X-4.363 Y28.883 E0.07090
G1 X-4.868 Y28.298 E0.07090
G1 X-5.319 Y27.671 E0.07090
G1 X-5.713 Y27.006 E0.07090
G1 X-15.495 Y8.069 E1.95554
G1 E-3.20000 F3000.00000
G1 Z0.700 F9000.000
G1 X-15.100 Y-6.631 F9000.000
G1 Z0.300 F9000.000
G1 E3.20000 F3000.00000
G1 X-14.839 Y-6.956 E0.03822 F900.000
G1 X-14.560 Y-7.232 E0.03600
G1 X-14.241 Y-7.481 E0.03715
G1 X-13.779 Y-7.760 E0.04955
G1 X-12.721 Y-7.606 E0.09806
G1 X-11.826 Y-7.609 E0.08212
G1 X-10.785 Y-7.761 E0.09658 F900.000
G1 X-10.273 Y-7.445 E0.05514
G1 X-9.912 Y-7.147 E0.04291
G1 X-9.595 Y-6.804 E0.04291
G1 X-9.327 Y-6.421 E0.04291
G1 X-9.113 Y-6.005 E0.04291
G1 X-8.958 Y-5.564 E0.04291
G1 X-8.863 Y-5.106 E0.04291
G1 X-8.832 Y-4.641 E0.04272
G1 X-8.856 Y-4.235 E0.03734
G1 X-8.927 Y-3.836 E0.03715
G1 X-9.044 Y-3.449 E0.03715
G1 X-9.206 Y-3.077 E0.03715
G1 X-9.410 Y-2.728 E0.03715
G1 X-9.653 Y-2.404 E0.03715
G1 X-9.933 Y-2.112 E0.03715
G1 X-10.245 Y-1.854 E0.03715
G1 X-10.586 Y-1.634 E0.03715
G1 X-10.949 Y-1.456 E0.03715
G1 X-11.319 Y-1.326 E0.03600
G1 X-11.726 Y-1.233 E0.03822
G1 X-12.129 Y-1.192 E0.03722
G1 X-12.534 Y-1.197 E0.03715
G1 X-12.936 Y-1.251 E0.03722
G1 X-13.339 Y-1.355 E0.03822
G1 X-13.706 Y-1.495 E0.03600
G1 X-14.064 Y-1.684 E0.03715
G1 X-14.398 Y-1.913 E0.03715
G1 X-14.703 Y-2.179 E0.03715
G1 X-14.974 Y-2.480 E0.03715
G1 X-15.202 Y-2.800 E0.03600
G1 X-15.403 Y-3.164 E0.03822
G1 X-15.554 Y-3.541 E0.03722
G1 X-15.660 Y-3.931 E0.03715
G1 X-15.720 Y-4.332 E0.03715
G1 X-15.732 Y-4.737 E0.03715
G1 X-15.697 Y-5.140 E0.03715
G1 X-15.615 Y-5.536 E0.03715
G1 X-15.487 Y-5.921 E0.03715
G1 X-15.315 Y-6.287 E0.03715
G1 X-15.132 Y-6.580 E0.03171
G1 X-15.260 Y-6.998 F9000.000
G1 X-14.269 Y-8.566 F9000.000
G1 X-14.653 Y-8.731 E0.03837 F900.000
G1 X-15.103 Y-8.975 E0.04696
G1 X-15.529 Y-9.261 E0.04708
G1 X-15.920 Y-9.580 E0.04633
G1 X-16.281 Y-9.934 E0.04637
G1 X-16.611 Y-10.326 E0.04702
G1 X-16.899 Y-10.741 E0.04637
G1 X-17.151 Y-11.188 E0.04705
G1 X-17.357 Y-11.649 E0.04635
G1 X-17.522 Y-12.135 E0.04706
G1 X-17.638 Y-12.627 E0.04634
G1 X-17.710 Y-13.134 E0.04705
G1 X-17.733 Y-13.639 E0.04635
G1 X-17.710 Y-14.144 E0.04635
G1 X-17.638 Y-14.651 E0.04705
G1 X-17.522 Y-15.143 E0.04634
G1 X-17.357 Y-15.629 E0.04706
G1 X-17.151 Y-16.090 E0.04635
G1 X-16.899 Y-16.537 E0.04705
G1 X-16.611 Y-16.952 E0.04637
G1 X-16.281 Y-17.344 E0.04702
G1 X-15.920 Y-17.698 E0.04637
G1 X-15.529 Y-18.017 E0.04633
G1 X-15.103 Y-18.303 E0.04708
G1 X-14.653 Y-18.547 E0.04697
G1 X-14.203 Y-18.740 E0.04490
G1 X-13.732 Y-18.893 E0.04545
G1 X-13.263 Y-19.001 E0.04417
G1 X-12.778 Y-19.067 E0.04485
G1 X-12.290 Y-19.089 E0.04485 F900.000
G1 X-11.795 Y-19.068 E0.04548
G1 X-11.303 Y-19.001 E0.04557
G1 X-10.820 Y-18.889 E0.04548
G1 X-10.355 Y-18.737 E0.04485
G1 X-9.912 Y-18.547 E0.04420
G1 X-9.462 Y-18.303 E0.04696
G1 X-9.036 Y-18.017 E0.04708
G1 X-8.645 Y-17.698 E0.04633
G1 X-8.285 Y-17.344 E0.04637
G1 X-7.954 Y-16.952 E0.04702
G1 X-7.666 Y-16.537 E0.04637
G1 X-7.414 Y-16.090 E0.04705
G1 X-7.208 Y-15.629 E0.04635
G1 X-7.044 Y-15.143 E0.04706
G1 X-6.927 Y-14.651 E0.04634
G1 X-6.856 Y-14.144 E0.04705
G1 X-6.832 Y-13.639 E0.04635
G1 X-6.856 Y-13.134 E0.04635
G1 X-6.927 Y-12.627 E0.04705
G1 X-7.044 Y-12.135 E0.04634
G1 X-7.208 Y-11.649 E0.04706
G1 X-7.414 Y-11.188 E0.04635
G1 X-7.666 Y-10.742 E0.04705
G1 X-7.954 Y-10.326 E0.04637
G1 X-8.285 Y-9.934 E0.04702
G1 X-8.645 Y-9.580 E0.04637
G1 X-9.036 Y-9.261 E0.04633
G1 X-9.462 Y-8.975 E0.04708
G1 X-9.912 Y-8.731 E0.04696
G1 X-10.355 Y-8.541 E0.04420
G1 X-10.820 Y-8.389 E0.04485
G1 X-11.303 Y-8.277 E0.04548
G1 X-11.795 Y-8.211 E0.04555
G1 X-12.283 Y-8.189 E0.04483
G1 X-12.771 Y-8.211 E0.04483
G1 X-13.263 Y-8.277 E0.04555
G1 X-13.746 Y-8.389 E0.04548
G1 X-14.214 Y-8.542 E0.04518
G1 X-14.583 Y-8.318 F9000.000
G1 E-3.20000 F3000.00000
G1 Z0.700 F9000.000
G1 X-13.779 Y-19.518 F9000.000
G1 Z0.300 F9000.000
G1 E3.20000 F3000.00000
G1 X-14.241 Y-19.797 E0.04955 F900.000
G1 X-14.560 Y-20.046 E0.03715
G1 X-14.848 Y-20.331 E0.03715
G1 X-15.101 Y-20.647 E0.03715
G1 X-15.315 Y-20.991 E0.03715
G1 X-15.487 Y-21.357 E0.03715
G1 X-15.615 Y-21.742 E0.03715
G1 X-15.697 Y-22.138 E0.03715
G1 X-15.732 Y-22.541 E0.03715
G1 X-15.720 Y-22.946 E0.03715
G1 X-15.660 Y-23.347 E0.03715
G1 X-15.554 Y-23.737 E0.03715
G1 X-15.403 Y-24.113 E0.03715
G1 X-15.209 Y-24.468 E0.03715
G1 X-14.974 Y-24.798 E0.03715
G1 X-14.703 Y-25.099 E0.03715
G1 X-14.398 Y-25.365 E0.03715
G1 X-14.064 Y-25.594 E0.03715
G1 X-13.706 Y-25.783 E0.03715
G1 X-13.328 Y-25.928 E0.03715
G1 X-12.935 Y-26.028 E0.03722
G1 X-12.521 Y-26.081 E0.03822
G1 X-12.129 Y-26.086 E0.03600 F900.000
G1 X-11.726 Y-26.045 E0.03715
G1 X-11.331 Y-25.956 E0.03715
G1 X-10.949 Y-25.822 E0.03715
G1 X-10.586 Y-25.644 E0.03715
G1 X-10.245 Y-25.424 E0.03715
G1 X-9.933 Y-25.166 E0.03715
G1 X-9.653 Y-24.874 E0.03715
G1 X-9.410 Y-24.550 E0.03715
G1 X-9.206 Y-24.201 E0.03715
G1 X-9.044 Y-23.829 E0.03715
G1 X-8.927 Y-23.442 E0.03715
G1 X-8.856 Y-23.043 E0.03715
G1 X-8.832 Y-22.637 E0.03734
G1 X-8.863 Y-22.172 E0.04272
G1 X-8.958 Y-21.714 E0.04291
G1 X-9.113 Y-21.273 E0.04291
G1 X-9.327 Y-20.857 E0.04291
G1 X-9.595 Y-20.474 E0.04291
G1 X-9.912 Y-20.131 E0.04291
G1 X-10.273 Y-19.833 E0.04291
G1 X-10.784 Y-19.517 E0.05513
G1 X-11.848 Y-19.672 E0.09862
G1 X-12.720 Y-19.672 E0.08004
G1 X-13.719 Y-19.526 E0.09261
G1 X-14.076 Y-19.250 F9000.000
G1 X-15.798 Y-19.408 F9000.000
G1 X-15.855 Y-19.689 E0.02628 F900.000
G1 X-15.945 Y-19.913 E0.02217
G1 X-16.256 Y-20.423 E0.05484
G1 X-16.438 Y-20.787 E0.03725
G1 X-16.586 Y-21.163 E0.03715
G1 X-16.700 Y-21.552 E0.03715
G1 X-16.780 Y-21.949 E0.03715
G1 X-16.823 Y-22.351 E0.03715
G1 X-16.831 Y-22.756 E0.03715
G1 X-16.802 Y-23.160 E0.03715
G1 X-16.738 Y-23.559 E0.03712
G1 X-16.636 Y-23.960 E0.03796
G1 X-16.505 Y-24.334 E0.03636
G1 X-16.337 Y-24.703 E0.03712
G1 X-16.133 Y-25.062 E0.03796
G1 X-15.908 Y-25.388 E0.03636
G1 X-15.649 Y-25.700 E0.03715
G1 X-15.363 Y-25.987 E0.03715
G1 X-15.053 Y-26.248 E0.03715
G1 X-14.722 Y-26.480 E0.03715
G1 X-14.370 Y-26.681 E0.03715
G1 X-14.003 Y-26.851 E0.03715
G1 X-13.622 Y-26.987 E0.03715
G1 X-13.230 Y-27.089 E0.03715
G1 X-12.830 Y-27.155 E0.03715
G1 X-12.427 Y-27.186 E0.03715
G1 X-12.030 Y-27.181 E0.03636
G1 X-11.619 Y-27.140 E0.03796 F900.000
G1 X-11.221 Y-27.063 E0.03712
G1 X-10.832 Y-26.951 E0.03715
G1 X-10.455 Y-26.805 E0.03715
G1 X-10.092 Y-26.626 E0.03715
G1 X-9.746 Y-26.416 E0.03715
G1 X-9.420 Y-26.175 E0.03715
G1 X-9.117 Y-25.906 E0.03715
G1 X-8.839 Y-25.612 E0.03715
G1 X-8.588 Y-25.294 E0.03715
G1 X-8.367 Y-24.955 E0.03715
G1 X-8.176 Y-24.598 E0.03715
G1 X-8.019 Y-24.225 E0.03715
G1 X-7.894 Y-23.840 E0.03715
G1 X-7.805 Y-23.445 E0.03715
G1 X-7.751 Y-23.043 E0.03715
G1 X-7.733 Y-22.640 E0.03704
G1 X-7.756 Y-22.187 E0.04165
G1 X-7.823 Y-21.739 E0.04154
G1 X-7.935 Y-21.300 E0.04154
G1 X-8.089 Y-20.875 E0.04154
G1 X-8.286 Y-20.466 E0.04161
G1 X-8.620 Y-19.913 E0.05933
G1 X-8.710 Y-19.689 E0.02211
G1 X-8.767 Y-19.408 E0.02628
G1 X-8.763 Y-19.079 E0.03025
G1 X-8.679 Y-18.743 E0.03178
G1 X-8.511 Y-18.428 E0.03271
G1 X-8.307 Y-18.201 E0.02798
G1 X-7.911 Y-17.821 E0.05039
G1 X-7.573 Y-17.435 E0.04704
G1 X-7.268 Y-17.023 E0.04706
G1 X-7.001 Y-16.589 E0.04672
G1 X-6.769 Y-16.128 E0.04740
G1 X-6.578 Y-15.652 E0.04704
G1 X-6.428 Y-15.161 E0.04706
G1 X-6.321 Y-14.664 E0.04672
G1 X-6.255 Y-14.151 E0.04740
G1 X-6.233 Y-13.639 E0.04705
G1 X-6.255 Y-13.127 E0.04705
G1 X-6.321 Y-12.614 E0.04740
G1 X-6.428 Y-12.117 E0.04672
G1 X-6.578 Y-11.626 E0.04706
G1 X-6.769 Y-11.150 E0.04704
G1 X-7.001 Y-10.689 E0.04740
G1 X-7.268 Y-10.255 E0.04672
G1 X-7.573 Y-9.843 E0.04706
G1 X-7.911 Y-9.457 E0.04704
G1 X-8.307 Y-9.077 E0.05039
G1 X-8.511 Y-8.850 E0.02799
G1 X-8.679 Y-8.535 E0.03270
G1 X-8.763 Y-8.199 E0.03178
G1 X-8.767 Y-7.870 E0.03025
G1 X-8.710 Y-7.589 E0.02628
G1 X-8.620 Y-7.365 E0.02211
G1 X-8.286 Y-6.812 E0.05933
G1 X-8.089 Y-6.403 E0.04161
G1 X-7.935 Y-5.978 E0.04154
G1 X-7.823 Y-5.539 E0.04154
G1 X-7.756 Y-5.091 E0.04154
G1 X-7.733 Y-4.638 E0.04165
G1 X-7.751 Y-4.235 E0.03704
G1 X-7.805 Y-3.833 E0.03715
G1 X-7.894 Y-3.438 E0.03715
G1 X-8.019 Y-3.053 E0.03715
G1 X-8.176 Y-2.680 E0.03712
G1 X-8.372 Y-2.316 E0.03796
G1 X-8.588 Y-1.984 E0.03636
G1 X-8.839 Y-1.666 E0.03715
G1 X-9.117 Y-1.372 E0.03715
G1 X-9.420 Y-1.103 E0.03715
G1 X-9.746 Y-0.862 E0.03715
G1 X-10.092 Y-0.652 E0.03715
G1 X-10.455 Y-0.473 E0.03715
G1 X-10.832 Y-0.327 E0.03715
G1 X-11.221 Y-0.215 E0.03715
G1 X-11.619 Y-0.138 E0.03715
G1 X-12.022 Y-0.097 E0.03715
G1 X-12.427 Y-0.092 E0.03715
G1 X-12.830 Y-0.123 E0.03715
G1 X-13.230 Y-0.189 E0.03715
G1 X-13.622 Y-0.291 E0.03715
G1 X-14.003 Y-0.427 E0.03715
G1 X-14.370 Y-0.597 E0.03715
G1 X-14.722 Y-0.798 E0.03715
G1 X-15.053 Y-1.030 E0.03715
G1 X-15.363 Y-1.291 E0.03715
G1 X-15.649 Y-1.578 E0.03715
G1 X-15.908 Y-1.890 E0.03715
G1 X-16.138 Y-2.223 E0.03715
G1 X-16.337 Y-2.575 E0.03715
G1 X-16.505 Y-2.944 E0.03715
G1 X-16.639 Y-3.326 E0.03715
G1 X-16.738 Y-3.718 E0.03715
G1 X-16.802 Y-4.118 E0.03715
G1 X-16.831 Y-4.522 E0.03715
G1 X-16.823 Y-4.927 E0.03715
G1 X-16.780 Y-5.329 E0.03715
G1 X-16.700 Y-5.726 E0.03715
G1 X-16.586 Y-6.115 E0.03715
G1 X-16.438 Y-6.491 E0.03715
G1 X-16.256 Y-6.855 E0.03725
G1 X-15.945 Y-7.365 E0.05484
G1 X-15.855 Y-7.589 E0.02217
G1 X-15.798 Y-7.870 E0.02628
G1 X-15.802 Y-8.199 E0.03025
G1 X-15.887 Y-8.535 E0.03178
G1 X-16.055 Y-8.850 E0.03270
G1 X-16.259 Y-9.077 E0.02806
G1 X-16.624 Y-9.426 E0.04635
G1 X-16.935 Y-9.772 E0.04270
G1 X-17.217 Y-10.139 E0.04247
G1 X-17.472 Y-10.530 E0.04278
G1 X-17.698 Y-10.942 E0.04311
G1 X-17.888 Y-11.364 E0.04247
G1 X-18.047 Y-11.803 E0.04279
G1 X-18.171 Y-12.252 E0.04278
G1 X-18.261 Y-12.713 E0.04311
G1 X-18.314 Y-13.173 E0.04247
G1 X-18.332 Y-13.639 E0.04279
G1 X-18.314 Y-14.105 E0.04279
G1 X-18.261 Y-14.565 E0.04247
G1 X-18.171 Y-15.026 E0.04311
G1 X-18.047 Y-15.475 E0.04278
G1 X-17.888 Y-15.914 E0.04279
G1 X-17.698 Y-16.336 E0.04247
G1 X-17.472 Y-16.748 E0.04311
G1 X-17.217 Y-17.139 E0.04278
G1 X-16.935 Y-17.506 E0.04247
G1 X-16.624 Y-17.852 E0.04270
G1 X-16.259 Y-18.201 E0.04635
G1 X-16.055 Y-18.428 E0.02806
G1 X-15.887 Y-18.743 E0.03270
G1 X-15.802 Y-19.079 E0.03178
G1 X-15.799 Y-19.348 E0.02474
G1 X-15.571 Y-19.582 F9000.000
G1 X-15.430 Y-19.443 F9000.000
G1 X-15.465 Y-19.810 E0.03379 F600.000
G1 X-15.569 Y-20.357 E0.05108
G1 X-15.463 Y-20.345 E0.00986
G1 X-15.379 Y-20.302 E0.00860
G1 X-14.803 Y-19.770 E0.07197
G1 X-14.450 Y-19.494 F9000.000
G1 X-14.042 Y-19.211 E0.04553 F600.000
G1 X-14.064 Y-19.186 E0.00312
G1 X-14.333 Y-19.085 E0.02633
G1 X-15.421 Y-20.116 F9000.000
G1 X-15.792 Y-20.720 E0.06496 F600.000
G1 X-15.991 Y-21.144 E0.04306
G1 X-16.147 Y-21.609 E0.04497
G1 X-16.241 Y-22.069 E0.04305
G1 X-16.280 Y-22.536 E0.04304
G1 X-16.254 Y-23.097 E0.05147
G1 X-16.200 Y-23.449 E0.03268
G1 X-16.108 Y-23.801 E0.03337
G1 X-15.902 Y-24.337 E0.05272
G1 X-15.668 Y-24.770 E0.04518
G1 X-15.468 Y-25.055 E0.03191
G1 X-15.240 Y-25.328 E0.03264
G1 X-14.989 Y-25.581 E0.03264
G1 X-14.743 Y-25.792 E0.02983
G1 X-14.426 Y-26.014 E0.03548
G1 X-13.941 Y-26.277 E0.05062
G1 X-13.484 Y-26.454 E0.04498
G1 X-13.026 Y-26.568 E0.04324
G1 X-12.409 Y-26.634 E0.05696
G1 X-12.094 Y-26.634 E0.02891
G1 X-11.699 Y-26.595 E0.03646
G1 X-11.350 Y-26.526 E0.03257
G1 X-10.747 Y-26.331 E0.05815
G1 X-10.307 Y-26.116 E0.04498
G1 X-9.914 Y-25.860 E0.04304
G1 X-9.501 Y-25.511 E0.04962
G1 X-9.242 Y-25.237 E0.03453
G1 X-9.037 Y-24.972 E0.03077
G1 X-8.712 Y-24.439 E0.05724
G1 X-8.525 Y-24.009 E0.04306
G1 X-8.427 Y-23.694 E0.03025
G1 X-8.349 Y-23.347 E0.03264
G1 X-8.301 Y-22.994 E0.03264
G1 X-8.283 Y-22.642 E0.03241
G1 X-8.306 Y-22.242 E0.03676
G1 X-8.428 Y-21.580 E0.06178
G1 X-8.596 Y-21.088 E0.04769
G1 X-8.852 Y-20.585 E0.05174
G1 X-9.144 Y-20.135 E0.04922
G1 X-9.659 Y-19.863 F9000.000
G1 X-9.181 Y-20.328 E0.06120 F600.000
G1 X-9.108 Y-20.369 E0.00766
G1 X-8.985 Y-20.379 E0.01132
G1 X-9.101 Y-19.810 E0.05333
G1 X-9.136 Y-19.443 E0.03379
G1 X-10.059 Y-19.534 F9000.000
G1 X-10.506 Y-19.213 E0.05045 F600.000
G1 X-10.481 Y-19.178 E0.00391
G1 X-10.225 Y-19.082 E0.02510
G1 E-3.20000 F3000.00000
G1 Z0.700 F9000.000
G1 X-10.225 Y-8.196 F9000.000
G1 Z0.300 F9000.000
G1 E3.20000 F3000.00000
G1 X-10.481 Y-8.100 E0.02510 F600.000
G1 X-10.506 Y-8.065 E0.00391
G1 X-10.059 Y-7.744 E0.05045
G1 X-9.659 Y-7.415 F9000.000
G1 X-9.181 Y-6.950 E0.06120 F600.000
G1 X-9.108 Y-6.909 E0.00766
G1 X-8.985 Y-6.899 E0.01132
G1 X-9.101 Y-7.468 E0.05333
G1 X-9.136 Y-7.835 E0.03379
G1 X-9.144 Y-7.143 F9000.000
G1 X-8.852 Y-6.693 E0.04922 F600.000
G1 X-8.596 Y-6.190 E0.05174
G1 X-8.428 Y-5.698 E0.04769
G1 X-8.306 Y-5.036 E0.06178
G1 X-8.283 Y-4.636 E0.03676
G1 X-8.301 Y-4.284 E0.03241
G1 X-8.349 Y-3.931 E0.03264
G1 X-8.427 Y-3.584 E0.03264
G1 X-8.525 Y-3.269 E0.03025
G1 X-8.712 Y-2.839 E0.04306
