; generated by Slic3r 1.2.9 on 2016-11-01 at 10:45:39

; external perimeters extrusion width = 0.50mm
; perimeters extrusion width = 0.50mm
; infill extrusion width = 0.50mm
; solid infill extrusion width = 0.50mm
; top infill extrusion width = 0.50mm

M107
;Basic settings: Layer height: {layer_height} Walls: {wall_thickness} Fill: {fill_density}
;Print time: {print_time}
;Filament used: {filament_amount}m {filament_weight}g
;Filament cost: {filament_cost}
;M190 S{print_bed_temperature} ;Uncomment to add your own bed temperature line
;M109 S{print_temperature} ;Uncomment to add your own temperature line
G21        ;metric values
G90        ;absolute positioning
M83
G10 P0 S200
T0
M116


G21 ; set units to millimeters
G90 ; use absolute coordinates
M83 ; use relative distances for extrusion
G1 E-3.20000 F3000.00000
G1 Z0.400 F9000.000
G1 X-31.752 Y0.148 F9000.000
G1 Z0.300 F9000.000
G1 E3.20000 F3000.00000
G1 X-31.758 Y-30.052 E2.77089 F1200.000
G1 X-31.364 Y-31.723 E0.15755
G1 X-30.263 Y-33.041 E0.15755
G1 X-28.023 Y-33.788 E0.21667
G1 X27.877 Y-33.788 E5.12885
G1 X29.548 Y-33.393 E0.15755
G1 X30.866 Y-32.293 E0.15755 F1200.000
G1 X31.613 Y-30.070 E0.21515
G1 X31.758 Y1.135 E2.86303
G1 X31.758 Y30.052 E2.65319
G1 X31.364 Y31.723 E0.15755
G1 X30.263 Y33.041 E0.15755
G1 X28.023 Y33.788 E0.21667
G1 X-27.877 Y33.788 E5.12885
G1 X-29.548 Y33.393 E0.15755
G1 X-30.866 Y32.293 E0.15755
G1 X-31.613 Y30.070 E0.21515
G1 X-31.752 Y0.208 E2.73983
G1 E-3.20000 F3000.00000
G1 Z0.700 F9000.000
G1 X4.326 Y-11.874 F9000.000
G1 Z0.300 F9000.000
G1 E3.20000 F3000.00000
G1 X4.071 Y-12.658 E0.07563 F900.000
G1 X3.887 Y-13.465 E0.07597
G1 X3.775 Y-14.338 E0.08076
G1 X3.740 Y-15.102 E0.07015
G1 X3.777 Y-15.926 E0.07563
G1 X3.888 Y-16.742 E0.07563
G1 X4.071 Y-17.546 E0.07563
G1 X4.326 Y-18.330 E0.07563
G1 X4.650 Y-19.088 E0.07563
G1 X5.041 Y-19.814 E0.07563
G1 X5.495 Y-20.502 E0.07563
G1 X6.009 Y-21.146 E0.07563
G1 X6.579 Y-21.742 E0.07563
G1 X7.199 Y-22.285 E0.07563
G1 X7.866 Y-22.769 E0.07563
G1 X8.574 Y-23.192 E0.07563
G1 X9.317 Y-23.550 E0.07563
G1 X10.088 Y-23.839 E0.07563
G1 X10.883 Y-24.059 E0.07563
G1 X11.694 Y-24.206 E0.07563
G1 X12.515 Y-24.280 E0.07563
G1 X13.334 Y-24.280 E0.07518 F900.000
G1 X14.093 Y-24.218 E0.06983
G1 X14.971 Y-24.059 E0.08192
G1 X15.766 Y-23.839 E0.07563
G1 X16.541 Y-23.548 E0.07597
G1 X17.332 Y-23.161 E0.08076
G1 X17.988 Y-22.769 E0.07015
G1 X18.655 Y-22.285 E0.07563
G1 X19.276 Y-21.742 E0.07563
G1 X19.846 Y-21.146 E0.07563
G1 X20.359 Y-20.502 E0.07563
G1 X20.814 Y-19.814 E0.07563
G1 X21.204 Y-19.088 E0.07563
G1 X21.528 Y-18.330 E0.07563
G1 X21.783 Y-17.546 E0.07563
G1 X21.967 Y-16.739 E0.07597
G1 X22.080 Y-15.866 E0.08076
G1 X22.114 Y-15.102 E0.07015
G1 X22.077 Y-14.279 E0.07563
G1 X21.966 Y-13.462 E0.07563
G1 X21.783 Y-12.658 E0.07563
G1 X21.528 Y-11.874 E0.07563
G1 X21.204 Y-11.116 E0.07563
G1 X20.814 Y-10.390 E0.07563
G1 X20.359 Y-9.702 E0.07563
G1 X19.846 Y-9.058 E0.07563
G1 X19.276 Y-8.462 E0.07563
G1 X18.655 Y-7.920 E0.07563
G1 X17.988 Y-7.435 E0.07563
G1 X17.281 Y-7.012 E0.07563
G1 X16.538 Y-6.655 E0.07563
G1 X15.766 Y-6.365 E0.07563
G1 X14.971 Y-6.146 E0.07563
G1 X14.160 Y-5.998 E0.07563
G1 X13.339 Y-5.925 E0.07563
G1 X12.515 Y-5.925 E0.07563
G1 X11.694 Y-5.998 E0.07563
G1 X10.879 Y-6.146 E0.07597
G1 X10.032 Y-6.386 E0.08076
G1 X9.317 Y-6.655 E0.07015
G1 X8.574 Y-7.012 E0.07563
G1 X7.866 Y-7.435 E0.07563
G1 X7.199 Y-7.920 E0.07563
G1 X6.579 Y-8.462 E0.07563
G1 X6.009 Y-9.058 E0.07563
G1 X5.495 Y-9.702 E0.07563
G1 X5.041 Y-10.390 E0.07563
G1 X4.650 Y-11.116 E0.07563
G1 X4.350 Y-11.819 E0.07013
G1 X5.026 Y-12.108 F9000.000
G1 X4.781 Y-12.854 E0.07203 F900.000
G1 X4.612 Y-13.594 E0.06969
G1 X4.508 Y-14.402 E0.07470
G1 X4.477 Y-15.102 E0.06431
G1 X4.511 Y-15.860 E0.06957
G1 X4.613 Y-16.611 E0.06957
G1 X4.781 Y-17.350 E0.06957
G1 X5.016 Y-18.071 E0.06957
G1 X5.314 Y-18.769 E0.06957
G1 X5.673 Y-19.436 E0.06957
G1 X6.091 Y-20.069 E0.06957
G1 X6.563 Y-20.662 E0.06957
G1 X7.087 Y-21.210 E0.06957
G1 X7.658 Y-21.709 E0.06957
G1 X8.272 Y-22.155 E0.06957
G1 X8.923 Y-22.544 E0.06957
G1 X9.606 Y-22.873 E0.06957
G1 X10.316 Y-23.139 E0.06957
G1 X11.047 Y-23.341 E0.06957
G1 X11.793 Y-23.476 E0.06957
G1 X12.548 Y-23.544 E0.06957
G1 X13.305 Y-23.544 E0.06941 F900.000
G1 X13.997 Y-23.488 E0.06376
G1 X14.808 Y-23.341 E0.07556
G1 X15.539 Y-23.139 E0.06957
G1 X16.250 Y-22.872 E0.06969
G1 X16.981 Y-22.514 E0.07470
G1 X17.583 Y-22.155 E0.06431
G1 X18.196 Y-21.709 E0.06957
G1 X18.767 Y-21.210 E0.06957
G1 X19.291 Y-20.662 E0.06957
G1 X19.764 Y-20.069 E0.06957
G1 X20.181 Y-19.436 E0.06957
G1 X20.541 Y-18.769 E0.06957
G1 X20.839 Y-18.071 E0.06957
G1 X21.073 Y-17.350 E0.06957
G1 X21.242 Y-16.610 E0.06969
G1 X21.346 Y-15.802 E0.07470
G1 X21.378 Y-15.102 E0.06431
G1 X21.344 Y-14.345 E0.06957
G1 X21.242 Y-13.593 E0.06957
G1 X21.073 Y-12.854 E0.06957
G1 X20.839 Y-12.133 E0.06957
G1 X20.541 Y-11.436 E0.06957
G1 X20.181 Y-10.768 E0.06957
G1 X19.764 Y-10.135 E0.06957
G1 X19.291 Y-9.542 E0.06957
G1 X18.767 Y-8.994 E0.06957
G1 X18.196 Y-8.495 E0.06957
G1 X17.583 Y-8.050 E0.06957
G1 X16.932 Y-7.661 E0.06957
G1 X16.248 Y-7.332 E0.06957
G1 X15.539 Y-7.065 E0.06957
G1 X14.808 Y-6.864 E0.06957
G1 X14.062 Y-6.728 E0.06957
G1 X13.306 Y-6.660 E0.06957
G1 X12.548 Y-6.660 E0.06957
G1 X11.793 Y-6.728 E0.06957
G1 X11.046 Y-6.864 E0.06969
G1 X10.262 Y-7.085 E0.07470
G1 X9.606 Y-7.332 E0.06431
G1 X8.923 Y-7.661 E0.06957
G1 X8.272 Y-8.050 E0.06957
G1 X7.658 Y-8.495 E0.06957
G1 X7.087 Y-8.994 E0.06957
G1 X6.563 Y-9.542 E0.06957
G1 X6.091 Y-10.135 E0.06957
G1 X5.673 Y-10.768 E0.06957
G1 X5.314 Y-11.436 E0.06957
G1 X5.050 Y-12.053 E0.06159
G1 X4.632 Y-12.179 F9000.000
G1 X-4.034 Y-13.462 F9000.000
G1 X-4.217 Y-12.658 E0.07563 F900.000
G1 X-4.472 Y-11.874 E0.07563
G1 X-4.796 Y-11.116 E0.07563
G1 X-5.186 Y-10.390 E0.07563
G1 X-5.641 Y-9.702 E0.07563
G1 X-6.154 Y-9.058 E0.07563
G1 X-6.724 Y-8.462 E0.07563
G1 X-7.345 Y-7.920 E0.07563
G1 X-8.012 Y-7.435 E0.07563
G1 X-8.719 Y-7.012 E0.07563
G1 X-9.462 Y-6.655 E0.07563
G1 X-10.234 Y-6.365 E0.07563
G1 X-11.029 Y-6.146 E0.07563
G1 X-11.840 Y-5.998 E0.07563
G1 X-12.661 Y-5.925 E0.07563
G1 X-13.485 Y-5.925 E0.07563
G1 X-14.306 Y-5.998 E0.07563
G1 X-15.117 Y-6.146 E0.07563
G1 X-15.912 Y-6.365 E0.07563
G1 X-16.683 Y-6.655 E0.07563
G1 X-17.426 Y-7.012 E0.07563
G1 X-18.134 Y-7.435 E0.07563
G1 X-18.801 Y-7.920 E0.07563
G1 X-19.424 Y-8.464 E0.07597
G1 X-20.028 Y-9.104 E0.08076
G1 X-20.505 Y-9.702 E0.07015
G1 X-20.959 Y-10.390 E0.07563
G1 X-21.350 Y-11.116 E0.07563
G1 X-21.674 Y-11.874 E0.07563
G1 X-21.929 Y-12.658 E0.07563
G1 X-22.112 Y-13.462 E0.07563
G1 X-22.223 Y-14.279 E0.07563
G1 X-22.260 Y-15.102 E0.07563
G1 X-22.223 Y-15.926 E0.07563
G1 X-22.112 Y-16.742 E0.07563
G1 X-21.928 Y-17.550 E0.07597
G1 X-21.650 Y-18.385 E0.08076
G1 X-21.350 Y-19.088 E0.07015
G1 X-20.959 Y-19.814 E0.07563
G1 X-20.505 Y-20.502 E0.07563
G1 X-19.991 Y-21.146 E0.07563
G1 X-19.421 Y-21.742 E0.07563
G1 X-18.801 Y-22.285 E0.07563
G1 X-18.134 Y-22.769 E0.07563
G1 X-17.426 Y-23.192 E0.07563
G1 X-16.683 Y-23.550 E0.07563
G1 X-15.912 Y-23.839 E0.07563
G1 X-15.117 Y-24.059 E0.07563
G1 X-14.306 Y-24.206 E0.07563
G1 X-13.485 Y-24.280 E0.07563
G1 X-12.722 Y-24.280 E0.07000 F900.000
G1 X-11.910 Y-24.219 E0.07467
G1 X-11.029 Y-24.059 E0.08223
G1 X-10.234 Y-23.839 E0.07563
G1 X-9.462 Y-23.550 E0.07563
G1 X-8.719 Y-23.192 E0.07563
G1 X-8.012 Y-22.769 E0.07563
G1 X-7.345 Y-22.285 E0.07563
G1 X-6.724 Y-21.742 E0.07563
G1 X-6.152 Y-21.144 E0.07597
G1 X-5.608 Y-20.452 E0.08076
G1 X-5.186 Y-19.814 E0.07015
G1 X-4.796 Y-19.088 E0.07563
G1 X-4.472 Y-18.330 E0.07563
G1 X-4.217 Y-17.546 E0.07563
G1 X-4.034 Y-16.742 E0.07563
G1 X-3.923 Y-15.926 E0.07563
G1 X-3.886 Y-15.102 E0.07563
G1 X-3.923 Y-14.279 E0.07563
G1 X-4.026 Y-13.521 E0.07013
G1 X-4.755 Y-13.620 F9000.000
G1 X-4.927 Y-12.854 E0.07203 F900.000
G1 X-5.161 Y-12.133 E0.06957
G1 X-5.459 Y-11.436 E0.06957
G1 X-5.819 Y-10.768 E0.06957
G1 X-6.236 Y-10.135 E0.06957
G1 X-6.709 Y-9.542 E0.06957
G1 X-7.233 Y-8.994 E0.06957
G1 X-7.804 Y-8.495 E0.06957
G1 X-8.417 Y-8.050 E0.06957
G1 X-9.068 Y-7.661 E0.06957
G1 X-9.752 Y-7.332 E0.06957
G1 X-10.461 Y-7.065 E0.06957
G1 X-11.192 Y-6.864 E0.06957
G1 X-11.938 Y-6.728 E0.06957
G1 X-12.694 Y-6.660 E0.06957
G1 X-13.452 Y-6.660 E0.06957
G1 X-14.207 Y-6.728 E0.06957
G1 X-14.953 Y-6.864 E0.06957
G1 X-15.684 Y-7.065 E0.06957
G1 X-16.394 Y-7.332 E0.06957
G1 X-17.077 Y-7.661 E0.06957
G1 X-17.728 Y-8.050 E0.06957
G1 X-18.342 Y-8.495 E0.06957
G1 X-18.914 Y-8.995 E0.06969
G1 X-19.472 Y-9.587 E0.07470
G1 X-19.909 Y-10.135 E0.06431
G1 X-20.327 Y-10.768 E0.06957
G1 X-20.686 Y-11.436 E0.06957
G1 X-20.984 Y-12.133 E0.06957
G1 X-21.219 Y-12.854 E0.06957
G1 X-21.387 Y-13.593 E0.06957
G1 X-21.489 Y-14.345 E0.06957
G1 X-21.523 Y-15.102 E0.06957
G1 X-21.489 Y-15.860 E0.06957
G1 X-21.387 Y-16.611 E0.06957
G1 X-21.218 Y-17.352 E0.06969
G1 X-20.962 Y-18.124 E0.07470
G1 X-20.686 Y-18.769 E0.06431
G1 X-20.327 Y-19.436 E0.06957
G1 X-19.909 Y-20.069 E0.06957
G1 X-19.437 Y-20.662 E0.06957
G1 X-18.913 Y-21.210 E0.06957
G1 X-18.342 Y-21.709 E0.06957
G1 X-17.728 Y-22.155 E0.06957
G1 X-17.077 Y-22.544 E0.06957
G1 X-16.394 Y-22.873 E0.06957
G1 X-15.684 Y-23.139 E0.06957
G1 X-14.953 Y-23.341 E0.06957
G1 X-14.207 Y-23.476 E0.06957
G1 X-13.452 Y-23.544 E0.06957
G1 X-12.750 Y-23.544 E0.06444 F900.000
G1 X-12.004 Y-23.488 E0.06861
G1 X-11.192 Y-23.341 E0.07567
G1 X-10.461 Y-23.139 E0.06957
G1 X-9.752 Y-22.873 E0.06957
G1 X-9.068 Y-22.544 E0.06957
G1 X-8.417 Y-22.155 E0.06957
G1 X-7.804 Y-21.709 E0.06957
G1 X-7.233 Y-21.210 E0.06957
G1 X-6.708 Y-20.661 E0.06969
G1 X-6.205 Y-20.021 E0.07470
G1 X-5.819 Y-19.436 E0.06431
G1 X-5.459 Y-18.769 E0.06957
G1 X-5.161 Y-18.071 E0.06957
G1 X-4.927 Y-17.350 E0.06957
G1 X-4.758 Y-16.611 E0.06957
G1 X-4.656 Y-15.860 E0.06957
G1 X-4.622 Y-15.102 E0.06957
G1 X-4.656 Y-14.345 E0.06957
G1 X-4.746 Y-13.679 E0.06159
G1 X-4.453 Y-13.357 F9000.000
G1 E-3.20000 F3000.00000
G1 Z0.700 F9000.000
G1 X26.742 Y-13.033 F9000.000
G1 Z0.300 F9000.000
G1 E3.20000 F3000.00000
G1 X26.742 Y-2.288 E0.98589 F900.000
G1 X-26.887 Y-2.288 E4.92047 F900.000
G1 X-26.887 Y-28.916 E2.44320
G1 X26.742 Y-28.916 E4.92047
G1 X26.742 Y-13.093 E1.45181
G1 X27.477 Y-13.093 F9000.000
G1 X27.477 Y-1.552 E1.05889 F900.000
G1 X-27.623 Y-1.552 E5.05545 F900.000
G1 X-27.623 Y-29.652 E2.57819
G1 X27.477 Y-29.652 E5.05545
G1 X27.477 Y-13.153 E1.51380
G1 X27.131 Y-12.893 F9000.000
G1 X21.858 Y-18.890 F9000.000
G1 X26.292 Y-14.455 E0.58117 F900.000
G1 X26.292 Y-13.404 E0.09738
G1 X22.323 Y-17.374 E0.52027
G1 X22.521 Y-16.126 E0.11717
G1 X26.292 Y-12.354 E0.49432
G1 X26.292 Y-11.303 E0.09738
G1 X22.554 Y-15.041 E0.48993
G1 X22.481 Y-14.063 E0.09089
G1 X26.292 Y-10.252 E0.49945
G1 X26.292 Y-9.201 E0.09738
G1 X22.328 Y-13.166 E0.51956
G1 X22.108 Y-12.335 E0.07962
G1 X26.292 Y-8.151 E0.54843
G1 X26.292 Y-7.100 E0.09738
G1 X21.830 Y-11.562 E0.58479
G1 X21.502 Y-10.839 E0.07356
G1 X26.292 Y-6.049 E0.62775
G1 X26.292 Y-4.998 E0.09738
G1 X21.129 Y-10.162 E0.67670
G1 X20.711 Y-9.529 E0.07028
G1 X26.292 Y-3.948 E0.73146
G1 X26.292 Y-2.897 E0.09738
G1 X20.247 Y-8.942 E0.79229
G1 X19.744 Y-8.395 E0.06892
G1 X25.402 Y-2.737 E0.74149
G1 X24.351 Y-2.737 E0.09738
G1 X19.202 Y-7.886 E0.67481
G1 X18.621 Y-7.416 E0.06924
G1 X23.300 Y-2.737 E0.61323
G1 X22.249 Y-2.737 E0.09738
G1 X18.000 Y-6.986 E0.55690
G1 X17.337 Y-6.599 E0.07118
G1 X21.198 Y-2.737 E0.50611
G1 X20.148 Y-2.737 E0.09738
G1 X16.627 Y-6.257 E0.46135
G1 X15.864 Y-5.970 E0.07559
G1 X19.097 Y-2.737 E0.42369
G1 X18.046 Y-2.737 E0.09738
G1 X15.046 Y-5.737 E0.39323
G1 X14.164 Y-5.568 E0.08320
G1 X16.995 Y-2.737 E0.37107
G1 X15.945 Y-2.737 E0.09738
G1 X13.206 Y-5.475 E0.35889
G1 X12.138 Y-5.493 E0.09901
G1 X14.894 Y-2.737 E0.36117
G1 X13.843 Y-2.737 E0.09738
G1 X10.930 Y-5.650 E0.38172
G1 X9.488 Y-6.041 E0.13851
G1 X12.792 Y-2.737 E0.43305
G1 X11.742 Y-2.737 E0.09738
G1 X7.418 Y-7.061 E0.56666
G1 X4.913 Y-9.566 F9000.000
G1 X-3.984 Y-18.462 E1.16595 F900.000
G1 X-3.598 Y-17.026 E0.13784
G1 X10.691 Y-2.737 E1.87263
G1 X9.640 Y-2.737 E0.09738
G1 X-3.462 Y-15.839 E1.71715
G1 X-3.457 Y-14.784 E0.09782
G1 X8.589 Y-2.737 E1.57881
G1 X7.539 Y-2.737 E0.09738
G1 X-3.551 Y-13.826 E1.45332
G1 X-3.722 Y-12.947 E0.08303
G1 X6.488 Y-2.737 E1.33806
G1 X5.437 Y-2.737 E0.09738
G1 X-3.958 Y-12.132 E1.23132
G1 X-4.250 Y-11.373 E0.07534
G1 X4.386 Y-2.737 E1.13188
G1 X3.335 Y-2.737 E0.09738
G1 X-4.592 Y-10.664 E1.03891
G1 X-4.978 Y-10.000 E0.07123
G1 X2.285 Y-2.737 E0.95183
G1 X1.234 Y-2.737 E0.09738
G1 X-5.406 Y-9.377 E0.87023
G1 X-5.874 Y-8.794 E0.06926
G1 X0.183 Y-2.737 E0.79386
G1 X-0.868 Y-2.737 E0.09738
G1 X-6.388 Y-8.257 E0.72346
G1 X-6.942 Y-7.760 E0.06896
G1 X-1.918 Y-2.737 E0.65836
G1 X-2.969 Y-2.737 E0.09738
G1 X-7.535 Y-7.303 E0.59839
G1 X-8.169 Y-6.886 E0.07030
G1 X-4.020 Y-2.737 E0.54371
G1 X-5.071 Y-2.737 E0.09738
G1 X-8.845 Y-6.511 E0.49465
G1 X-9.568 Y-6.183 E0.07355
G1 X-6.121 Y-2.737 E0.45165
G1 X-7.172 Y-2.737 E0.09738
G1 X-10.342 Y-5.906 E0.41538
G1 X-11.174 Y-5.688 E0.07977
G1 X-8.223 Y-2.737 E0.38681
G1 X-9.274 Y-2.737 E0.09738
G1 X-12.076 Y-5.540 E0.36730
G1 X-13.063 Y-5.475 E0.09162
G1 X-10.324 Y-2.737 E0.35889
G1 X-11.375 Y-2.737 E0.09738
G1 X-14.158 Y-5.519 E0.36466
G1 X-15.398 Y-5.709 E0.11631
G1 X-12.426 Y-2.737 E0.38954
G1 X-13.477 Y-2.737 E0.09738
G1 X-16.943 Y-6.203 E0.45424
G1 X-26.438 Y-3.089 F9000.000
G1 X-26.086 Y-2.737 E0.04614 F900.000
G1 X-25.035 Y-2.737 E0.09738
G1 X-26.438 Y-4.140 E0.18385
G1 X-26.438 Y-5.191 E0.09738
G1 X-23.984 Y-2.737 E0.32156
G1 X-22.934 Y-2.737 E0.09738
G1 X-26.438 Y-6.241 E0.45927
G1 X-26.438 Y-7.292 E0.09738
G1 X-21.883 Y-2.737 E0.59698
G1 X-20.832 Y-2.737 E0.09738
G1 X-26.438 Y-8.343 E0.73469
G1 X-26.438 Y-9.394 E0.09738
G1 X-19.781 Y-2.737 E0.87240
G1 X-18.731 Y-2.737 E0.09738
G1 X-26.438 Y-10.444 E1.01011
G1 X-26.438 Y-11.495 E0.09738
G1 X-17.680 Y-2.737 E1.14782
G1 X-16.629 Y-2.737 E0.09738
G1 X-26.438 Y-12.546 E1.28553
G1 X-26.438 Y-13.597 E0.09738
G1 X-15.578 Y-2.737 E1.42324
G1 X-14.528 Y-2.737 E0.09738
G1 X-26.438 Y-14.647 E1.56095
G1 X-26.438 Y-15.698 E0.09738
G1 X-21.966 Y-11.226 E0.58614
G1 X-22.453 Y-12.764 E0.14955
G1 X-26.438 Y-16.749 E0.52224
G1 X-26.438 Y-17.800 E0.09738
G1 X-22.664 Y-14.026 E0.49457
G1 X-22.702 Y-15.114 E0.10092
G1 X-26.438 Y-18.850 E0.48964
G1 X-26.438 Y-19.901 E0.09738
G1 X-22.633 Y-16.096 E0.49865
G1 X-22.483 Y-16.997 E0.08462
G1 X-26.438 Y-20.952 E0.51832
G1 X-26.438 Y-22.003 E0.09738
G1 X-22.265 Y-17.829 E0.54693
G1 X-21.991 Y-18.607 E0.07635
G1 X-26.438 Y-23.054 E0.58279
G1 X-26.438 Y-24.104 E0.09738
G1 X-21.666 Y-19.332 E0.62542
G1 X-21.295 Y-20.012 E0.07176
G1 X-26.438 Y-25.155 E0.67405
G1 X-26.438 Y-26.206 E0.09738
G1 X-20.877 Y-20.645 E0.72881
G1 X-20.415 Y-21.234 E0.06936
G1 X-26.438 Y-27.257 E0.78933
G1 X-26.438 Y-28.307 E0.09738
G1 X-19.914 Y-21.784 E0.85499
G1 X-19.375 Y-22.295 E0.06888
G1 X-25.547 Y-28.467 E0.80897
G1 X-24.496 Y-28.467 E0.09738
G1 X-18.796 Y-22.767 E0.74709
G1 X-18.177 Y-23.199 E0.06993
G1 X-23.446 Y-28.467 E0.69045
G1 X-22.395 Y-28.467 E0.09738
G1 X-17.517 Y-23.589 E0.63933
G1 X-16.807 Y-23.931 E0.07295
G1 X-21.344 Y-28.467 E0.59457
G1 X-20.293 Y-28.467 E0.09738
G1 X-16.047 Y-24.221 E0.55657
G1 X-15.231 Y-24.456 E0.07865
G1 X-19.243 Y-28.467 E0.52572
G1 X-18.192 Y-28.467 E0.09738
G1 X-14.353 Y-24.628 E0.50315
G1 X-13.399 Y-24.725 E0.08885
G1 X-17.141 Y-28.467 E0.49045
G1 X-16.090 Y-28.467 E0.09738
G1 X-12.336 Y-24.713 E0.49198
G1 X-11.138 Y-24.566 E0.11188
G1 X-15.040 Y-28.467 E0.51130
G1 X-13.989 Y-28.467 E0.09738
G1 X-9.715 Y-24.194 E0.56010
G1 X-7.690 Y-23.219 F9000.000
G1 X-12.938 Y-28.467 E0.68783 F900.000
G1 X-11.887 Y-28.467 E0.09738
G1 X3.467 Y-13.113 E2.01232
G1 X3.319 Y-14.312 E0.11196
G1 X-10.836 Y-28.467 E1.85518
G1 X-9.786 Y-28.467 E0.09738
G1 X3.310 Y-15.372 E1.71624
G1 X3.399 Y-16.333 E0.08948
G1 X-8.735 Y-28.467 E1.59024
G1 X-7.684 Y-28.467 E0.09738
G1 X3.567 Y-17.216 E1.47454
G1 X3.800 Y-18.034 E0.07878
G1 X-6.633 Y-28.467 E1.36740
G1 X-5.583 Y-28.467 E0.09738
G1 X4.089 Y-18.795 E1.26760
G1 X4.428 Y-19.507 E0.07307
