; generated by Slic3r 1.2.9 on 2016-10-28 at 16:03:58

; external perimeters extrusion width = 0.50mm
; perimeters extrusion width = 0.50mm
; infill extrusion width = 0.50mm
; solid infill extrusion width = 0.50mm
; top infill extrusion width = 0.50mm

M107
;Basic settings: Layer height: {layer_height} Walls: {wall_thickness} Fill: {fill_density}
;Print time: {print_time}
;Filament used: {filament_amount}m {filament_weight}g
;Filament cost: {filament_cost}
;M190 S{print_bed_temperature} ;Uncomment to add your own bed temperature line
;M109 S{print_temperature} ;Uncomment to add your own temperature line
G21        ;metric values
G90        ;absolute positioning
M83
G10 P0 S200
T0
M116


G21 ; set units to millimeters
G90 ; use absolute coordinates
M83 ; use relative distances for extrusion
G1 E-3.20000 F3000.00000
G1 Z0.400 F9000.000
G1 X34.743 Y-6.122 F9000.000
G1 Z0.300 F9000.000
G1 E3.20000 F3000.00000
G1 X35.629 Y-1.093 E0.46854 F1200.000
G1 X35.686 Y-0.445 E0.05971
G1 X35.686 Y34.455 E3.20209
G1 X35.291 Y36.127 E0.15755
G1 X34.190 Y37.445 E0.15755
G1 X31.950 Y38.191 E0.21667
G1 X-31.950 Y38.191 E5.86286
G1 X-33.621 Y37.796 E0.15755
G1 X-34.939 Y36.696 E0.15755
G1 X-35.686 Y34.455 E0.21667
G1 X-35.686 Y-0.445 E3.20209
G1 X-33.672 Y-34.676 E3.14614
G1 X-33.180 Y-36.321 E0.15755
G1 X-32.004 Y-37.571 E0.15755
G1 X-29.943 Y-38.191 E0.19741
G1 X25.957 Y-38.191 E5.12885
G1 X27.628 Y-37.796 E0.15755
G1 X28.946 Y-36.696 E0.15755 F1200.000
G1 X29.636 Y-35.104 E0.15920
G1 X34.732 Y-6.181 E2.69455
G1 E-3.20000 F3000.00000
G1 Z0.700 F9000.000
G1 X18.978 Y-14.956 F9000.000
G1 Z0.300 F9000.000
G1 E3.20000 F3000.00000
G1 X18.816 Y-14.666 E0.03051 F900.000
G1 X18.299 Y-13.922 E0.08313
G1 X17.796 Y-13.316 E0.07221
G1 X17.196 Y-12.716 E0.07786
G1 X16.543 Y-12.174 E0.07786
G1 X15.843 Y-11.695 E0.07786
G1 X15.102 Y-11.282 E0.07786
G1 X14.326 Y-10.939 E0.07786
G1 X13.521 Y-10.669 E0.07786
G1 X12.695 Y-10.475 E0.07786
G1 X11.855 Y-10.358 E0.07786
G1 X11.007 Y-10.319 E0.07786
G1 X10.159 Y-10.358 E0.07786
G1 X9.319 Y-10.475 E0.07786
G1 X8.493 Y-10.669 E0.07786
G1 X7.747 Y-10.919 E0.07221
G1 X6.915 Y-11.280 E0.08313
G1 X6.171 Y-11.695 E0.07820
G1 X5.471 Y-12.174 E0.07786
G1 X4.818 Y-12.716 E0.07786
G1 X4.218 Y-13.316 E0.07786
G1 X3.676 Y-13.969 E0.07786
G1 X3.196 Y-14.669 E0.07786
G1 X2.783 Y-15.411 E0.07786
G1 X2.440 Y-16.187 E0.07786
G1 X2.171 Y-16.991 E0.07786
G1 X1.976 Y-17.817 E0.07786
G1 X1.859 Y-18.658 E0.07786
G1 X1.820 Y-19.509 E0.07820
G1 X1.868 Y-20.414 E0.08313
G1 X1.976 Y-21.194 E0.07221
G1 X2.171 Y-22.020 E0.07786
G1 X2.440 Y-22.824 E0.07786
G1 X2.783 Y-23.600 E0.07786
G1 X3.196 Y-24.342 E0.07786
G1 X3.676 Y-25.042 E0.07786
G1 X4.218 Y-25.695 E0.07786
G1 X4.818 Y-26.295 E0.07786
G1 X5.471 Y-26.837 E0.07786
G1 X6.171 Y-27.316 E0.07786
G1 X6.912 Y-27.729 E0.07786
G1 X7.688 Y-28.072 E0.07786
G1 X8.493 Y-28.342 E0.07786
G1 X9.323 Y-28.537 E0.07820
G1 X10.221 Y-28.656 E0.08313
G1 X11.007 Y-28.692 E0.07221 F900.000
G1 X11.855 Y-28.653 E0.07786
G1 X12.695 Y-28.536 E0.07786
G1 X13.521 Y-28.342 E0.07786
G1 X14.326 Y-28.072 E0.07786
G1 X15.102 Y-27.729 E0.07786
G1 X15.843 Y-27.316 E0.07786
G1 X16.543 Y-26.837 E0.07786
G1 X17.196 Y-26.295 E0.07786
G1 X17.796 Y-25.695 E0.07786
G1 X18.338 Y-25.042 E0.07786
G1 X18.818 Y-24.342 E0.07786
G1 X19.231 Y-23.600 E0.07786
G1 X19.573 Y-22.824 E0.07786
G1 X19.843 Y-22.020 E0.07786
G1 X20.037 Y-21.194 E0.07786
G1 X20.155 Y-20.353 E0.07786
G1 X20.194 Y-19.505 E0.07786
G1 X20.155 Y-18.658 E0.07786
G1 X20.037 Y-17.817 E0.07786
G1 X19.843 Y-16.991 E0.07786
G1 X19.573 Y-16.187 E0.07786
G1 X19.231 Y-15.411 E0.07786
G1 X19.007 Y-15.009 E0.04219
G1 X18.364 Y-15.367 F9000.000
G1 X18.191 Y-15.056 E0.03267 F900.000
G1 X17.713 Y-14.367 E0.07689
G1 X17.252 Y-13.812 E0.06620
G1 X16.700 Y-13.261 E0.07162
G1 X16.099 Y-12.762 E0.07162
G1 X15.456 Y-12.321 E0.07162
G1 X14.774 Y-11.941 E0.07162
G1 X14.060 Y-11.626 E0.07162
G1 X13.320 Y-11.378 E0.07162
G1 X12.560 Y-11.199 E0.07162
G1 X11.787 Y-11.091 E0.07162
G1 X11.007 Y-11.055 E0.07162
G1 X10.227 Y-11.091 E0.07162
G1 X9.454 Y-11.199 E0.07162
G1 X8.694 Y-11.378 E0.07162
G1 X8.010 Y-11.607 E0.06620
G1 X7.241 Y-11.940 E0.07689
G1 X6.558 Y-12.321 E0.07174
G1 X5.914 Y-12.762 E0.07162
G1 X5.314 Y-13.261 E0.07162
G1 X4.762 Y-13.812 E0.07162
G1 X4.263 Y-14.413 E0.07162
G1 X3.822 Y-15.057 E0.07162
G1 X3.442 Y-15.739 E0.07162
G1 X3.127 Y-16.453 E0.07162
G1 X2.879 Y-17.193 E0.07162
G1 X2.700 Y-17.953 E0.07162
G1 X2.592 Y-18.726 E0.07162
G1 X2.556 Y-19.507 E0.07174
G1 X2.601 Y-20.344 E0.07689
G1 X2.700 Y-21.058 E0.06620
G1 X2.879 Y-21.818 E0.07162
G1 X3.127 Y-22.558 E0.07162
G1 X3.442 Y-23.272 E0.07162
G1 X3.822 Y-23.954 E0.07162
G1 X4.263 Y-24.598 E0.07162
G1 X4.762 Y-25.199 E0.07162
G1 X5.314 Y-25.750 E0.07162
G1 X5.914 Y-26.249 E0.07162
G1 X6.558 Y-26.690 E0.07162
G1 X7.240 Y-27.070 E0.07162
G1 X7.954 Y-27.385 E0.07162
G1 X8.694 Y-27.633 E0.07162
G1 X9.455 Y-27.812 E0.07174
G1 X10.286 Y-27.923 E0.07689
G1 X11.007 Y-27.956 E0.06620 F900.000
G1 X11.787 Y-27.920 E0.07162
G1 X12.560 Y-27.812 E0.07162
G1 X13.320 Y-27.633 E0.07162
G1 X14.060 Y-27.385 E0.07162
G1 X14.774 Y-27.070 E0.07162
G1 X15.456 Y-26.690 E0.07161
G1 X16.099 Y-26.249 E0.07162
G1 X16.700 Y-25.750 E0.07162
G1 X17.252 Y-25.199 E0.07162
G1 X17.751 Y-24.598 E0.07162
G1 X18.192 Y-23.954 E0.07162
G1 X18.571 Y-23.272 E0.07162
G1 X18.887 Y-22.558 E0.07162
G1 X19.135 Y-21.818 E0.07162
G1 X19.314 Y-21.058 E0.07162
G1 X19.421 Y-20.285 E0.07162
G1 X19.457 Y-19.505 E0.07162
G1 X19.421 Y-18.726 E0.07162
G1 X19.314 Y-17.953 E0.07162
G1 X19.135 Y-17.193 E0.07162
G1 X18.887 Y-16.453 E0.07162
G1 X18.571 Y-15.739 E0.07162
G1 X18.393 Y-15.419 E0.03356
G1 X18.547 Y-15.061 F9000.000
G1 E-3.20000 F3000.00000
G1 Z0.700 F9000.000
G1 X-5.905 Y-16.512 F9000.000
G1 Z0.300 F9000.000
G1 E3.20000 F3000.00000
G1 X-7.701 Y-13.922 E0.28915 F900.000
G1 X-8.204 Y-13.316 E0.07226
G1 X-8.804 Y-12.716 E0.07786
G1 X-9.457 Y-12.174 E0.07786
G1 X-10.157 Y-11.695 E0.07786
G1 X-10.898 Y-11.282 E0.07786
G1 X-11.674 Y-10.939 E0.07786
G1 X-12.479 Y-10.669 E0.07786
G1 X-13.305 Y-10.475 E0.07786
G1 X-14.145 Y-10.358 E0.07786
G1 X-14.993 Y-10.319 E0.07786
G1 X-15.841 Y-10.358 E0.07786
G1 X-16.681 Y-10.475 E0.07786
G1 X-17.507 Y-10.669 E0.07786
G1 X-18.312 Y-10.939 E0.07786
G1 X-19.088 Y-11.282 E0.07786
G1 X-19.833 Y-11.696 E0.07820
G1 X-20.577 Y-12.213 E0.08313
G1 X-21.182 Y-12.716 E0.07221
G1 X-21.782 Y-13.316 E0.07786
G1 X-22.324 Y-13.969 E0.07786
G1 X-22.804 Y-14.669 E0.07786
G1 X-23.217 Y-15.411 E0.07786
G1 X-23.560 Y-16.187 E0.07786
G1 X-23.829 Y-16.991 E0.07786
G1 X-24.024 Y-17.817 E0.07786
G1 X-24.141 Y-18.662 E0.07820
G1 X-24.177 Y-19.567 E0.08313
G1 X-24.141 Y-20.353 E0.07221
G1 X-24.024 Y-21.194 E0.07786
G1 X-23.829 Y-22.020 E0.07786
G1 X-23.560 Y-22.824 E0.07786
G1 X-23.217 Y-23.600 E0.07786
G1 X-22.804 Y-24.342 E0.07786
G1 X-22.324 Y-25.042 E0.07786
G1 X-21.782 Y-25.695 E0.07786
G1 X-21.182 Y-26.295 E0.07786
G1 X-20.529 Y-26.837 E0.07786
G1 X-19.829 Y-27.316 E0.07786
G1 X-19.088 Y-27.729 E0.07786
G1 X-18.312 Y-28.072 E0.07786
G1 X-17.507 Y-28.342 E0.07786
G1 X-16.677 Y-28.537 E0.07820
G1 X-15.779 Y-28.656 E0.08313
G1 X-14.993 Y-28.692 E0.07221 F900.000
G1 X-14.145 Y-28.653 E0.07786
G1 X-13.305 Y-28.536 E0.07786
G1 X-12.479 Y-28.342 E0.07786
G1 X-11.674 Y-28.072 E0.07786
G1 X-10.898 Y-27.729 E0.07786
G1 X-10.157 Y-27.316 E0.07786
G1 X-9.457 Y-26.837 E0.07786
G1 X-8.804 Y-26.295 E0.07786
G1 X-8.204 Y-25.695 E0.07786
G1 X-7.662 Y-25.042 E0.07786
G1 X-7.182 Y-24.342 E0.07786
G1 X-6.769 Y-23.600 E0.07786
G1 X-6.427 Y-22.824 E0.07786
G1 X-6.157 Y-22.020 E0.07786
G1 X-5.963 Y-21.194 E0.07786
G1 X-5.845 Y-20.353 E0.07786
G1 X-5.806 Y-19.505 E0.07786
G1 X-5.845 Y-18.658 E0.07786
G1 X-5.963 Y-17.817 E0.07786
G1 X-6.157 Y-16.991 E0.07786
G1 X-6.318 Y-16.512 E0.04638
G1 X-5.965 Y-16.512 E0.03236
G1 X-6.979 Y-16.852 F9000.000
G1 X-7.113 Y-16.453 E0.03863 F900.000
G1 X-7.412 Y-15.776 E0.06784
G1 X-7.310 Y-15.776 E0.00933
G1 X-8.287 Y-14.368 E0.15729
G1 X-8.748 Y-13.812 E0.06621
G1 X-9.300 Y-13.261 E0.07162
G1 X-9.901 Y-12.762 E0.07162
G1 X-10.544 Y-12.321 E0.07162
G1 X-11.226 Y-11.941 E0.07162
G1 X-11.940 Y-11.626 E0.07162
G1 X-12.680 Y-11.378 E0.07162
G1 X-13.440 Y-11.199 E0.07162
G1 X-14.213 Y-11.091 E0.07162
G1 X-14.993 Y-11.055 E0.07162
G1 X-15.773 Y-11.091 E0.07162
G1 X-16.546 Y-11.199 E0.07162
G1 X-17.306 Y-11.378 E0.07162
G1 X-18.046 Y-11.626 E0.07162
G1 X-18.760 Y-11.941 E0.07162
G1 X-19.443 Y-12.321 E0.07174
G1 X-20.131 Y-12.800 E0.07689
G1 X-20.686 Y-13.261 E0.06620
G1 X-21.238 Y-13.812 E0.07162
G1 X-21.737 Y-14.413 E0.07162
G1 X-22.178 Y-15.057 E0.07162
G1 X-22.558 Y-15.739 E0.07162
G1 X-22.873 Y-16.453 E0.07162
G1 X-23.121 Y-17.193 E0.07162
G1 X-23.300 Y-17.953 E0.07162
G1 X-23.408 Y-18.727 E0.07174
G1 X-23.441 Y-19.564 E0.07689
G1 X-23.408 Y-20.285 E0.06620
G1 X-23.300 Y-21.058 E0.07162
G1 X-23.121 Y-21.818 E0.07162
G1 X-22.873 Y-22.558 E0.07162
G1 X-22.558 Y-23.272 E0.07162
G1 X-22.178 Y-23.954 E0.07162
G1 X-21.737 Y-24.598 E0.07162
G1 X-21.238 Y-25.199 E0.07162
G1 X-20.686 Y-25.750 E0.07162
G1 X-20.086 Y-26.249 E0.07162
G1 X-19.442 Y-26.690 E0.07162
G1 X-18.760 Y-27.070 E0.07162
G1 X-18.046 Y-27.385 E0.07162
G1 X-17.306 Y-27.633 E0.07162
G1 X-16.545 Y-27.812 E0.07174
G1 X-15.714 Y-27.923 E0.07689
G1 X-14.993 Y-27.956 E0.06620 F900.000
G1 X-14.213 Y-27.920 E0.07162
G1 X-13.440 Y-27.812 E0.07162
G1 X-12.680 Y-27.633 E0.07162
G1 X-11.940 Y-27.385 E0.07162
G1 X-11.226 Y-27.070 E0.07162
G1 X-10.544 Y-26.690 E0.07162
G1 X-9.901 Y-26.249 E0.07162
G1 X-9.300 Y-25.750 E0.07162
G1 X-8.748 Y-25.199 E0.07162
G1 X-8.249 Y-24.598 E0.07162
G1 X-7.808 Y-23.954 E0.07162
G1 X-7.429 Y-23.272 E0.07162
G1 X-7.113 Y-22.558 E0.07162
G1 X-6.865 Y-21.818 E0.07162
G1 X-6.686 Y-21.058 E0.07162
G1 X-6.579 Y-20.285 E0.07162
G1 X-6.543 Y-19.505 E0.07162
G1 X-6.579 Y-18.726 E0.07162
G1 X-6.686 Y-17.953 E0.07162
G1 X-6.865 Y-17.193 E0.07162
G1 X-6.960 Y-16.909 E0.02748
G1 X-6.715 Y-16.552 F9000.000
G1 E-3.20000 F3000.00000
G1 Z0.700 F9000.000
G1 X24.821 Y-27.761 F9000.000
G1 Z0.300 F9000.000
G1 E3.20000 F3000.00000
G1 X24.821 Y-6.691 E1.93319 F900.000
G1 X-28.807 Y-6.691 E4.92047 F900.000
G1 X-28.807 Y-33.320 E2.44320
G1 X24.821 Y-33.320 E4.92047
G1 X24.821 Y-27.821 E0.50450
G1 X25.557 Y-27.821 F9000.000
G1 X25.557 Y-5.955 E2.00619 F900.000
G1 X-29.543 Y-5.955 E5.05545 F900.000
G1 X-29.543 Y-34.055 E2.57819
G1 X25.557 Y-34.055 E5.05545
G1 X25.557 Y-27.881 E0.56649
G1 X25.211 Y-27.621 F9000.000
G1 X24.372 Y-32.519 F9000.000
G1 X24.020 Y-32.871 E0.04614 F900.000
G1 X22.969 Y-32.871 E0.09738
G1 X24.372 Y-31.468 E0.18385
G1 X24.372 Y-30.417 E0.09738
G1 X21.918 Y-32.871 E0.32157
G1 X20.868 Y-32.871 E0.09738
G1 X24.372 Y-29.366 E0.45928
G1 X24.372 Y-28.316 E0.09738
G1 X19.817 Y-32.871 E0.59699
G1 X18.766 Y-32.871 E0.09738
G1 X24.372 Y-27.265 E0.73470
G1 X24.372 Y-26.214 E0.09738
G1 X17.715 Y-32.871 E0.87241
G1 X16.665 Y-32.871 E0.09738
G1 X24.372 Y-25.163 E1.01012
G1 X24.372 Y-24.112 E0.09738
G1 X15.614 Y-32.871 E1.14783
G1 X14.563 Y-32.871 E0.09738
G1 X24.372 Y-23.062 E1.28554
G1 X24.372 Y-22.011 E0.09738
G1 X13.512 Y-32.871 E1.42325
G1 X12.462 Y-32.871 E0.09738
G1 X24.372 Y-20.960 E1.56096
G1 X24.372 Y-19.909 E0.09738
G1 X11.411 Y-32.871 E1.69867
G1 X10.360 Y-32.871 E0.09738
G1 X14.789 Y-28.442 E0.58041
G1 X13.279 Y-28.901 E0.14624
G1 X9.309 Y-32.871 E0.52025
G1 X8.259 Y-32.871 E0.09738
G1 X12.027 Y-29.102 E0.49387
G1 X10.946 Y-29.132 E0.10019
G1 X7.208 Y-32.871 E0.48995
G1 X6.157 Y-32.871 E0.09738
G1 X9.971 Y-29.057 E0.49985
G1 X9.070 Y-28.907 E0.08461
G1 X5.106 Y-32.871 E0.51953
G1 X4.055 Y-32.871 E0.09738
G1 X8.239 Y-28.687 E0.54833
G1 X7.465 Y-28.410 E0.07619
G1 X3.005 Y-32.871 E0.58458
G1 X1.954 Y-32.871 E0.09738
G1 X6.741 Y-28.084 E0.62736
G1 X6.066 Y-27.708 E0.07159
G1 X0.903 Y-32.871 E0.67662
G1 X-0.148 Y-32.871 E0.09738
G1 X5.438 Y-27.285 E0.73202
G1 X4.850 Y-26.822 E0.06934
G1 X-1.198 Y-32.871 E0.79266
G1 X-2.249 Y-32.871 E0.09738
G1 X4.300 Y-26.321 E0.85836
G1 X3.789 Y-25.782 E0.06888
G1 X-3.300 Y-32.871 E0.92905
G1 X-4.351 Y-32.871 E0.09738
G1 X3.316 Y-25.204 E1.00477
G1 X2.889 Y-24.580 E0.07005
G1 X-5.401 Y-32.871 E1.08650
G1 X-6.452 Y-32.871 E0.09738
G1 X2.507 Y-23.912 E1.17413
G1 X2.169 Y-23.199 E0.07312
G1 X-7.503 Y-32.871 E1.26758
G1 X-8.554 Y-32.871 E0.09738
G1 X1.880 Y-22.437 E1.36747
G1 X1.647 Y-21.619 E0.07880
G1 X-9.604 Y-32.871 E1.47464
G1 X-10.655 Y-32.871 E0.09738
G1 X1.479 Y-20.736 E1.59032
G1 X1.392 Y-19.773 E0.08965
G1 X-11.706 Y-32.871 E1.71658
G1 X-12.757 Y-32.871 E0.09738
G1 X1.400 Y-18.714 E1.85528
G1 X1.544 Y-17.519 E0.11159
G1 X-13.808 Y-32.871 E2.01196
G1 X-14.858 Y-32.871 E0.09738
G1 X-9.622 Y-27.635 E0.68621
G1 X-11.630 Y-28.592 F9000.000
G1 X-15.909 Y-32.871 E0.56078 F900.000
G1 X-16.960 Y-32.871 E0.09738
G1 X-13.069 Y-28.980 E0.50992
G1 X-14.255 Y-29.115 E0.11064
G1 X-18.011 Y-32.871 E0.49216
G1 X-19.061 Y-32.871 E0.09738
G1 X-15.311 Y-29.120 E0.49151
G1 X-16.267 Y-29.025 E0.08899
G1 X-20.112 Y-32.871 E0.50398
G1 X-21.163 Y-32.871 E0.09738
G1 X-17.147 Y-28.855 E0.52624
G1 X-17.962 Y-28.619 E0.07860
G1 X-22.214 Y-32.871 E0.55719
G1 X-23.264 Y-32.871 E0.09738
G1 X-18.722 Y-28.328 E0.59538
G1 X-19.432 Y-27.988 E0.07300
G1 X-24.315 Y-32.871 E0.63997
G1 X-25.366 Y-32.871 E0.09738
G1 X-20.098 Y-27.603 E0.69038
G1 X-20.722 Y-27.176 E0.07005
G1 X-26.417 Y-32.871 E0.74636
G1 X-27.467 Y-32.871 E0.09738
G1 X-21.297 Y-26.700 E0.80866
G1 X-21.834 Y-26.187 E0.06887
G1 X-28.358 Y-32.711 E0.85503
G1 X-28.358 Y-31.660 E0.09738
G1 X-22.333 Y-25.635 E0.78964
G1 X-22.793 Y-25.044 E0.06938
G1 X-28.358 Y-30.609 E0.72932
G1 X-28.358 Y-29.558 E0.09738
G1 X-23.214 Y-24.414 E0.67424
G1 X-23.590 Y-23.739 E0.07159
G1 X-28.358 Y-28.508 E0.62497
G1 X-28.358 Y-27.457 E0.09738
G1 X-23.913 Y-23.012 E0.58254
G1 X-24.187 Y-22.235 E0.07635
G1 X-28.358 Y-26.406 E0.54666
G1 X-28.358 Y-25.355 E0.09738
G1 X-24.404 Y-21.401 E0.51826
G1 X-24.554 Y-20.500 E0.08464
G1 X-28.358 Y-24.305 E0.49863
G1 X-28.358 Y-23.254 E0.09738
G1 X-24.622 Y-19.518 E0.48966
G1 X-24.586 Y-18.431 E0.10078
G1 X-28.358 Y-22.203 E0.49439
G1 X-28.358 Y-21.152 E0.09738
G1 X-24.373 Y-17.167 E0.52229
G1 X-23.889 Y-15.633 E0.14909
G1 X-28.358 Y-20.102 E0.58567
G1 X-28.358 Y-19.051 E0.09738
G1 X-16.448 Y-7.140 E1.56095
G1 X-17.499 Y-7.140 E0.09738
G1 X-28.358 Y-18.000 E1.42324
G1 X-28.358 Y-16.949 E0.09738
G1 X-18.549 Y-7.140 E1.28553
G1 X-19.600 Y-7.140 E0.09738
G1 X-28.358 Y-15.898 E1.14782
G1 X-28.358 Y-14.848 E0.09738
G1 X-20.651 Y-7.140 E1.01011
G1 X-21.702 Y-7.140 E0.09738
G1 X-28.358 Y-13.797 E0.87240
G1 X-28.358 Y-12.746 E0.09738
G1 X-22.752 Y-7.140 E0.73469
G1 X-23.803 Y-7.140 E0.09738
G1 X-28.358 Y-11.695 E0.59698
G1 X-28.358 Y-10.645 E0.09738
G1 X-24.854 Y-7.140 E0.45927
G1 X-25.905 Y-7.140 E0.09738
G1 X-28.358 Y-9.594 E0.32156
G1 X-28.358 Y-8.543 E0.09738
G1 X-26.955 Y-7.140 E0.18385
G1 X-28.006 Y-7.140 E0.09738
G1 X-28.358 Y-7.492 E0.04614
G1 X-18.866 Y-10.609 F9000.000
G1 X-15.397 Y-7.140 E0.45462 F900.000
G1 X-14.346 Y-7.140 E0.09738
G1 X-17.332 Y-10.126 E0.39124
G1 X-16.068 Y-9.913 E0.11876
G1 X-13.296 Y-7.140 E0.36333
G1 X-12.245 Y-7.140 E0.09738
G1 X-14.981 Y-9.877 E0.35860
G1 X-13.999 Y-9.945 E0.09125
G1 X-11.194 Y-7.140 E0.36757
G1 X-10.143 Y-7.140 E0.09738
G1 X-13.098 Y-10.095 E0.38720
G1 X-12.264 Y-10.311 E0.07986
G1 X-9.092 Y-7.140 E0.41560
G1 X-8.042 Y-7.140 E0.09738
G1 X-11.487 Y-10.585 E0.45148
G1 X-10.760 Y-10.909 E0.07375
G1 X-6.991 Y-7.140 E0.49392
G1 X-5.940 Y-7.140 E0.09738
G1 X-10.085 Y-11.285 E0.54318
G1 X-9.454 Y-11.705 E0.07022
G1 X-4.889 Y-7.140 E0.59826
G1 X-3.839 Y-7.140 E0.09738
G1 X-8.864 Y-12.165 E0.65858
G1 X-8.312 Y-12.664 E0.06894
G1 X-2.788 Y-7.140 E0.72397
G1 X-1.737 Y-7.140 E0.09738
G1 X-7.798 Y-13.201 E0.79435
G1 X-7.327 Y-13.781 E0.06922
G1 X-0.686 Y-7.140 E0.87026
G1 X0.364 Y-7.140 E0.09738
G1 X-6.896 Y-14.401 E0.95158
G1 X-6.466 Y-15.022 E0.06997
G1 X1.415 Y-7.140 E1.03290
G1 X2.466 Y-7.140 E0.09738
G1 X-6.036 Y-15.642 E1.11422
G1 X-5.606 Y-16.263 E0.06997
G1 X3.517 Y-7.140 E1.19554
G1 X4.567 Y-7.140 E0.09738
G1 X-5.643 Y-17.351 E1.33819
