; generated by Slic3r 1.2.9 on 2016-10-31 at 15:00:16

; external perimeters extrusion width = 0.50mm
; perimeters extrusion width = 0.50mm
; infill extrusion width = 0.50mm
; solid infill extrusion width = 0.50mm
; top infill extrusion width = 0.50mm

M107
;Basic settings: Layer height: {layer_height} Walls: {wall_thickness} Fill: {fill_density}
;Print time: {print_time}
;Filament used: {filament_amount}m {filament_weight}g
;Filament cost: {filament_cost}
;M190 S{print_bed_temperature} ;Uncomment to add your own bed temperature line
;M109 S{print_temperature} ;Uncomment to add your own temperature line
G21        ;metric values
G90        ;absolute positioning
M83
G10 P0 S200
T0
M116


G21 ; set units to millimeters
G90 ; use absolute coordinates
M83 ; use relative distances for extrusion
G1 E-3.20000 F3000.00000
G1 Z0.400 F9000.000
G1 X0.000 Y21.186 F9000.000
G1 Z0.300 F9000.000
G1 E3.20000 F3000.00000
G1 X-31.950 Y21.186 E2.93143 F1200.000
G1 X-33.621 Y20.791 E0.15755
G1 X-34.939 Y19.690 E0.15755
G1 X-35.686 Y17.450 E0.21667
G1 X-35.686 Y-17.450 E3.20209
G1 X-35.291 Y-19.121 E0.15755
G1 X-34.190 Y-20.439 E0.15755
G1 X-31.950 Y-21.186 E0.21667
G1 X31.950 Y-21.186 E5.86286
G1 X33.621 Y-20.791 E0.15755
G1 X34.939 Y-19.690 E0.15755 F1200.000
G1 X35.686 Y-17.450 E0.21667
G1 X35.686 Y17.450 E3.20209
G1 X35.291 Y19.121 E0.15755
G1 X34.190 Y20.439 E0.15755
G1 X31.950 Y21.186 E0.21667
G1 X0.060 Y21.186 E2.92592
G1 E-3.20000 F3000.00000
G1 Z0.700 F9000.000
G1 X-7.686 Y16.314 F9000.000
G1 Z0.300 F9000.000
G1 E3.20000 F3000.00000
G1 X-30.814 Y16.314 E2.12208 F900.000
G1 X-30.814 Y-16.314 E2.99371
G1 X30.814 Y-16.314 E5.65447
G1 X30.814 Y16.314 E2.99371
G1 X8.686 Y16.314 E2.03033 F900.000
G1 X8.686 Y7.032 E0.85165
G1 X9.023 Y6.612 E0.04945
G1 X9.583 Y5.771 E0.09269
G1 X10.065 Y4.883 E0.09270
G1 X10.464 Y3.955 E0.09269
G1 X10.778 Y2.995 E0.09269
G1 X11.005 Y2.010 E0.09270
G1 X11.141 Y1.009 E0.09269
G1 X11.187 Y0.001 E0.09261
G1 X11.144 Y-0.973 E0.08942
G1 X11.018 Y-1.938 E0.08933
G1 X10.807 Y-2.889 E0.08933
G1 X10.515 Y-3.817 E0.08933
G1 X10.143 Y-4.717 E0.08933
G1 X9.695 Y-5.581 E0.08933
G1 X9.173 Y-6.403 E0.08933
G1 X8.581 Y-7.177 E0.08933
G1 X7.925 Y-7.896 E0.08933
G1 X7.208 Y-8.555 E0.08933
G1 X6.461 Y-9.131 E0.08659
G1 X5.619 Y-9.673 E0.09192
G1 X4.755 Y-10.126 E0.08947
G1 X3.856 Y-10.501 E0.08933
G1 X2.929 Y-10.797 E0.08933
G1 X1.979 Y-11.010 E0.08933
G1 X1.014 Y-11.141 E0.08933
G1 X0.041 Y-11.187 E0.08933
G1 X-0.931 Y-11.148 E0.08933
G1 X-1.868 Y-11.028 E0.08659
G1 X-2.847 Y-10.818 E0.09192
G1 X-3.779 Y-10.529 E0.08947
G1 X-4.680 Y-10.161 E0.08933
G1 X-5.546 Y-9.715 E0.08933
G1 X-6.369 Y-9.196 E0.08933
G1 X-7.145 Y-8.608 E0.08933
G1 X-7.866 Y-7.954 E0.08933
G1 X-8.528 Y-7.240 E0.08933
G1 X-9.125 Y-6.471 E0.08933
G1 X-9.653 Y-5.653 E0.08933
G1 X-10.108 Y-4.792 E0.08933
G1 X-10.487 Y-3.895 E0.08933
G1 X-10.786 Y-2.969 E0.08933
G1 X-11.003 Y-2.019 E0.08933
G1 X-11.137 Y-1.055 E0.08933
G1 X-11.186 Y-0.083 E0.08933
G1 X-11.151 Y0.890 E0.08933
G1 X-11.035 Y1.827 E0.08659
G1 X-10.829 Y2.807 E0.09192
G1 X-10.543 Y3.740 E0.08947
G1 X-10.178 Y4.642 E0.08933
G1 X-9.736 Y5.510 E0.08933
G1 X-9.220 Y6.335 E0.08933
G1 X-8.634 Y7.113 E0.08933
G1 X-7.983 Y7.837 E0.08933
G1 X-7.686 Y8.114 E0.03733
G1 X-7.686 Y16.254 E0.74685
G1 X-6.950 Y16.254 F9000.000
G1 X-6.950 Y17.050 E0.07300 F900.000
G1 X-31.550 Y17.050 E2.25706
G1 X-31.550 Y-17.050 E3.12869
G1 X31.550 Y-17.050 E5.78946
G1 X31.550 Y17.050 E3.12869
G1 X7.950 Y17.050 E2.16531 F900.000
G1 X7.950 Y6.773 E0.94293
G1 X8.430 Y6.177 E0.07018
G1 X8.952 Y5.391 E0.08659
G1 X9.402 Y4.562 E0.08659
G1 X9.776 Y3.695 E0.08659
G1 X10.069 Y2.798 E0.08659
G1 X10.280 Y1.878 E0.08659
G1 X10.408 Y0.943 E0.08659
G1 X10.450 Y0.000 E0.08656
G1 X10.411 Y-0.909 E0.08348
G1 X10.292 Y-1.810 E0.08345
G1 X10.096 Y-2.699 E0.08345
G1 X9.823 Y-3.566 E0.08345
G1 X9.476 Y-4.407 E0.08345
G1 X9.057 Y-5.214 E0.08345
G1 X8.569 Y-5.982 E0.08345
G1 X8.017 Y-6.704 E0.08345
G1 X7.403 Y-7.376 E0.08345
G1 X6.734 Y-7.992 E0.08345
G1 X6.036 Y-8.529 E0.08081
G1 X5.248 Y-9.037 E0.08604
G1 X4.442 Y-9.459 E0.08350
G1 X3.602 Y-9.810 E0.08345
G1 X2.736 Y-10.086 E0.08345
G1 X1.849 Y-10.286 E0.08345
G1 X0.947 Y-10.407 E0.08345
G1 X0.039 Y-10.450 E0.08345
G1 X-0.870 Y-10.414 E0.08345
G1 X-1.744 Y-10.303 E0.08081
G1 X-2.661 Y-10.106 E0.08604
G1 X-3.530 Y-9.836 E0.08350
G1 X-4.372 Y-9.492 E0.08345
G1 X-5.181 Y-9.076 E0.08345
G1 X-5.950 Y-8.591 E0.08345
G1 X-6.675 Y-8.041 E0.08345
G1 X-7.348 Y-7.430 E0.08345
G1 X-7.967 Y-6.763 E0.08345
G1 X-8.525 Y-6.045 E0.08345
G1 X-9.018 Y-5.281 E0.08345
G1 X-9.443 Y-4.477 E0.08345
G1 X-9.796 Y-3.639 E0.08345
G1 X-10.076 Y-2.773 E0.08345
G1 X-10.279 Y-1.887 E0.08345
G1 X-10.404 Y-0.986 E0.08345
G1 X-10.450 Y-0.077 E0.08345
G1 X-10.417 Y0.832 E0.08345
G1 X-10.309 Y1.706 E0.08080
G1 X-10.116 Y2.623 E0.08604
G1 X-9.849 Y3.493 E0.08350
G1 X-9.508 Y4.337 E0.08345
G1 X-9.095 Y5.147 E0.08345
G1 X-8.613 Y5.918 E0.08345
G1 X-8.066 Y6.645 E0.08345
G1 X-7.458 Y7.321 E0.08345
G1 X-6.950 Y7.795 E0.06372
G1 X-6.950 Y16.194 E0.77066
G1 X-7.296 Y16.454 F9000.000
G1 X-8.135 Y8.548 F9000.000
G1 X-30.365 Y-13.682 E2.89105 F900.000
G1 X-30.365 Y-12.639 E0.09588
G1 X-8.135 Y9.591 E2.89105
G1 X-8.135 Y10.634 E0.09588
G1 X-30.365 Y-11.597 E2.89105
G1 X-30.365 Y-10.554 E0.09588
G1 X-8.135 Y11.676 E2.89105
G1 X-8.135 Y12.719 E0.09588
G1 X-30.365 Y-9.511 E2.89105
G1 X-30.365 Y-8.469 E0.09588
G1 X-8.135 Y13.762 E2.89105
G1 X-8.135 Y14.804 E0.09588
G1 X-30.365 Y-7.426 E2.89105
G1 X-30.365 Y-6.383 E0.09588
G1 X-8.135 Y15.847 E2.89105
G1 X-9.159 Y15.865 E0.09423
G1 X-30.365 Y-5.341 E2.75781
G1 X-30.365 Y-4.298 E0.09588
G1 X-10.202 Y15.865 E2.62221
G1 X-11.245 Y15.865 E0.09588
G1 X-30.365 Y-3.255 E2.48661
G1 X-30.365 Y-2.213 E0.09588
G1 X-12.287 Y15.865 E2.35101
G1 X-13.330 Y15.865 E0.09588
G1 X-30.365 Y-1.170 E2.21540
G1 X-30.365 Y-0.127 E0.09588
G1 X-14.373 Y15.865 E2.07980
G1 X-15.416 Y15.865 E0.09588
G1 X-30.365 Y0.916 E1.94420
G1 X-30.365 Y1.958 E0.09588
G1 X-16.458 Y15.865 E1.80860
G1 X-17.501 Y15.865 E0.09588
G1 X-30.365 Y3.001 E1.67300
G1 X-30.365 Y4.044 E0.09588
G1 X-18.544 Y15.865 E1.53740
G1 X-19.586 Y15.865 E0.09588
G1 X-30.365 Y5.086 E1.40180
G1 X-30.365 Y6.129 E0.09588
G1 X-20.629 Y15.865 E1.26619
G1 X-21.672 Y15.865 E0.09588
G1 X-30.365 Y7.172 E1.13059
G1 X-30.365 Y8.214 E0.09588
G1 X-22.714 Y15.865 E0.99499
G1 X-23.757 Y15.865 E0.09588
G1 X-30.365 Y9.257 E0.85939
G1 X-30.365 Y10.300 E0.09588
G1 X-24.800 Y15.865 E0.72379
G1 X-25.842 Y15.865 E0.09588
G1 X-30.365 Y11.342 E0.58819
G1 X-30.365 Y12.385 E0.09588
G1 X-26.885 Y15.865 E0.45259
G1 X-27.928 Y15.865 E0.09588
G1 X-30.365 Y13.428 E0.31698
G1 X-30.365 Y14.470 E0.09588
G1 X-28.970 Y15.865 E0.18138
G1 X-30.013 Y15.865 E0.09588
G1 X-30.365 Y15.513 E0.04578
G1 X-10.555 Y5.085 F9000.000
G1 X-30.365 Y-14.725 E2.57630 F900.000
G1 X-30.365 Y-15.768 E0.09588
G1 X-11.161 Y3.437 E2.49754
G1 X-11.477 Y2.078 E0.12836
G1 X-29.420 Y-15.865 E2.33345
G1 X-28.377 Y-15.865 E0.09588
G1 X-11.606 Y0.906 E2.18113
G1 X-11.625 Y-0.155 E0.09763
G1 X-27.335 Y-15.865 E2.04308
G1 X-26.292 Y-15.865 E0.09588
G1 X-11.559 Y-1.133 E1.91597
G1 X-11.427 Y-2.043 E0.08457
G1 X-25.249 Y-15.865 E1.79763
G1 X-24.207 Y-15.865 E0.09588
G1 X-11.233 Y-2.891 E1.68728
G1 X-10.984 Y-3.685 E0.07652
G1 X-23.164 Y-15.865 E1.58400
G1 X-22.121 Y-15.865 E0.09588
G1 X-10.693 Y-4.437 E1.48623
G1 X-10.365 Y-5.151 E0.07229
G1 X-21.079 Y-15.865 E1.39335
G1 X-20.036 Y-15.865 E0.09588
G1 X-10.002 Y-5.831 E1.30492
G1 X-9.593 Y-6.465 E0.06936
G1 X-18.993 Y-15.865 E1.22252
G1 X-17.951 Y-15.865 E0.09588
G1 X-9.152 Y-7.066 E1.14427
G1 X-8.682 Y-7.640 E0.06813
G1 X-16.908 Y-15.865 E1.06975
G1 X-15.865 Y-15.865 E0.09588
G1 X-8.181 Y-8.181 E0.99937
G1 X-7.638 Y-8.680 E0.06786
G1 X-14.823 Y-15.865 E0.93437
G1 X-13.780 Y-15.865 E0.09588
G1 X-7.067 Y-9.152 E0.87301
G1 X-6.468 Y-9.596 E0.06856
G1 X-12.737 Y-15.865 E0.81536
G1 X-11.694 Y-15.865 E0.09588
G1 X-5.828 Y-9.999 E0.76295
G1 X-5.150 Y-10.363 E0.07079
G1 X-10.652 Y-15.865 E0.71551
G1 X-9.609 Y-15.865 E0.09588
G1 X-4.438 Y-10.694 E0.67253
G1 X-3.688 Y-10.987 E0.07403
G1 X-8.566 Y-15.865 E0.63445
G1 X-7.524 Y-15.865 E0.09588
G1 X-2.892 Y-11.234 E0.60232
G1 X-2.037 Y-11.422 E0.08048
G1 X-6.481 Y-15.865 E0.57789
G1 X-5.438 Y-15.865 E0.09588
G1 X-1.130 Y-11.557 E0.56030
G1 X-0.153 Y-11.622 E0.09005
G1 X-4.396 Y-15.865 E0.55177
G1 X-3.353 Y-15.865 E0.09588
G1 X0.909 Y-11.603 E0.55431
G1 X2.083 Y-11.472 E0.10858
G1 X-2.310 Y-15.865 E0.57132
G1 X-1.268 Y-15.865 E0.09588
G1 X3.433 Y-11.165 E0.61127
G1 X5.089 Y-10.552 F9000.000
G1 X-0.225 Y-15.865 E0.69104 F900.000
G1 X0.818 Y-15.865 E0.09588
G1 X30.365 Y13.682 E3.84263
G1 X30.365 Y12.640 E0.09588
G1 X1.860 Y-15.865 E3.70703
G1 X2.903 Y-15.865 E0.09588
G1 X30.365 Y11.597 E3.57143
G1 X30.365 Y10.554 E0.09588
G1 X3.946 Y-15.865 E3.43583
G1 X4.989 Y-15.865 E0.09588
G1 X30.365 Y9.511 E3.30022
G1 X30.365 Y8.469 E0.09588
G1 X6.031 Y-15.865 E3.16462
G1 X7.074 Y-15.865 E0.09588
G1 X30.365 Y7.426 E3.02902
G1 X30.365 Y6.383 E0.09588
G1 X8.117 Y-15.865 E2.89342
G1 X9.159 Y-15.865 E0.09588
G1 X30.365 Y5.341 E2.75782
G1 X30.365 Y4.298 E0.09588
G1 X10.202 Y-15.865 E2.62222
G1 X11.245 Y-15.865 E0.09588
G1 X30.365 Y3.255 E2.48662
G1 X30.365 Y2.213 E0.09588
G1 X12.287 Y-15.865 E2.35101
G1 X13.330 Y-15.865 E0.09588
G1 X30.365 Y1.170 E2.21541
G1 X30.365 Y0.127 E0.09588
G1 X14.373 Y-15.865 E2.07981
G1 X15.415 Y-15.865 E0.09588
G1 X30.365 Y-0.915 E1.94421
G1 X30.365 Y-1.958 E0.09588
G1 X16.458 Y-15.865 E1.80861
G1 X17.501 Y-15.865 E0.09588
G1 X30.365 Y-3.001 E1.67301
G1 X30.365 Y-4.044 E0.09588
G1 X18.544 Y-15.865 E1.53741
G1 X19.586 Y-15.865 E0.09588
G1 X30.365 Y-5.086 E1.40180
G1 X30.365 Y-6.129 E0.09588
G1 X20.629 Y-15.865 E1.26620
G1 X21.672 Y-15.865 E0.09588
G1 X30.365 Y-7.172 E1.13060
G1 X30.365 Y-8.214 E0.09588
G1 X22.714 Y-15.865 E0.99500
G1 X23.757 Y-15.865 E0.09588
G1 X30.365 Y-9.257 E0.85940
G1 X30.365 Y-10.300 E0.09588
G1 X24.800 Y-15.865 E0.72380
G1 X25.842 Y-15.865 E0.09588
G1 X30.365 Y-11.342 E0.58820
G1 X30.365 Y-12.385 E0.09588
G1 X26.885 Y-15.865 E0.45259
G1 X27.928 Y-15.865 E0.09588
G1 X30.365 Y-13.428 E0.31699
G1 X30.365 Y-14.470 E0.09588
G1 X28.970 Y-15.865 E0.18139
G1 X30.013 Y-15.865 E0.09588
G1 X30.365 Y-15.513 E0.04579
G1 X10.555 Y-5.086 F9000.000
G1 X30.365 Y14.725 E2.57637 F900.000
G1 X30.365 Y15.768 E0.09588
G1 X11.163 Y-3.434 E2.49721
G1 X11.474 Y-2.081 E0.12767
G1 X29.420 Y15.865 E2.33393
G1 X28.377 Y15.865 E0.09588
G1 X11.604 Y-0.908 E2.18141
G1 X11.623 Y0.153 E0.09764
G1 X27.335 Y15.865 E2.04335
G1 X26.292 Y15.865 E0.09588
G1 X11.558 Y1.131 E1.91614
G1 X11.426 Y2.042 E0.08465
G1 X25.249 Y15.865 E1.79766
G1 X24.207 Y15.865 E0.09588
G1 X11.232 Y2.890 E1.68739
G1 X10.983 Y3.684 E0.07650
G1 X23.164 Y15.865 E1.58416
G1 X22.121 Y15.865 E0.09588
G1 X10.693 Y4.437 E1.48628
G1 X10.366 Y5.153 E0.07239
G1 X21.079 Y15.865 E1.39312
G1 X20.036 Y15.865 E0.09588
G1 X10.000 Y5.829 E1.30520
G1 X9.590 Y6.462 E0.06935
G1 X18.993 Y15.865 E1.22283
G1 X17.951 Y15.865 E0.09588
G1 X9.153 Y7.067 E1.14417
G1 X9.135 Y8.092 E0.09426
G1 X16.908 Y15.865 E1.01088
G1 X15.865 Y15.865 E0.09588
G1 X9.135 Y9.135 E0.87528
G1 X9.135 Y10.178 E0.09588
G1 X14.822 Y15.865 E0.73967
G1 X13.780 Y15.865 E0.09588
G1 X9.135 Y11.220 E0.60407
G1 X9.135 Y12.263 E0.09588
G1 X12.737 Y15.865 E0.46847
G1 X11.694 Y15.865 E0.09588
G1 X9.135 Y13.306 E0.33287
G1 X9.135 Y14.348 E0.09588
G1 X10.652 Y15.865 E0.19727
G1 X9.609 Y15.865 E0.09588
G1 X9.135 Y15.391 E0.06167
G1 E-3.20000 F3000.00000
G1 Z0.700 F9000.000
G1 X-6.298 Y0.303 F9000.000
G1 Z0.300 F9000.000
G1 E3.20000 F3000.00000
G1 X-6.313 Y-0.002 E0.02801 F900.000
G1 X-6.282 Y-0.620 E0.05672
G1 X-6.183 Y-1.274 E0.06072
G1 X-6.023 Y-1.892 E0.05853
G1 X-5.800 Y-2.491 E0.05867
G1 X-5.519 Y-3.065 E0.05867
G1 X-5.180 Y-3.608 E0.05867
G1 X-4.789 Y-4.113 E0.05867
G1 X-4.348 Y-4.577 E0.05867
G1 X-3.863 Y-4.993 E0.05867
G1 X-3.338 Y-5.358 E0.05867
G1 X-2.779 Y-5.668 E0.05867
G1 X-2.191 Y-5.920 E0.05867
G1 X-1.581 Y-6.112 E0.05867
G1 X-0.955 Y-6.240 E0.05867
G1 X-0.319 Y-6.305 E0.05867
G1 X0.321 Y-6.305 E0.05867
G1 X0.957 Y-6.240 E0.05867 F900.000
G1 X1.583 Y-6.111 E0.05867
G1 X2.193 Y-5.920 E0.05867
G1 X2.781 Y-5.667 E0.05867
G1 X3.340 Y-5.357 E0.05867
G1 X3.865 Y-4.992 E0.05867
G1 X4.350 Y-4.575 E0.05867
G1 X4.790 Y-4.112 E0.05867
G1 X5.182 Y-3.606 E0.05867
G1 X5.520 Y-3.063 E0.05867
G1 X5.801 Y-2.489 E0.05867
G1 X6.023 Y-1.890 E0.05867
G1 X6.184 Y-1.271 E0.05867
G1 X6.280 Y-0.639 E0.05867
G1 X6.313 Y-0.000 E0.05867
G1 X6.282 Y0.617 E0.05672
G1 X6.183 Y1.275 E0.06103
G1 X6.022 Y1.894 E0.05863
G1 X5.799 Y2.494 E0.05879
G1 X5.516 Y3.069 E0.05879
G1 X5.177 Y3.613 E0.05879
G1 X4.783 Y4.120 E0.05888
G1 X4.357 Y4.568 E0.05673
G1 X3.871 Y4.987 E0.05889
G1 X3.345 Y5.353 E0.05879
G1 X2.785 Y5.665 E0.05879
G1 X2.196 Y5.918 E0.05882
G1 X1.602 Y6.106 E0.05715
G1 X0.890 Y6.248 E0.06663
G1 X0.364 Y6.302 E0.04855
G1 X-0.364 Y6.302 E0.06677
G1 X-0.890 Y6.248 E0.04855
G1 X-1.603 Y6.106 E0.06664
G1 X-2.195 Y5.919 E0.05700
G1 X-2.783 Y5.666 E0.05870
G1 X-3.342 Y5.356 E0.05867
G1 X-3.866 Y4.990 E0.05867
G1 X-4.351 Y4.574 E0.05867
G1 X-4.792 Y4.110 E0.05867
G1 X-5.183 Y3.604 E0.05867
G1 X-5.521 Y3.061 E0.05867
G1 X-5.802 Y2.487 E0.05867
G1 X-6.024 Y1.888 E0.05867
G1 X-6.184 Y1.268 E0.05867
G1 X-6.281 Y0.636 E0.05867
G1 X-6.294 Y0.362 E0.02517
G1 X-7.029 Y0.399 F9000.000
G1 X-7.049 Y-0.003 E0.03693 F900.000
G1 X-7.014 Y-0.694 E0.06348
G1 X-6.905 Y-1.422 E0.06758
G1 X-6.725 Y-2.112 E0.06546
G1 X-6.477 Y-2.782 E0.06551
G1 X-6.163 Y-3.423 E0.06551
G1 X-5.785 Y-4.029 E0.06551
G1 X-5.348 Y-4.593 E0.06551
G1 X-4.855 Y-5.111 E0.06551
G1 X-4.314 Y-5.576 E0.06551
G1 X-3.727 Y-5.983 E0.06551
G1 X-3.103 Y-6.330 E0.06551
G1 X-2.447 Y-6.611 E0.06551
G1 X-1.766 Y-6.825 E0.06551
G1 X-1.066 Y-6.968 E0.06551
G1 X-0.356 Y-7.040 E0.06551
G1 X0.358 Y-7.040 E0.06551
G1 X1.069 Y-6.968 E0.06551 F900.000
G1 X1.768 Y-6.824 E0.06551
G1 X2.449 Y-6.610 E0.06551
G1 X3.105 Y-6.329 E0.06551
G1 X3.730 Y-5.982 E0.06551
G1 X4.316 Y-5.574 E0.06551
G1 X4.857 Y-5.109 E0.06551
G1 X5.349 Y-4.591 E0.06551
G1 X5.786 Y-4.027 E0.06551
G1 X6.164 Y-3.421 E0.06551
G1 X6.478 Y-2.780 E0.06551
G1 X6.726 Y-2.110 E0.06551
G1 X6.905 Y-1.419 E0.06551
G1 X7.013 Y-0.713 E0.06551
G1 X7.049 Y-0.000 E0.06551
G1 X7.014 Y0.691 E0.06347
G1 X6.904 Y1.423 E0.06790
G1 X6.725 Y2.115 E0.06560
G1 X6.476 Y2.786 E0.06566
G1 X6.160 Y3.428 E0.06565
G1 X5.781 Y4.034 E0.06565
G1 X5.342 Y4.600 E0.06569
G1 X4.865 Y5.101 E0.06347
G1 X4.322 Y5.568 E0.06569
G1 X3.736 Y5.978 E0.06565
G1 X3.110 Y6.326 E0.06565
G1 X2.453 Y6.609 E0.06565
G1 X1.786 Y6.819 E0.06421
G1 X1.000 Y6.976 E0.07353
G1 X0.401 Y7.037 E0.05521
G1 X-0.401 Y7.037 E0.07361
G1 X-1.000 Y6.976 E0.05521
G1 X-1.786 Y6.819 E0.07353
G1 X-2.452 Y6.609 E0.06405
G1 X-3.108 Y6.328 E0.06551
G1 X-3.732 Y5.981 E0.06551
G1 X-4.318 Y5.573 E0.06551
G1 X-4.859 Y5.107 E0.06551
G1 X-5.351 Y4.589 E0.06551
G1 X-5.788 Y4.025 E0.06551
G1 X-6.165 Y3.419 E0.06551
G1 X-6.479 Y2.777 E0.06551
G1 X-6.727 Y2.108 E0.06551
G1 X-6.906 Y1.416 E0.06551
G1 X-7.014 Y0.711 E0.06551
G1 X-7.026 Y0.459 E0.02308
G1 X-6.693 Y0.182 F9000.000
G1 X-5.666 Y1.302 F9000.000
G1 X-1.293 Y5.675 E0.58474 F900.000
G1 X-0.043 Y5.852 E0.11927
G1 X-5.853 Y0.043 E0.77672
G1 X-5.796 Y-0.972 E0.09613
G1 X0.977 Y5.801 E0.90554
G1 X1.847 Y5.599 E0.08446
G1 X-5.604 Y-1.852 E0.99628
G1 X-5.297 Y-2.617 E0.07792
G1 X2.620 Y5.300 E1.05859
G1 X3.302 Y4.910 E0.07427
G1 X-4.911 Y-3.303 E1.09810
G1 X-4.444 Y-3.908 E0.07226
G1 X3.908 Y4.444 E1.11667
G1 X4.444 Y3.908 E0.07166
G1 X-3.908 Y-4.444 E1.11667
G1 X-3.302 Y-4.910 E0.07226
G1 X4.910 Y3.302 E1.09807
G1 X5.297 Y2.617 E0.07439
G1 X-2.621 Y-5.301 E1.05862
G1 X-1.847 Y-5.599 E0.07839
G1 X5.604 Y1.852 E0.99624
G1 X5.796 Y0.972 E0.08518
G1 X-0.978 Y-5.801 E0.90561
G1 X0.040 Y-5.856 E0.09637
G1 X5.853 Y-0.043 E0.77714
G1 X5.666 Y-1.302 E0.12030
G1 X1.293 Y-5.675 E0.58470
G1 X3.576 Y-4.464 F9000.000
G1 X4.512 Y-3.528 E0.12520 F900.000
G1 X-3.577 Y4.463 F9000.000
G1 X-4.512 Y3.527 E0.12514 F900.000
G1 E-3.20000 F3000.00000
G1 Z0.700 F9000.000
G1 X-10.672 Y-16.764 F9000.000
