; generated by Slic3r 1.2.9 on 2016-10-31 at 11:22:40

; external perimeters extrusion width = 0.50mm
; perimeters extrusion width = 0.50mm
; infill extrusion width = 0.50mm
; solid infill extrusion width = 0.50mm
; top infill extrusion width = 0.50mm

M107
;Basic settings: Layer height: {layer_height} Walls: {wall_thickness} Fill: {fill_density}
;Print time: {print_time}
;Filament used: {filament_amount}m {filament_weight}g
;Filament cost: {filament_cost}
;M190 S{print_bed_temperature} ;Uncomment to add your own bed temperature line
;M109 S{print_temperature} ;Uncomment to add your own temperature line
G21        ;metric values
G90        ;absolute positioning
M83
G10 P0 S200
T0
M116


G21 ; set units to millimeters
G90 ; use absolute coordinates
M83 ; use relative distances for extrusion
G1 E-3.20000 F3000.00000
G1 Z0.400 F9000.000
G1 X0.000 Y21.186 F9000.000
G1 Z0.300 F9000.000
G1 E3.20000 F3000.00000
G1 X-31.950 Y21.186 E2.93143 F1200.000
G1 X-33.621 Y20.791 E0.15755
G1 X-34.939 Y19.690 E0.15755
G1 X-35.686 Y17.450 E0.21667
G1 X-35.686 Y-17.450 E3.20209
G1 X-35.291 Y-19.121 E0.15755
G1 X-34.190 Y-20.439 E0.15755
G1 X-31.950 Y-21.186 E0.21667
G1 X31.950 Y-21.186 E5.86286
G1 X33.621 Y-20.791 E0.15755
G1 X34.939 Y-19.690 E0.15755 F1200.000
G1 X35.686 Y-17.450 E0.21667
G1 X35.686 Y17.450 E3.20209
G1 X35.291 Y19.121 E0.15755
G1 X34.190 Y20.439 E0.15755
G1 X31.950 Y21.186 E0.21667
G1 X0.060 Y21.186 E2.92592
G1 E-3.20000 F3000.00000
G1 Z0.700 F9000.000
G1 X-30.814 Y-5.265 F9000.000
G1 Z0.300 F9000.000
G1 E3.20000 F3000.00000
G1 X-30.814 Y-16.314 E1.01378 F900.000
G1 X30.814 Y-16.314 E5.65447
G1 X30.814 Y16.314 E2.99371
G1 X8.186 Y16.314 E2.07620 F900.000
G1 X8.186 Y7.605 E0.79907
G1 X8.585 Y7.172 E0.05405
G1 X9.255 Y6.285 E0.10201
G1 X9.833 Y5.335 E0.10201
G1 X10.314 Y4.333 E0.10201
G1 X10.693 Y3.288 E0.10201
G1 X10.967 Y2.210 E0.10201
G1 X11.132 Y1.110 E0.10201
G1 X11.187 Y0.003 E0.10171
G1 X11.143 Y-0.988 E0.09106
G1 X11.012 Y-1.969 E0.09076
G1 X10.795 Y-2.934 E0.09076
G1 X10.494 Y-3.876 E0.09076
G1 X10.110 Y-4.788 E0.09076
G1 X9.648 Y-5.662 E0.09076
G1 X9.110 Y-6.492 E0.09076
G1 X8.501 Y-7.272 E0.09076
G1 X7.825 Y-7.994 E0.09076
G1 X7.088 Y-8.654 E0.09076
G1 X6.296 Y-9.247 E0.09076
G1 X5.455 Y-9.767 E0.09076
G1 X4.573 Y-10.209 E0.09051
G1 X3.697 Y-10.560 E0.08657
G1 X2.702 Y-10.855 E0.09522
G1 X1.733 Y-11.052 E0.09076
G1 X0.750 Y-11.162 E0.09076
G1 X-0.239 Y-11.184 E0.09076
G1 X-1.226 Y-11.119 E0.09076
G1 X-2.204 Y-10.968 E0.09076
G1 X-3.164 Y-10.730 E0.09076
G1 X-4.099 Y-10.409 E0.09076
G1 X-5.003 Y-10.006 E0.09076
G1 X-5.867 Y-9.525 E0.09076
G1 X-6.686 Y-8.969 E0.09076
G1 X-7.452 Y-8.343 E0.09076
G1 X-8.160 Y-7.653 E0.09076
G1 X-8.804 Y-6.902 E0.09076
G1 X-9.379 Y-6.097 E0.09076
G1 X-9.881 Y-5.245 E0.09076
G1 X-10.306 Y-4.351 E0.09076
G1 X-10.650 Y-3.424 E0.09076
G1 X-10.911 Y-2.470 E0.09076
G1 X-11.086 Y-1.496 E0.09076
G1 X-11.175 Y-0.511 E0.09076
G1 X-11.177 Y0.478 E0.09076
G1 X-11.091 Y1.464 E0.09076
G1 X-10.918 Y2.438 E0.09076
G1 X-10.660 Y3.393 E0.09076
G1 X-10.319 Y4.321 E0.09076
G1 X-9.897 Y5.216 E0.09076
G1 X-9.397 Y6.069 E0.09076
G1 X-8.824 Y6.876 E0.09076
G1 X-8.182 Y7.629 E0.09076
G1 X-7.476 Y8.321 E0.09076
G1 X-7.186 Y8.560 E0.03453
G1 X-7.186 Y16.314 E0.71143
G1 X-30.814 Y16.314 E2.16795
G1 X-30.814 Y-5.205 E1.97442
G1 X-31.550 Y-5.205 F9000.000
G1 X-31.550 Y-17.050 E1.08678 F900.000
G1 X31.550 Y-17.050 E5.78946
G1 X31.550 Y17.050 E3.12869
G1 X7.450 Y17.050 E2.21119 F900.000
G1 X7.450 Y7.317 E0.89297
G1 X8.020 Y6.700 E0.07709
G1 X8.646 Y5.871 E0.09529
G1 X9.186 Y4.984 E0.09529
G1 X9.635 Y4.047 E0.09529
G1 X9.989 Y3.071 E0.09529
G1 X10.245 Y2.064 E0.09529
G1 X10.399 Y1.037 E0.09529
G1 X10.450 Y0.001 E0.09518
G1 X10.410 Y-0.923 E0.08490
G1 X10.287 Y-1.839 E0.08479
G1 X10.085 Y-2.741 E0.08479
G1 X9.803 Y-3.621 E0.08479
G1 X9.445 Y-4.473 E0.08478
G1 X9.013 Y-5.290 E0.08479
G1 X8.510 Y-6.065 E0.08478
G1 X7.941 Y-6.793 E0.08479
G1 X7.310 Y-7.468 E0.08478
G1 X6.622 Y-8.085 E0.08479
G1 X5.882 Y-8.638 E0.08478
G1 X5.096 Y-9.124 E0.08479
G1 X4.271 Y-9.538 E0.08470
G1 X3.455 Y-9.865 E0.08060
G1 X2.525 Y-10.141 E0.08908
G1 X1.619 Y-10.324 E0.08479
G1 X0.700 Y-10.427 E0.08478
G1 X-0.223 Y-10.448 E0.08479
G1 X-1.145 Y-10.387 E0.08478
G1 X-2.059 Y-10.246 E0.08479
G1 X-2.956 Y-10.024 E0.08479
G1 X-3.830 Y-9.723 E0.08479
G1 X-4.674 Y-9.347 E0.08479
G1 X-5.481 Y-8.898 E0.08479
G1 X-6.246 Y-8.379 E0.08479
G1 X-6.961 Y-7.794 E0.08479
G1 X-7.623 Y-7.149 E0.08479
G1 X-8.224 Y-6.448 E0.08478
G1 X-8.762 Y-5.696 E0.08479
G1 X-9.231 Y-4.900 E0.08478
G1 X-9.627 Y-4.065 E0.08479
G1 X-9.949 Y-3.199 E0.08479
G1 X-10.193 Y-2.307 E0.08479
G1 X-10.357 Y-1.398 E0.08479
G1 X-10.440 Y-0.477 E0.08478
G1 X-10.441 Y0.447 E0.08479
G1 X-10.361 Y1.367 E0.08479
G1 X-10.199 Y2.277 E0.08478
G1 X-9.958 Y3.169 E0.08479
G1 X-9.639 Y4.037 E0.08478
G1 X-9.245 Y4.872 E0.08479
G1 X-8.779 Y5.670 E0.08479
G1 X-8.243 Y6.423 E0.08478
G1 X-7.644 Y7.126 E0.08478
G1 X-6.984 Y7.774 E0.08478
G1 X-6.450 Y8.213 E0.06344
G1 X-6.450 Y17.050 E0.81083
G1 X-31.550 Y17.050 E2.30294
G1 X-31.550 Y-5.145 E2.03641
G1 X-31.204 Y-5.405 F9000.000
G1 X-30.365 Y15.513 F9000.000
G1 X-30.013 Y15.865 E0.04578 F900.000
G1 X-28.970 Y15.865 E0.09588
G1 X-30.365 Y14.470 E0.18138
G1 X-30.365 Y13.428 E0.09588
G1 X-27.928 Y15.865 E0.31698
G1 X-26.885 Y15.865 E0.09588
G1 X-30.365 Y12.385 E0.45259
G1 X-30.365 Y11.342 E0.09588
G1 X-25.842 Y15.865 E0.58819
G1 X-24.800 Y15.865 E0.09588
G1 X-30.365 Y10.300 E0.72379
G1 X-30.365 Y9.257 E0.09588
G1 X-23.757 Y15.865 E0.85939
G1 X-22.714 Y15.865 E0.09588
G1 X-30.365 Y8.214 E0.99499
G1 X-30.365 Y7.172 E0.09588
G1 X-21.672 Y15.865 E1.13059
G1 X-20.629 Y15.865 E0.09588
G1 X-30.365 Y6.129 E1.26619
G1 X-30.365 Y5.086 E0.09588
G1 X-19.586 Y15.865 E1.40180
G1 X-18.544 Y15.865 E0.09588
G1 X-30.365 Y4.044 E1.53740
G1 X-30.365 Y3.001 E0.09588
G1 X-17.501 Y15.865 E1.67300
G1 X-16.458 Y15.865 E0.09588
G1 X-30.365 Y1.958 E1.80860
G1 X-30.365 Y0.916 E0.09588
G1 X-15.416 Y15.865 E1.94420
G1 X-14.373 Y15.865 E0.09588
G1 X-30.365 Y-0.127 E2.07980
G1 X-30.365 Y-1.170 E0.09588
G1 X-13.330 Y15.865 E2.21540
G1 X-12.287 Y15.865 E0.09588
G1 X-30.365 Y-2.213 E2.35101
G1 X-30.365 Y-3.255 E0.09588
G1 X-11.245 Y15.865 E2.48661
G1 X-10.202 Y15.865 E0.09588
G1 X-30.365 Y-4.298 E2.62221
G1 X-30.365 Y-5.341 E0.09588
G1 X-9.159 Y15.865 E2.75781
G1 X-8.117 Y15.865 E0.09588
G1 X-30.365 Y-6.383 E2.89341
G1 X-30.365 Y-7.426 E0.09588
G1 X-7.635 Y15.304 E2.95608
G1 X-7.635 Y14.262 E0.09588
G1 X-30.365 Y-8.469 E2.95608
G1 X-30.365 Y-9.511 E0.09588
G1 X-7.635 Y13.219 E2.95608
G1 X-7.635 Y12.176 E0.09588
G1 X-30.365 Y-10.554 E2.95608
G1 X-30.365 Y-11.597 E0.09588
G1 X-7.635 Y11.134 E2.95608
G1 X-7.635 Y10.091 E0.09588
G1 X-30.365 Y-12.639 E2.95608
G1 X-30.365 Y-13.682 E0.09588
G1 X-7.635 Y9.048 E2.95608
G1 X-10.536 Y5.105 F9000.000
G1 X-30.365 Y-14.725 E2.57882 F900.000
G1 X-30.365 Y-15.768 E0.09588
G1 X-11.161 Y3.437 E2.49748
G1 X-11.466 Y2.089 E0.12706
G1 X-29.420 Y-15.865 E2.33492
G1 X-28.377 Y-15.865 E0.09588
G1 X-11.604 Y0.908 E2.18136
G1 X-11.625 Y-0.155 E0.09778
G1 X-27.335 Y-15.865 E2.04310
G1 X-26.292 Y-15.865 E0.09588
G1 X-11.557 Y-1.130 E1.91631
G1 X-11.420 Y-2.036 E0.08423
G1 X-25.249 Y-15.865 E1.79853
G1 X-24.207 Y-15.865 E0.09588
G1 X-11.226 Y-2.885 E1.68812
G1 X-10.984 Y-3.686 E0.07694
G1 X-23.164 Y-15.865 E1.58395
G1 X-22.121 Y-15.865 E0.09588
G1 X-10.701 Y-4.445 E1.48518
G1 X-10.365 Y-5.152 E0.07196
G1 X-21.079 Y-15.865 E1.39327
G1 X-20.036 Y-15.865 E0.09588
G1 X-9.995 Y-5.824 E1.30588
G1 X-9.593 Y-6.465 E0.06956
G1 X-18.993 Y-15.865 E1.22253
G1 X-17.951 Y-15.865 E0.09588
G1 X-9.158 Y-7.073 E1.14345
G1 X-8.680 Y-7.638 E0.06804
G1 X-16.908 Y-15.865 E1.07000
G1 X-15.865 Y-15.865 E0.09588
G1 X-8.175 Y-8.175 E1.00010
G1 X-7.643 Y-8.685 E0.06782
G1 X-14.823 Y-15.865 E0.93372
G1 X-13.780 Y-15.865 E0.09588
G1 X-7.069 Y-9.154 E0.87276
G1 X-6.462 Y-9.590 E0.06870
G1 X-12.737 Y-15.865 E0.81604
G1 X-11.694 Y-15.865 E0.09588
G1 X-5.826 Y-9.997 E0.76313
G1 X-5.157 Y-10.370 E0.07050
G1 X-10.652 Y-15.865 E0.71465
G1 X-9.609 Y-15.865 E0.09588
G1 X-4.438 Y-10.695 E0.67244
G1 X-3.683 Y-10.982 E0.07431
G1 X-8.566 Y-15.865 E0.63506
G1 X-7.524 Y-15.865 E0.09588
G1 X-2.886 Y-11.228 E0.60311
G1 X-2.041 Y-11.425 E0.07982
G1 X-6.481 Y-15.865 E0.57743
G1 X-5.438 Y-15.865 E0.09588
G1 X-1.138 Y-11.565 E0.55921
G1 X-0.160 Y-11.630 E0.09015
G1 X-4.396 Y-15.865 E0.55083
G1 X-3.353 Y-15.865 E0.09588
G1 X0.901 Y-11.611 E0.55324
G1 X2.080 Y-11.474 E0.10917
G1 X-2.310 Y-15.865 E0.57101
G1 X-1.268 Y-15.865 E0.09588
G1 X3.439 Y-11.159 E0.61209
G1 X5.092 Y-10.548 F9000.000
G1 X-0.225 Y-15.865 E0.69147 F900.000
G1 X0.818 Y-15.865 E0.09588
G1 X30.365 Y13.682 E3.84263
G1 X30.365 Y12.640 E0.09588
G1 X1.860 Y-15.865 E3.70703
G1 X2.903 Y-15.865 E0.09588
G1 X30.365 Y11.597 E3.57143
G1 X30.365 Y10.554 E0.09588
G1 X3.946 Y-15.865 E3.43583
G1 X4.989 Y-15.865 E0.09588
G1 X30.365 Y9.511 E3.30022
G1 X30.365 Y8.469 E0.09588
G1 X6.031 Y-15.865 E3.16462
G1 X7.074 Y-15.865 E0.09588
G1 X30.365 Y7.426 E3.02902
G1 X30.365 Y6.383 E0.09588
G1 X8.117 Y-15.865 E2.89342
G1 X9.159 Y-15.865 E0.09588
G1 X30.365 Y5.341 E2.75782
G1 X30.365 Y4.298 E0.09588
G1 X10.202 Y-15.865 E2.62222
G1 X11.245 Y-15.865 E0.09588
G1 X30.365 Y3.255 E2.48662
G1 X30.365 Y2.213 E0.09588
G1 X12.287 Y-15.865 E2.35101
G1 X13.330 Y-15.865 E0.09588
G1 X30.365 Y1.170 E2.21541
G1 X30.365 Y0.127 E0.09588
G1 X14.373 Y-15.865 E2.07981
G1 X15.415 Y-15.865 E0.09588
G1 X30.365 Y-0.915 E1.94421
G1 X30.365 Y-1.958 E0.09588
G1 X16.458 Y-15.865 E1.80861
G1 X17.501 Y-15.865 E0.09588
G1 X30.365 Y-3.001 E1.67301
G1 X30.365 Y-4.044 E0.09588
G1 X18.544 Y-15.865 E1.53741
G1 X19.586 Y-15.865 E0.09588
G1 X30.365 Y-5.086 E1.40180
G1 X30.365 Y-6.129 E0.09588
G1 X20.629 Y-15.865 E1.26620
G1 X21.672 Y-15.865 E0.09588
G1 X30.365 Y-7.172 E1.13060
G1 X30.365 Y-8.214 E0.09588
G1 X22.714 Y-15.865 E0.99500
G1 X23.757 Y-15.865 E0.09588
G1 X30.365 Y-9.257 E0.85940
G1 X30.365 Y-10.300 E0.09588
G1 X24.800 Y-15.865 E0.72380
G1 X25.842 Y-15.865 E0.09588
G1 X30.365 Y-11.342 E0.58820
G1 X30.365 Y-12.385 E0.09588
G1 X26.885 Y-15.865 E0.45259
G1 X27.928 Y-15.865 E0.09588
G1 X30.365 Y-13.428 E0.31699
G1 X30.365 Y-14.470 E0.09588
G1 X28.970 Y-15.865 E0.18139
G1 X30.013 Y-15.865 E0.09588
G1 X30.365 Y-15.513 E0.04579
G1 X10.549 Y-5.091 F9000.000
G1 X30.365 Y14.725 E2.57709 F900.000
G1 X30.365 Y15.768 E0.09588
G1 X11.165 Y-3.433 E2.49698
G1 X11.472 Y-2.083 E0.12733
G1 X29.420 Y15.865 E2.33409
G1 X28.377 Y15.865 E0.09588
G1 X11.603 Y-0.909 E2.18147
G1 X11.622 Y0.152 E0.09760
G1 X27.335 Y15.865 E2.04347
G1 X26.292 Y15.865 E0.09588
G1 X11.561 Y1.134 E1.91579
G1 X11.425 Y2.040 E0.08430
G1 X25.249 Y15.865 E1.79790
G1 X24.207 Y15.865 E0.09588
G1 X11.225 Y2.883 E1.68832
G1 X10.981 Y3.682 E0.07683
G1 X23.164 Y15.865 E1.58438
G1 X22.121 Y15.865 E0.09588
G1 X10.701 Y4.445 E1.48524
G1 X10.363 Y5.149 E0.07187
G1 X21.079 Y15.865 E1.39361
G1 X20.036 Y15.865 E0.09588
G1 X9.994 Y5.823 E1.30600
G1 X9.599 Y6.471 E0.06977
G1 X18.993 Y15.865 E1.22173
G1 X17.951 Y15.865 E0.09588
G1 X9.151 Y7.065 E1.14443
G1 X8.680 Y7.637 E0.06812
G1 X16.908 Y15.865 E1.07005
G1 X15.865 Y15.865 E0.09588
G1 X8.635 Y8.635 E0.94030
G1 X8.635 Y9.678 E0.09588
G1 X14.822 Y15.865 E0.80470
G1 X13.780 Y15.865 E0.09588
G1 X8.635 Y10.720 E0.66910
G1 X8.635 Y11.763 E0.09588
G1 X12.737 Y15.865 E0.53350
G1 X11.694 Y15.865 E0.09588
G1 X8.635 Y12.806 E0.39790
G1 X8.635 Y13.848 E0.09588
G1 X10.652 Y15.865 E0.26229
G1 X9.609 Y15.865 E0.09588
G1 X8.635 Y14.891 E0.12669
G1 E-3.20000 F3000.00000
G1 Z0.700 F9000.000
G1 X-3.589 Y5.184 F9000.000
G1 Z0.300 F9000.000
G1 E3.20000 F3000.00000
G1 X-3.866 Y4.990 E0.03104 F900.000
G1 X-4.351 Y4.574 E0.05867
G1 X-4.792 Y4.110 E0.05867
G1 X-5.183 Y3.604 E0.05867
G1 X-5.521 Y3.061 E0.05867
G1 X-5.802 Y2.487 E0.05867
G1 X-6.024 Y1.888 E0.05867
G1 X-6.184 Y1.268 E0.05867
G1 X-6.281 Y0.636 E0.05867
G1 X-6.313 Y-0.002 E0.05868
G1 X-6.282 Y-0.620 E0.05672
G1 X-6.183 Y-1.274 E0.06072
G1 X-6.023 Y-1.892 E0.05853
G1 X-5.800 Y-2.491 E0.05867
G1 X-5.519 Y-3.065 E0.05867
G1 X-5.180 Y-3.608 E0.05867
G1 X-4.789 Y-4.113 E0.05867
G1 X-4.348 Y-4.577 E0.05867
G1 X-3.863 Y-4.993 E0.05867
G1 X-3.338 Y-5.358 E0.05867
G1 X-2.779 Y-5.668 E0.05867
G1 X-2.191 Y-5.920 E0.05867
G1 X-1.581 Y-6.112 E0.05867
G1 X-0.955 Y-6.240 E0.05867
G1 X-0.319 Y-6.305 E0.05867
G1 X0.321 Y-6.305 E0.05867
G1 X0.957 Y-6.240 E0.05867 F900.000
G1 X1.583 Y-6.111 E0.05867
G1 X2.193 Y-5.920 E0.05867
G1 X2.781 Y-5.667 E0.05867
G1 X3.340 Y-5.357 E0.05867
G1 X3.865 Y-4.992 E0.05867
G1 X4.350 Y-4.575 E0.05867
G1 X4.790 Y-4.112 E0.05867
G1 X5.182 Y-3.606 E0.05867
G1 X5.520 Y-3.063 E0.05867
G1 X5.801 Y-2.489 E0.05867
G1 X6.023 Y-1.890 E0.05867
G1 X6.184 Y-1.271 E0.05867
G1 X6.280 Y-0.639 E0.05867
G1 X6.313 Y-0.000 E0.05867
G1 X6.282 Y0.617 E0.05672
G1 X6.183 Y1.275 E0.06103
G1 X6.022 Y1.894 E0.05863
G1 X5.799 Y2.494 E0.05879
G1 X5.516 Y3.069 E0.05879
G1 X5.177 Y3.613 E0.05879
G1 X4.783 Y4.120 E0.05888
G1 X4.357 Y4.568 E0.05673
G1 X3.871 Y4.987 E0.05889
G1 X3.345 Y5.353 E0.05879
G1 X2.785 Y5.665 E0.05879
G1 X2.196 Y5.918 E0.05882
G1 X1.602 Y6.106 E0.05715
G1 X0.890 Y6.248 E0.06663
G1 X0.364 Y6.302 E0.04855
G1 X-0.364 Y6.302 E0.06677
G1 X-0.890 Y6.248 E0.04855
G1 X-1.603 Y6.106 E0.06664
G1 X-2.195 Y5.919 E0.05700
G1 X-2.783 Y5.666 E0.05870
G1 X-3.342 Y5.356 E0.05867
G1 X-3.540 Y5.218 E0.02212
G1 X-3.960 Y5.822 F9000.000
G1 X-4.318 Y5.573 E0.03997 F900.000
G1 X-4.859 Y5.107 E0.06551
G1 X-5.351 Y4.589 E0.06551
G1 X-5.788 Y4.025 E0.06551
G1 X-6.165 Y3.419 E0.06551
G1 X-6.479 Y2.777 E0.06551
G1 X-6.727 Y2.108 E0.06551
G1 X-6.906 Y1.416 E0.06551
G1 X-7.014 Y0.711 E0.06551
G1 X-7.049 Y-0.003 E0.06552
G1 X-7.014 Y-0.694 E0.06348
G1 X-6.905 Y-1.422 E0.06758
G1 X-6.725 Y-2.112 E0.06546
G1 X-6.477 Y-2.782 E0.06551
G1 X-6.163 Y-3.423 E0.06551
G1 X-5.785 Y-4.029 E0.06551
G1 X-5.348 Y-4.593 E0.06551
G1 X-4.855 Y-5.111 E0.06551
G1 X-4.314 Y-5.576 E0.06551
G1 X-3.727 Y-5.983 E0.06551
G1 X-3.103 Y-6.330 E0.06551
G1 X-2.447 Y-6.611 E0.06551
G1 X-1.766 Y-6.825 E0.06551
G1 X-1.066 Y-6.968 E0.06551
G1 X-0.356 Y-7.040 E0.06551
G1 X0.358 Y-7.040 E0.06551
G1 X1.069 Y-6.968 E0.06551 F900.000
G1 X1.768 Y-6.824 E0.06551
G1 X2.449 Y-6.610 E0.06551
G1 X3.105 Y-6.329 E0.06551
G1 X3.730 Y-5.982 E0.06551
G1 X4.316 Y-5.574 E0.06551
G1 X4.857 Y-5.109 E0.06551
G1 X5.349 Y-4.591 E0.06551
G1 X5.786 Y-4.027 E0.06551
G1 X6.164 Y-3.421 E0.06551
G1 X6.478 Y-2.780 E0.06551
G1 X6.726 Y-2.110 E0.06551
G1 X6.905 Y-1.419 E0.06551
G1 X7.013 Y-0.713 E0.06551
G1 X7.049 Y-0.000 E0.06551
G1 X7.014 Y0.691 E0.06347
G1 X6.904 Y1.423 E0.06790
G1 X6.725 Y2.115 E0.06560
G1 X6.476 Y2.786 E0.06566
G1 X6.160 Y3.428 E0.06565
G1 X5.781 Y4.034 E0.06565
G1 X5.342 Y4.600 E0.06569
G1 X4.865 Y5.101 E0.06347
G1 X4.322 Y5.568 E0.06569
G1 X3.736 Y5.978 E0.06565
G1 X3.110 Y6.326 E0.06565
G1 X2.453 Y6.609 E0.06565
G1 X1.786 Y6.819 E0.06421
G1 X1.000 Y6.976 E0.07353
G1 X0.401 Y7.037 E0.05521
G1 X-0.401 Y7.037 E0.07361
G1 X-1.000 Y6.976 E0.05521
G1 X-1.786 Y6.819 E0.07353
G1 X-2.452 Y6.609 E0.06405
G1 X-3.108 Y6.328 E0.06551
G1 X-3.732 Y5.981 E0.06551
G1 X-3.911 Y5.856 E0.02004
G1 X-3.926 Y5.423 F9000.000
G1 X-3.577 Y4.463 F9000.000
G1 X-4.512 Y3.527 E0.12514 F900.000
G1 X-5.666 Y1.302 F9000.000
G1 X-1.293 Y5.675 E0.58474 F900.000
G1 X-0.043 Y5.852 E0.11927
G1 X-5.853 Y0.043 E0.77672
G1 X-5.796 Y-0.972 E0.09613
G1 X0.977 Y5.801 E0.90554
G1 X1.847 Y5.599 E0.08446
G1 X-5.604 Y-1.852 E0.99628
G1 X-5.297 Y-2.617 E0.07792
G1 X2.620 Y5.300 E1.05859
G1 X3.302 Y4.910 E0.07427
G1 X-4.911 Y-3.303 E1.09810
G1 X-4.444 Y-3.908 E0.07226
G1 X3.908 Y4.444 E1.11667
G1 X4.444 Y3.908 E0.07166
G1 X-3.908 Y-4.444 E1.11667
G1 X-3.302 Y-4.910 E0.07226
G1 X4.910 Y3.302 E1.09807
G1 X5.297 Y2.617 E0.07439
G1 X-2.621 Y-5.301 E1.05862
G1 X-1.847 Y-5.599 E0.07839
G1 X5.604 Y1.852 E0.99624
G1 X5.796 Y0.972 E0.08518
G1 X-0.978 Y-5.801 E0.90561
G1 X0.040 Y-5.856 E0.09637
G1 X5.853 Y-0.043 E0.77714
G1 X5.666 Y-1.302 E0.12030
G1 X1.293 Y-5.675 E0.58470
G1 X3.576 Y-4.464 F9000.000
G1 X4.512 Y-3.528 E0.12520 F900.000
G1 E-3.20000 F3000.00000
G1 Z0.700 F9000.000
