; generated by Slic3r 1.2.9 on 2016-10-31 at 12:29:38

; external perimeters extrusion width = 0.50mm
; perimeters extrusion width = 0.50mm
; infill extrusion width = 0.50mm
; solid infill extrusion width = 0.50mm
; top infill extrusion width = 0.50mm

M107
;Basic settings: Layer height: {layer_height} Walls: {wall_thickness} Fill: {fill_density}
;Print time: {print_time}
;Filament used: {filament_amount}m {filament_weight}g
;Filament cost: {filament_cost}
;M190 S{print_bed_temperature} ;Uncomment to add your own bed temperature line
;M109 S{print_temperature} ;Uncomment to add your own temperature line
G21        ;metric values
G90        ;absolute positioning
M83
G10 P0 S200
T0
M116


G21 ; set units to millimeters
G90 ; use absolute coordinates
M83 ; use relative distances for extrusion
G1 E-3.20000 F3000.00000
G1 Z0.400 F9000.000
G1 X0.000 Y18.186 F9000.000
G1 Z0.300 F9000.000
G1 E3.20000 F3000.00000
G1 X-27.950 Y18.186 E2.56443 F1200.000
G1 X-29.621 Y17.791 E0.15755
G1 X-30.939 Y16.690 E0.15755
G1 X-31.686 Y14.450 E0.21667
G1 X-31.686 Y-14.450 E2.65159
G1 X-31.291 Y-16.121 E0.15755
G1 X-30.190 Y-17.439 E0.15755
G1 X-27.950 Y-18.186 E0.21667
G1 X27.950 Y-18.186 E5.12885
G1 X29.621 Y-17.791 E0.15755
G1 X30.939 Y-16.690 E0.15755 F1200.000
G1 X31.686 Y-14.450 E0.21667
G1 X31.686 Y14.450 E2.65159
G1 X31.291 Y16.121 E0.15755
G1 X30.190 Y17.439 E0.15755
G1 X27.950 Y18.186 E0.21667
G1 X0.060 Y18.186 E2.55892
G1 E-3.20000 F3000.00000
G1 Z0.700 F9000.000
G1 X7.464 Y7.831 F9000.000
G1 Z0.300 F9000.000
G1 E3.20000 F3000.00000
G1 X6.811 Y7.289 E0.07786 F900.000
G1 X6.211 Y6.689 E0.07786
G1 X5.669 Y6.036 E0.07786
G1 X5.189 Y5.336 E0.07786
G1 X4.776 Y4.595 E0.07786
G1 X4.433 Y3.819 E0.07786
G1 X4.164 Y3.014 E0.07786
G1 X3.970 Y2.188 E0.07786
G1 X3.852 Y1.348 E0.07786
G1 X3.813 Y0.500 E0.07786
G1 X3.852 Y-0.348 E0.07786
G1 X3.970 Y-1.188 E0.07786
G1 X4.164 Y-2.014 E0.07786
G1 X4.433 Y-2.819 E0.07786
G1 X4.776 Y-3.595 E0.07786
G1 X5.189 Y-4.336 E0.07786
G1 X5.669 Y-5.036 E0.07786
G1 X6.211 Y-5.689 E0.07786
G1 X6.811 Y-6.289 E0.07786
G1 X7.464 Y-6.831 E0.07786
G1 X8.164 Y-7.311 E0.07786
G1 X8.905 Y-7.724 E0.07786
G1 X9.681 Y-8.067 E0.07786
G1 X10.486 Y-8.336 E0.07786
G1 X11.312 Y-8.530 E0.07786
G1 X12.152 Y-8.648 E0.07786
G1 X12.939 Y-8.684 E0.07221 F900.000
G1 X13.844 Y-8.648 E0.08313
G1 X14.688 Y-8.530 E0.07820
G1 X15.514 Y-8.336 E0.07786
G1 X16.319 Y-8.067 E0.07786
G1 X17.095 Y-7.724 E0.07786
G1 X17.836 Y-7.311 E0.07786
G1 X18.536 Y-6.831 E0.07786
G1 X19.189 Y-6.289 E0.07786
G1 X19.789 Y-5.689 E0.07786
G1 X20.331 Y-5.036 E0.07786
G1 X20.811 Y-4.336 E0.07786
G1 X21.224 Y-3.595 E0.07786
G1 X21.567 Y-2.819 E0.07786
G1 X21.836 Y-2.014 E0.07786
G1 X22.030 Y-1.188 E0.07786
G1 X22.148 Y-0.348 E0.07786
G1 X22.187 Y0.500 E0.07786
G1 X22.148 Y1.348 E0.07786
G1 X22.030 Y2.188 E0.07786
G1 X21.836 Y3.014 E0.07786
G1 X21.567 Y3.819 E0.07786
G1 X21.224 Y4.595 E0.07786
G1 X20.811 Y5.336 E0.07786
G1 X20.331 Y6.036 E0.07786
G1 X19.789 Y6.689 E0.07786
G1 X19.189 Y7.289 E0.07786
G1 X18.536 Y7.831 E0.07786
G1 X17.836 Y8.311 E0.07786
G1 X17.095 Y8.724 E0.07786
G1 X16.319 Y9.067 E0.07786
G1 X15.514 Y9.336 E0.07786
G1 X14.688 Y9.530 E0.07786
G1 X13.848 Y9.648 E0.07786
G1 X13.000 Y9.687 E0.07786
G1 X12.152 Y9.648 E0.07786
G1 X11.312 Y9.530 E0.07786
G1 X10.486 Y9.336 E0.07786
G1 X9.681 Y9.067 E0.07786
G1 X8.905 Y8.724 E0.07786
G1 X8.164 Y8.311 E0.07786
G1 X7.513 Y7.865 E0.07235
G1 X7.929 Y7.258 F9000.000
G1 X7.307 Y6.745 E0.07399 F900.000
G1 X6.755 Y6.193 E0.07162
G1 X6.256 Y5.593 E0.07162
G1 X5.815 Y4.949 E0.07162
G1 X5.435 Y4.267 E0.07162
G1 X5.120 Y3.553 E0.07162
G1 X4.872 Y2.813 E0.07162
G1 X4.693 Y2.053 E0.07162
G1 X4.586 Y1.280 E0.07162
G1 X4.550 Y0.500 E0.07162
G1 X4.586 Y-0.280 E0.07162
G1 X4.693 Y-1.053 E0.07162
G1 X4.872 Y-1.813 E0.07162
G1 X5.120 Y-2.553 E0.07162
G1 X5.435 Y-3.267 E0.07162
G1 X5.815 Y-3.949 E0.07162
G1 X6.256 Y-4.593 E0.07162
G1 X6.755 Y-5.193 E0.07162
G1 X7.307 Y-5.745 E0.07162
G1 X7.907 Y-6.244 E0.07162
G1 X8.551 Y-6.685 E0.07162
G1 X9.233 Y-7.065 E0.07161
G1 X9.947 Y-7.380 E0.07162
G1 X10.687 Y-7.628 E0.07162
G1 X11.447 Y-7.807 E0.07162
G1 X12.220 Y-7.914 E0.07162
G1 X12.941 Y-7.948 E0.06620 F900.000
G1 X13.778 Y-7.915 E0.07689
G1 X14.553 Y-7.807 E0.07174
G1 X15.313 Y-7.628 E0.07162
G1 X16.053 Y-7.380 E0.07162
G1 X16.767 Y-7.065 E0.07162
G1 X17.449 Y-6.685 E0.07162
G1 X18.093 Y-6.244 E0.07162
G1 X18.693 Y-5.745 E0.07162
G1 X19.245 Y-5.193 E0.07162
G1 X19.744 Y-4.593 E0.07162
G1 X20.185 Y-3.949 E0.07162
G1 X20.565 Y-3.267 E0.07162
G1 X20.880 Y-2.553 E0.07162
G1 X21.128 Y-1.813 E0.07162
G1 X21.307 Y-1.053 E0.07162
G1 X21.414 Y-0.280 E0.07162
G1 X21.450 Y0.500 E0.07162
G1 X21.414 Y1.280 E0.07162
G1 X21.307 Y2.053 E0.07162
G1 X21.128 Y2.813 E0.07162
G1 X20.880 Y3.553 E0.07162
G1 X20.565 Y4.267 E0.07162
G1 X20.185 Y4.949 E0.07162
G1 X19.744 Y5.593 E0.07162
G1 X19.245 Y6.193 E0.07162
G1 X18.693 Y6.745 E0.07162
G1 X18.093 Y7.244 E0.07162
G1 X17.449 Y7.685 E0.07162
G1 X16.767 Y8.065 E0.07162
G1 X16.053 Y8.380 E0.07162
G1 X15.313 Y8.628 E0.07162
G1 X14.553 Y8.807 E0.07162
G1 X13.780 Y8.914 E0.07162
G1 X13.000 Y8.950 E0.07162
G1 X12.220 Y8.914 E0.07162
G1 X11.447 Y8.807 E0.07162
G1 X10.687 Y8.628 E0.07162
G1 X9.947 Y8.380 E0.07162
G1 X9.233 Y8.065 E0.07162
G1 X8.551 Y7.685 E0.07162
G1 X7.978 Y7.292 E0.06373
G1 X7.558 Y7.409 F9000.000
G1 X-3.927 Y3.493 F9000.000
G1 X-5.669 Y6.036 E0.28280 F900.000
G1 X-6.211 Y6.689 E0.07786
G1 X-6.811 Y7.289 E0.07786
G1 X-7.464 Y7.831 E0.07786
G1 X-8.164 Y8.311 E0.07786
G1 X-8.905 Y8.724 E0.07786
G1 X-9.681 Y9.067 E0.07786
G1 X-10.486 Y9.336 E0.07786
G1 X-11.312 Y9.530 E0.07786
G1 X-12.152 Y9.648 E0.07786
G1 X-13.000 Y9.687 E0.07786
G1 X-13.848 Y9.648 E0.07786
G1 X-14.688 Y9.530 E0.07786
G1 X-15.514 Y9.336 E0.07786
G1 X-16.319 Y9.067 E0.07786
G1 X-17.095 Y8.724 E0.07786
G1 X-17.836 Y8.311 E0.07786
G1 X-18.540 Y7.828 E0.07832
G1 X-19.248 Y7.230 E0.08502
G1 X-19.789 Y6.689 E0.07020
G1 X-20.331 Y6.036 E0.07786
G1 X-20.811 Y5.336 E0.07786
G1 X-21.224 Y4.595 E0.07786
G1 X-21.567 Y3.819 E0.07786
G1 X-21.836 Y3.014 E0.07786
G1 X-22.030 Y2.188 E0.07786
G1 X-22.148 Y1.348 E0.07786
G1 X-22.187 Y0.500 E0.07786
G1 X-22.148 Y-0.348 E0.07786
G1 X-22.030 Y-1.188 E0.07786
G1 X-21.836 Y-2.014 E0.07786
G1 X-21.567 Y-2.819 E0.07786
G1 X-21.224 Y-3.595 E0.07786
G1 X-20.811 Y-4.336 E0.07786
G1 X-20.331 Y-5.036 E0.07786
G1 X-19.789 Y-5.689 E0.07786
G1 X-19.189 Y-6.289 E0.07786
G1 X-18.536 Y-6.831 E0.07786
G1 X-17.836 Y-7.311 E0.07786
G1 X-17.095 Y-7.724 E0.07786
G1 X-16.319 Y-8.067 E0.07786
G1 X-15.514 Y-8.336 E0.07786
G1 X-14.688 Y-8.530 E0.07786
G1 X-13.848 Y-8.648 E0.07786
G1 X-13.061 Y-8.684 E0.07221 F900.000
G1 X-12.156 Y-8.648 E0.08313
G1 X-11.312 Y-8.530 E0.07820
G1 X-10.486 Y-8.336 E0.07786
G1 X-9.681 Y-8.067 E0.07786
G1 X-8.905 Y-7.724 E0.07786
G1 X-8.164 Y-7.311 E0.07786
G1 X-7.464 Y-6.831 E0.07786
G1 X-6.811 Y-6.289 E0.07786
G1 X-6.211 Y-5.689 E0.07786
G1 X-5.669 Y-5.036 E0.07786
G1 X-5.189 Y-4.336 E0.07786
G1 X-4.776 Y-3.595 E0.07786
G1 X-4.433 Y-2.819 E0.07786
G1 X-4.164 Y-2.014 E0.07786
G1 X-3.970 Y-1.188 E0.07786
G1 X-3.852 Y-0.348 E0.07786
G1 X-3.813 Y0.500 E0.07786
G1 X-3.852 Y1.348 E0.07786
G1 X-3.970 Y2.188 E0.07786
G1 X-4.164 Y3.014 E0.07786
G1 X-4.324 Y3.493 E0.04638
G1 X-3.987 Y3.493 E0.03098
G1 X-4.988 Y3.158 F9000.000
G1 X-5.120 Y3.553 E0.03820 F900.000
G1 X-5.419 Y4.229 E0.06784
G1 X-5.322 Y4.229 E0.00885
G1 X-6.256 Y5.593 E0.15164
G1 X-6.755 Y6.193 E0.07162
G1 X-7.307 Y6.745 E0.07162
G1 X-7.907 Y7.244 E0.07162
G1 X-8.551 Y7.685 E0.07162
G1 X-9.233 Y8.065 E0.07162
G1 X-9.947 Y8.380 E0.07162
G1 X-10.687 Y8.628 E0.07162
G1 X-11.447 Y8.807 E0.07162
G1 X-12.220 Y8.914 E0.07162
G1 X-13.000 Y8.950 E0.07162
G1 X-13.780 Y8.914 E0.07162
G1 X-14.553 Y8.807 E0.07162
G1 X-15.313 Y8.628 E0.07162
G1 X-16.053 Y8.380 E0.07162
G1 X-16.767 Y8.065 E0.07162
G1 X-17.449 Y7.685 E0.07162
G1 X-18.094 Y7.243 E0.07178
G1 X-18.750 Y6.688 E0.07878
G1 X-19.245 Y6.193 E0.06426
G1 X-19.744 Y5.593 E0.07162
G1 X-20.185 Y4.949 E0.07162
G1 X-20.565 Y4.267 E0.07162
G1 X-20.880 Y3.553 E0.07162
G1 X-21.128 Y2.813 E0.07162
G1 X-21.307 Y2.053 E0.07162
G1 X-21.414 Y1.280 E0.07162
G1 X-21.450 Y0.500 E0.07162
G1 X-21.414 Y-0.280 E0.07162
G1 X-21.307 Y-1.053 E0.07162
G1 X-21.128 Y-1.813 E0.07162
G1 X-20.880 Y-2.553 E0.07162
G1 X-20.565 Y-3.267 E0.07162
G1 X-20.185 Y-3.949 E0.07162
G1 X-19.744 Y-4.593 E0.07162
G1 X-19.245 Y-5.193 E0.07162
G1 X-18.693 Y-5.745 E0.07162
G1 X-18.093 Y-6.244 E0.07162
G1 X-17.449 Y-6.685 E0.07162
G1 X-16.767 Y-7.065 E0.07162
G1 X-16.053 Y-7.380 E0.07162
G1 X-15.313 Y-7.628 E0.07162
G1 X-14.553 Y-7.807 E0.07162
G1 X-13.780 Y-7.914 E0.07162
G1 X-13.059 Y-7.948 E0.06620 F900.000
G1 X-12.222 Y-7.915 E0.07689
G1 X-11.447 Y-7.807 E0.07174
G1 X-10.687 Y-7.628 E0.07162
G1 X-9.947 Y-7.380 E0.07162
G1 X-9.233 Y-7.065 E0.07162
G1 X-8.551 Y-6.685 E0.07162
G1 X-7.907 Y-6.244 E0.07162
G1 X-7.307 Y-5.745 E0.07162
G1 X-6.755 Y-5.193 E0.07162
G1 X-6.256 Y-4.593 E0.07162
G1 X-5.815 Y-3.949 E0.07162
G1 X-5.435 Y-3.267 E0.07162
G1 X-5.120 Y-2.553 E0.07162
G1 X-4.872 Y-1.813 E0.07162
G1 X-4.693 Y-1.053 E0.07162
G1 X-4.586 Y-0.280 E0.07162
G1 X-4.550 Y0.500 E0.07162
G1 X-4.586 Y1.280 E0.07162
G1 X-4.693 Y2.053 E0.07162
G1 X-4.872 Y2.813 E0.07162
G1 X-4.969 Y3.101 E0.02791
G1 X-4.723 Y3.458 F9000.000
G1 X-9.395 Y13.314 F9000.000
G1 X-26.814 Y13.314 E1.59827 F900.000
G1 X-26.814 Y-13.314 E2.44320
G1 X26.814 Y-13.314 E4.92047
G1 X26.814 Y13.314 E2.44320
G1 X-9.335 Y13.314 E3.31670 F900.000
G1 X-9.335 Y14.050 F9000.000
G1 X-27.550 Y14.050 E1.67126 F900.000
G1 X-27.550 Y-14.050 E2.57819
G1 X27.550 Y-14.050 E5.05545
G1 X27.550 Y14.050 E2.57819
G1 X-9.275 Y14.050 E3.37868 F900.000
G1 X-9.535 Y13.704 F9000.000
G1 X-16.873 Y9.396 F9000.000
G1 X-13.404 Y12.865 E0.45462 F900.000
G1 X-12.353 Y12.865 E0.09738
G1 X-15.338 Y9.880 E0.39124
G1 X-14.075 Y10.093 E0.11876
G1 X-11.302 Y12.865 E0.36333
G1 X-10.252 Y12.865 E0.09738
G1 X-12.988 Y10.129 E0.35860
G1 X-12.006 Y10.061 E0.09125
G1 X-9.201 Y12.865 E0.36757
G1 X-8.150 Y12.865 E0.09738
G1 X-11.105 Y9.911 E0.38720
G1 X-10.271 Y9.694 E0.07986
G1 X-7.099 Y12.865 E0.41560
G1 X-6.049 Y12.865 E0.09738
G1 X-9.494 Y9.420 E0.45148
G1 X-8.767 Y9.096 E0.07375
G1 X-4.998 Y12.865 E0.49392
G1 X-3.947 Y12.865 E0.09738
G1 X-8.092 Y8.721 E0.54318
G1 X-7.461 Y8.300 E0.07022
G1 X-2.896 Y12.865 E0.59826
G1 X-1.846 Y12.865 E0.09738
G1 X-6.871 Y7.840 E0.65858
G1 X-6.319 Y7.341 E0.06894
G1 X-0.795 Y12.865 E0.72397
G1 X0.256 Y12.865 E0.09738
G1 X-5.805 Y6.804 E0.79435
G1 X-5.330 Y6.229 E0.06917
G1 X1.307 Y12.865 E0.86976
G1 X2.358 Y12.865 E0.09738
G1 X-4.903 Y5.605 E0.95149
G1 X-4.475 Y4.981 E0.07005
G1 X3.408 Y12.865 E1.03321
G1 X4.459 Y12.865 E0.09738
G1 X-4.048 Y4.358 E1.11494
G1 X-3.621 Y3.734 E0.07005
G1 X5.510 Y12.865 E1.19667
G1 X6.561 Y12.865 E0.09738
G1 X-3.650 Y2.654 E1.33819
G1 X-3.479 Y1.775 E0.08301
G1 X7.611 Y12.865 E1.45342
G1 X8.662 Y12.865 E0.09738
G1 X-3.385 Y0.818 E1.57888
G1 X-3.390 Y-0.238 E0.09784
G1 X9.713 Y12.865 E1.71724
G1 X10.764 Y12.865 E0.09738
G1 X-3.526 Y-1.424 E1.87271
G1 X-3.914 Y-2.863 E0.13811
G1 X4.981 Y6.032 E1.16576
G1 X3.939 Y3.939 F9000.000
G1 X-4.871 Y-4.871 E1.15463 F900.000
G1 X-7.629 Y-7.629 F9000.000
G1 X-12.865 Y-12.865 E0.68621 F900.000
G1 X-11.814 Y-12.865 E0.09738
G1 X3.537 Y2.487 E2.01196
G1 X3.393 Y1.291 E0.11159
G1 X-10.764 Y-12.865 E1.85528
G1 X-9.713 Y-12.865 E0.09738
G1 X3.383 Y0.231 E1.71630
G1 X3.472 Y-0.731 E0.08947
G1 X-8.662 Y-12.865 E1.59032
G1 X-7.611 Y-12.865 E0.09738
G1 X3.641 Y-1.613 E1.47464
G1 X3.874 Y-2.431 E0.07880
G1 X-6.561 Y-12.865 E1.36747
G1 X-5.510 Y-12.865 E0.09738
G1 X4.162 Y-3.193 E1.26758
G1 X4.500 Y-3.906 E0.07312
G1 X-4.459 Y-12.865 E1.17413
G1 X-3.408 Y-12.865 E0.09738
G1 X4.882 Y-4.575 E1.08650
G1 X5.309 Y-5.199 E0.07005
G1 X-2.358 Y-12.865 E1.00477
G1 X-1.307 Y-12.865 E0.09738
G1 X5.782 Y-5.776 E0.92905
G1 X6.293 Y-6.316 E0.06888
G1 X-0.256 Y-12.865 E0.85836
G1 X0.795 Y-12.865 E0.09738
G1 X6.843 Y-6.817 E0.79266
G1 X7.431 Y-7.280 E0.06934
G1 X1.845 Y-12.865 E0.73202
G1 X2.896 Y-12.865 E0.09738
G1 X8.059 Y-7.702 E0.67662
G1 X8.734 Y-8.078 E0.07159
G1 X3.947 Y-12.865 E0.62736
G1 X4.998 Y-12.865 E0.09738
G1 X9.458 Y-8.405 E0.58458
G1 X10.232 Y-8.681 E0.07619
G1 X6.049 Y-12.865 E0.54833
G1 X7.099 Y-12.865 E0.09738
G1 X11.063 Y-8.901 E0.51953
G1 X11.961 Y-9.054 E0.08438
G1 X8.150 Y-12.865 E0.49944
G1 X9.201 Y-12.865 E0.09738
G1 X12.939 Y-9.127 E0.48995
G1 X14.020 Y-9.097 E0.10016
G1 X10.252 Y-12.865 E0.49383
G1 X11.302 Y-12.865 E0.09738
G1 X15.272 Y-8.896 E0.52025
G1 X16.782 Y-8.437 E0.14624
G1 X12.353 Y-12.865 E0.58041
G1 X13.404 Y-12.865 E0.09738
G1 X26.365 Y0.096 E1.69867
G1 X26.365 Y-0.955 E0.09738
G1 X14.455 Y-12.865 E1.56096
G1 X15.505 Y-12.865 E0.09738
G1 X26.365 Y-2.005 E1.42325
G1 X26.365 Y-3.056 E0.09738
G1 X16.556 Y-12.865 E1.28554
G1 X17.607 Y-12.865 E0.09738
G1 X26.365 Y-4.107 E1.14783
G1 X26.365 Y-5.158 E0.09738
G1 X18.658 Y-12.865 E1.01012
G1 X19.708 Y-12.865 E0.09738
G1 X26.365 Y-6.208 E0.87241
G1 X26.365 Y-7.259 E0.09738
G1 X20.759 Y-12.865 E0.73470
G1 X21.810 Y-12.865 E0.09738
G1 X26.365 Y-8.310 E0.59699
G1 X26.365 Y-9.361 E0.09738
G1 X22.861 Y-12.865 E0.45928
G1 X23.912 Y-12.865 E0.09738
G1 X26.365 Y-10.412 E0.32157
G1 X26.365 Y-11.462 E0.09738
G1 X24.962 Y-12.865 E0.18385
G1 X26.013 Y-12.865 E0.09738
G1 X26.365 Y-12.513 E0.04614
G1 X21.937 Y-3.282 F9000.000
G1 X26.365 Y1.147 E0.58041 F900.000
G1 X26.365 Y2.198 E0.09738
G1 X22.396 Y-1.772 E0.52025
G1 X22.597 Y-0.520 E0.11751
G1 X26.365 Y3.248 E0.49387
G1 X26.365 Y4.299 E0.09738
G1 X22.627 Y0.561 E0.48995
G1 X22.554 Y1.539 E0.09091
G1 X26.365 Y5.350 E0.49944
G1 X26.365 Y6.401 E0.09738
G1 X22.401 Y2.437 E0.51953
G1 X22.181 Y3.268 E0.07965
G1 X26.365 Y7.451 E0.54833
G1 X26.365 Y8.502 E0.09738
G1 X21.905 Y4.042 E0.58458
G1 X21.578 Y4.766 E0.07363
G1 X26.365 Y9.553 E0.62736
G1 X26.365 Y10.604 E0.09738
G1 X21.202 Y5.441 E0.67662
G1 X20.780 Y6.069 E0.07016
G1 X26.365 Y11.654 E0.73202
G1 X26.365 Y12.705 E0.09738
G1 X20.317 Y6.657 E0.79266
G1 X19.816 Y7.207 E0.06893
G1 X25.474 Y12.865 E0.74160
G1 X24.424 Y12.865 E0.09738
G1 X19.276 Y7.718 E0.67458
G1 X18.699 Y8.191 E0.06920
G1 X23.373 Y12.865 E0.61260
G1 X22.322 Y12.865 E0.09738
G1 X18.075 Y8.618 E0.55661
G1 X17.406 Y9.000 E0.07137
G1 X21.271 Y12.865 E0.50653
G1 X20.220 Y12.865 E0.09738
G1 X16.693 Y9.338 E0.46228
G1 X15.931 Y9.626 E0.07552
G1 X19.170 Y12.865 E0.42446
G1 X18.119 Y12.865 E0.09738
G1 X15.113 Y9.859 E0.39392
G1 X14.231 Y10.028 E0.08327
G1 X17.068 Y12.865 E0.37189
G1 X16.017 Y12.865 E0.09738
G1 X13.269 Y10.117 E0.36016
G1 X12.209 Y10.107 E0.09828
G1 X14.967 Y12.865 E0.36143
G1 X13.916 Y12.865 E0.09738
G1 X11.013 Y9.963 E0.38039
G1 X9.561 Y9.561 E0.13969
G1 X12.865 Y12.865 E0.43308
G1 X11.814 Y12.865 E0.09738
G1 X7.468 Y8.519 E0.56964
G1 X-9.637 Y-8.586 F9000.000
G1 X-13.916 Y-12.865 E0.56078 F900.000
G1 X-14.967 Y-12.865 E0.09738
G1 X-11.076 Y-8.974 E0.50992
G1 X-12.261 Y-9.108 E0.11048
G1 X-16.017 Y-12.865 E0.49238
G1 X-17.068 Y-12.865 E0.09738
G1 X-13.318 Y-9.115 E0.49151
G1 X-14.275 Y-9.021 E0.08914
G1 X-18.119 Y-12.865 E0.50376
G1 X-19.170 Y-12.865 E0.09738
G1 X-15.154 Y-8.850 E0.52624
G1 X-15.969 Y-8.614 E0.07860
G1 X-20.221 Y-12.865 E0.55719
G1 X-21.271 Y-12.865 E0.09738
G1 X-16.728 Y-8.322 E0.59538
G1 X-17.439 Y-7.982 E0.07300
G1 X-22.322 Y-12.865 E0.63997
G1 X-23.373 Y-12.865 E0.09738
G1 X-18.105 Y-7.597 E0.69038
G1 X-18.729 Y-7.170 E0.07005
G1 X-24.424 Y-12.865 E0.74636
G1 X-25.474 Y-12.865 E0.09738
G1 X-19.304 Y-6.695 E0.80866
G1 X-19.841 Y-6.181 E0.06887
G1 X-26.365 Y-12.705 E0.85503
G1 X-26.365 Y-11.654 E0.09738
G1 X-20.340 Y-5.629 E0.78964
G1 X-20.800 Y-5.039 E0.06938
G1 X-26.365 Y-10.604 E0.72932
G1 X-26.365 Y-9.553 E0.09738
G1 X-21.221 Y-4.408 E0.67424
G1 X-21.596 Y-3.733 E0.07159
G1 X-26.365 Y-8.502 E0.62497
G1 X-26.365 Y-7.451 E0.09738
G1 X-21.920 Y-3.006 E0.58254
G1 X-22.194 Y-2.229 E0.07635
G1 X-26.365 Y-6.401 E0.54666
G1 X-26.365 Y-5.350 E0.09738
G1 X-22.411 Y-1.395 E0.51826
G1 X-22.561 Y-0.494 E0.08464
G1 X-26.365 Y-4.299 E0.49863
G1 X-26.365 Y-3.248 E0.09738
