; generated by Slic3r 1.2.9 on 2017-01-04 at 15:32:18

; external perimeters extrusion width = 0.50mm
; perimeters extrusion width = 0.50mm
; infill extrusion width = 0.50mm
; solid infill extrusion width = 0.50mm
; top infill extrusion width = 0.50mm

M107
;Basic settings: Layer height: {layer_height} Walls: {wall_thickness} Fill: {fill_density}
;Print time: {print_time}
;Filament used: {filament_amount}m {filament_weight}g
;Filament cost: {filament_cost}
;M190 S{print_bed_temperature} ;Uncomment to add your own bed temperature line
;M109 S{print_temperature} ;Uncomment to add your own temperature line
G21        ;metric values
G90        ;absolute positioning
M83
G10 P0 S200
T0
M116


G21 ; set units to millimeters
G90 ; use absolute coordinates
M83 ; use relative distances for extrusion
G1 E-3.20000 F3000.00000
G1 Z0.400 F9000.000
G1 X-17.796 Y-2.146 F9000.000
G1 Z0.300 F9000.000
G1 E3.20000 F3000.00000
G1 X-15.168 Y-23.943 E2.01436 F1200.000
G1 X-14.100 Y-26.137 E0.22387
G1 X1.047 Y-41.284 E1.96538
G1 X1.630 Y-41.763 E0.06924
G1 X3.788 Y-42.449 E0.20779
G1 X18.688 Y-42.449 E1.36708
G1 X20.359 Y-42.054 E0.15755
G1 X21.678 Y-40.954 E0.15755 F1200.000
G1 X22.424 Y-38.713 E0.21667
G1 X22.424 Y6.216 E4.12229
G1 X22.029 Y7.887 E0.15755
G1 X21.330 Y8.857 E0.10975
G1 X-10.808 Y40.995 E4.17008
G1 X-12.269 Y41.898 E0.15755
G1 X-13.979 Y42.052 E0.15755
G1 X-16.091 Y40.995 E0.21666
G1 X-20.970 Y36.116 E0.63308
G1 X-21.873 Y34.656 E0.15755
G1 X-22.038 Y33.028 E0.15013
G1 X-17.803 Y-2.086 E3.24508
G1 E-3.20000 F3000.00000
G1 Z0.700 F9000.000
G1 X7.790 Y5.019 F9000.000
G1 Z0.300 F9000.000
G1 E3.20000 F3000.00000
G1 X12.924 Y-6.511 E1.15805 F900.000
G1 X12.924 Y-24.052 E1.60935
G1 X8.194 Y-30.106 E0.70486
G1 X2.259 Y-27.647 E0.58942
G1 X-5.873 Y-19.516 E1.05513
G1 X-9.853 Y-23.496 E0.51644
G1 X3.688 Y-37.037 E1.75699
G1 X4.924 Y-35.801 E0.16036
G1 X4.924 Y-37.578 E0.16305
G1 X17.553 Y-37.578 E1.15870
G1 X17.553 Y5.745 E3.97493
G1 X-13.450 Y36.748 E4.02272 F900.000
G1 X-16.723 Y33.475 E0.42469
G1 X4.626 Y12.126 E2.77011
G1 X7.766 Y5.074 E0.70828
G1 X7.094 Y4.775 F9000.000
G1 X12.188 Y-6.668 E1.14921 F900.000
G1 X12.188 Y-23.799 E1.57176
G1 X7.959 Y-29.212 E0.63029
G1 X2.676 Y-27.024 E0.52467
G1 X-5.873 Y-18.475 E1.10920
G1 X-10.893 Y-23.496 E0.65143
G1 X3.688 Y-38.077 E1.89198
G1 X4.188 Y-37.577 E0.06491
G1 X4.188 Y-38.313 E0.06761
G1 X18.288 Y-38.313 E1.29368
G1 X18.288 Y6.050 E4.07038
G1 X-13.450 Y37.788 E4.11817 F900.000
G1 X-17.763 Y33.475 E0.55968
G1 X4.009 Y11.702 E2.82509
G1 X7.069 Y4.829 E0.69027
G1 X7.492 Y4.733 F9000.000
G1 E-3.20000 F3000.00000
G1 Z0.700 F9000.000
G1 X-5.310 Y-20.622 F9000.000
G1 Z0.300 F9000.000
G1 E3.20000 F3000.00000
G1 X-8.732 Y-24.044 E0.44491 F900.000
G1 X-8.211 Y-24.566 E0.06776
G1 X-4.788 Y-21.144 E0.44491
G1 X-4.267 Y-21.665 E0.06776
G1 X-7.689 Y-25.087 E0.44491
G1 X-7.168 Y-25.608 E0.06776
G1 X-3.746 Y-22.186 E0.44491
G1 X-3.225 Y-22.707 E0.06776
G1 X-6.647 Y-26.129 E0.44491
G1 X-6.126 Y-26.650 E0.06776
G1 X-2.704 Y-23.228 E0.44491
G1 X-2.183 Y-23.749 E0.06776
G1 X-5.605 Y-27.172 E0.44491
G1 X-5.084 Y-27.693 E0.06776
G1 X-1.661 Y-24.271 E0.44491
G1 X-1.140 Y-24.792 E0.06776
G1 X-4.562 Y-28.214 E0.44491
G1 X-4.041 Y-28.735 E0.06776
G1 X-0.619 Y-25.313 E0.44491
G1 X-0.098 Y-25.834 E0.06776
G1 X-3.520 Y-29.256 E0.44491
G1 X-2.999 Y-29.777 E0.06776
G1 X0.423 Y-26.355 E0.44491
G1 X0.945 Y-26.877 E0.06776
G1 X-2.478 Y-30.299 E0.44491
G1 X-1.956 Y-30.820 E0.06776
G1 X1.466 Y-27.398 E0.44491
G1 X1.987 Y-27.919 E0.06776
G1 X-1.435 Y-31.341 E0.44491
G1 X-0.914 Y-31.862 E0.06776
G1 X2.689 Y-28.260 E0.46837
G1 X3.426 Y-28.565 E0.07334
G1 X-0.393 Y-32.383 E0.49644
G1 X0.128 Y-32.905 E0.06776
G1 X4.163 Y-28.870 E0.52451
G1 X4.900 Y-29.175 E0.07334
G1 X0.649 Y-33.426 E0.55257
G1 X1.171 Y-33.947 E0.06776
G1 X5.637 Y-29.481 E0.58064
G1 X6.374 Y-29.786 E0.07334
G1 X1.692 Y-34.468 E0.60870
G1 X2.213 Y-34.989 E0.06776
G1 X7.111 Y-30.091 E0.63677
G1 X7.848 Y-30.397 E0.07334
G1 X2.734 Y-35.510 E0.66484
G1 X3.255 Y-36.032 E0.06776
G1 X17.104 Y-22.183 E1.80038
G1 X17.104 Y-23.226 E0.09582
G1 X5.373 Y-34.956 E1.52505
G1 X5.373 Y-35.999 E0.09582
G1 X17.104 Y-24.268 E1.52505
G1 X17.104 Y-25.311 E0.09582
G1 X5.373 Y-37.041 E1.52505
G1 X6.328 Y-37.129 E0.08813
G1 X17.104 Y-26.353 E1.40093
G1 X17.104 Y-27.395 E0.09582
G1 X7.370 Y-37.129 E1.26542
G1 X8.413 Y-37.129 E0.09582
G1 X17.104 Y-28.438 E1.12990
G1 X17.104 Y-29.480 E0.09582
G1 X9.455 Y-37.129 E0.99439
G1 X10.497 Y-37.129 E0.09582
G1 X17.104 Y-30.522 E0.85887
G1 X17.104 Y-31.565 E0.09582
G1 X11.540 Y-37.129 E0.72336
G1 X12.582 Y-37.129 E0.09582
G1 X17.104 Y-32.607 E0.58784
G1 X17.104 Y-33.649 E0.09582
G1 X13.624 Y-37.129 E0.45232
G1 X14.667 Y-37.129 E0.09582
G1 X17.104 Y-34.692 E0.31681
G1 X17.104 Y-35.734 E0.09582
G1 X15.709 Y-37.129 E0.18129
G1 X16.751 Y-37.129 E0.09582
G1 X17.104 Y-36.777 E0.04578
G1 X11.747 Y-26.497 F9000.000
G1 X17.104 Y-21.141 E0.69633 F900.000
G1 X17.104 Y-20.099 E0.09582
G1 X13.373 Y-23.829 E0.48498
G1 X13.373 Y-22.787 E0.09582
G1 X17.104 Y-19.056 E0.48498
G1 X17.104 Y-18.014 E0.09582
G1 X13.373 Y-21.744 E0.48498
G1 X13.373 Y-20.702 E0.09582
G1 X17.104 Y-16.972 E0.48498
G1 X17.104 Y-15.929 E0.09582
G1 X13.373 Y-19.660 E0.48498
G1 X13.373 Y-18.617 E0.09582
G1 X17.104 Y-14.887 E0.48498
G1 X17.104 Y-13.845 E0.09582
G1 X13.373 Y-17.575 E0.48498
G1 X13.373 Y-16.533 E0.09582
G1 X17.104 Y-12.802 E0.48498
G1 X17.104 Y-11.760 E0.09582
G1 X13.373 Y-15.490 E0.48498
G1 X13.373 Y-14.448 E0.09582
G1 X17.104 Y-10.718 E0.48498
G1 X17.104 Y-9.675 E0.09582
G1 X13.373 Y-13.406 E0.48498
G1 X13.373 Y-12.363 E0.09582
G1 X17.104 Y-8.633 E0.48498
G1 X17.104 Y-7.590 E0.09582
G1 X13.373 Y-11.321 E0.48498
G1 X13.373 Y-10.278 E0.09582
G1 X17.104 Y-6.548 E0.48498
G1 X17.104 Y-5.506 E0.09582
G1 X13.373 Y-9.236 E0.48498
G1 X13.373 Y-8.194 E0.09582
G1 X17.104 Y-4.463 E0.48498
G1 X17.104 Y-3.421 E0.09582
G1 X13.373 Y-7.151 E0.48498
G1 X13.241 Y-6.241 E0.08453
G1 X17.104 Y-2.379 E0.50219
G1 X17.104 Y-1.336 E0.09582
G1 X12.920 Y-5.520 E0.54394
G1 X12.599 Y-4.799 E0.07258
G1 X17.104 Y-0.294 E0.58569
G1 X17.104 Y0.748 E0.09582
G1 X12.277 Y-4.078 E0.62744
G1 X11.956 Y-3.356 E0.07258
G1 X17.104 Y1.791 E0.66919
G1 X17.104 Y2.833 E0.09582
G1 X11.635 Y-2.635 E0.71093
G1 X11.314 Y-1.914 E0.07258
G1 X17.104 Y3.875 E0.75268
G1 X17.104 Y4.918 E0.09582
G1 X10.993 Y-1.193 E0.79443
G1 X10.672 Y-0.471 E0.07258
G1 X16.935 Y5.791 E0.81423
G1 X16.413 Y6.313 E0.06776
G1 X10.351 Y0.250 E0.78822
G1 X10.030 Y0.971 E0.07258
G1 X15.892 Y6.834 E0.76221
G1 X15.371 Y7.355 E0.06776
G1 X9.708 Y1.692 E0.73620
G1 X9.387 Y2.413 E0.07258
G1 X14.850 Y7.876 E0.71019
G1 X14.329 Y8.397 E0.06776
G1 X9.066 Y3.135 E0.68418
G1 X8.745 Y3.856 E0.07258
G1 X13.808 Y8.918 E0.65817
G1 X13.286 Y9.440 E0.06776
G1 X8.424 Y4.577 E0.63216
G1 X8.103 Y5.298 E0.07258
G1 X12.765 Y9.961 E0.60615
G1 X12.244 Y10.482 E0.06776
G1 X7.782 Y6.020 E0.58014
G1 X7.461 Y6.741 E0.07258
G1 X11.723 Y11.003 E0.55413
G1 X11.202 Y11.524 E0.06776
G1 X7.140 Y7.462 E0.52812
G1 X6.818 Y8.183 E0.07258
G1 X10.680 Y12.046 E0.50211
G1 X10.159 Y12.567 E0.06776
G1 X6.497 Y8.905 E0.47610
G1 X6.176 Y9.626 E0.07258
G1 X9.638 Y13.088 E0.45009
G1 X9.117 Y13.609 E0.06776
G1 X5.855 Y10.347 E0.42408
G1 X5.534 Y11.068 E0.07258
G1 X8.596 Y14.130 E0.39807
G1 X8.075 Y14.651 E0.06776
G1 X5.213 Y11.790 E0.37206
G1 X4.838 Y12.458 E0.07039
G1 X7.553 Y15.173 E0.35298
G1 X7.032 Y15.694 E0.06776
G1 X4.317 Y12.979 E0.35298
G1 X3.796 Y13.500 E0.06776
G1 X6.511 Y16.215 E0.35298
G1 X5.990 Y16.736 E0.06776
G1 X3.275 Y14.021 E0.35298
G1 X2.754 Y14.542 E0.06776
G1 X5.469 Y17.257 E0.35298
G1 X4.948 Y17.778 E0.06776
G1 X2.232 Y15.063 E0.35298
G1 X1.711 Y15.585 E0.06776
G1 X4.426 Y18.300 E0.35298
G1 X3.905 Y18.821 E0.06776
G1 X1.190 Y16.106 E0.35298
G1 X0.669 Y16.627 E0.06776
G1 X3.384 Y19.342 E0.35298
G1 X2.863 Y19.863 E0.06776
G1 X0.148 Y17.148 E0.35298
G1 X-0.373 Y17.669 E0.06776
G1 X2.342 Y20.384 E0.35298
G1 X1.820 Y20.906 E0.06776
G1 X-0.895 Y18.191 E0.35298
G1 X-1.416 Y18.712 E0.06776
G1 X1.299 Y21.427 E0.35298
G1 X0.778 Y21.948 E0.06776
G1 X-1.937 Y19.233 E0.35298
G1 X-2.458 Y19.754 E0.06776
G1 X0.257 Y22.469 E0.35298
G1 X-0.264 Y22.990 E0.06776
G1 X-2.979 Y20.275 E0.35298
G1 X-3.500 Y20.796 E0.06776
G1 X-0.785 Y23.511 E0.35298
G1 X-1.307 Y24.033 E0.06776
G1 X-4.022 Y21.318 E0.35298
G1 X-4.543 Y21.839 E0.06776
G1 X-1.828 Y24.554 E0.35298
G1 X-2.349 Y25.075 E0.06776
G1 X-5.064 Y22.360 E0.35298
G1 X-5.585 Y22.881 E0.06776
G1 X-2.870 Y25.596 E0.35298
G1 X-3.391 Y26.117 E0.06776
G1 X-6.106 Y23.402 E0.35298
G1 X-6.628 Y23.924 E0.06776
G1 X-3.913 Y26.639 E0.35298
G1 X-4.434 Y27.160 E0.06776
G1 X-7.149 Y24.445 E0.35298
G1 X-7.670 Y24.966 E0.06776
G1 X-4.955 Y27.681 E0.35298
G1 X-5.476 Y28.202 E0.06776
G1 X-8.191 Y25.487 E0.35298
G1 X-8.712 Y26.008 E0.06776
G1 X-5.997 Y28.723 E0.35298
G1 X-6.518 Y29.244 E0.06776
G1 X-9.233 Y26.529 E0.35298
G1 X-9.755 Y27.051 E0.06776
G1 X-7.040 Y29.766 E0.35298
G1 X-7.561 Y30.287 E0.06776
G1 X-10.276 Y27.572 E0.35298
G1 X-10.797 Y28.093 E0.06776
G1 X-8.082 Y30.808 E0.35298
G1 X-8.603 Y31.329 E0.06776
G1 X-11.318 Y28.614 E0.35298
G1 X-11.839 Y29.135 E0.06776
G1 X-9.124 Y31.850 E0.35298
G1 X-9.646 Y32.372 E0.06776
G1 X-12.361 Y29.657 E0.35298
G1 X-12.882 Y30.178 E0.06776
G1 X-10.167 Y32.893 E0.35298
G1 X-10.688 Y33.414 E0.06776
G1 X-13.403 Y30.699 E0.35298
G1 X-13.924 Y31.220 E0.06776
G1 X-11.209 Y33.935 E0.35298
G1 X-11.730 Y34.456 E0.06776
G1 X-14.445 Y31.741 E0.35298
G1 X-14.966 Y32.262 E0.06776
G1 X-12.251 Y34.977 E0.35298
G1 X-12.773 Y35.499 E0.06776
G1 X-15.488 Y32.784 E0.35298
G1 X-16.009 Y33.305 E0.06776
G1 X-13.294 Y36.020 E0.35298
G1 E-3.20000 F3000.00000
G1 Z0.700 F9000.000
G1 X8.608 Y2.076 F9000.000
G1 Z0.600 F9000.000
G1 E3.20000 F3000.00000
G1 X12.474 Y-6.607 E0.51645 F1800.000
G1 X12.474 Y-23.897 E0.93941
G1 X8.050 Y-29.559 E0.39039
G1 X2.514 Y-27.266 E0.32559
G1 X-6.090 Y-18.662 E0.66108
G1 X-10.706 Y-23.279 E0.35473
G1 X3.688 Y-37.673 E1.10602
G1 X4.474 Y-36.887 E0.06038
G1 X4.474 Y-38.028 E0.06198
G1 X18.003 Y-38.028 E0.73506
G1 X18.003 Y5.932 E2.38845
G1 X-13.667 Y37.601 E2.43342 F1800.000
G1 X-17.576 Y33.692 E0.30039
G1 X4.249 Y11.867 E1.67699
G1 X8.583 Y2.131 E0.57903
G1 X8.185 Y1.954 F9000.000
G1 X12.038 Y-6.700 E0.51468 F1800.000
G1 X12.038 Y-23.747 E0.92623
G1 X7.911 Y-29.030 E0.36424
G1 X2.761 Y-26.896 E0.30288
G1 X-6.090 Y-18.046 E0.68004
G1 X-11.322 Y-23.279 E0.40206
G1 X3.688 Y-38.289 E1.15336
G1 X4.038 Y-37.939 E0.02691
G1 X4.038 Y-38.463 E0.02851
G1 X18.438 Y-38.463 E0.78239
G1 X18.438 Y6.112 E2.42193
G1 X-13.667 Y38.217 E2.46690 F1800.000
G1 X-18.192 Y33.692 E0.34773
G1 X3.884 Y11.616 E1.69627
G1 X8.161 Y2.009 E0.57138
G1 X8.583 Y1.912 F9000.000
G1 X8.915 Y2.132 F9000.000
G1 X17.745 Y-6.697 E0.68080 F1800.000
G1 X17.745 Y-7.316 E0.03370
G1 X9.411 Y1.018 E0.64255
G1 X9.907 Y-0.096 F9000.000
G1 X17.745 Y-7.934 E0.60430 F1800.000
G1 X17.745 Y-8.552 E0.03370
G1 X10.403 Y-1.210 E0.56605
G1 X10.899 Y-2.325 F9000.000
G1 X17.745 Y-9.170 E0.52780 F1800.000
G1 X17.745 Y-9.788 E0.03370
G1 X11.396 Y-3.439 E0.48954
G1 X11.892 Y-4.553 F9000.000
G1 X17.745 Y-10.407 E0.45129 F1800.000
G1 X17.745 Y-11.025 E0.03370
G1 X12.388 Y-5.668 E0.41304
G1 X12.732 Y-6.630 F9000.000
G1 X17.745 Y-11.643 E0.38652 F1800.000
G1 X17.745 Y-12.261 E0.03370
G1 X12.732 Y-7.248 E0.38652
G1 X12.732 Y-7.866 E0.03370
G1 X17.745 Y-12.879 E0.38652
G1 X17.745 Y-13.497 E0.03370
G1 X12.732 Y-8.484 E0.38652
G1 X12.732 Y-9.102 E0.03370
G1 X17.745 Y-14.116 E0.38652
G1 X17.745 Y-14.734 E0.03370
G1 X12.732 Y-9.721 E0.38652
G1 X12.732 Y-10.339 E0.03370
G1 X17.745 Y-15.352 E0.38652
G1 X17.745 Y-15.970 E0.03370
G1 X12.732 Y-10.957 E0.38652
G1 X12.732 Y-11.575 E0.03370
G1 X17.745 Y-16.588 E0.38652
G1 X17.745 Y-17.206 E0.03370
G1 X12.732 Y-12.193 E0.38652
G1 X12.732 Y-12.812 E0.03370
G1 X17.745 Y-17.825 E0.38652
G1 X17.745 Y-18.443 E0.03370
G1 X12.732 Y-13.430 E0.38652
G1 X12.732 Y-14.048 E0.03370
G1 X17.745 Y-19.061 E0.38652
G1 X17.745 Y-19.679 E0.03370
G1 X12.732 Y-14.666 E0.38652
G1 X12.732 Y-15.284 E0.03370
G1 X17.745 Y-20.297 E0.38652
G1 X17.745 Y-20.915 E0.03370
G1 X12.732 Y-15.902 E0.38652
G1 X12.732 Y-16.521 E0.03370
G1 X17.745 Y-21.534 E0.38652
G1 X17.745 Y-22.152 E0.03370
G1 X12.732 Y-17.139 E0.38652
G1 X12.732 Y-17.757 E0.03370
G1 X17.745 Y-22.770 E0.38652
G1 X17.745 Y-23.388 E0.03370
G1 X12.732 Y-18.375 E0.38652
G1 X12.732 Y-18.993 E0.03370
G1 X17.745 Y-24.006 E0.38652
G1 X17.745 Y-24.625 E0.03370
G1 X12.732 Y-19.611 E0.38652
G1 X12.732 Y-20.230 E0.03370
G1 X17.745 Y-25.243 E0.38652
G1 X17.745 Y-25.861 E0.03370
G1 X12.732 Y-20.848 E0.38652
G1 X12.732 Y-21.466 E0.03370
G1 X17.745 Y-26.479 E0.38652
G1 X17.745 Y-27.097 E0.03370
G1 X12.732 Y-22.084 E0.38652
G1 X12.732 Y-22.702 E0.03370
G1 X17.745 Y-27.715 E0.38652
G1 X17.745 Y-28.334 E0.03370
G1 X12.732 Y-23.321 E0.38652
G1 X12.726 Y-23.933 E0.03338
G1 X17.745 Y-28.952 E0.38698
G1 X17.745 Y-29.570 E0.03370
G1 X12.455 Y-24.280 E0.40788
G1 X12.184 Y-24.627 E0.02401
G1 X17.745 Y-30.188 E0.42879
G1 X17.745 Y-30.806 E0.03370
G1 X11.912 Y-24.974 E0.44969
G1 X11.641 Y-25.321 E0.02401
G1 X17.745 Y-31.424 E0.47060
G1 X17.745 Y-32.043 E0.03370
G1 X11.370 Y-25.668 E0.49150
G1 X11.099 Y-26.015 E0.02401
G1 X17.745 Y-32.661 E0.51241
G1 X17.745 Y-33.279 E0.03370
G1 X10.828 Y-26.362 E0.53331
G1 X10.557 Y-26.709 E0.02401
G1 X17.745 Y-33.897 E0.55422
G1 X17.745 Y-34.515 E0.03370
G1 X10.286 Y-27.056 E0.57512
G1 X10.014 Y-27.403 E0.02401
G1 X17.745 Y-35.134 E0.59603
G1 X17.745 Y-35.752 E0.03370
G1 X9.743 Y-27.750 E0.61693
G1 X9.472 Y-28.097 E0.02401
G1 X17.745 Y-36.370 E0.63784
G1 X17.745 Y-36.988 E0.03370
G1 X9.201 Y-28.444 E0.65875
G1 X8.930 Y-28.791 E0.02401
G1 X17.745 Y-37.606 E0.67965
G1 X17.290 Y-37.770 E0.02633
G1 X8.659 Y-29.138 E0.66552
G1 X8.388 Y-29.485 E0.02401
G1 X16.672 Y-37.770 E0.63876
G1 X16.054 Y-37.770 E0.03370
G1 X8.117 Y-29.832 E0.61200
G1 X7.196 Y-29.530 E0.05282
G1 X15.436 Y-37.770 E0.63532
G1 X14.818 Y-37.770 E0.03370
G1 X6.141 Y-29.093 E0.66902
G1 X5.085 Y-28.656 F9000.000
G1 X14.200 Y-37.770 E0.70272 F1800.000
G1 X13.581 Y-37.770 E0.03370
G1 X4.030 Y-28.219 E0.73642
G1 X2.975 Y-27.782 F9000.000
G1 X12.963 Y-37.770 E0.77013 F1800.000
G1 X12.345 Y-37.770 E0.03370
G1 X-6.271 Y-19.154 E1.43533
G1 X-6.580 Y-19.463 E0.02383
G1 X11.727 Y-37.770 E1.41150
G1 X11.109 Y-37.770 E0.03370
G1 X-6.889 Y-19.772 E1.38767
G1 X-7.198 Y-20.081 E0.02383
G1 X10.490 Y-37.770 E1.36384
G1 X9.872 Y-37.770 E0.03370
G1 X-7.507 Y-20.390 E1.34001
G1 X-7.816 Y-20.699 E0.02383
G1 X9.254 Y-37.770 E1.31617
G1 X8.636 Y-37.770 E0.03370
G1 X-8.125 Y-21.009 E1.29234
G1 X-8.435 Y-21.318 E0.02383
G1 X8.018 Y-37.770 E1.26851
G1 X7.400 Y-37.770 E0.03370
G1 X-8.744 Y-21.627 E1.24468
G1 X-9.053 Y-21.936 E0.02383
G1 X6.781 Y-37.770 E1.22085
G1 X6.163 Y-37.770 E0.03370
G1 X-9.362 Y-22.245 E1.19702
G1 X-9.671 Y-22.554 E0.02383
G1 X4.413 Y-36.638 E1.08588
G1 X4.104 Y-36.947 E0.02383
G1 X-9.980 Y-22.863 E1.08588
G1 X-10.289 Y-23.172 E0.02383
G1 X3.795 Y-37.256 E1.08588
G1 X4.732 Y-36.957 F9000.000
G1 X5.545 Y-37.770 E0.06271 F1800.000
G1 X4.927 Y-37.770 E0.03370
G1 X4.732 Y-37.575 E0.01504
G1 E-3.20000 F3000.00000
G1 Z1.000 F9000.000
G1 X8.419 Y3.247 F9000.000
G1 Z0.600 F9000.000
G1 E3.20000 F3000.00000
G1 X17.745 Y-6.079 E0.71905 F1800.000
G1 X17.745 Y-5.461 E0.03370
G1 X7.923 Y4.361 E0.75730
G1 X7.427 Y5.475 F9000.000
G1 X17.745 Y-4.843 E0.79556 F1800.000
G1 X17.745 Y-4.225 E0.03370
G1 X6.931 Y6.590 E0.83381
G1 X6.434 Y7.704 F9000.000
G1 X17.745 Y-3.607 E0.87206 F1800.000
G1 X17.745 Y-2.988 E0.03370
G1 X5.938 Y8.818 E0.91031
G1 X5.442 Y9.932 F9000.000
G1 X17.745 Y-2.370 E0.94856 F1800.000
G1 X17.745 Y-1.752 E0.03370
G1 X4.946 Y11.047 E0.98681
G1 X4.450 Y12.161 F9000.000
G1 X17.745 Y-1.134 E1.02507 F1800.000
G1 X17.745 Y-0.516 E0.03370
G1 X-16.850 Y34.079 E2.66734
G1 X-16.541 Y34.388 E0.02383
G1 X17.745 Y0.102 E2.64351
G1 X17.745 Y0.721 E0.03370
G1 X-16.232 Y34.697 E2.61968
G1 X-15.923 Y35.006 E0.02383
G1 X17.745 Y1.339 E2.59585
G1 X17.745 Y1.957 E0.03370
G1 X-15.614 Y35.316 E2.57202
G1 X-15.305 Y35.625 E0.02383
G1 X17.745 Y2.575 E2.54819
