; generated by Slic3r 1.2.9 on 2017-01-30 at 11:47:35

; external perimeters extrusion width = 0.40mm
; perimeters extrusion width = 0.40mm
; infill extrusion width = 0.40mm
; solid infill extrusion width = 0.40mm
; top infill extrusion width = 0.40mm

M107
M83
T0
M116
G21 ; set units to millimeters
G90 ; use absolute coordinates
M83 ; use relative distances for extrusion
G1 E-3.20000 F3000.00000
G1 Z0.400 F15000.000
G1 X6.569 Y-13.205 F15000.000
G1 Z0.300 F15000.000
G1 E3.20000 F3000.00000
G1 X16.519 Y-8.255 E0.85645 F960.000
G1 X17.818 Y-7.168 E0.13052
G1 X18.536 Y-5.000 E0.17600
G1 X18.536 Y14.900 E1.53360
G1 X18.141 Y16.547 E0.13052
G1 X17.043 Y17.837 E0.13052
G1 X14.900 Y18.536 E0.17373
G1 X-5.000 Y18.536 E1.53360
G1 X-6.647 Y18.141 E0.13052
G1 X-8.255 Y16.519 E0.17600
G1 X-18.155 Y-3.381 E1.71290
G1 X-18.536 Y-5.000 E0.12820
G1 X-18.536 Y-14.900 E0.76295
G1 X-18.141 Y-16.547 E0.13052
G1 X-17.043 Y-17.837 E0.13052
G1 X-14.900 Y-18.536 E0.17373
G1 X-5.000 Y-18.536 E0.76295
G1 X-3.381 Y-18.155 E0.12820
G1 X6.516 Y-13.232 E0.85183 F960.000
G1 E-3.20000 F3000.00000
G1 Z0.700 F15000.000
G1 X6.516 Y-5.953 F15000.000
G1 Z0.300 F15000.000
G1 E3.20000 F3000.00000
G1 X15.295 Y-5.953 E0.67658 F960.000
G1 X15.853 Y-5.395 E0.06087
G1 X15.853 Y15.295 E1.59447
G1 X15.295 Y15.853 E0.06087
G1 X-5.395 Y15.853 E1.59447
G1 X-5.953 Y15.295 E0.06087
G1 X-5.953 Y-3.674 E1.46187
G1 X-6.326 Y-4.047 E0.04058
G1 X-15.295 Y-4.047 E0.69121
G1 X-15.853 Y-4.605 E0.06087
G1 X-15.853 Y-15.295 E0.82382
G1 X-15.295 Y-15.853 E0.06087
G1 X-4.605 Y-15.853 E0.82382
G1 X-4.047 Y-15.295 E0.06087
G1 X-4.047 Y-6.326 E0.69121 F960.000
G1 X-3.674 Y-5.953 E0.04058
G1 X6.456 Y-5.953 E0.78066
G1 X6.456 Y-5.318 F15000.000
G1 X15.032 Y-5.318 E0.66091 F960.000
G1 X15.218 Y-5.132 E0.02029
G1 X15.218 Y15.032 E1.55389
G1 X15.032 Y15.218 E0.02029
G1 X-5.132 Y15.218 E1.55389
G1 X-5.318 Y15.032 E0.02029
G1 X-5.318 Y-4.310 E1.49056
G1 X-5.690 Y-4.682 E0.04058
G1 X-15.032 Y-4.682 E0.71991
G1 X-15.218 Y-4.868 E0.02029
G1 X-15.218 Y-15.032 E0.78324
G1 X-15.032 Y-15.218 E0.02029
G1 X-4.868 Y-15.218 E0.78324
G1 X-4.682 Y-15.032 E0.02029 F960.000
G1 X-4.682 Y-5.690 E0.71991
G1 X-4.310 Y-5.318 E0.04058
G1 X6.396 Y-5.318 E0.82502
G1 E-3.20000 F3000.00000
G1 Z0.700 F15000.000
G1 X0.941 Y-4.014 F15000.000
G1 Z0.300 F15000.000
G1 E3.20000 F3000.00000
G1 X13.914 Y-4.014 E0.99979 F720.000
G1 X13.914 Y13.914 E1.38169
G1 X-4.014 Y13.914 E1.38169 F720.000
G1 X-4.014 Y-4.014 E1.38169
G1 X0.881 Y-4.014 E0.37728
G1 X0.881 Y-4.650 F15000.000
G1 X14.550 Y-4.650 E1.05340 F720.000
G1 X14.550 Y14.550 E1.47966
G1 X-4.650 Y14.550 E1.47966 F720.000
G1 X-4.650 Y-4.650 E1.47966
G1 X0.821 Y-4.650 E0.42164
G1 X1.081 Y-4.304 F15000.000
G1 X13.529 Y-3.319 F15000.000
G1 X13.219 Y-3.629 E0.03419 F960.000
G1 X12.309 Y-3.629 E0.07111
G1 X13.529 Y-2.409 E0.13475
G1 X13.529 Y-1.498 E0.07111
G1 X11.398 Y-3.629 E0.23532
G1 X10.487 Y-3.629 E0.07111
G1 X13.529 Y-0.587 E0.33588
G1 X13.529 Y0.324 E0.07111
G1 X9.576 Y-3.629 E0.43644
G1 X8.666 Y-3.629 E0.07111
G1 X13.529 Y1.234 E0.53700
G1 X13.529 Y2.145 E0.07111
G1 X7.755 Y-3.629 E0.63756
G1 X6.844 Y-3.629 E0.07111
G1 X13.529 Y3.056 E0.73812
G1 X13.529 Y3.966 E0.07111
G1 X5.934 Y-3.629 E0.83868
G1 X5.023 Y-3.629 E0.07111
G1 X13.529 Y4.877 E0.93924
G1 X13.529 Y5.788 E0.07111
G1 X4.112 Y-3.629 E1.03980
G1 X3.201 Y-3.629 E0.07111
G1 X13.529 Y6.699 E1.14036
G1 X13.529 Y7.609 E0.07111
G1 X2.291 Y-3.629 E1.24093
G1 X1.380 Y-3.629 E0.07111
G1 X13.529 Y8.520 E1.34149
G1 X13.529 Y9.431 E0.07111
G1 X0.469 Y-3.629 E1.44205
G1 X-0.441 Y-3.629 E0.07111
G1 X13.529 Y10.341 E1.54261
G1 X13.529 Y11.252 E0.07111
G1 X-1.352 Y-3.629 E1.64317
G1 X-2.263 Y-3.629 E0.07111
G1 X13.529 Y12.163 E1.74373
G1 X13.529 Y13.074 E0.07111
G1 X-3.174 Y-3.629 E1.84429
G1 X-3.629 Y-3.174 E0.05028
G1 X13.074 Y13.529 E1.84429
G1 X12.163 Y13.529 E0.07111
G1 X-3.629 Y-2.263 E1.74373
G1 X-3.629 Y-1.352 E0.07111
G1 X11.252 Y13.529 E1.64317
G1 X10.341 Y13.529 E0.07111
G1 X-3.629 Y-0.441 E1.54261
G1 X-3.629 Y0.469 E0.07111
G1 X9.431 Y13.529 E1.44204
G1 X8.520 Y13.529 E0.07111
G1 X-3.629 Y1.380 E1.34148
G1 X-3.629 Y2.291 E0.07111
G1 X7.609 Y13.529 E1.24092
G1 X6.699 Y13.529 E0.07111
G1 X-3.629 Y3.201 E1.14036
G1 X-3.629 Y4.112 E0.07111
G1 X5.788 Y13.529 E1.03980
G1 X4.877 Y13.529 E0.07111
G1 X-3.629 Y5.023 E0.93924
G1 X-3.629 Y5.934 E0.07111
G1 X3.966 Y13.529 E0.83868
G1 X3.056 Y13.529 E0.07111
G1 X-3.629 Y6.844 E0.73812
G1 X-3.629 Y7.755 E0.07111
G1 X2.145 Y13.529 E0.63756
G1 X1.234 Y13.529 E0.07111
G1 X-3.629 Y8.666 E0.53700
G1 X-3.629 Y9.576 E0.07111
G1 X0.324 Y13.529 E0.43643
G1 X-0.587 Y13.529 E0.07111
G1 X-3.629 Y10.487 E0.33587
G1 X-3.629 Y11.398 E0.07111
G1 X-1.498 Y13.529 E0.23531
G1 X-2.409 Y13.529 E0.07111
G1 X-3.629 Y12.309 E0.13475
G1 X-3.629 Y13.219 E0.07111
G1 X-3.319 Y13.529 E0.03419
G1 E-3.20000 F3000.00000
G1 Z0.700 F15000.000
G1 X-11.462 Y-10.240 F15000.000
G1 Z0.300 F15000.000
G1 E3.20000 F3000.00000
G1 X-11.931 Y-10.151 E0.03677 F600.000
G1 X-12.407 Y-10.181 E0.03677
G1 X-12.860 Y-10.328 E0.03677
G1 X-13.263 Y-10.584 E0.03677
G1 X-13.590 Y-10.931 E0.03677
G1 X-13.820 Y-11.349 E0.03677
G1 X-13.938 Y-11.811 E0.03677
G1 X-13.938 Y-12.289 E0.03676
G1 X-13.820 Y-12.751 E0.03677
G1 X-13.590 Y-13.169 E0.03677
G1 X-13.263 Y-13.516 E0.03677
G1 X-12.857 Y-13.774 E0.03711
G1 X-12.358 Y-13.923 E0.04006
G1 X-11.930 Y-13.949 E0.03303 F600.000
G1 X-11.462 Y-13.860 E0.03676
G1 X-11.030 Y-13.657 E0.03677
G1 X-10.663 Y-13.353 E0.03677
G1 X-10.382 Y-12.967 E0.03676
G1 X-10.207 Y-12.523 E0.03677
G1 X-10.147 Y-12.050 E0.03677
G1 X-10.207 Y-11.577 E0.03677
G1 X-10.382 Y-11.133 E0.03677
G1 X-10.663 Y-10.747 E0.03676
G1 X-11.030 Y-10.443 E0.03677
G1 X-11.408 Y-10.266 E0.03214
G1 X-11.561 Y-9.853 F15000.000
G1 X-12.324 Y-9.538 F15000.000
G1 X-11.890 Y-9.511 E0.03347 F600.000
G1 X-11.264 Y-9.631 E0.04914
G1 X-10.687 Y-9.902 E0.04914
G1 X-10.196 Y-10.309 E0.04914
G1 X-9.821 Y-10.824 E0.04914
G1 X-9.586 Y-11.417 E0.04914
G1 X-9.506 Y-12.050 E0.04914
G1 X-9.586 Y-12.683 E0.04914
G1 X-9.821 Y-13.276 E0.04914
G1 X-10.285 Y-13.914 E0.06086
G1 X-5.986 Y-13.914 E0.33133
G1 X-5.986 Y-5.986 E0.61103
G1 X-13.914 Y-5.986 E0.61103 F600.000
G1 X-13.914 Y-10.244 E0.32818
G1 X-13.133 Y-9.748 E0.07131
G1 X-12.527 Y-9.551 E0.04914
G1 X-12.384 Y-9.542 E0.01105
G1 X-14.550 Y-9.542 F15000.000
G1 X-14.550 Y-14.550 E0.38593 F600.000
G1 X-5.350 Y-14.550 E0.70900
G1 X-5.350 Y-5.350 E0.70900
G1 X-14.550 Y-5.350 E0.70900 F600.000
G1 X-14.550 Y-9.482 E0.31845
G1 X-14.204 Y-9.742 F15000.000
G1 X-14.214 Y-12.567 F15000.000
G1 X-14.165 Y-12.922 E0.02764 F960.000
G1 X-13.849 Y-13.357 E0.04142
G1 X-13.467 Y-13.763 F15000.000
G1 X-12.992 Y-14.151 E0.04728 F960.000
G1 X-12.555 Y-14.214 E0.03397
G1 X-6.371 Y-13.219 F15000.000
G1 X-6.681 Y-13.529 E0.03428 F960.000
G1 X-7.594 Y-13.529 E0.07148
G1 X-6.371 Y-12.306 E0.13537
G1 X-6.371 Y-11.393 E0.07148
G1 X-8.507 Y-13.529 E0.23646
G1 X-9.407 Y-13.516 E0.07045
G1 X-6.371 Y-10.480 E0.33609
G1 X-6.371 Y-9.567 E0.07148
G1 X-9.135 Y-12.331 E0.30600
G1 X-9.205 Y-11.487 E0.06625
G1 X-6.371 Y-8.654 E0.31371
G1 X-6.371 Y-7.741 E0.07148
G1 X-9.451 Y-10.821 E0.34098
G1 X-9.813 Y-10.270 E0.05161
G1 X-6.371 Y-6.828 E0.38110
G1 X-6.828 Y-6.371 E0.05054
G1 X-10.273 Y-9.816 E0.38140
G1 X-10.829 Y-9.459 E0.05173
G1 X-7.741 Y-6.371 E0.34185
G1 X-8.654 Y-6.371 E0.07148
G1 X-11.499 Y-9.217 E0.31503
G1 X-12.340 Y-9.145 E0.06608
G1 X-9.567 Y-6.371 E0.30705
G1 X-10.480 Y-6.371 E0.07148
G1 X-13.516 Y-9.407 E0.33609
G1 X-13.529 Y-8.507 E0.07046
G1 X-11.393 Y-6.371 E0.23646
G1 X-12.306 Y-6.371 E0.07148
G1 X-13.529 Y-7.594 E0.13537
G1 X-13.529 Y-6.681 E0.07148
G1 X-13.219 Y-6.371 E0.03428
G1 E-3.20000 F3000.00000
G1 Z0.700 F15000.000
G1 X0.236 Y-4.443 F15000.000
G1 Z0.500 F15000.000
G1 E3.20000 F3000.00000
G1 X14.343 Y-4.443 E0.40716 F2400.000
G1 X14.343 Y14.343 E0.54221
G1 X-4.443 Y14.343 E0.54221 F2400.000
G1 X-4.443 Y-4.443 E0.54221
G1 X0.176 Y-4.443 E0.13331
G1 X0.176 Y-4.800 F15000.000
G1 X14.700 Y-4.800 E0.41920 F2400.000
G1 X14.700 Y14.700 E0.56282
G1 X-4.800 Y14.700 E0.56282 F2400.000
G1 X-4.800 Y-4.800 E0.56282
G1 X0.116 Y-4.800 E0.14189
G1 X0.376 Y-4.454 F15000.000
G1 X-4.235 Y-4.044 F15000.000
G1 X-4.044 Y-4.235 E0.00792 F2978.175
G1 X-3.532 Y-4.235 E0.01499
G1 X-4.235 Y-3.532 E0.02912
G1 X-4.235 Y-3.020 E0.01499
G1 X-3.020 Y-4.235 E0.05032
G1 X-2.507 Y-4.235 E0.01499
G1 X-4.235 Y-2.507 E0.07151
G1 X-4.235 Y-1.995 E0.01499
G1 X-1.995 Y-4.235 E0.09271
G1 X-1.483 Y-4.235 E0.01499
G1 X-4.235 Y-1.483 E0.11390
G1 X-4.235 Y-0.971 E0.01499
G1 X-0.971 Y-4.235 E0.13510
G1 X-0.459 Y-4.235 E0.01499
G1 X-4.235 Y-0.459 E0.15629
G1 X-4.235 Y0.053 E0.01499
G1 X0.053 Y-4.235 E0.17749
G1 X0.565 Y-4.235 E0.01499
G1 X-4.235 Y0.565 E0.19869
G1 X-4.235 Y1.077 E0.01499
G1 X1.077 Y-4.235 E0.21988
G1 X1.589 Y-4.235 E0.01499
G1 X-4.235 Y1.589 E0.24108
G1 X-4.235 Y2.101 E0.01499
G1 X2.101 Y-4.235 E0.26227
G1 X2.613 Y-4.235 E0.01499
G1 X-4.235 Y2.613 E0.28347
G1 X-4.235 Y3.125 E0.01499
G1 X3.125 Y-4.235 E0.30466
G1 X3.637 Y-4.235 E0.01499
G1 X-4.235 Y3.637 E0.32586
G1 X-4.235 Y4.150 E0.01499
G1 X4.150 Y-4.235 E0.34706
G1 X4.662 Y-4.235 E0.01499
G1 X-4.235 Y4.662 E0.36825
G1 X-4.235 Y5.174 E0.01499
G1 X5.174 Y-4.235 E0.38945
G1 X5.686 Y-4.235 E0.01499
G1 X-4.235 Y5.686 E0.41064
G1 X-4.235 Y6.198 E0.01499
G1 X6.198 Y-4.235 E0.43184
G1 X6.710 Y-4.235 E0.01499
G1 X-4.235 Y6.710 E0.45303
G1 X-4.235 Y7.222 E0.01499
G1 X7.222 Y-4.235 E0.47423
G1 X7.734 Y-4.235 E0.01499
G1 X-4.235 Y7.734 E0.49543
G1 X-4.235 Y8.246 E0.01499
G1 X8.246 Y-4.235 E0.51662
G1 X8.758 Y-4.235 E0.01499
G1 X-4.235 Y8.758 E0.53782
G1 X-4.235 Y9.270 E0.01499
G1 X9.270 Y-4.235 E0.55901
G1 X9.782 Y-4.235 E0.01499
G1 X-4.235 Y9.782 E0.58021
G1 X-4.235 Y10.295 E0.01499
G1 X10.295 Y-4.235 E0.60140
G1 X10.807 Y-4.235 E0.01499
G1 X-4.235 Y10.807 E0.62260
G1 X-4.235 Y11.319 E0.01499
G1 X11.319 Y-4.235 E0.64380
G1 X11.831 Y-4.235 E0.01499
G1 X-4.235 Y11.831 E0.66499
G1 X-4.235 Y12.343 E0.01499
G1 X12.343 Y-4.235 E0.68619
G1 X12.855 Y-4.235 E0.01499
G1 X-4.235 Y12.855 E0.70738
G1 X-4.235 Y13.367 E0.01499
G1 X13.367 Y-4.235 E0.72858
G1 X13.879 Y-4.235 E0.01499
G1 X-4.235 Y13.879 E0.74978
G1 X-3.979 Y14.135 E0.01060
G1 X14.135 Y-3.979 E0.74978
G1 X14.135 Y-3.467 E0.01499
G1 X-3.467 Y14.135 E0.72858
G1 X-2.955 Y14.135 E0.01499
G1 X14.135 Y-2.955 E0.70739
G1 X14.135 Y-2.443 E0.01499
G1 X-2.443 Y14.135 E0.68619
G1 X-1.931 Y14.135 E0.01499
G1 X14.135 Y-1.931 E0.66500
G1 X14.135 Y-1.419 E0.01499
G1 X-1.419 Y14.135 E0.64380
G1 X-0.907 Y14.135 E0.01499
G1 X14.135 Y-0.907 E0.62260
G1 X14.135 Y-0.395 E0.01499
G1 X-0.395 Y14.135 E0.60141
G1 X0.117 Y14.135 E0.01499
G1 X14.135 Y0.117 E0.58021
G1 X14.135 Y0.630 E0.01499
G1 X0.630 Y14.135 E0.55902
G1 X1.142 Y14.135 E0.01499
G1 X14.135 Y1.142 E0.53782
G1 X14.135 Y1.654 E0.01499
G1 X1.654 Y14.135 E0.51662
G1 X2.166 Y14.135 E0.01499
G1 X14.135 Y2.166 E0.49543
G1 X14.135 Y2.678 E0.01499
G1 X2.678 Y14.135 E0.47423
G1 X3.190 Y14.135 E0.01499
G1 X14.135 Y3.190 E0.45304
G1 X14.135 Y3.702 E0.01499
G1 X3.702 Y14.135 E0.43184
G1 X4.214 Y14.135 E0.01499
G1 X14.135 Y4.214 E0.41065
G1 X14.135 Y4.726 E0.01499
G1 X4.726 Y14.135 E0.38945
G1 X5.238 Y14.135 E0.01499
G1 X14.135 Y5.238 E0.36825
G1 X14.135 Y5.750 E0.01499
G1 X5.750 Y14.135 E0.34706
G1 X6.262 Y14.135 E0.01499
G1 X14.135 Y6.262 E0.32586
G1 X14.135 Y6.775 E0.01499
G1 X6.775 Y14.135 E0.30467
G1 X7.287 Y14.135 E0.01499
G1 X14.135 Y7.287 E0.28347
G1 X14.135 Y7.799 E0.01499
G1 X7.799 Y14.135 E0.26228
G1 X8.311 Y14.135 E0.01499
G1 X14.135 Y8.311 E0.24108
G1 X14.135 Y8.823 E0.01499
G1 X8.823 Y14.135 E0.21988
G1 X9.335 Y14.135 E0.01499
G1 X14.135 Y9.335 E0.19869
G1 X14.135 Y9.847 E0.01499
G1 X9.847 Y14.135 E0.17749
G1 X10.359 Y14.135 E0.01499
G1 X14.135 Y10.359 E0.15630
G1 X14.135 Y10.871 E0.01499
G1 X10.871 Y14.135 E0.13510
G1 X11.383 Y14.135 E0.01499
G1 X14.135 Y11.383 E0.11391
G1 X14.135 Y11.895 E0.01499
G1 X11.895 Y14.135 E0.09271
G1 X12.407 Y14.135 E0.01499
G1 X14.135 Y12.407 E0.07151
G1 X14.135 Y12.920 E0.01499
G1 X12.920 Y14.135 E0.05032
G1 X13.432 Y14.135 E0.01499
G1 X14.135 Y13.432 E0.02912
G1 X14.135 Y13.944 E0.01499
G1 X13.944 Y14.135 E0.00793
G1 E-3.20000 F3000.00000
G1 Z0.900 F15000.000
G1 X-10.773 Y-10.851 F15000.000
G1 Z0.500 F15000.000
G1 E3.20000 F3000.00000
G1 X-11.111 Y-10.571 E0.01268 F2400.000
G1 X-11.509 Y-10.384 E0.01268
G1 X-11.940 Y-10.301 E0.01268
G1 X-12.378 Y-10.329 E0.01268
G1 X-12.796 Y-10.465 E0.01268
G1 X-13.167 Y-10.700 E0.01268
G1 X-13.467 Y-11.020 E0.01268
G1 X-13.679 Y-11.405 E0.01268
G1 X-13.788 Y-11.830 E0.01268
G1 X-13.788 Y-12.270 E0.01268
G1 X-13.679 Y-12.695 E0.01268
G1 X-13.467 Y-13.080 E0.01268
G1 X-13.167 Y-13.400 E0.01268
G1 X-12.796 Y-13.635 E0.01268
G1 X-12.378 Y-13.771 E0.01268 F2400.000
G1 X-12.247 Y-13.779 E0.00381
G1 X-11.940 Y-13.799 E0.00887
G1 X-11.509 Y-13.716 E0.01268
G1 X-11.111 Y-13.529 E0.01268
G1 X-10.773 Y-13.249 E0.01268
G1 X-10.515 Y-12.894 E0.01268
G1 X-10.353 Y-12.486 E0.01268
G1 X-10.298 Y-12.050 E0.01268
G1 X-10.353 Y-11.614 E0.01268
G1 X-10.515 Y-11.206 E0.01268
G1 X-10.738 Y-10.899 E0.01094
G1 X-10.673 Y-10.463 F15000.000
G1 E-3.20000 F3000.00000
G1 Z0.900 F15000.000
G1 X-12.720 Y-14.343 F15000.000
G1 Z0.500 F15000.000
G1 E3.20000 F3000.00000
G1 X-12.279 Y-14.343 E0.01272 F2400.000
G1 X-12.272 Y-14.135 E0.00599
G1 X-12.446 Y-14.124 E0.00501 F2400.000
G1 X-12.949 Y-13.961 E0.01528
G1 X-13.396 Y-13.677 E0.01528
G1 X-13.759 Y-13.291 E0.01528
G1 X-14.014 Y-12.827 E0.01528
G1 X-14.156 Y-12.275 E0.01647
G1 X-14.343 Y-12.298 E0.00545
G1 X-14.343 Y-14.343 E0.05901
G1 X-12.780 Y-14.343 E0.04512
G1 X-5.557 Y-9.856 F15000.000
G1 X-5.557 Y-5.557 E0.12408 F2400.000
G1 X-14.343 Y-5.557 E0.25358 F2400.000
G1 X-14.343 Y-11.802 E0.18024
G1 X-14.156 Y-11.825 E0.00545
G1 X-14.014 Y-11.273 E0.01647
G1 X-13.759 Y-10.809 E0.01528
G1 X-13.396 Y-10.423 E0.01528
G1 X-12.949 Y-10.139 E0.01528
G1 X-12.446 Y-9.976 E0.01528
G1 X-11.917 Y-9.942 E0.01528
G1 X-11.397 Y-10.041 E0.01528
G1 X-10.918 Y-10.267 E0.01528
G1 X-10.510 Y-10.604 E0.01528
G1 X-10.199 Y-11.033 E0.01528
G1 X-10.004 Y-11.525 E0.01528
G1 X-9.938 Y-12.050 E0.01528
G1 X-10.004 Y-12.575 E0.01528
G1 X-10.199 Y-13.067 E0.01528
G1 X-10.510 Y-13.496 E0.01528
G1 X-10.918 Y-13.833 E0.01528
G1 X-11.397 Y-14.059 E0.01528
G1 X-11.871 Y-14.149 E0.01391
G1 X-11.852 Y-14.343 E0.00563
G1 X-5.557 Y-14.343 E0.18170
G1 X-5.557 Y-9.916 E0.12777
G1 X-5.200 Y-9.916 F15000.000
G1 X-5.200 Y-5.200 E0.13612 F2400.000
G1 X-14.700 Y-5.200 E0.27420 F2400.000
G1 X-14.700 Y-14.700 E0.27420
G1 X-5.200 Y-14.700 E0.27420
G1 X-5.200 Y-9.976 E0.13635
G1 X-5.546 Y-9.716 F15000.000
G1 X-5.956 Y-5.765 F15000.000
G1 X-5.765 Y-5.956 E0.00806 F2978.175
G1 X-5.765 Y-6.477 E0.01548
G1 X-6.477 Y-5.765 E0.02994
G1 X-6.997 Y-5.765 E0.01548
G1 X-5.765 Y-6.997 E0.05183
G1 X-5.765 Y-7.518 E0.01548
G1 X-7.518 Y-5.765 E0.07372
G1 X-8.038 Y-5.765 E0.01548
G1 X-5.765 Y-8.038 E0.09561
G1 X-5.765 Y-8.558 E0.01548
G1 X-8.558 Y-5.765 E0.11750
G1 X-9.079 Y-5.765 E0.01548
G1 X-5.765 Y-9.079 E0.13939
G1 X-5.765 Y-9.599 E0.01548
G1 X-9.599 Y-5.765 E0.16128
G1 X-10.119 Y-5.765 E0.01548
G1 X-5.765 Y-10.119 E0.18317
G1 X-5.765 Y-10.640 E0.01548
G1 X-10.640 Y-5.765 E0.20506
G1 X-11.160 Y-5.765 E0.01548
G1 X-5.765 Y-11.160 E0.22695
G1 X-5.765 Y-11.681 E0.01548
G1 X-11.681 Y-5.765 E0.24884
G1 X-12.201 Y-5.765 E0.01548
G1 X-5.765 Y-12.201 E0.27073
G1 X-5.765 Y-12.721 E0.01548
G1 X-12.721 Y-5.765 E0.29262
G1 X-13.242 Y-5.765 E0.01548
G1 X-5.765 Y-13.242 E0.31451
G1 X-5.765 Y-13.762 E0.01548
G1 X-13.762 Y-5.765 E0.33640
G1 X-14.135 Y-5.912 E0.01193
G1 X-5.912 Y-14.135 E0.34588
G1 X-6.433 Y-14.135 E0.01548
G1 X-14.135 Y-6.433 E0.32399
G1 X-14.135 Y-6.953 E0.01548
G1 X-11.245 Y-9.843 E0.12157
G1 X-11.873 Y-9.736 E0.01894
G1 X-14.135 Y-7.474 E0.09516
G1 X-14.135 Y-7.994 E0.01548
G1 X-12.362 Y-9.767 E0.07457
G1 X-12.767 Y-9.882 E0.01252
G1 X-14.135 Y-8.514 E0.05754
G1 X-14.135 Y-9.035 E0.01548
G1 X-13.129 Y-10.041 E0.04233
G1 X-13.447 Y-10.243 E0.01121
G1 X-14.135 Y-9.555 E0.02894
G1 X-14.135 Y-10.075 E0.01548
G1 X-13.711 Y-10.500 E0.01785
