; generated by Slic3r 1.2.9 on 2017-01-30 at 16:01:22

; external perimeters extrusion width = 0.40mm
; perimeters extrusion width = 0.40mm
; infill extrusion width = 0.40mm
; solid infill extrusion width = 0.40mm
; top infill extrusion width = 0.40mm

M107
M83
T0
M116
G21 ; set units to millimeters
G90 ; use absolute coordinates
M83 ; use relative distances for extrusion
G1 E-3.20000 F3000.00000
G1 Z0.400 F15000.000
G1 X6.313 Y-13.327 F15000.000
G1 Z0.300 F15000.000
G1 E3.20000 F3000.00000
G1 X16.006 Y-8.736 E0.82660 F960.000
G1 X17.326 Y-7.674 E0.13052
G1 X18.086 Y-5.450 E0.18112
G1 X18.086 Y14.450 E1.53360
G1 X17.691 Y16.097 E0.13052
G1 X16.593 Y17.387 E0.13052
G1 X14.450 Y18.086 E0.17373
G1 X-5.450 Y18.086 E1.53360
G1 X-7.097 Y17.691 E0.13052
G1 X-8.736 Y16.006 E0.18112
G1 X-17.736 Y-2.994 E1.62021
G1 X-18.086 Y-4.550 E0.12294
G1 X-18.086 Y-14.450 E0.76295
G1 X-17.691 Y-16.097 E0.13052
G1 X-16.593 Y-17.387 E0.13052
G1 X-14.450 Y-18.086 E0.17373
G1 X-4.550 Y-18.086 E0.76295
G1 X-2.994 Y-17.736 E0.12294
G1 X6.259 Y-13.353 E0.78899 F960.000
G1 E-3.20000 F3000.00000
G1 Z0.700 F15000.000
G1 X6.259 Y-7.039 F15000.000
G1 Z0.300 F15000.000
G1 E3.20000 F3000.00000
G1 X15.108 Y-7.039 E0.68199 F960.000
G1 X16.039 Y-6.108 E0.10145
G1 X16.039 Y15.108 E1.63505
G1 X15.108 Y16.039 E0.10145
G1 X-6.108 Y16.039 E1.63505
G1 X-7.039 Y15.108 E0.10145
G1 X-7.039 Y-2.589 E1.36381
G1 X-7.411 Y-2.961 E0.04058
G1 X-15.108 Y-2.961 E0.59316
G1 X-16.039 Y-3.892 E0.10145
G1 X-16.039 Y-15.108 E0.86440
G1 X-15.108 Y-16.039 E0.10145
G1 X-3.892 Y-16.039 E0.86440
G1 X-2.961 Y-15.108 E0.10145
G1 X-2.961 Y-7.411 E0.59316 F960.000
G1 X-2.589 Y-7.039 E0.04058
G1 X6.199 Y-7.039 E0.67720
G1 X6.199 Y-6.403 F15000.000
G1 X14.845 Y-6.403 E0.66633 F960.000
G1 X15.403 Y-5.845 E0.06087
G1 X15.403 Y14.845 E1.59447
G1 X14.845 Y15.403 E0.06087
G1 X-5.845 Y15.403 E1.59447
G1 X-6.403 Y14.845 E0.06087
G1 X-6.403 Y-3.224 E1.39251
G1 X-6.776 Y-3.597 E0.04058
G1 X-14.845 Y-3.597 E0.62185
G1 X-15.403 Y-4.155 E0.06087
G1 X-15.403 Y-14.845 E0.82382
G1 X-14.845 Y-15.403 E0.06087
G1 X-4.155 Y-15.403 E0.82382
G1 X-3.597 Y-14.845 E0.06087 F960.000
G1 X-3.597 Y-6.776 E0.62185
G1 X-3.224 Y-6.403 E0.04058
G1 X6.139 Y-6.403 E0.72156
G1 X6.139 Y-5.768 F15000.000
G1 X14.582 Y-5.768 E0.65066 F960.000
G1 X14.768 Y-5.582 E0.02029
G1 X14.768 Y14.582 E1.55389
G1 X14.582 Y14.768 E0.02029
G1 X-5.582 Y14.768 E1.55389
G1 X-5.768 Y14.582 E0.02029
G1 X-5.768 Y-3.860 E1.42120
G1 X-6.140 Y-4.232 E0.04058
G1 X-14.582 Y-4.232 E0.65055
G1 X-14.768 Y-4.418 E0.02029
G1 X-14.768 Y-14.582 E0.78324
G1 X-14.582 Y-14.768 E0.02029
G1 X-4.418 Y-14.768 E0.78324
G1 X-4.232 Y-14.582 E0.02029
G1 X-4.232 Y-6.140 E0.65055 F960.000
G1 X-3.860 Y-5.768 E0.04058
G1 X6.079 Y-5.768 E0.76592
G1 E-3.20000 F3000.00000
G1 Z0.700 F15000.000
G1 X-11.831 Y-14.196 F15000.000
G1 Z0.300 F15000.000
G1 E3.20000 F3000.00000
G1 X-12.365 Y-14.247 E0.04128 F720.000
G1 X-12.808 Y-14.233 E0.03422
G1 X-13.319 Y-14.153 E0.03984
G1 X-13.708 Y-14.040 E0.03119
G1 X-13.945 Y-13.945 E0.01972
G1 X-14.079 Y-13.590 E0.02927
G1 X-14.192 Y-13.135 E0.03612
G1 X-14.244 Y-12.694 E0.03420
G1 X-14.244 Y-12.110 E0.04501
G1 X-14.100 Y-11.446 F15000.000
G1 X-13.713 Y-11.034 E0.04355 F720.000
G1 X-13.310 Y-10.778 E0.03677
G1 X-12.857 Y-10.631 E0.03676
G1 X-12.380 Y-10.601 E0.03677
G1 X-11.912 Y-10.690 E0.03677
G1 X-11.480 Y-10.893 E0.03676
G1 X-11.113 Y-11.197 E0.03677
G1 X-10.832 Y-11.583 E0.03677
G1 X-10.657 Y-12.027 E0.03676
G1 X-10.597 Y-12.500 E0.03677
G1 X-10.657 Y-12.973 E0.03677
G1 X-10.832 Y-13.417 E0.03676
G1 X-11.329 Y-14.100 E0.06507
G1 X-4.900 Y-14.100 E0.49542
G1 X-4.900 Y-5.100 E0.69359
G1 X14.100 Y-5.100 E1.46424 F720.000
G1 X14.100 Y14.100 E1.47966
G1 X-5.100 Y14.100 E1.47966
G1 X-5.100 Y-4.900 E1.46424
G1 X-14.100 Y-4.900 E0.69359
G1 X-14.100 Y-11.386 E0.49981
G1 X-13.907 Y-11.095 F15000.000
G1 E-3.20000 F3000.00000
G1 Z0.700 F15000.000
G1 X-9.964 Y-12.441 F15000.000
G1 Z0.300 F15000.000
G1 E3.20000 F3000.00000
G1 X-9.956 Y-12.500 E0.00459 F600.000
G1 X-10.036 Y-13.133 E0.04914
G1 X-10.167 Y-13.464 E0.02750
G1 X-5.536 Y-13.464 E0.35695
G1 X-5.536 Y-5.536 E0.61103
G1 X-13.464 Y-5.536 E0.61103 F600.000
G1 X-13.464 Y-10.160 E0.35636
G1 X-12.977 Y-10.001 E0.03952
G1 X-12.340 Y-9.961 E0.04914
G1 X-11.714 Y-10.081 E0.04914
G1 X-11.137 Y-10.352 E0.04914
G1 X-10.646 Y-10.759 E0.04914
G1 X-10.271 Y-11.274 E0.04914
G1 X-10.036 Y-11.867 E0.04914
G1 X-9.971 Y-12.381 E0.03993
G1 E-3.20000 F3000.00000
G1 Z0.700 F15000.000
G1 X2.358 Y13.464 F15000.000
G1 Z0.300 F15000.000
G1 E3.20000 F3000.00000
G1 X-4.464 Y13.464 E0.52575 F720.000
G1 X-4.464 Y-4.464 E1.38169
G1 X13.464 Y-4.464 E1.38169
G1 X13.464 Y13.464 E1.38169
G1 X2.418 Y13.464 E0.85132 F720.000
G1 X-3.769 Y13.079 F15000.000
G1 X-4.079 Y12.769 E0.03419 F960.000
G1 X-4.079 Y11.859 E0.07111
G1 X-2.859 Y13.079 E0.13475
G1 X-1.948 Y13.079 E0.07111
G1 X-4.079 Y10.948 E0.23531
G1 X-4.079 Y10.037 E0.07111
G1 X-1.037 Y13.079 E0.33587
G1 X-0.126 Y13.079 E0.07111
G1 X-4.079 Y9.126 E0.43643
G1 X-4.079 Y8.216 E0.07111
G1 X0.784 Y13.079 E0.53700
G1 X1.695 Y13.079 E0.07111
G1 X-4.079 Y7.305 E0.63756
G1 X-4.079 Y6.394 E0.07111
G1 X2.606 Y13.079 E0.73812
G1 X3.516 Y13.079 E0.07111
G1 X-4.079 Y5.484 E0.83868
G1 X-4.079 Y4.573 E0.07111
G1 X4.427 Y13.079 E0.93924
G1 X5.338 Y13.079 E0.07111
G1 X-4.079 Y3.662 E1.03980
G1 X-4.079 Y2.751 E0.07111
G1 X6.249 Y13.079 E1.14036
G1 X7.159 Y13.079 E0.07111
G1 X-4.079 Y1.841 E1.24092
G1 X-4.079 Y0.930 E0.07111
G1 X8.070 Y13.079 E1.34148
G1 X8.981 Y13.079 E0.07111
G1 X-4.079 Y0.019 E1.44204
G1 X-4.079 Y-0.891 E0.07111
G1 X9.891 Y13.079 E1.54261
G1 X10.802 Y13.079 E0.07111
G1 X-4.079 Y-1.802 E1.64317
G1 X-4.079 Y-2.713 E0.07111
G1 X11.713 Y13.079 E1.74373
G1 X12.624 Y13.079 E0.07111
G1 X-4.079 Y-3.624 E1.84429
G1 X-3.624 Y-4.079 E0.05028
G1 X13.079 Y12.624 E1.84429
G1 X13.079 Y11.713 E0.07111
G1 X-2.713 Y-4.079 E1.74373
G1 X-1.802 Y-4.079 E0.07111
G1 X13.079 Y10.802 E1.64317
G1 X13.079 Y9.891 E0.07111
G1 X-0.891 Y-4.079 E1.54261
G1 X0.019 Y-4.079 E0.07111
G1 X13.079 Y8.981 E1.44205
G1 X13.079 Y8.070 E0.07111
G1 X0.930 Y-4.079 E1.34149
G1 X1.841 Y-4.079 E0.07111
G1 X13.079 Y7.159 E1.24093
G1 X13.079 Y6.249 E0.07111
G1 X2.751 Y-4.079 E1.14036
G1 X3.662 Y-4.079 E0.07111
G1 X13.079 Y5.338 E1.03980
G1 X13.079 Y4.427 E0.07111
G1 X4.573 Y-4.079 E0.93924
G1 X5.484 Y-4.079 E0.07111
G1 X13.079 Y3.516 E0.83868
G1 X13.079 Y2.606 E0.07111
G1 X6.394 Y-4.079 E0.73812
G1 X7.305 Y-4.079 E0.07111
G1 X13.079 Y1.695 E0.63756
G1 X13.079 Y0.784 E0.07111
G1 X8.216 Y-4.079 E0.53700
G1 X9.126 Y-4.079 E0.07111
G1 X13.079 Y-0.126 E0.43644
G1 X13.079 Y-1.037 E0.07111
G1 X10.037 Y-4.079 E0.33588
G1 X10.948 Y-4.079 E0.07111
G1 X13.079 Y-1.948 E0.23532
G1 X13.079 Y-2.859 E0.07111
G1 X11.859 Y-4.079 E0.13475
G1 X12.769 Y-4.079 E0.07111
G1 X13.079 Y-3.769 E0.03419
G1 E-3.20000 F3000.00000
G1 Z0.700 F15000.000
G1 X-5.921 Y-12.769 F15000.000
G1 Z0.300 F15000.000
G1 E3.20000 F3000.00000
G1 X-6.231 Y-13.079 E0.03428 F960.000
G1 X-7.144 Y-13.079 E0.07148
G1 X-5.921 Y-11.856 E0.13537
G1 X-5.921 Y-10.943 E0.07148
G1 X-8.057 Y-13.079 E0.23646
G1 X-8.970 Y-13.079 E0.07148
G1 X-5.921 Y-10.030 E0.33755
G1 X-5.921 Y-9.117 E0.07148
G1 X-9.585 Y-12.781 E0.40564
G1 X-9.655 Y-11.937 E0.06625
G1 X-5.921 Y-8.204 E0.41335
G1 X-5.921 Y-7.291 E0.07148
G1 X-9.901 Y-11.271 E0.44062
G1 X-10.263 Y-10.720 E0.05161
G1 X-5.921 Y-6.378 E0.48074
G1 X-6.378 Y-5.921 E0.05054
G1 X-10.723 Y-10.266 E0.48103
G1 X-11.279 Y-9.909 E0.05173
G1 X-7.291 Y-5.921 E0.44148
G1 X-8.204 Y-5.921 E0.07148
G1 X-11.949 Y-9.667 E0.41467
G1 X-12.790 Y-9.595 E0.06608
G1 X-9.117 Y-5.921 E0.40669
G1 X-10.030 Y-5.921 E0.07148
G1 X-13.079 Y-8.970 E0.33755
G1 X-13.079 Y-8.057 E0.07148
G1 X-10.943 Y-5.921 E0.23646
G1 X-11.856 Y-5.921 E0.07148
G1 X-13.079 Y-7.144 E0.13537
G1 X-13.079 Y-6.231 E0.07148
G1 X-12.769 Y-5.921 E0.03428
G1 E-3.20000 F3000.00000
G1 Z0.700 F15000.000
G1 X13.893 Y-0.480 F15000.000
G1 Z0.500 F15000.000
G1 E3.20000 F3000.00000
G1 X13.893 Y13.893 E0.41485 F2400.000
G1 X-4.893 Y13.893 E0.54221 F2400.000
G1 X-4.893 Y-4.893 E0.54221
G1 X13.893 Y-4.893 E0.54221
G1 X13.893 Y-0.540 E0.12562
G1 E-3.20000 F3000.00000
G1 Z0.900 F15000.000
G1 X-10.662 Y-5.107 F15000.000
G1 Z0.500 F15000.000
G1 E3.20000 F3000.00000
G1 X-13.893 Y-5.107 E0.09325 F2400.000
G1 X-13.893 Y-10.902 E0.16727
G1 X-13.399 Y-10.589 E0.01688
G1 X-12.896 Y-10.426 E0.01528
G1 X-12.367 Y-10.392 E0.01528
G1 X-11.847 Y-10.491 E0.01528
G1 X-11.368 Y-10.717 E0.01528
G1 X-10.960 Y-11.054 E0.01528
G1 X-10.649 Y-11.483 E0.01528
G1 X-10.454 Y-11.975 E0.01528
G1 X-10.388 Y-12.500 E0.01528
G1 X-10.454 Y-13.025 E0.01528
G1 X-10.649 Y-13.517 E0.01528
G1 X-10.922 Y-13.893 E0.01340
G1 X-5.107 Y-13.893 E0.16784
G1 X-5.107 Y-5.107 E0.25358
G1 X-10.602 Y-5.107 E0.15861 F2400.000
G1 X-10.602 Y-4.750 F15000.000
G1 X-14.250 Y-4.750 E0.10528 F2400.000
G1 X-14.250 Y-11.741 E0.20178
G1 X-14.089 Y-11.782 E0.00480
G1 X-13.917 Y-11.470 E0.01028
G1 X-13.617 Y-11.150 E0.01268
G1 X-13.246 Y-10.915 E0.01268
G1 X-12.828 Y-10.779 E0.01268
G1 X-12.390 Y-10.751 E0.01268
G1 X-11.959 Y-10.834 E0.01268
G1 X-11.561 Y-11.021 E0.01268
G1 X-11.223 Y-11.301 E0.01268
G1 X-10.965 Y-11.656 E0.01268
G1 X-10.803 Y-12.064 E0.01268
G1 X-10.748 Y-12.500 E0.01268
G1 X-10.803 Y-12.936 E0.01268
G1 X-10.965 Y-13.344 E0.01268
G1 X-11.223 Y-13.699 E0.01268
G1 X-11.561 Y-13.979 E0.01268
G1 X-11.781 Y-14.082 E0.00700
G1 X-11.743 Y-14.250 E0.00495
G1 X-4.750 Y-14.250 E0.20184
G1 X-4.750 Y-5.250 E0.25976
G1 X14.250 Y-5.250 E0.54839 F2400.000
G1 X14.250 Y14.250 E0.56282
G1 X-5.250 Y14.250 E0.56282
G1 X-5.250 Y-4.750 E0.54839
G1 X-10.542 Y-4.750 E0.15275
G1 X-10.802 Y-5.096 F15000.000
G1 E-3.20000 F3000.00000
G1 Z0.900 F15000.000
G1 X-11.957 Y-14.208 F15000.000
G1 Z0.500 F15000.000
G1 E3.20000 F3000.00000
G1 X-12.415 Y-14.248 E0.01327 F2400.000
G1 X-13.060 Y-14.228 E0.01862
G1 X-14.118 Y-14.250 F15000.000
G1 X-13.275 Y-14.250 E0.02434 F2400.000
G1 X-13.230 Y-14.096 E0.00464
G1 X-13.617 Y-13.850 E0.01323 F2400.000
G1 X-13.917 Y-13.530 E0.01268
G1 X-14.089 Y-13.218 E0.01028
G1 X-14.250 Y-13.259 E0.00480
G1 X-14.250 Y-14.250 E0.02861
G1 X-14.178 Y-14.250 E0.00208
G1 X-13.918 Y-13.904 F15000.000
G1 X-14.204 Y-13.040 F15000.000
G1 X-14.244 Y-12.694 E0.01006 F2400.000
G1 X-14.244 Y-12.306 E0.01122
G1 X-14.204 Y-11.960 E0.01006
G1 X-13.685 Y-10.256 F15000.000
G1 X-13.500 Y-10.441 E0.00786 F2925.210
G1 X-13.117 Y-10.300 E0.01226
G1 X-13.685 Y-9.731 E0.02412
G1 X-13.685 Y-9.206 E0.01574
G1 X-12.683 Y-10.209 E0.04252
G1 X-12.162 Y-10.204 E0.01561
G1 X-13.685 Y-8.681 E0.06459
G1 X-13.685 Y-8.157 E0.01574
G1 X-11.424 Y-10.417 E0.09590
G1 X-10.443 Y-13.498 F15000.000
G1 X-10.256 Y-13.685 E0.00793 F2925.210
G1 X-9.731 Y-13.685 E0.01574
G1 X-10.294 Y-13.122 E0.02387
G1 X-10.211 Y-12.681 E0.01348
G1 X-9.206 Y-13.685 E0.04260
G1 X-8.681 Y-13.685 E0.01574
G1 X-10.212 Y-12.154 E0.06494
G1 X-10.411 Y-11.431 E0.02249
G1 X-8.157 Y-13.685 E0.09561
G1 X-7.632 Y-13.685 E0.01574
G1 X-13.685 Y-7.632 E0.25678
G1 X-13.685 Y-7.107 E0.01574
G1 X-7.107 Y-13.685 E0.27904
G1 X-6.582 Y-13.685 E0.01574
G1 X-13.685 Y-6.582 E0.30130
G1 X-13.685 Y-6.057 E0.01574
G1 X-6.057 Y-13.685 E0.32356
G1 X-5.533 Y-13.685 E0.01574
G1 X-13.685 Y-5.533 E0.34582
G1 X-13.378 Y-5.315 E0.01129
G1 X-5.315 Y-13.378 E0.34203
G1 X-5.315 Y-12.853 E0.01574
G1 X-12.853 Y-5.315 E0.31977
G1 X-12.329 Y-5.315 E0.01574
G1 X-5.315 Y-12.329 E0.29751
G1 X-5.315 Y-11.804 E0.01574
G1 X-11.804 Y-5.315 E0.27525
G1 X-11.279 Y-5.315 E0.01574
G1 X-5.315 Y-11.279 E0.25299
G1 X-5.315 Y-10.754 E0.01574
G1 X-10.754 Y-5.315 E0.23073
G1 X-10.229 Y-5.315 E0.01574
G1 X-5.315 Y-10.229 E0.20847
G1 X-5.315 Y-9.705 E0.01574
G1 X-9.705 Y-5.315 E0.18621
G1 X-9.180 Y-5.315 E0.01574
G1 X-5.315 Y-9.180 E0.16395
G1 X-5.315 Y-8.655 E0.01574
G1 X-8.655 Y-5.315 E0.14169
G1 X-8.130 Y-5.315 E0.01574
G1 X-5.315 Y-8.130 E0.11943
G1 X-5.315 Y-7.605 E0.01574
G1 X-7.605 Y-5.315 E0.09717
G1 X-7.081 Y-5.315 E0.01574
G1 X-5.315 Y-7.081 E0.07491
G1 X-5.315 Y-6.556 E0.01574
G1 X-6.556 Y-5.315 E0.05264
G1 X-6.031 Y-5.315 E0.01574
G1 X-5.315 Y-6.031 E0.03038
G1 X-5.315 Y-5.506 E0.01574
G1 X-5.506 Y-5.315 E0.00812
G1 X-4.685 Y-4.494 F15000.000
G1 X-4.494 Y-4.685 E0.00792 F2925.210
G1 X-3.982 Y-4.685 E0.01499
G1 X-4.685 Y-3.982 E0.02912
G1 X-4.685 Y-3.470 E0.01499
G1 X-3.470 Y-4.685 E0.05032
G1 X-2.957 Y-4.685 E0.01499
G1 X-4.685 Y-2.957 E0.07151
G1 X-4.685 Y-2.445 E0.01499
G1 X-2.445 Y-4.685 E0.09271
G1 X-1.933 Y-4.685 E0.01499
G1 X-4.685 Y-1.933 E0.11390
G1 X-4.685 Y-1.421 E0.01499
G1 X-1.421 Y-4.685 E0.13510
G1 X-0.909 Y-4.685 E0.01499
G1 X-4.685 Y-0.909 E0.15629
G1 X-4.685 Y-0.397 E0.01499
G1 X-0.397 Y-4.685 E0.17749
G1 X0.115 Y-4.685 E0.01499
G1 X-4.685 Y0.115 E0.19869
G1 X-4.685 Y0.627 E0.01499
G1 X0.627 Y-4.685 E0.21988
G1 X1.139 Y-4.685 E0.01499
G1 X-4.685 Y1.139 E0.24108
G1 X-4.685 Y1.651 E0.01499
G1 X1.651 Y-4.685 E0.26227
G1 X2.163 Y-4.685 E0.01499
G1 X-4.685 Y2.163 E0.28347
G1 X-4.685 Y2.675 E0.01499
G1 X2.675 Y-4.685 E0.30466
G1 X3.187 Y-4.685 E0.01499
G1 X-4.685 Y3.187 E0.32586
G1 X-4.685 Y3.700 E0.01499
G1 X3.700 Y-4.685 E0.34706
G1 X4.212 Y-4.685 E0.01499
G1 X-4.685 Y4.212 E0.36825
G1 X-4.685 Y4.724 E0.01499
G1 X4.724 Y-4.685 E0.38945
G1 X5.236 Y-4.685 E0.01499
G1 X-4.685 Y5.236 E0.41064
G1 X-4.685 Y5.748 E0.01499
G1 X5.748 Y-4.685 E0.43184
G1 X6.260 Y-4.685 E0.01499
G1 X-4.685 Y6.260 E0.45303
G1 X-4.685 Y6.772 E0.01499
G1 X6.772 Y-4.685 E0.47423
G1 X7.284 Y-4.685 E0.01499
G1 X-4.685 Y7.284 E0.49543
G1 X-4.685 Y7.796 E0.01499
G1 X7.796 Y-4.685 E0.51662
G1 X8.308 Y-4.685 E0.01499
G1 X-4.685 Y8.308 E0.53782
G1 X-4.685 Y8.820 E0.01499
G1 X8.820 Y-4.685 E0.55901
G1 X9.332 Y-4.685 E0.01499
G1 X-4.685 Y9.332 E0.58021
G1 X-4.685 Y9.845 E0.01499
G1 X9.845 Y-4.685 E0.60141
G1 X10.357 Y-4.685 E0.01499
G1 X-4.685 Y10.357 E0.62260
G1 X-4.685 Y10.869 E0.01499
G1 X10.869 Y-4.685 E0.64380
G1 X11.381 Y-4.685 E0.01499
G1 X-4.685 Y11.381 E0.66499
G1 X-4.685 Y11.893 E0.01499
G1 X11.893 Y-4.685 E0.68619
G1 X12.405 Y-4.685 E0.01499
G1 X-4.685 Y12.405 E0.70738
G1 X-4.685 Y12.917 E0.01499
G1 X12.917 Y-4.685 E0.72858
G1 X13.429 Y-4.685 E0.01499
G1 X-4.685 Y13.429 E0.74978
G1 X-4.429 Y13.685 E0.01060
G1 X13.685 Y-4.429 E0.74978
G1 X13.685 Y-3.917 E0.01499
G1 X-3.917 Y13.685 E0.72858
G1 X-3.405 Y13.685 E0.01499
G1 X13.685 Y-3.405 E0.70739
G1 X13.685 Y-2.893 E0.01499
G1 X-2.893 Y13.685 E0.68619
G1 X-2.381 Y13.685 E0.01499
G1 X13.685 Y-2.381 E0.66499
G1 X13.685 Y-1.869 E0.01499
G1 X-1.869 Y13.685 E0.64380
G1 X-1.357 Y13.685 E0.01499
G1 X13.685 Y-1.357 E0.62260
G1 X13.685 Y-0.845 E0.01499
G1 X-0.845 Y13.685 E0.60141
G1 X-0.333 Y13.685 E0.01499
G1 X13.685 Y-0.333 E0.58021
G1 X13.685 Y0.180 E0.01499
G1 X0.180 Y13.685 E0.55902
G1 X0.692 Y13.685 E0.01499
G1 X13.685 Y0.692 E0.53782
G1 X13.685 Y1.204 E0.01499
G1 X1.204 Y13.685 E0.51662
G1 X1.716 Y13.685 E0.01499
G1 X13.685 Y1.716 E0.49543
G1 X13.685 Y2.228 E0.01499
G1 X2.228 Y13.685 E0.47423
G1 X2.740 Y13.685 E0.01499
G1 X13.685 Y2.740 E0.45304
G1 X13.685 Y3.252 E0.01499
G1 X3.252 Y13.685 E0.43184
G1 X3.764 Y13.685 E0.01499
G1 X13.685 Y3.764 E0.41065
G1 X13.685 Y4.276 E0.01499
G1 X4.276 Y13.685 E0.38945
G1 X4.788 Y13.685 E0.01499
G1 X13.685 Y4.788 E0.36825
G1 X13.685 Y5.300 E0.01499
G1 X5.300 Y13.685 E0.34706
G1 X5.812 Y13.685 E0.01499
G1 X13.685 Y5.812 E0.32586
G1 X13.685 Y6.325 E0.01499
G1 X6.325 Y13.685 E0.30467
G1 X6.837 Y13.685 E0.01499
G1 X13.685 Y6.837 E0.28347
G1 X13.685 Y7.349 E0.01499
G1 X7.349 Y13.685 E0.26228
G1 X7.861 Y13.685 E0.01499
G1 X13.685 Y7.861 E0.24108
G1 X13.685 Y8.373 E0.01499
G1 X8.373 Y13.685 E0.21988
G1 X8.885 Y13.685 E0.01499
G1 X13.685 Y8.885 E0.19869
G1 X13.685 Y9.397 E0.01499
G1 X9.397 Y13.685 E0.17749
G1 X9.909 Y13.685 E0.01499
G1 X13.685 Y9.909 E0.15630
G1 X13.685 Y10.421 E0.01499
G1 X10.421 Y13.685 E0.13510
G1 X10.933 Y13.685 E0.01499
G1 X13.685 Y10.933 E0.11391
G1 X13.685 Y11.445 E0.01499
G1 X11.445 Y13.685 E0.09271
G1 X11.957 Y13.685 E0.01499
G1 X13.685 Y11.957 E0.07151
G1 X13.685 Y12.470 E0.01499
G1 X12.470 Y13.685 E0.05032
G1 X12.982 Y13.685 E0.01499
G1 X13.685 Y12.982 E0.02912
