; generated by Slic3r 1.2.9 on 2016-09-30 at 11:46:06

; external perimeters extrusion width = 0.50mm
; perimeters extrusion width = 0.50mm
; infill extrusion width = 0.50mm
; solid infill extrusion width = 0.50mm
; top infill extrusion width = 0.50mm

M107
;Basic settings: Layer height: {layer_height} Walls: {wall_thickness} Fill: {fill_density}
;Print time: {print_time}
;Filament used: {filament_amount}m {filament_weight}g
;Filament cost: {filament_cost}
;M190 S{print_bed_temperature} ;Uncomment to add your own bed temperature line
;M109 S{print_temperature} ;Uncomment to add your own temperature line
G21        ;metric values
G90        ;absolute positioning
M83
G10 P0 S200
T0
M116


G21 ; set units to millimeters
G90 ; use absolute coordinates
M83 ; use relative distances for extrusion
G1 E-3.20000 F3000.00000
G1 Z0.400 F9000.000
G1 X0.000 Y31.836 F9000.000
G1 Z0.300 F9000.000
G1 E3.20000 F3000.00000
G1 X-39.998 Y31.836 E3.66987 F1200.000
G1 X-41.539 Y31.727 E0.14166
G1 X-42.226 Y31.614 E0.06391
G1 X-43.661 Y31.253 E0.13581
G1 X-45.047 Y30.696 E0.13700
G1 X-45.668 Y30.381 E0.06392
G1 X-46.854 Y29.646 E0.12803
G1 X-47.205 Y29.380 E0.04036
G1 X-48.070 Y28.641 E0.10445
G1 X-48.536 Y28.191 E0.05946
G1 X-49.380 Y27.205 E0.11910
G1 X-49.786 Y26.639 E0.06391
G1 X-50.546 Y25.368 E0.13582
G1 X-50.696 Y25.047 E0.03256
G1 X-51.218 Y23.766 E0.12687
G1 X-51.348 Y23.333 E0.04152
G1 X-51.667 Y21.974 E0.12804
G1 X-51.727 Y21.539 E0.04035
G1 X-51.836 Y19.998 E0.14166
G1 X-51.828 Y-20.243 E3.69213
G1 X-51.727 Y-21.539 E0.11925
G1 X-51.667 Y-21.974 E0.04036
G1 X-51.348 Y-23.333 E0.12804
G1 X-51.253 Y-23.661 E0.03139
G1 X-51.132 Y-23.995 E0.03256
G1 X-50.595 Y-25.269 E0.12686
G1 X-50.381 Y-25.668 E0.04152
G1 X-49.786 Y-26.639 E0.10445
G1 X-49.380 Y-27.205 E0.06391
G1 X-48.536 Y-28.191 E0.11910
G1 X-48.191 Y-28.536 E0.04483
G1 X-47.205 Y-29.380 E0.11910
G1 X-46.854 Y-29.646 E0.04036
G1 X-45.668 Y-30.381 E0.12803
G1 X-45.368 Y-30.546 E0.03139
G1 X-43.995 Y-31.132 E0.13699
G1 X-43.333 Y-31.348 E0.06391
G1 X-41.974 Y-31.667 E0.12803
G1 X-41.539 Y-31.727 E0.04035
G1 X-40.243 Y-31.828 E0.11926
G1 X40.243 Y-31.828 E7.38457
G1 X41.539 Y-31.727 E0.11925 F1200.000
G1 X41.974 Y-31.667 E0.04035
G1 X43.333 Y-31.348 E0.12803
G1 X43.995 Y-31.132 E0.06391
G1 X45.047 Y-30.696 E0.10445
G1 X45.668 Y-30.381 E0.06391
G1 X46.854 Y-29.646 E0.12807
G1 X47.205 Y-29.380 E0.04031
G1 X48.070 Y-28.641 E0.10445
G1 X48.536 Y-28.191 E0.05947
G1 X49.380 Y-27.205 E0.11909
G1 X49.645 Y-26.855 E0.04027
G1 X50.381 Y-25.668 E0.12811
G1 X50.546 Y-25.369 E0.03137
G1 X51.132 Y-23.995 E0.13701
G1 X51.254 Y-23.661 E0.03259
G1 X51.348 Y-23.333 E0.03137
G1 X51.667 Y-21.974 E0.12803
G1 X51.727 Y-21.539 E0.04036
G1 X51.836 Y-19.998 E0.14166
G1 X51.828 Y20.243 E3.69214
G1 X51.727 Y21.539 E0.11924
G1 X51.667 Y21.974 E0.04036
G1 X51.348 Y23.333 E0.12803
G1 X51.254 Y23.661 E0.03136
G1 X51.132 Y23.995 E0.03259
G1 X50.595 Y25.269 E0.12686
G1 X50.381 Y25.668 E0.04152
G1 X49.786 Y26.639 E0.10445
G1 X49.380 Y27.205 E0.06391
G1 X48.536 Y28.191 E0.11909
G1 X48.191 Y28.536 E0.04483
G1 X47.205 Y29.380 E0.11911
G1 X46.639 Y29.786 E0.06390
G1 X45.368 Y30.546 E0.13582
G1 X43.995 Y31.132 E0.13699
G1 X43.333 Y31.348 E0.06391
G1 X42.083 Y31.646 E0.11791
G1 X41.539 Y31.727 E0.05048
G1 X39.998 Y31.836 E0.14166
G1 X0.060 Y31.836 E3.66437
G1 E-3.20000 F3000.00000
G1 Z0.700 F9000.000
G1 X-46.961 Y-0.163 F9000.000
G1 Z0.300 F9000.000
G1 E3.20000 F3000.00000
G1 X-46.957 Y-20.066 E1.82605 F900.000
G1 X-46.878 Y-21.069 E0.09235
G1 X-46.632 Y-22.111 E0.09817
G1 X-46.181 Y-23.199 E0.10809
G1 X-45.677 Y-24.022 E0.08860
G1 X-44.962 Y-24.877 E0.10223
G1 X-44.107 Y-25.620 E0.10386
G1 X-43.197 Y-26.182 E0.09818
G1 X-42.111 Y-26.632 E0.10791
G1 X-41.070 Y-26.878 E0.09811
G1 X-39.954 Y-26.964 E0.10264
G1 X40.066 Y-26.957 E7.34190
G1 X41.069 Y-26.878 E0.09234 F900.000
G1 X42.114 Y-26.631 E0.09848
G1 X43.105 Y-26.227 E0.09820
G1 X44.110 Y-25.617 E0.10790
G1 X44.918 Y-24.926 E0.09754
G1 X45.677 Y-24.021 E0.10834
G1 X46.183 Y-23.196 E0.08880
G1 X46.599 Y-22.208 E0.09839
G1 X46.878 Y-21.065 E0.10790
G1 X46.964 Y-19.954 E0.10224
G1 X46.964 Y19.954 E3.66166
G1 X46.878 Y21.065 E0.10224
G1 X46.599 Y22.208 E0.10790
G1 X46.184 Y23.194 E0.09820
G1 X45.620 Y24.107 E0.09848
G1 X44.966 Y24.873 E0.09234
G1 X44.107 Y25.620 E0.10440
G1 X43.197 Y26.182 E0.09818
G1 X42.111 Y26.632 E0.10791
G1 X41.070 Y26.878 E0.09811
G1 X39.954 Y26.964 E0.10265
G1 X-39.954 Y26.964 E7.33168
G1 X-41.070 Y26.878 E0.10265
G1 X-42.111 Y26.632 E0.09811
G1 X-43.197 Y26.182 E0.10791
G1 X-44.107 Y25.620 E0.09811
G1 X-44.922 Y24.922 E0.09845
G1 X-45.620 Y24.107 E0.09845
G1 X-46.182 Y23.197 E0.09811
G1 X-46.632 Y22.111 E0.10791
G1 X-46.878 Y21.070 E0.09811
G1 X-46.964 Y19.955 E0.10264
G1 X-46.961 Y-0.103 E1.84033
G1 X-47.696 Y-0.164 F9000.000
G1 X-47.693 Y-20.095 E1.82870 F900.000
G1 X-47.607 Y-21.183 E0.10019
G1 X-47.334 Y-22.337 E0.10880
G1 X-46.839 Y-23.534 E0.11883
G1 X-46.276 Y-24.453 E0.09887
G1 X-45.505 Y-25.374 E0.11019
G1 X-45.372 Y-25.507 E0.01721
G1 X-44.542 Y-26.216 E0.10018
G1 X-43.533 Y-26.839 E0.10880
G1 X-42.337 Y-27.334 E0.11877
G1 X-41.184 Y-27.607 E0.10878
G1 X-39.983 Y-27.700 E0.11049
G1 X40.095 Y-27.693 E7.34717
G1 X41.183 Y-27.607 E0.10019 F900.000
G1 X42.338 Y-27.334 E0.10891
G1 X43.437 Y-26.886 E0.10880
G1 X44.543 Y-26.215 E0.11876
G1 X45.442 Y-25.445 E0.10860
G1 X46.276 Y-24.452 E0.11892
G1 X46.839 Y-23.533 E0.09894
G1 X47.300 Y-22.439 E0.10887
G1 X47.607 Y-21.182 E0.11876
G1 X47.700 Y-19.983 E0.11035
G1 X47.700 Y19.983 E3.66688
G1 X47.607 Y21.182 E0.11035
G1 X47.300 Y22.439 E0.11876
G1 X46.839 Y23.532 E0.10880
G1 X46.216 Y24.542 E0.10891
G1 X45.507 Y25.372 E0.10019
G1 X45.372 Y25.507 E0.01740
G1 X44.542 Y26.216 E0.10018
G1 X43.533 Y26.839 E0.10880
G1 X42.337 Y27.334 E0.11877
G1 X41.184 Y27.607 E0.10878
G1 X39.983 Y27.700 E0.11050
G1 X-39.983 Y27.700 E7.33690
G1 X-41.184 Y27.607 E0.11050
G1 X-42.337 Y27.334 E0.10878
G1 X-43.533 Y26.839 E0.11877
G1 X-44.542 Y26.216 E0.10878
G1 X-45.444 Y25.444 E0.10892
G1 X-46.216 Y24.542 E0.10892
G1 X-46.839 Y23.533 E0.10878
G1 X-47.334 Y22.337 E0.11877
G1 X-47.607 Y21.184 E0.10878
G1 X-47.700 Y19.983 E0.11049
G1 X-47.696 Y-0.104 E1.84295
G1 X-47.350 Y-0.364 F9000.000
G1 X-44.817 Y24.140 F9000.000
G1 X-44.140 Y24.817 E0.08820 F900.000
G1 X-41.682 Y26.230 F9000.000
G1 X-46.230 Y21.682 E0.59269 F900.000
G1 X-46.467 Y20.401 E0.12003
G1 X-40.401 Y26.467 E0.79042
G1 X-39.308 Y26.515 E0.10085
G1 X-46.515 Y19.308 E0.93921
G1 X-46.515 Y18.263 E0.09626
G1 X-38.263 Y26.515 E1.07533
G1 X-37.218 Y26.515 E0.09627
G1 X-46.515 Y17.219 E1.21146
G1 X-46.515 Y16.174 E0.09626
G1 X-36.173 Y26.515 E1.34759
G1 X-35.129 Y26.515 E0.09627
G1 X-46.514 Y15.129 E1.48371
G1 X-46.514 Y14.085 E0.09626
G1 X-34.084 Y26.515 E1.61984
G1 X-33.039 Y26.515 E0.09627
G1 X-46.514 Y13.040 E1.75597
G1 X-46.514 Y11.996 E0.09626
G1 X-31.994 Y26.515 E1.89209
G1 X-30.949 Y26.515 E0.09627
G1 X-46.514 Y10.951 E2.02822
G1 X-46.513 Y9.906 E0.09626
G1 X-29.905 Y26.515 E2.16435
G1 X-28.860 Y26.515 E0.09627
G1 X-46.513 Y8.862 E2.30047
G1 X-46.513 Y7.817 E0.09626
G1 X-27.815 Y26.515 E2.43660
G1 X-26.770 Y26.515 E0.09627
G1 X-46.513 Y6.773 E2.57272
G1 X-46.513 Y5.728 E0.09626
G1 X-25.725 Y26.515 E2.70885
G1 X-24.681 Y26.515 E0.09627
G1 X-46.512 Y4.683 E2.84498
G1 X-46.512 Y3.639 E0.09626
G1 X-23.636 Y26.515 E2.98110
G1 X-22.591 Y26.515 E0.09627
G1 X-46.512 Y2.594 E3.11723
G1 X-46.512 Y1.550 E0.09626
G1 X-21.546 Y26.515 E3.25336
G1 X-20.501 Y26.515 E0.09627
G1 X-46.512 Y0.505 E3.38948
G1 X-46.511 Y-0.540 E0.09626
G1 X-19.457 Y26.515 E3.52561
G1 X-18.412 Y26.515 E0.09627
G1 X-46.511 Y-1.584 E3.66174
G1 X-46.511 Y-2.629 E0.09626
G1 X-17.367 Y26.515 E3.79786
G1 X-16.322 Y26.515 E0.09627
G1 X-46.511 Y-3.674 E3.93399
G1 X-46.511 Y-4.718 E0.09626
G1 X-15.277 Y26.515 E4.07012
G1 X-14.233 Y26.515 E0.09627
G1 X-46.510 Y-5.763 E4.20624
G1 X-46.510 Y-6.807 E0.09626
G1 X-13.188 Y26.515 E4.34237
G1 X-12.143 Y26.515 E0.09627
G1 X-46.510 Y-7.852 E4.47849
G1 X-46.510 Y-8.897 E0.09626
G1 X-11.098 Y26.515 E4.61462
G1 X-10.053 Y26.515 E0.09627
G1 X-46.510 Y-9.941 E4.75075
G1 X-46.510 Y-10.986 E0.09626
G1 X-9.009 Y26.515 E4.88687
G1 X-7.964 Y26.515 E0.09627
G1 X-46.509 Y-12.030 E5.02300
G1 X-46.509 Y-13.075 E0.09626
G1 X-6.919 Y26.515 E5.15913
G1 X-5.874 Y26.515 E0.09627
G1 X-46.509 Y-14.120 E5.29525
G1 X-46.509 Y-15.164 E0.09626
G1 X-4.829 Y26.515 E5.43138
G1 X-3.785 Y26.515 E0.09627
G1 X-46.509 Y-16.209 E5.56751
G1 X-46.508 Y-17.253 E0.09626
G1 X-2.740 Y26.515 E5.70363
G1 X-1.695 Y26.515 E0.09627
G1 X-46.508 Y-18.298 E5.83976
G1 X-46.508 Y-19.343 E0.09626
G1 X-0.650 Y26.515 E5.97589
G1 X0.395 Y26.515 E0.09627
G1 X-46.494 Y-20.373 E6.11022
G1 X-46.391 Y-21.315 E0.08729
G1 X1.439 Y26.515 E6.23293
G1 X2.484 Y26.515 E0.09627
G1 X-46.181 Y-22.150 E6.34173
G1 X-45.875 Y-22.889 E0.07368
G1 X3.529 Y26.515 E6.43801
G1 X4.574 Y26.515 E0.09627
G1 X-45.502 Y-23.560 E6.52548
G1 X-45.055 Y-24.158 E0.06878
G1 X5.619 Y26.515 E6.60341
G1 X6.663 Y26.515 E0.09627
G1 X-44.558 Y-24.706 E6.67480
G1 X-44.006 Y-25.199 E0.06818
G1 X7.708 Y26.515 E6.73909
G1 X8.753 Y26.515 E0.09627
G1 X-43.375 Y-25.613 E6.79299
G1 X-42.679 Y-25.962 E0.07173
G1 X9.798 Y26.515 E6.83846
G1 X10.843 Y26.515 E0.09627
G1 X-41.920 Y-26.248 E6.87572
G1 X-41.067 Y-26.439 E0.08059
G1 X11.887 Y26.515 E6.90066
G1 X12.932 Y26.515 E0.09627
G1 X-40.097 Y-26.514 E6.91046
G1 X-39.053 Y-26.515 E0.09621
G1 X13.977 Y26.515 E6.91055
G1 X15.022 Y26.515 E0.09627
G1 X-38.008 Y-26.515 E6.91053
G1 X-36.963 Y-26.515 E0.09628
G1 X16.067 Y26.515 E6.91052
G1 X17.111 Y26.515 E0.09627
G1 X-35.919 Y-26.515 E6.91051
G1 X-34.874 Y-26.515 E0.09628
G1 X18.156 Y26.515 E6.91050
G1 X19.201 Y26.515 E0.09627
G1 X-33.829 Y-26.515 E6.91048
G1 X-32.784 Y-26.514 E0.09628
G1 X20.246 Y26.515 E6.91047
G1 X21.291 Y26.515 E0.09627
G1 X-31.739 Y-26.514 E6.91046
G1 X-30.694 Y-26.514 E0.09628
G1 X22.335 Y26.515 E6.91045
G1 X23.380 Y26.515 E0.09627
G1 X-29.649 Y-26.514 E6.91043
G1 X-28.604 Y-26.514 E0.09628
G1 X24.425 Y26.515 E6.91042
G1 X25.470 Y26.515 E0.09627
G1 X-27.559 Y-26.514 E6.91041
G1 X-26.514 Y-26.514 E0.09628
G1 X26.515 Y26.515 E6.91040
G1 X27.559 Y26.515 E0.09627
G1 X-25.470 Y-26.514 E6.91038
G1 X-24.425 Y-26.514 E0.09628
G1 X28.604 Y26.515 E6.91037
G1 X29.649 Y26.515 E0.09627
G1 X-23.380 Y-26.514 E6.91036
G1 X-22.335 Y-26.514 E0.09628
G1 X30.694 Y26.515 E6.91035
G1 X31.739 Y26.515 E0.09627
G1 X-21.290 Y-26.513 E6.91033
G1 X-20.245 Y-26.513 E0.09628
G1 X32.783 Y26.515 E6.91032
G1 X33.828 Y26.515 E0.09627
G1 X-19.200 Y-26.513 E6.91031
G1 X-18.155 Y-26.513 E0.09628
G1 X34.873 Y26.515 E6.91030
G1 X35.918 Y26.515 E0.09627
G1 X-17.110 Y-26.513 E6.91028
G1 X-16.065 Y-26.513 E0.09628
G1 X36.963 Y26.515 E6.91027
G1 X38.007 Y26.515 E0.09627
G1 X-15.021 Y-26.513 E6.91026
G1 X-13.976 Y-26.513 E0.09628
G1 X39.052 Y26.515 E6.91025
G1 X40.096 Y26.514 E0.09621
G1 X-12.931 Y-26.513 E6.91014
G1 X-11.886 Y-26.513 E0.09628
G1 X41.066 Y26.439 E6.90033
G1 X41.920 Y26.248 E0.08060
G1 X-10.841 Y-26.512 E6.87540
G1 X-9.796 Y-26.512 E0.09628
G1 X42.678 Y25.962 E6.83813
G1 X43.374 Y25.613 E0.07173
G1 X-8.751 Y-26.512 E6.79266
G1 X-7.706 Y-26.512 E0.09628
G1 X44.006 Y25.200 E6.73876
G1 X44.557 Y24.707 E0.06818
G1 X-6.661 Y-26.512 E6.67449
G1 X-5.617 Y-26.512 E0.09628
G1 X45.060 Y24.164 E6.60379
G1 X45.499 Y23.559 E0.06893
G1 X-4.572 Y-26.512 E6.52491
G1 X-3.527 Y-26.512 E0.09628
G1 X45.876 Y22.891 E6.43786
G1 X46.183 Y22.153 E0.07363
G1 X-2.482 Y-26.512 E6.34171
G1 X-1.437 Y-26.512 E0.09628
G1 X46.389 Y21.314 E6.23230
G1 X46.493 Y20.373 E0.08719
G1 X-0.392 Y-26.512 E6.10974
G1 X0.653 Y-26.511 E0.09628
G1 X46.515 Y19.351 E5.97647
G1 X46.515 Y18.306 E0.09627
G1 X1.698 Y-26.511 E5.84030
G1 X2.743 Y-26.511 E0.09628
G1 X46.515 Y17.261 E5.70414
G1 X46.515 Y16.216 E0.09627
G1 X3.788 Y-26.511 E5.56798
G1 X4.832 Y-26.511 E0.09628
G1 X46.515 Y15.172 E5.43181
G1 X46.515 Y14.127 E0.09627
G1 X5.877 Y-26.511 E5.29565
G1 X6.922 Y-26.511 E0.09628
G1 X46.515 Y13.082 E5.15948
G1 X46.515 Y12.037 E0.09627
G1 X7.967 Y-26.511 E5.02332
G1 X9.012 Y-26.511 E0.09628
G1 X46.515 Y10.992 E4.88716
G1 X46.515 Y9.948 E0.09627
G1 X10.057 Y-26.511 E4.75099
G1 X11.102 Y-26.510 E0.09628
G1 X46.515 Y8.903 E4.61483
G1 X46.515 Y7.858 E0.09627
G1 X12.147 Y-26.510 E4.47866
G1 X13.192 Y-26.510 E0.09628
G1 X46.515 Y6.813 E4.34250
G1 X46.515 Y5.768 E0.09627
G1 X14.237 Y-26.510 E4.20634
G1 X15.281 Y-26.510 E0.09628
G1 X46.515 Y4.724 E4.07017
G1 X46.515 Y3.679 E0.09627
G1 X16.326 Y-26.510 E3.93401
G1 X17.371 Y-26.510 E0.09628
G1 X46.515 Y2.634 E3.79784
G1 X46.515 Y1.589 E0.09627
G1 X18.416 Y-26.510 E3.66168
G1 X19.461 Y-26.510 E0.09628
G1 X46.515 Y0.544 E3.52552
G1 X46.515 Y-0.500 E0.09627
G1 X20.506 Y-26.510 E3.38935
G1 X21.551 Y-26.510 E0.09628
G1 X46.515 Y-1.545 E3.25319
G1 X46.515 Y-2.590 E0.09627
G1 X22.596 Y-26.509 E3.11703
G1 X23.641 Y-26.509 E0.09628
G1 X46.515 Y-3.635 E2.98086
G1 X46.515 Y-4.680 E0.09627
G1 X24.685 Y-26.509 E2.84470
G1 X25.730 Y-26.509 E0.09628
G1 X46.515 Y-5.724 E2.70853
G1 X46.515 Y-6.769 E0.09627
G1 X26.775 Y-26.509 E2.57237
G1 X27.820 Y-26.509 E0.09628
G1 X46.515 Y-7.814 E2.43621
G1 X46.515 Y-8.859 E0.09627
G1 X28.865 Y-26.509 E2.30004
G1 X29.910 Y-26.509 E0.09628
G1 X46.515 Y-9.904 E2.16388
G1 X46.515 Y-10.948 E0.09627
G1 X30.955 Y-26.509 E2.02771
G1 X32.000 Y-26.509 E0.09628
G1 X46.515 Y-11.993 E1.89155
G1 X46.515 Y-13.038 E0.09627
G1 X33.045 Y-26.508 E1.75539
G1 X34.090 Y-26.508 E0.09628
G1 X46.515 Y-14.083 E1.61922
G1 X46.515 Y-15.128 E0.09627
G1 X35.134 Y-26.508 E1.48306
G1 X36.179 Y-26.508 E0.09628
G1 X46.515 Y-16.172 E1.34689
G1 X46.515 Y-17.217 E0.09627
G1 X37.224 Y-26.508 E1.21073
G1 X38.269 Y-26.508 E0.09628
G1 X46.515 Y-18.262 E1.07457
G1 X46.515 Y-19.307 E0.09627
G1 X39.314 Y-26.508 E0.93840
G1 X40.399 Y-26.467 E0.10007
G1 X46.467 Y-20.400 E0.79067
G1 X46.220 Y-21.692 E0.12117
G1 X41.681 Y-26.231 E0.59150
G1 X44.133 Y-24.823 F9000.000
G1 X44.791 Y-24.165 E0.08571 F900.000
G1 E-3.20000 F3000.00000
G1 Z0.700 F9000.000
G1 X-47.714 Y-0.164 F9000.000
G1 Z0.600 F9000.000
G1 E3.20000 F3000.00000
G1 X-47.714 Y-19.976 E1.07646 F1800.000
G1 X-47.627 Y-21.143 E0.06360
G1 X-47.367 Y-22.278 E0.06328
G1 X-47.276 Y-22.545 E0.01530
G1 X-46.945 Y-23.345 E0.04706
G1 X-46.819 Y-23.601 E0.01550
G1 X-46.208 Y-24.576 E0.06249
G1 X-45.453 Y-25.453 E0.06289
G1 X-44.584 Y-26.202 E0.06235
G1 X-43.598 Y-26.820 E0.06321
G1 X-43.345 Y-26.945 E0.01530
G1 X-42.545 Y-27.276 E0.04706
G1 X-42.278 Y-27.367 E0.01530
G1 X-41.144 Y-27.626 E0.06321
G1 X-39.973 Y-27.714 E0.06384
G1 X39.976 Y-27.714 E4.34383
G1 X40.289 Y-27.694 E0.01707
G1 X41.143 Y-27.627 E0.04653 F1800.000
G1 X42.278 Y-27.367 E0.06328
G1 X42.545 Y-27.276 E0.01530
G1 X43.345 Y-26.945 E0.04706
G1 X43.598 Y-26.820 E0.01530
G1 X44.583 Y-26.202 E0.06321
G1 X45.453 Y-25.453 E0.06235
G1 X46.208 Y-24.576 E0.06288
G1 X46.366 Y-24.340 E0.01543
G1 X46.819 Y-23.601 E0.04706
G1 X46.945 Y-23.345 E0.01550
G1 X47.276 Y-22.545 E0.04706
G1 X47.367 Y-22.278 E0.01530
G1 X47.626 Y-21.144 E0.06321
G1 X47.714 Y-19.973 E0.06384
G1 X47.714 Y19.973 E2.17034
G1 X47.626 Y21.144 E0.06384
G1 X47.367 Y22.278 E0.06321
G1 X47.276 Y22.545 E0.01530
G1 X46.945 Y23.345 E0.04706
G1 X46.820 Y23.598 E0.01530
G1 X46.202 Y24.583 E0.06322
G1 X45.451 Y25.456 E0.06253
G1 X44.585 Y26.201 E0.06211
G1 X43.598 Y26.820 E0.06328
G1 X43.345 Y26.945 E0.01530
G1 X42.545 Y27.276 E0.04706
G1 X42.278 Y27.367 E0.01530
G1 X41.144 Y27.626 E0.06321
G1 X39.973 Y27.714 E0.06384
G1 X-39.973 Y27.714 E4.34366
G1 X-41.144 Y27.626 E0.06384
G1 X-42.278 Y27.367 E0.06321
G1 X-42.545 Y27.276 E0.01530
G1 X-43.345 Y26.945 E0.04706
G1 X-43.598 Y26.820 E0.01530
G1 X-44.584 Y26.202 E0.06321
G1 X-45.453 Y25.453 E0.06235
G1 X-46.202 Y24.583 E0.06235
G1 X-46.820 Y23.598 E0.06321
G1 X-46.945 Y23.345 E0.01530
G1 X-47.276 Y22.545 E0.04706
G1 X-47.367 Y22.278 E0.01530
G1 X-47.626 Y21.144 E0.06321
G1 X-47.714 Y19.973 E0.06384
G1 X-47.714 Y-0.104 E1.09080
G1 X-48.150 Y-0.164 F9000.000
G1 X-48.150 Y-19.990 E1.07724 F1800.000
G1 X-48.058 Y-21.209 E0.06642
G1 X-47.787 Y-22.397 E0.06623
G1 X-47.684 Y-22.699 E0.01729
