; generated by Slic3r 1.2.9 on 2017-03-03 at 16:55:45

; external perimeters extrusion width = 0.40mm
; perimeters extrusion width = 0.40mm
; infill extrusion width = 0.40mm
; solid infill extrusion width = 0.40mm
; top infill extrusion width = 0.40mm

M107
M83
T0
M116
G21 ; set units to millimeters
G90 ; use absolute coordinates
M83 ; use relative distances for extrusion
G1 E-3.20000 F3000.00000
G1 Z0.400 F15000.000
G1 X0.093 Y-27.248 F15000.000
G1 Z0.300 F15000.000
G1 E3.20000 F3000.00000
G1 X26.353 Y-27.159 E2.02373 F960.000
G1 X27.999 Y-26.758 E0.13052
G1 X29.575 Y-25.183 E0.17177
G1 X32.825 Y-18.849 E0.54863
G1 X33.226 Y-17.189 E0.13159
G1 X33.226 Y-1.253 E1.22811
G1 X32.946 Y27.005 E2.17785
G1 X32.536 Y28.648 E0.13052
G1 X31.425 Y29.927 E0.13052
G1 X29.349 Y30.605 E0.16828
G1 X-2.718 Y30.942 E2.47145
G1 X-27.657 Y30.942 E1.92188
G1 X-29.304 Y30.548 E0.13052
G1 X-30.593 Y29.450 E0.13052
G1 X-31.284 Y27.551 E0.15572
G1 X-33.218 Y-1.162 E2.21780
G1 X-33.226 Y-17.307 E1.24417
G1 X-32.825 Y-18.966 E0.13159
G1 X-29.575 Y-25.300 E0.54863
G1 X-28.472 Y-26.585 E0.13052
G1 X-26.341 Y-27.276 E0.17269
G1 X-7.928 Y-27.276 E1.41896
G1 X0.033 Y-27.249 E0.61356 F960.000
G1 E-3.20000 F3000.00000
G1 Z0.700 F15000.000
G1 X-3.742 Y17.031 F15000.000
G1 Z0.300 F15000.000
G1 E3.20000 F3000.00000
G1 X-3.742 Y26.321 E0.71594 F720.000
G1 X-4.671 Y26.321 E0.07158
G1 X-4.671 Y16.321 E0.77065
G1 X-14.198 Y16.321 E0.73417
G1 X-10.901 Y12.392 E0.39524
G1 X-7.671 Y12.392 E0.24892
G1 X-7.671 Y6.058 E0.48812
G1 X-6.992 Y6.058 E0.05231
G1 X-6.992 Y12.392 E0.48812
G1 X-3.742 Y12.392 E0.25046 F720.000
G1 X-3.742 Y16.971 E0.35287
G1 X-3.107 Y16.971 F15000.000
G1 X-3.107 Y26.957 E0.76954 F720.000
G1 X-5.307 Y26.957 E0.16954
G1 X-5.307 Y16.957 E0.77065
G1 X-15.561 Y16.957 E0.79024
G1 X-11.197 Y11.757 E0.52313
G1 X-8.307 Y11.757 E0.22278
G1 X-8.307 Y5.423 E0.48812
G1 X-6.357 Y5.423 E0.15028
G1 X-6.357 Y11.757 E0.48812
G1 X-3.107 Y11.757 E0.25046 F720.000
G1 X-3.107 Y16.911 E0.39723
G1 X-3.453 Y17.171 F15000.000
G1 X-4.207 Y16.003 F15000.000
G1 X-4.207 Y26.003 E0.77065 F960.000
G1 X-4.128 Y13.087 F15000.000
G1 X-4.437 Y12.778 E0.03631 F960.000
G1 X-5.404 Y12.778 E0.08018
G1 X-4.128 Y14.054 E0.14970
G1 X-4.128 Y15.021 E0.08018
G1 X-6.372 Y12.778 E0.26309
G1 X-7.339 Y12.778 E0.08018
G1 X-4.498 Y15.618 E0.33301
G1 X-5.148 Y15.936 E0.05993
G1 X-8.306 Y12.778 E0.37027
G1 X-9.273 Y12.778 E0.08018
G1 X-6.115 Y15.936 E0.37027
G1 X-7.082 Y15.936 E0.08018
G1 X-10.240 Y12.778 E0.37027
G1 X-10.982 Y13.002 E0.06430
G1 X-8.049 Y15.936 E0.34390
G1 X-9.016 Y15.936 E0.08018
G1 X-11.423 Y13.528 E0.28225
G1 X-11.864 Y14.054 E0.05691
G1 X-9.983 Y15.936 E0.22059
G1 X-10.950 Y15.936 E0.08018
G1 X-12.306 Y14.580 E0.15894
G1 X-12.747 Y15.106 E0.05691
G1 X-11.917 Y15.936 E0.09728
G1 X-12.884 Y15.936 E0.08018
G1 X-13.188 Y15.632 E0.03563
G1 E-3.20000 F3000.00000
G1 Z0.700 F15000.000
G1 X-26.671 Y18.252 F15000.000
G1 Z0.300 F15000.000
G1 E3.20000 F3000.00000
G1 X-26.671 Y12.392 E0.45157 F720.000
G1 X-23.421 Y12.392 E0.25046
G1 X-23.421 Y6.058 E0.48812
G1 X-22.742 Y6.058 E0.05231
G1 X-22.742 Y12.392 E0.48812
G1 X-16.216 Y12.392 E0.50298 F720.000
G1 X-19.512 Y16.321 E0.39524
G1 X-25.742 Y16.321 E0.48012
G1 X-25.742 Y26.321 E0.77065
G1 X-26.671 Y26.321 E0.07158
G1 X-26.671 Y18.312 E0.61723
G1 X-27.307 Y18.312 F15000.000
G1 X-27.307 Y11.757 E0.50518 F720.000
G1 X-24.057 Y11.757 E0.25046
G1 X-24.057 Y5.423 E0.48812
G1 X-22.107 Y5.423 E0.15028
G1 X-22.107 Y11.757 E0.48812
G1 X-14.853 Y11.757 E0.55904 F720.000
G1 X-19.216 Y16.957 E0.52313
G1 X-25.107 Y16.957 E0.45398
G1 X-25.107 Y26.957 E0.77065
G1 X-27.307 Y26.957 E0.16954
G1 X-27.307 Y18.372 E0.66159
G1 X-26.960 Y18.112 F15000.000
G1 X-26.207 Y16.003 F15000.000
G1 X-26.207 Y26.003 E0.77065 F960.000
G1 X-25.976 Y15.618 F15000.000
G1 X-26.286 Y15.308 E0.03531 F960.000
G1 X-26.286 Y14.367 E0.07585
G1 X-24.718 Y15.936 E0.17882
G1 X-23.777 Y15.936 E0.07585
G1 X-26.286 Y13.427 E0.28609
G1 X-25.994 Y12.778 E0.05739
G1 X-22.836 Y15.936 E0.36013
G1 X-21.896 Y15.935 E0.07585
G1 X-25.054 Y12.778 E0.36013
G1 X-24.113 Y12.778 E0.07585
G1 X-20.955 Y15.935 E0.36013
G1 X-20.015 Y15.935 E0.07585
G1 X-23.173 Y12.778 E0.36013
G1 X-22.232 Y12.778 E0.07585
G1 X-19.371 Y15.639 E0.32628
G1 X-18.942 Y15.127 E0.05384
G1 X-21.291 Y12.778 E0.26795
G1 X-20.351 Y12.778 E0.07585
G1 X-18.513 Y14.616 E0.20963
G1 X-18.084 Y14.104 E0.05384
G1 X-19.410 Y12.778 E0.15130
G1 X-18.470 Y12.778 E0.07585
G1 X-17.654 Y13.593 E0.09298
G1 X-17.529 Y12.778 E0.06652
G1 X-17.225 Y13.081 E0.03465
G1 E-3.20000 F3000.00000
G1 Z0.700 F15000.000
G1 X-8.227 Y-16.321 F15000.000
G1 Z0.300 F15000.000
G1 E3.20000 F3000.00000
G1 X-5.676 Y-16.321 E0.19659 F720.000
G1 X-5.676 Y-2.392 E1.07343
G1 X-6.605 Y-2.392 E0.07158
G1 X-6.605 Y-12.392 E0.77065
G1 X-16.132 Y-12.392 E0.73417
G1 X-12.835 Y-16.321 E0.39524
G1 X-9.605 Y-16.321 E0.24892
G1 X-9.605 Y-22.655 E0.48812
G1 X-8.926 Y-22.655 E0.05231
G1 X-8.926 Y-16.321 E0.48812
G1 X-8.287 Y-16.321 E0.04925 F720.000
G1 X-8.287 Y-16.957 F15000.000
G1 X-5.041 Y-16.957 E0.25019 F720.000
G1 X-5.041 Y-1.757 E1.17140
G1 X-7.241 Y-1.757 E0.16954
G1 X-7.241 Y-11.757 E0.77065
G1 X-17.495 Y-11.757 E0.79024
G1 X-13.131 Y-16.957 E0.52313
G1 X-10.241 Y-16.957 E0.22278
G1 X-10.241 Y-23.290 E0.48812
G1 X-8.291 Y-23.290 E0.15028
G1 X-8.291 Y-17.013 E0.48376
G1 X-8.287 Y-16.557 F15000.000
G1 X-6.062 Y-15.626 F15000.000
G1 X-6.371 Y-15.936 E0.03631 F960.000
G1 X-7.338 Y-15.936 E0.08018
G1 X-6.062 Y-14.659 E0.14970
G1 X-6.062 Y-13.692 E0.08018
G1 X-8.305 Y-15.936 E0.26309
G1 X-9.272 Y-15.936 E0.08018
G1 X-6.432 Y-13.095 E0.33301
G1 X-7.082 Y-12.778 E0.05993
G1 X-10.240 Y-15.936 E0.37027
G1 X-11.207 Y-15.936 E0.08018
G1 X-8.049 Y-12.778 E0.37027
G1 X-9.016 Y-12.778 E0.08018
G1 X-12.174 Y-15.936 E0.37027
G1 X-12.916 Y-15.711 E0.06430
G1 X-9.983 Y-12.778 E0.34390
G1 X-10.950 Y-12.778 E0.08018
G1 X-13.357 Y-15.185 E0.28225
G1 X-13.798 Y-14.659 E0.05691
G1 X-11.917 Y-12.778 E0.22059
G1 X-12.884 Y-12.778 E0.08018
G1 X-14.240 Y-14.133 E0.15894
G1 X-14.681 Y-13.607 E0.05691
G1 X-13.851 Y-12.778 E0.09728
G1 X-14.818 Y-12.778 E0.08018
G1 X-15.122 Y-13.081 E0.03563
G1 X-6.141 Y-12.710 F15000.000
G1 X-6.141 Y-2.710 E0.77065 F960.000
G1 E-3.20000 F3000.00000
G1 Z0.700 F15000.000
G1 X-25.355 Y-20.377 F15000.000
G1 Z0.300 F15000.000
G1 E3.20000 F3000.00000
G1 X-25.355 Y-22.655 E0.17556 F720.000
G1 X-24.676 Y-22.655 E0.05231
G1 X-24.676 Y-16.321 E0.48812
G1 X-18.150 Y-16.321 E0.50298 F720.000
G1 X-21.446 Y-12.392 E0.39524
G1 X-27.676 Y-12.392 E0.48012
G1 X-27.676 Y-2.392 E0.77065
G1 X-28.605 Y-2.392 E0.07158
G1 X-28.605 Y-16.321 E1.07343
G1 X-25.355 Y-16.321 E0.25046
G1 X-25.355 Y-20.317 E0.30793
G1 X-25.991 Y-20.317 F15000.000
G1 X-25.991 Y-23.290 E0.22917 F720.000
G1 X-24.041 Y-23.290 E0.15028
G1 X-24.041 Y-16.957 E0.48812
G1 X-16.786 Y-16.957 E0.55904 F720.000
G1 X-21.150 Y-11.757 E0.52313
G1 X-27.041 Y-11.757 E0.45398
G1 X-27.041 Y-1.757 E0.77065
G1 X-29.241 Y-1.757 E0.16954
G1 X-29.241 Y-16.957 E1.17140
G1 X-25.991 Y-16.957 E0.25046
G1 X-25.991 Y-20.257 E0.25433
G1 X-25.644 Y-20.517 F15000.000
G1 E-3.20000 F3000.00000
G1 Z0.700 F15000.000
G1 X-27.910 Y-13.095 F15000.000
G1 Z0.300 F15000.000
G1 E3.20000 F3000.00000
G1 X-28.220 Y-13.405 E0.03531 F960.000
G1 X-28.220 Y-14.346 E0.07585
G1 X-26.651 Y-12.778 E0.17882
G1 X-25.711 Y-12.778 E0.07585
G1 X-28.220 Y-15.286 E0.28609
G1 X-27.928 Y-15.936 E0.05739
G1 X-24.770 Y-12.778 E0.36013
G1 X-23.830 Y-12.778 E0.07585
G1 X-26.988 Y-15.936 E0.36013
G1 X-26.047 Y-15.936 E0.07585
G1 X-22.889 Y-12.778 E0.36013
G1 X-21.949 Y-12.778 E0.07585
G1 X-25.106 Y-15.936 E0.36013
G1 X-24.166 Y-15.936 E0.07585
G1 X-21.305 Y-13.074 E0.32628
G1 X-20.876 Y-13.586 E0.05384
G1 X-23.225 Y-15.936 E0.26795
G1 X-22.285 Y-15.936 E0.07585
G1 X-20.447 Y-14.097 E0.20963
G1 X-20.017 Y-14.609 E0.05384
G1 X-21.344 Y-15.936 E0.15130
G1 X-20.404 Y-15.936 E0.07585
G1 X-19.588 Y-15.120 E0.09298
G1 X-19.463 Y-15.936 E0.06652
G1 X-19.159 Y-15.632 E0.03465
G1 X-28.141 Y-12.710 F15000.000
G1 X-28.141 Y-2.710 E0.77065 F960.000
G1 E-3.20000 F3000.00000
G1 Z0.700 F15000.000
G1 X22.795 Y-16.203 F15000.000
G1 Z0.300 F15000.000
G1 E3.20000 F3000.00000
G1 X24.676 Y-16.203 E0.14497 F720.000
G1 X24.676 Y-22.537 E0.48812
G1 X25.355 Y-22.537 E0.05231
G1 X25.355 Y-16.203 E0.48812
G1 X28.605 Y-16.203 E0.25046 F720.000
G1 X28.605 Y-2.275 E1.07343
G1 X27.676 Y-2.275 E0.07158
G1 X27.676 Y-12.275 E0.77065
G1 X18.150 Y-12.275 E0.73417
G1 X21.446 Y-16.203 E0.39524
G1 X22.735 Y-16.203 E0.09933
G1 X22.735 Y-16.839 F15000.000
G1 X24.041 Y-16.839 E0.10061 F720.000
G1 X24.041 Y-23.173 E0.48812
G1 X25.991 Y-23.173 E0.15028
G1 X25.991 Y-16.839 E0.48812
G1 X29.241 Y-16.839 E0.25046 F720.000
G1 X29.241 Y-1.639 E1.17140
G1 X27.041 Y-1.639 E0.16954
G1 X27.041 Y-11.639 E0.77065
G1 X16.786 Y-11.639 E0.79024
G1 X21.150 Y-16.839 E0.52313
G1 X22.675 Y-16.839 E0.11754
G1 X22.935 Y-16.493 F15000.000
G1 X19.159 Y-12.964 F15000.000
G1 X19.463 Y-12.660 E0.03563 F960.000
G1 X20.430 Y-12.660 E0.08018
G1 X19.600 Y-13.490 E0.09728
G1 X20.042 Y-14.016 E0.05691
G1 X21.397 Y-12.660 E0.15894
G1 X22.364 Y-12.660 E0.08018
G1 X20.483 Y-14.542 E0.22059
G1 X20.924 Y-15.067 E0.05691
G1 X23.331 Y-12.660 E0.28225
G1 X24.298 Y-12.660 E0.08018
G1 X21.365 Y-15.593 E0.34390
G1 X22.107 Y-15.818 E0.06430
G1 X25.265 Y-12.660 E0.37027
G1 X26.232 Y-12.660 E0.08018
G1 X23.075 Y-15.818 E0.37027
G1 X24.042 Y-15.818 E0.08018
G1 X27.199 Y-12.660 E0.37027
G1 X27.849 Y-12.978 E0.05993
G1 X25.009 Y-15.818 E0.33301
G1 X25.976 Y-15.818 E0.08018
G1 X28.220 Y-13.574 E0.26309
G1 X28.220 Y-14.541 E0.08018
G1 X26.943 Y-15.818 E0.14970
G1 X27.910 Y-15.818 E0.08018
G1 X28.220 Y-15.508 E0.03631
G1 X28.141 Y-12.593 F15000.000
G1 X28.141 Y-2.593 E0.77065 F960.000
G1 E-3.20000 F3000.00000
G1 Z0.700 F15000.000
G1 X12.379 Y-12.275 F15000.000
G1 Z0.300 F15000.000
G1 E3.20000 F3000.00000
G1 X6.605 Y-12.275 E0.44497 F720.000
G1 X6.605 Y-2.275 E0.77065
G1 X5.676 Y-2.275 E0.07158
G1 X5.676 Y-16.203 E1.07343
G1 X8.926 Y-16.203 E0.25046
G1 X8.926 Y-22.537 E0.48812
G1 X9.605 Y-22.537 E0.05231
G1 X9.605 Y-16.203 E0.48812
G1 X16.132 Y-16.203 E0.50298 F720.000
G1 X12.835 Y-12.275 E0.39524
G1 X12.439 Y-12.275 E0.03052
G1 X12.439 Y-11.639 F15000.000
G1 X7.241 Y-11.639 E0.40061 F720.000
G1 X7.241 Y-1.639 E0.77065
G1 X5.041 Y-1.639 E0.16954
G1 X5.041 Y-16.839 E1.17140
G1 X8.291 Y-16.839 E0.25046
G1 X8.291 Y-23.173 E0.48812
G1 X10.241 Y-23.173 E0.15028
G1 X10.241 Y-16.839 E0.48812
G1 X17.495 Y-16.839 E0.55904 F720.000
G1 X13.131 Y-11.639 E0.52313
G1 X12.499 Y-11.639 E0.04874
G1 X12.239 Y-11.986 F15000.000
G1 X15.122 Y-15.514 F15000.000
G1 X14.818 Y-15.818 E0.03465 F960.000
G1 X14.693 Y-15.003 E0.06652
G1 X13.878 Y-15.818 E0.09298
G1 X12.937 Y-15.818 E0.07585
G1 X14.264 Y-14.491 E0.15130
G1 X13.835 Y-13.980 E0.05384
G1 X11.996 Y-15.818 E0.20963
G1 X11.056 Y-15.818 E0.07585
G1 X13.405 Y-13.468 E0.26795
G1 X12.976 Y-12.957 E0.05384
G1 X10.115 Y-15.818 E0.32628
G1 X9.175 Y-15.818 E0.07585
G1 X12.333 Y-12.660 E0.36013
G1 X11.392 Y-12.660 E0.07585
G1 X8.234 Y-15.818 E0.36013
G1 X7.293 Y-15.818 E0.07585
G1 X10.451 Y-12.660 E0.36013
G1 X9.511 Y-12.660 E0.07585
G1 X6.353 Y-15.818 E0.36013
G1 X6.062 Y-15.169 E0.05739
G1 X8.570 Y-12.660 E0.28609
G1 X7.630 Y-12.660 E0.07585
G1 X6.062 Y-14.228 E0.17882
G1 X6.062 Y-13.288 E0.07585
G1 X6.371 Y-12.978 E0.03531
G1 X6.141 Y-12.593 F15000.000
G1 X6.141 Y-2.593 E0.77065 F960.000
G1 E-3.20000 F3000.00000
G1 Z0.700 F15000.000
G1 X21.115 Y15.984 F15000.000
G1 Z0.300 F15000.000
G1 E3.20000 F3000.00000
G1 X17.870 Y15.984 E0.25006 F720.000
G1 X21.167 Y12.055 E0.39524
G1 X24.397 Y12.055 E0.24892
G1 X24.397 Y5.721 E0.48812
G1 X25.075 Y5.721 E0.05231
G1 X25.075 Y12.055 E0.48812
G1 X28.325 Y12.055 E0.25046 F720.000
G1 X28.325 Y25.984 E1.07343
G1 X27.397 Y25.984 E0.07158
G1 X27.397 Y15.984 E0.77065
G1 X21.175 Y15.984 E0.47949
G1 X21.175 Y16.619 F15000.000
G1 X16.507 Y16.619 E0.35973 F720.000
G1 X20.870 Y11.419 E0.52313
G1 X23.761 Y11.419 E0.22278
G1 X23.761 Y5.085 E0.48812
G1 X25.711 Y5.085 E0.15028
G1 X25.711 Y11.419 E0.48812
G1 X28.961 Y11.419 E0.25046 F720.000
G1 X28.961 Y26.619 E1.17140
G1 X26.761 Y26.619 E0.16954
G1 X26.761 Y16.619 E0.77065
G1 X21.235 Y16.619 E0.42588
G1 X20.975 Y16.273 F15000.000
G1 X18.880 Y15.294 F15000.000
G1 X19.183 Y15.598 E0.03563 F960.000
G1 X20.151 Y15.598 E0.08018
G1 X19.321 Y14.769 E0.09728
G1 X19.762 Y14.243 E0.05691
G1 X21.118 Y15.598 E0.15894
G1 X22.085 Y15.598 E0.08018
G1 X20.203 Y13.717 E0.22059
G1 X20.644 Y13.191 E0.05691
G1 X23.052 Y15.598 E0.28225
G1 X24.019 Y15.598 E0.08018
G1 X21.086 Y12.665 E0.34390
G1 X21.828 Y12.440 E0.06430
G1 X24.986 Y15.598 E0.37027
G1 X25.953 Y15.598 E0.08018
G1 X22.795 Y12.440 E0.37027
G1 X23.762 Y12.440 E0.08018
G1 X26.920 Y15.598 E0.37027
G1 X27.569 Y15.280 E0.05993
G1 X24.729 Y12.440 E0.33301
G1 X25.696 Y12.440 E0.08018
G1 X27.940 Y14.684 E0.26309
G1 X27.940 Y13.717 E0.08018
G1 X26.663 Y12.440 E0.14970
G1 X27.630 Y12.440 E0.08018
G1 X27.940 Y12.750 E0.03631
G1 X27.861 Y15.666 F15000.000
G1 X27.861 Y25.666 E0.77065 F960.000
G1 E-3.20000 F3000.00000
G1 Z0.700 F15000.000
G1 X15.114 Y12.055 F15000.000
G1 Z0.300 F15000.000
G1 E3.20000 F3000.00000
G1 X15.852 Y12.055 E0.05687 F720.000
G1 X12.555 Y15.984 E0.39524
G1 X6.325 Y15.984 E0.48012
G1 X6.325 Y25.984 E0.77065
G1 X5.397 Y25.984 E0.07158
G1 X5.397 Y12.055 E1.07343
G1 X8.647 Y12.055 E0.25046
G1 X8.647 Y5.721 E0.48812
G1 X9.325 Y5.721 E0.05231
G1 X9.325 Y12.055 E0.48812
G1 X15.054 Y12.055 E0.44149 F720.000
G1 X15.054 Y11.419 F15000.000
G1 X17.215 Y11.419 E0.16654 F720.000
G1 X12.852 Y16.619 E0.52313
G1 X6.961 Y16.619 E0.45398
G1 X6.961 Y26.619 E0.77065
G1 X4.761 Y26.619 E0.16954
G1 X4.761 Y11.419 E1.17140
G1 X8.011 Y11.419 E0.25046
G1 X8.011 Y5.085 E0.48812
G1 X9.961 Y5.085 E0.15028
G1 X9.961 Y11.419 E0.48812
G1 X14.994 Y11.419 E0.38788 F720.000
G1 X15.254 Y11.766 F15000.000
G1 X14.842 Y12.744 F15000.000
G1 X14.539 Y12.440 E0.03465 F960.000
G1 X14.413 Y13.256 E0.06652
G1 X13.598 Y12.440 E0.09298
G1 X12.657 Y12.440 E0.07585
G1 X13.984 Y13.767 E0.15130
G1 X13.555 Y14.278 E0.05384
G1 X11.717 Y12.440 E0.20963
G1 X10.776 Y12.440 E0.07585
G1 X13.126 Y14.790 E0.26795
G1 X12.697 Y15.301 E0.05384
G1 X9.836 Y12.440 E0.32628
G1 X8.895 Y12.440 E0.07585
G1 X12.053 Y15.598 E0.36013
G1 X11.112 Y15.598 E0.07585
G1 X7.955 Y12.440 E0.36013
G1 X7.014 Y12.440 E0.07585
G1 X10.172 Y15.598 E0.36013
G1 X9.231 Y15.598 E0.07585
G1 X6.073 Y12.440 E0.36013
G1 X5.782 Y13.090 E0.05739
G1 X8.291 Y15.598 E0.28609
G1 X7.350 Y15.598 E0.07585
G1 X5.782 Y14.030 E0.17882
G1 X5.782 Y14.971 E0.07585
G1 X6.092 Y15.280 E0.03531
G1 X5.861 Y15.666 F15000.000
G1 X5.861 Y25.666 E0.77065 F960.000
G1 E-3.20000 F3000.00000
G1 Z0.700 F15000.000
G1 X-10.284 Y11.964 F15000.000
G1 Z0.500 F15000.000
G1 E3.20000 F3000.00000
G1 X-8.100 Y11.964 E0.06304 F3600.000
G1 X-8.100 Y5.485 E0.18698
G1 X-6.564 Y5.485 E0.04433
G1 X-6.564 Y11.964 E0.18698
G1 X-3.314 Y11.964 E0.09380 F3600.000
G1 X-3.314 Y26.749 E0.42676
G1 X-5.100 Y26.749 E0.05154
G1 X-5.100 Y16.749 E0.28863
G1 X-15.117 Y16.749 E0.28912
G1 X-11.101 Y11.964 E0.18032
G1 X-10.344 Y11.964 E0.02185
G1 X-10.344 Y11.607 F15000.000
G1 X-8.457 Y11.607 E0.05447 F3600.000
G1 X-8.457 Y5.128 E0.18698
G1 X-6.207 Y5.128 E0.06494
G1 X-6.207 Y11.607 E0.18698
G1 X-2.957 Y11.607 E0.09380 F3600.000
G1 X-2.957 Y27.107 E0.44737
G1 X-5.457 Y27.107 E0.07216
G1 X-5.457 Y17.107 E0.28863
G1 X-15.882 Y17.107 E0.30092
G1 X-11.267 Y11.607 E0.20723
G1 X-10.404 Y11.607 E0.02492
G1 X-10.144 Y11.953 F15000.000
G1 X-10.631 Y12.171 F15000.000
G1 X-12.413 Y13.954 E0.07302 F4800.000
G1 X-14.494 Y16.542 F15000.000
G1 X-10.124 Y12.171 E0.17905 F4800.000
G1 X-9.617 Y12.171 E0.01468
G1 X-13.987 Y16.542 E0.17905
G1 X-13.480 Y16.542 E0.01468
G1 X-9.110 Y12.171 E0.17905
G1 X-8.603 Y12.171 E0.01468
G1 X-12.973 Y16.542 E0.17905
G1 X-12.467 Y16.542 E0.01468
G1 X-8.096 Y12.171 E0.17905
G1 X-7.892 Y11.967 F15000.000
G1 X-6.771 Y10.847 E0.04590 F4800.000
G1 X-6.771 Y11.353 E0.01468
G1 X-11.960 Y16.542 E0.21256
G1 X-11.453 Y16.542 E0.01468
G1 X-6.771 Y11.860 E0.19179
