; generated by Slic3r 1.2.9 on 2016-09-26 at 16:32:01

; external perimeters extrusion width = 0.50mm
; perimeters extrusion width = 0.50mm
; infill extrusion width = 0.50mm
; solid infill extrusion width = 0.50mm
; top infill extrusion width = 0.50mm

M107
;Basic settings: Layer height: {layer_height} Walls: {wall_thickness} Fill: {fill_density}
;Print time: {print_time}
;Filament used: {filament_amount}m {filament_weight}g
;Filament cost: {filament_cost}
;M190 S{print_bed_temperature} ;Uncomment to add your own bed temperature line
;M109 S{print_temperature} ;Uncomment to add your own temperature line
G21        ;metric values
G90        ;absolute positioning
M83
G10 P0 S200
T0
M116


G21 ; set units to millimeters
G90 ; use absolute coordinates
M83 ; use relative distances for extrusion
G1 E-3.20000 F3000.00000
G1 Z0.400 F9000.000
G1 X0.000 Y43.251 F9000.000
G1 Z0.300 F9000.000
G1 E3.20000 F3000.00000
G1 X-31.300 Y43.247 E2.87180 F1200.000
G1 X-34.883 Y43.070 E0.32917
G1 X-36.533 Y42.594 E0.15755
G1 X-37.799 Y41.425 E0.15813
G1 X-47.799 Y26.564 E1.64342
G1 X-48.432 Y24.648 E0.18514
G1 X-50.432 Y-19.402 E4.04577
G1 X-50.436 Y-25.471 E0.55687
G1 X-50.041 Y-27.142 E0.15755
G1 X-48.940 Y-28.460 E0.15755
G1 X-47.939 Y-28.995 E0.10416
G1 X6.811 Y-48.245 E5.32479
G1 X8.050 Y-48.457 E0.11533
G1 X13.950 Y-48.457 E0.54133
G1 X15.909 Y-47.902 E0.18684
G1 X47.159 Y-28.652 E3.36754 F1200.000
G1 X48.375 Y-27.439 E0.15755
G1 X48.929 Y-25.694 E0.16796
G1 X50.436 Y-0.421 E2.32295
G1 X50.436 Y24.479 E2.28459
G1 X50.417 Y24.854 E0.03446
G1 X48.917 Y39.714 E1.37039
G1 X48.356 Y41.338 E0.15755
G1 X47.129 Y42.538 E0.15755
G1 X45.383 Y43.070 E0.16743
G1 X41.617 Y43.251 E0.34599
G1 X0.060 Y43.251 E3.81285
G1 E-3.20000 F3000.00000
G1 Z0.700 F9000.000
G1 X36.436 Y23.343 F9000.000
G1 Z0.300 F9000.000
G1 E3.20000 F3000.00000
G1 X34.936 Y23.343 E0.13763 F900.000
G1 X34.936 Y17.891 E0.50023
G1 X36.759 Y19.714 E0.23658
G1 X43.741 Y19.714 E0.64062
G1 X45.564 Y17.891 E0.23658
G1 X45.564 Y23.343 E0.50023
G1 X44.064 Y23.343 E0.13763
G1 X44.064 Y38.204 E1.36346
G1 X40.481 Y38.204 E0.32877
G1 X40.481 Y38.380 E0.01616
G1 X40.019 Y38.380 E0.04240
G1 X40.019 Y38.204 E0.01616
G1 X36.436 Y38.204 E0.32877
G1 X36.436 Y23.403 E1.35795
G1 E-3.20000 F3000.00000
G1 Z0.700 F9000.000
G1 X34.936 Y6.166 F9000.000
G1 Z0.300 F9000.000
G1 E3.20000 F3000.00000
G1 X34.936 Y0.714 E0.50023 F900.000
G1 X45.564 Y0.714 E0.97519
G1 X45.564 Y6.166 E0.50023
G1 X43.741 Y4.343 E0.23658
G1 X36.759 Y4.343 E0.64062
G1 X34.978 Y6.124 E0.23107
G1 E-3.20000 F3000.00000
G1 Z0.700 F9000.000
G1 X35.700 Y24.079 F9000.000
G1 Z0.300 F9000.000
G1 E3.20000 F3000.00000
G1 X34.200 Y24.079 E0.13763 F900.000
G1 X34.200 Y-0.021 E2.21119
G1 X46.300 Y-0.021 E1.11018
G1 X46.300 Y7.832 E0.72050
G1 X45.700 Y7.832 E0.05505
G1 X45.700 Y7.342 E0.04489
G1 X43.436 Y5.079 E0.29371
G1 X37.064 Y5.079 E0.58471
G1 X34.800 Y7.342 E0.29371
G1 X34.800 Y16.715 E0.85996
G1 X37.064 Y18.979 E0.29371
G1 X43.436 Y18.979 E0.58471
G1 X45.700 Y16.715 E0.29371
G1 X45.700 Y11.342 E0.49296
G1 X46.300 Y11.342 E0.05505
G1 X46.300 Y24.079 E1.16857
G1 X44.800 Y24.079 E0.13763
G1 X44.800 Y38.939 E1.36346
G1 X41.217 Y38.939 E0.32877
G1 X41.217 Y39.115 E0.01616
G1 X39.283 Y39.115 E0.17739
G1 X39.283 Y38.939 E0.01616
G1 X35.700 Y38.939 E0.32877
G1 X35.700 Y24.139 E1.35795
G1 X35.700 Y23.679 F9000.000
G1 X36.885 Y23.853 F9000.000
G1 X43.615 Y30.584 E0.87491 F900.000
G1 X43.615 Y31.626 E0.09580
G1 X36.885 Y24.895 E0.87491
G1 X36.885 Y25.938 E0.09580
G1 X43.615 Y32.668 E0.87491
G1 X43.615 Y33.710 E0.09580
G1 X36.885 Y26.980 E0.87491
G1 X36.885 Y28.022 E0.09580
G1 X43.615 Y34.753 E0.87491
G1 X43.615 Y35.795 E0.09580
G1 X36.885 Y29.064 E0.87491
G1 X36.885 Y30.107 E0.09580
G1 X43.615 Y36.837 E0.87491
G1 X43.490 Y37.754 E0.08511
G1 X36.885 Y31.149 E0.85868
G1 X36.885 Y32.191 E0.09580
G1 X42.448 Y37.754 E0.72320
G1 X41.406 Y37.754 E0.09580
G1 X36.885 Y33.233 E0.58771
G1 X36.885 Y34.276 E0.09580
G1 X40.364 Y37.754 E0.45222
G1 X39.321 Y37.754 E0.09580
G1 X36.885 Y35.318 E0.31674
G1 X36.885 Y36.360 E0.09580
G1 X38.279 Y37.754 E0.18125
G1 X37.237 Y37.754 E0.09580
G1 X36.885 Y37.402 E0.04577
G1 X43.615 Y27.457 F9000.000
G1 X35.404 Y19.246 E1.06742 F900.000
G1 X35.385 Y20.269 F9000.000
G1 X43.615 Y28.499 E1.06990 F900.000
G1 X43.615 Y29.541 E0.09580
G1 X35.385 Y21.311 E1.06990
G1 X35.385 Y22.353 E0.09580
G1 X35.926 Y22.894 E0.07029
G1 X37.364 Y20.164 F9000.000
G1 X43.615 Y26.415 E0.81259 F900.000
G1 X43.615 Y25.372 E0.09580
G1 X38.406 Y20.164 E0.67711
G1 X39.449 Y20.164 E0.09580
G1 X43.615 Y24.330 E0.54162
G1 X43.615 Y23.288 E0.09580
G1 X40.491 Y20.164 E0.40614
G1 X41.533 Y20.164 E0.09580
G1 X44.263 Y22.894 E0.35493
G1 X45.115 Y22.703 E0.08022
G1 X42.575 Y20.164 E0.33016
G1 X43.618 Y20.164 E0.09580
G1 X45.115 Y21.661 E0.19467
G1 X45.115 Y20.619 E0.09580
G1 X44.248 Y19.752 E0.11275
G1 X44.769 Y19.230 E0.06774
G1 X45.115 Y19.577 E0.04501
G1 E-3.20000 F3000.00000
G1 Z0.700 F9000.000
G1 X45.115 Y4.690 F9000.000
G1 Z0.300 F9000.000
G1 E3.20000 F3000.00000
G1 X41.589 Y1.164 E0.46527 F900.000
G1 X42.647 Y1.164 E0.09871
G1 X45.115 Y3.632 E0.32567
G1 X45.115 Y2.574 E0.09871
G1 X43.705 Y1.164 E0.18606
G1 X44.763 Y1.164 E0.09871
G1 X45.115 Y1.516 E0.04646
G1 X43.262 Y3.894 F9000.000
G1 X40.531 Y1.164 E0.36028 F900.000
G1 X39.473 Y1.164 E0.09871
G1 X42.204 Y3.894 E0.36028
G1 X41.146 Y3.894 E0.09871
G1 X38.415 Y1.164 E0.36028
G1 X37.357 Y1.164 E0.09871
G1 X40.088 Y3.894 E0.36028
G1 X39.030 Y3.894 E0.09871
G1 X36.299 Y1.164 E0.36028
G1 X35.385 Y1.307 E0.08638
G1 X37.972 Y3.894 E0.34136
G1 X36.914 Y3.894 E0.09871
G1 X35.385 Y2.365 E0.20176
G1 X35.385 Y3.423 E0.09871
G1 X36.260 Y4.298 E0.11549
G1 X35.731 Y4.827 E0.06980
G1 X35.385 Y4.481 E0.04569
G1 E-3.20000 F3000.00000
G1 Z0.700 F9000.000
G1 X36.436 Y-20.707 F9000.000
G1 Z0.300 F9000.000
G1 E3.20000 F3000.00000
G1 X22.081 Y-20.707 E1.31707 F900.000
G1 X25.126 Y-24.336 E0.43462
G1 X44.064 Y-24.336 E1.73765
G1 X44.064 Y-16.796 E0.69173
G1 X40.481 Y-16.796 E0.32877
G1 X40.481 Y-16.620 E0.01616
G1 X40.019 Y-16.620 E0.04240
G1 X40.019 Y-16.796 E0.01616
G1 X36.436 Y-16.796 E0.32877
G1 X36.436 Y-20.647 E0.35328
G1 X35.700 Y-19.971 F9000.000
G1 X29.550 Y-19.971 E0.56427 F900.000
G1 X29.550 Y-13.637 E0.58113
G1 X27.700 Y-13.637 E0.16974
G1 X27.700 Y-19.971 E0.58113
G1 X20.503 Y-19.971 E0.66032
G1 X24.783 Y-25.071 E0.61084
G1 X44.800 Y-25.071 E1.83661
G1 X44.800 Y-16.061 E0.82672
G1 X41.217 Y-16.061 E0.32877
G1 X41.217 Y-15.885 E0.01616
G1 X39.283 Y-15.885 E0.17739
G1 X39.283 Y-16.061 E0.01616
G1 X35.700 Y-16.061 E0.32877
G1 X35.700 Y-19.911 E0.35328
G1 X35.700 Y-20.371 F9000.000
G1 X28.625 Y-20.339 F9000.000
G1 X28.625 Y-14.005 E1.21312 F600.000
G1 E-3.20000 F3000.00000
G1 Z0.700 F9000.000
G1 X23.598 Y-21.156 F9000.000
G1 Z0.300 F9000.000
G1 E3.20000 F3000.00000
G1 X23.251 Y-21.502 E0.04606 F900.000
G1 X23.738 Y-22.082 E0.07120
G1 X24.664 Y-21.156 E0.12320
G1 X25.731 Y-21.156 E0.10031
G1 X24.224 Y-22.662 E0.20033
G1 X24.711 Y-23.242 E0.07120
G1 X26.797 Y-21.156 E0.27746
G1 X27.863 Y-21.156 E0.10031
G1 X25.207 Y-23.812 E0.35334
G1 X26.200 Y-23.886 E0.09361
G1 X28.930 Y-21.156 E0.36318
G1 X29.996 Y-21.156 E0.10031
G1 X27.266 Y-23.886 E0.36318
G1 X28.333 Y-23.886 E0.10031
G1 X31.063 Y-21.156 E0.36318
G1 X32.129 Y-21.156 E0.10031
G1 X29.399 Y-23.886 E0.36318
G1 X30.465 Y-23.886 E0.10031
G1 X33.196 Y-21.156 E0.36318
G1 X34.262 Y-21.156 E0.10031
G1 X31.532 Y-23.886 E0.36318
G1 X32.598 Y-23.886 E0.10031
G1 X35.329 Y-21.156 E0.36318
G1 X36.395 Y-21.156 F9000.000
G1 X33.665 Y-23.886 E0.36318 F900.000
G1 X34.731 Y-23.886 E0.10031
G1 X41.372 Y-17.246 E0.88334
G1 X42.439 Y-17.246 E0.10031
G1 X35.798 Y-23.886 E0.88334
G1 X36.864 Y-23.886 E0.10031
G1 X43.505 Y-17.246 E0.88334
G1 X43.615 Y-18.202 E0.09055
G1 X37.931 Y-23.886 E0.75612
G1 X38.997 Y-23.886 E0.10031
G1 X43.615 Y-19.268 E0.61426
G1 X43.615 Y-20.335 E0.10031
G1 X40.064 Y-23.886 E0.47241
G1 X41.130 Y-23.886 E0.10031
G1 X43.615 Y-21.401 E0.33055
G1 X43.615 Y-22.468 E0.10031
G1 X42.197 Y-23.886 E0.18869
G1 X43.263 Y-23.886 E0.10031
G1 X43.615 Y-23.534 E0.04683
G1 X36.885 Y-20.666 F9000.000
G1 X40.306 Y-17.246 E0.45503 F900.000
G1 X39.239 Y-17.246 E0.10031
G1 X36.885 Y-19.600 E0.31317
G1 X36.885 Y-18.533 E0.10031
G1 X38.173 Y-17.246 E0.17132
G1 E-3.20000 F3000.00000
G1 Z0.700 F9000.000
G1 X12.814 Y-24.336 F9000.000
G1 Z0.300 F9000.000
G1 E3.20000 F3000.00000
G1 X19.419 Y-24.336 E0.60601 F900.000
G1 X16.374 Y-20.707 E0.43462
G1 X9.436 Y-20.707 E0.63664
G1 X9.436 Y-20.957 E0.02294
G1 X9.186 Y-20.957 E0.02294
G1 X9.186 Y-30.941 E0.91601
G1 X12.814 Y-27.896 E0.43462
G1 X12.814 Y-24.396 E0.32113
G1 X13.550 Y-25.071 F9000.000
G1 X20.997 Y-25.071 E0.68325 F900.000
G1 X16.717 Y-19.971 E0.61084
G1 X13.800 Y-19.971 E0.26768
G1 X13.800 Y-13.637 E0.58113
G1 X11.950 Y-13.637 E0.16974
G1 X11.950 Y-19.971 E0.58113
G1 X8.700 Y-19.971 E0.29819
G1 X8.700 Y-20.221 E0.02294
G1 X8.450 Y-20.221 E0.02294
G1 X8.450 Y-23.471 E0.29819
G1 X2.116 Y-23.471 E0.58113
G1 X2.116 Y-25.321 E0.16974
G1 X8.450 Y-25.321 E0.58113
G1 X8.450 Y-32.518 E0.66032
G1 X13.550 Y-28.239 E0.61084
G1 X13.550 Y-25.131 E0.28511
G1 X13.550 Y-24.671 F9000.000
G1 X8.818 Y-24.396 F9000.000
G1 X2.484 Y-24.396 E1.21312 F600.000
G1 E-3.20000 F3000.00000
G1 Z0.700 F9000.000
G1 X9.635 Y-21.758 F9000.000
G1 Z0.300 F9000.000
G1 E3.20000 F3000.00000
G1 X10.237 Y-21.156 E0.08674 F900.000
G1 X11.392 Y-21.156 E0.11767
G1 X9.635 Y-22.913 E0.25316
G1 X9.635 Y-24.068 E0.11767
G1 X12.547 Y-21.156 E0.41957
G1 X13.702 Y-21.156 E0.11767
G1 X9.635 Y-25.223 E0.58598
G1 X9.635 Y-26.378 E0.11767
G1 X14.857 Y-21.156 E0.75240
G1 X16.012 Y-21.156 E0.11767
G1 X13.282 Y-23.886 E0.39336
G1 X14.437 Y-23.886 E0.11767
G1 X16.668 Y-21.656 E0.32135
G1 X17.195 Y-22.284 E0.08352
G1 X15.592 Y-23.886 E0.23086
G1 X16.747 Y-23.886 E0.11767
G1 X17.722 Y-22.912 E0.14038
G1 X17.902 Y-23.886 E0.10095
G1 X18.249 Y-23.540 E0.04989
G1 X12.365 Y-24.803 F9000.000
G1 X9.635 Y-27.534 E0.39336 F900.000
G1 X9.635 Y-28.689 E0.11767
G1 X12.365 Y-25.958 E0.39336
G1 X12.365 Y-27.113 E0.11767
G1 X9.916 Y-29.563 E0.35292
G1 X12.875 Y-20.339 F9000.000
G1 X12.875 Y-14.005 E1.21312 F600.000
G1 E-3.20000 F3000.00000
G1 Z0.700 F9000.000
G1 X12.814 Y-33.602 F9000.000
G1 Z0.300 F9000.000
G1 E3.20000 F3000.00000
G1 X9.186 Y-36.647 E0.43462 F900.000
G1 X9.186 Y-43.586 E0.63664
G1 X12.814 Y-43.586 E0.33294
G1 X12.814 Y-33.662 E0.91051
G1 X8.450 Y-39.221 F9000.000
G1 X2.116 Y-39.221 E0.58113 F900.000
G1 X2.116 Y-41.071 E0.16974
G1 X8.450 Y-41.071 E0.58113
G1 X8.450 Y-44.321 E0.29819
G1 X13.550 Y-44.321 E0.46793
G1 X13.550 Y-32.024 E1.12824
G1 X8.450 Y-36.304 E0.61084
G1 X8.450 Y-39.161 E0.26217
G1 X8.450 Y-39.621 F9000.000
G1 X8.818 Y-40.146 F9000.000
G1 X2.484 Y-40.146 E1.21312 F600.000
G1 E-3.20000 F3000.00000
G1 Z0.700 F9000.000
G1 X9.635 Y-37.114 F9000.000
G1 Z0.300 F9000.000
G1 E3.20000 F3000.00000
G1 X10.129 Y-36.620 E0.06474 F900.000
G1 X12.365 Y-35.434 F9000.000
G1 X9.635 Y-38.164 E0.35758 F900.000
G1 X9.635 Y-39.214 E0.09724
G1 X12.365 Y-36.484 E0.35758
G1 X12.365 Y-37.534 E0.09724
G1 X9.635 Y-40.264 E0.35758
G1 X9.635 Y-41.314 E0.09724
G1 X12.365 Y-38.584 E0.35758
G1 X12.365 Y-39.634 E0.09724
G1 X9.635 Y-42.365 E0.35758
G1 X9.913 Y-43.136 E0.07598
G1 X12.365 Y-40.684 E0.32115
G1 X12.365 Y-41.734 E0.09724
G1 X10.963 Y-43.136 E0.18363
G1 X12.013 Y-43.136 E0.09724
G1 X12.365 Y-42.784 E0.04611
G1 E-3.20000 F3000.00000
G1 Z0.700 F9000.000
G1 X-18.564 Y-20.707 F9000.000
G1 Z0.300 F9000.000
G1 E3.20000 F3000.00000
G1 X-32.919 Y-20.707 E1.31707 F900.000
G1 X-29.874 Y-24.336 E0.43462
G1 X-10.936 Y-24.336 E1.73765
G1 X-10.936 Y-16.796 E0.69173
G1 X-14.519 Y-16.796 E0.32877
G1 X-14.519 Y-16.620 E0.01616
G1 X-14.981 Y-16.620 E0.04240
G1 X-14.981 Y-16.796 E0.01616
G1 X-18.564 Y-16.796 E0.32877
G1 X-18.564 Y-20.647 E0.35328
G1 X-19.300 Y-19.971 F9000.000
G1 X-25.450 Y-19.971 E0.56427 F900.000
G1 X-25.450 Y-13.637 E0.58113
G1 X-27.300 Y-13.637 E0.16974
G1 X-27.300 Y-19.971 E0.58113
G1 X-34.497 Y-19.971 E0.66032
G1 X-30.217 Y-25.071 E0.61084
G1 X-10.200 Y-25.071 E1.83661
G1 X-10.200 Y-16.061 E0.82672
G1 X-13.783 Y-16.061 E0.32877
G1 X-13.783 Y-15.885 E0.01616
G1 X-15.717 Y-15.885 E0.17739
G1 X-15.717 Y-16.061 E0.01616
G1 X-19.300 Y-16.061 E0.32877
G1 X-19.300 Y-19.911 E0.35328
G1 X-19.300 Y-20.371 F9000.000
G1 X-26.375 Y-20.339 F9000.000
G1 X-26.375 Y-14.005 E1.21312 F600.000
G1 E-3.20000 F3000.00000
G1 Z0.700 F9000.000
G1 X-31.402 Y-21.156 F9000.000
G1 Z0.300 F9000.000
G1 E3.20000 F3000.00000
G1 X-31.749 Y-21.502 E0.04606 F900.000
G1 X-31.262 Y-22.082 E0.07120
G1 X-30.336 Y-21.156 E0.12320
G1 X-29.269 Y-21.156 E0.10031
G1 X-30.776 Y-22.662 E0.20033
G1 X-30.289 Y-23.242 E0.07120
G1 X-28.203 Y-21.156 E0.27746
G1 X-27.137 Y-21.156 E0.10031
G1 X-29.793 Y-23.812 E0.35334
G1 X-28.800 Y-23.886 E0.09361
G1 X-26.070 Y-21.156 E0.36318
G1 X-25.004 Y-21.156 E0.10031
G1 X-27.734 Y-23.886 E0.36318
G1 X-26.667 Y-23.886 E0.10031
G1 X-23.937 Y-21.156 E0.36318
G1 X-22.871 Y-21.156 E0.10031
G1 X-25.601 Y-23.886 E0.36318
G1 X-24.535 Y-23.886 E0.10031
G1 X-21.804 Y-21.156 E0.36318
G1 X-20.738 Y-21.156 E0.10031
G1 X-23.468 Y-23.886 E0.36318
G1 X-22.402 Y-23.886 E0.10031
G1 X-19.671 Y-21.156 E0.36318
G1 X-18.605 Y-21.156 F9000.000
G1 X-21.335 Y-23.886 E0.36318 F900.000
G1 X-20.269 Y-23.886 E0.10031
G1 X-13.628 Y-17.246 E0.88334
G1 X-12.561 Y-17.246 E0.10031
G1 X-19.202 Y-23.886 E0.88334
G1 X-18.136 Y-23.886 E0.10031
G1 X-11.495 Y-17.246 E0.88334
G1 X-11.385 Y-18.202 E0.09055
G1 X-17.069 Y-23.886 E0.75612
G1 X-16.003 Y-23.886 E0.10031
G1 X-11.385 Y-19.268 E0.61426
G1 X-11.385 Y-20.335 E0.10031
G1 X-14.936 Y-23.886 E0.47241
G1 X-13.870 Y-23.886 E0.10031
G1 X-11.385 Y-21.401 E0.33055
G1 X-11.385 Y-22.468 E0.10031
G1 X-12.803 Y-23.886 E0.18869
G1 X-11.737 Y-23.886 E0.10031
G1 X-11.385 Y-23.534 E0.04683
G1 X-18.115 Y-20.666 F9000.000
G1 X-14.694 Y-17.246 E0.45503 F900.000
G1 X-15.761 Y-17.246 E0.10031
G1 X-18.115 Y-19.600 E0.31317
G1 X-18.115 Y-18.533 E0.10031
G1 X-16.827 Y-17.246 E0.17132
G1 E-3.20000 F3000.00000
G1 Z0.700 F9000.000
G1 X-33.564 Y1.343 F9000.000
G1 Z0.300 F9000.000
G1 E3.20000 F3000.00000
G1 X-43.564 Y1.343 E0.91751 F900.000
G1 X-43.564 Y0.714 E0.05769
G1 X-25.936 Y0.714 E1.61745
G1 X-25.936 Y11.316 E0.97274
G1 X-33.564 Y7.476 E0.78365
G1 X-33.564 Y1.403 E0.55715
G1 X-34.300 Y2.079 F9000.000
G1 X-44.300 Y2.079 E0.91751 F900.000
G1 X-44.300 Y-0.021 E0.19268
G1 X-25.200 Y-0.021 E1.75243
G1 X-25.200 Y3.229 E0.29819
G1 X-18.866 Y3.229 E0.58113
G1 X-18.866 Y5.079 E0.16974
G1 X-25.200 Y5.079 E0.58113
G1 X-25.200 Y12.510 E0.68185
G1 X-34.300 Y7.929 E0.93477
G1 X-34.300 Y2.139 E0.53124
G1 X-34.300 Y1.679 F9000.000
G1 X-32.738 Y7.292 F9000.000
G1 X-33.115 Y6.914 E0.05187 F900.000
G1 X-33.115 Y5.812 E0.10723
G1 X-30.517 Y8.410 E0.35727
G1 X-28.297 Y9.528 F9000.000
G1 X-33.115 Y4.709 E0.66266 F900.000
G1 X-33.115 Y3.606 E0.10723
G1 X-26.385 Y10.337 E0.92560
G1 X-26.385 Y9.234 E0.10723
G1 X-33.115 Y2.504 E0.92560
G1 X-33.115 Y1.401 E0.10723
G1 X-26.385 Y8.132 E0.92560
G1 X-26.385 Y7.029 E0.10723
G1 X-32.250 Y1.164 E0.80663
G1 X-31.147 Y1.164 E0.10723
G1 X-26.385 Y5.926 E0.65499
G1 X-26.385 Y4.824 E0.10723
G1 X-30.045 Y1.164 E0.50335
G1 X-28.942 Y1.164 E0.10723
G1 X-26.385 Y3.721 E0.35170
G1 X-26.385 Y2.618 E0.10723
G1 X-27.840 Y1.164 E0.20006
G1 X-26.737 Y1.164 E0.10723
G1 X-26.385 Y1.516 E0.04842
G1 X-25.568 Y4.154 F9000.000
G1 X-19.234 Y4.154 E1.21312 F600.000
G1 E-3.20000 F3000.00000
G1 Z0.700 F9000.000
G1 X-33.564 Y22.714 F9000.000
G1 Z0.300 F9000.000
G1 E3.20000 F3000.00000
G1 X-33.564 Y12.741 E0.91505 F900.000
G1 X-25.936 Y16.582 E0.78365
G1 X-25.936 Y38.204 E1.98380
G1 X-29.519 Y38.204 E0.32877
G1 X-29.519 Y38.380 E0.01616
G1 X-29.981 Y38.380 E0.04240
G1 X-29.981 Y38.204 E0.01616
G1 X-33.564 Y38.204 E0.32877
G1 X-33.564 Y23.343 E1.36346
G1 X-43.564 Y23.343 E0.91751
G1 X-43.564 Y22.714 E0.05769
G1 X-33.624 Y22.714 E0.91200
G1 X-34.300 Y21.979 F9000.000
G1 X-34.300 Y11.547 E0.95710 F900.000
G1 X-25.200 Y16.129 E0.93478
G1 X-25.200 Y18.979 E0.26149
G1 X-18.866 Y18.979 E0.58113
