; generated by Slic3r 1.2.9 on 2016-09-28 at 17:29:08

; external perimeters extrusion width = 0.50mm
; perimeters extrusion width = 0.50mm
; infill extrusion width = 0.50mm
; solid infill extrusion width = 0.50mm
; top infill extrusion width = 0.50mm

M107
;Basic settings: Layer height: {layer_height} Walls: {wall_thickness} Fill: {fill_density}
;Print time: {print_time}
;Filament used: {filament_amount}m {filament_weight}g
;Filament cost: {filament_cost}
;M190 S{print_bed_temperature} ;Uncomment to add your own bed temperature line
;M109 S{print_temperature} ;Uncomment to add your own temperature line
G21        ;metric values
G90        ;absolute positioning
M83
G10 P0 S200
T0
M116


G21 ; set units to millimeters
G90 ; use absolute coordinates
M83 ; use relative distances for extrusion
G1 E-3.20000 F3000.00000
G1 Z0.400 F9000.000
G1 X28.686 Y0.000 F9000.000
G1 Z0.300 F9000.000
G1 E3.20000 F3000.00000
G1 X28.686 Y36.450 E3.34431 F1200.000
G1 X28.291 Y38.121 E0.15755
G1 X27.190 Y39.439 E0.15755
G1 X24.950 Y40.186 E0.21667
G1 X-24.950 Y40.186 E4.57835
G1 X-26.621 Y39.791 E0.15755
G1 X-27.939 Y38.690 E0.15755
G1 X-28.686 Y36.450 E0.21667
G1 X-28.686 Y-36.450 E6.68861
G1 X-28.291 Y-38.121 E0.15755
G1 X-27.190 Y-39.439 E0.15755
G1 X-24.950 Y-40.186 E0.21667
G1 X24.950 Y-40.186 E4.57835
G1 X26.621 Y-39.791 E0.15755
G1 X27.939 Y-38.690 E0.15755 F1200.000
G1 X28.686 Y-36.450 E0.21667
G1 X28.686 Y-0.060 E3.33880
G1 E-3.20000 F3000.00000
G1 Z0.700 F9000.000
G1 X2.135 Y-16.916 F9000.000
G1 Z0.300 F9000.000
G1 E3.20000 F3000.00000
G1 X4.240 Y-16.515 E0.19662 F900.000
G1 X6.277 Y-15.853 E0.19647
G1 X8.214 Y-14.941 E0.19646
G1 X10.022 Y-13.794 E0.19645
G1 X11.672 Y-12.429 E0.19645
G1 X13.138 Y-10.868 E0.19647
G1 X14.396 Y-9.136 E0.19646
G1 X15.428 Y-7.260 E0.19645
G1 X16.216 Y-5.269 E0.19645
G1 X16.748 Y-3.195 E0.19646
G1 X17.017 Y-1.071 E0.19646
G1 X17.017 Y1.071 E0.19646
G1 X16.748 Y3.195 E0.19646
G1 X16.216 Y5.269 E0.19646
G1 X15.427 Y7.261 E0.19662
G1 X14.364 Y9.180 E0.20127
G1 X13.138 Y10.868 E0.19143
G1 X11.672 Y12.429 E0.19647
G1 X10.022 Y13.794 E0.19645
G1 X8.214 Y14.941 E0.19645
G1 X6.277 Y15.853 E0.19646
G1 X4.240 Y16.515 E0.19647
G1 X2.137 Y16.916 E0.19645
G1 X0.000 Y17.050 E0.19646
G1 X-2.137 Y16.916 E0.19646
G1 X-4.240 Y16.515 E0.19645
G1 X-6.277 Y15.853 E0.19647
G1 X-8.214 Y14.941 E0.19646
G1 X-10.022 Y13.794 E0.19645
G1 X-11.672 Y12.429 E0.19645
G1 X-13.138 Y10.868 E0.19647
G1 X-14.396 Y9.136 E0.19646
G1 X-15.429 Y7.258 E0.19662
G1 X-16.230 Y5.216 E0.20127
G1 X-16.748 Y3.195 E0.19143
G1 X-17.017 Y1.069 E0.19662
G1 X-17.010 Y-1.125 E0.20128
G1 X-16.748 Y-3.195 E0.19143
G1 X-16.216 Y-5.269 E0.19646
G1 X-15.428 Y-7.260 E0.19645
G1 X-14.396 Y-9.136 E0.19645
G1 X-13.138 Y-10.868 E0.19646
G1 X-11.672 Y-12.429 E0.19647
G1 X-10.022 Y-13.794 E0.19645
G1 X-8.214 Y-14.941 E0.19645
G1 X-6.277 Y-15.853 E0.19646
G1 X-4.240 Y-16.515 E0.19647
G1 X-2.137 Y-16.916 E0.19645
G1 X-0.055 Y-17.047 E0.19143 F900.000
G1 X2.075 Y-16.920 E0.19577
G1 X2.044 Y-16.185 F9000.000
G1 X4.057 Y-15.801 E0.18802 F900.000
G1 X6.005 Y-15.168 E0.18797
G1 X7.859 Y-14.296 E0.18796
G1 X9.589 Y-13.198 E0.18796
G1 X11.167 Y-11.892 E0.18796
G1 X12.570 Y-10.399 E0.18797
G1 X13.774 Y-8.741 E0.18797
G1 X14.761 Y-6.946 E0.18796
G1 X15.515 Y-5.041 E0.18796
G1 X16.024 Y-3.057 E0.18797
G1 X16.281 Y-1.024 E0.18796
G1 X16.281 Y1.024 E0.18796
G1 X16.024 Y3.057 E0.18796
G1 X15.515 Y5.041 E0.18797
G1 X14.761 Y6.946 E0.18802
G1 X13.742 Y8.784 E0.19278
G1 X12.570 Y10.399 E0.18305
G1 X11.167 Y11.892 E0.18797
G1 X9.589 Y13.198 E0.18796
G1 X7.859 Y14.296 E0.18796
G1 X6.005 Y15.168 E0.18796
G1 X4.057 Y15.801 E0.18797
G1 X2.045 Y16.185 E0.18796
G1 X0.000 Y16.313 E0.18796
G1 X-2.045 Y16.185 E0.18796
G1 X-4.057 Y15.801 E0.18796
G1 X-6.005 Y15.168 E0.18797
G1 X-7.859 Y14.296 E0.18796
G1 X-9.589 Y13.198 E0.18796
G1 X-11.167 Y11.892 E0.18796
G1 X-12.570 Y10.399 E0.18797
G1 X-13.774 Y8.741 E0.18797
G1 X-14.761 Y6.945 E0.18802
G1 X-15.528 Y4.989 E0.19278
G1 X-16.024 Y3.057 E0.18305
G1 X-16.281 Y1.024 E0.18802
G1 X-16.274 Y-1.077 E0.19278
G1 X-16.024 Y-3.057 E0.18305
G1 X-15.515 Y-5.041 E0.18797
G1 X-14.761 Y-6.946 E0.18796
G1 X-13.774 Y-8.741 E0.18796
G1 X-12.570 Y-10.399 E0.18797
G1 X-11.167 Y-11.892 E0.18797
G1 X-9.589 Y-13.198 E0.18796
G1 X-7.859 Y-14.296 E0.18796
G1 X-6.005 Y-15.168 E0.18796
G1 X-4.057 Y-15.801 E0.18797
G1 X-2.045 Y-16.185 E0.18796
G1 X-0.053 Y-16.310 E0.18305 F900.000
G1 X1.984 Y-16.188 E0.18728
G1 X2.292 Y-16.499 F9000.000
G1 X23.814 Y-35.314 F9000.000
G1 X23.814 Y35.314 E6.48022 F900.000
G1 X-23.814 Y35.314 E4.36996
G1 X-23.814 Y-35.314 E6.48022
G1 X23.754 Y-35.314 E4.36446
G1 X24.550 Y-36.050 F9000.000
G1 X24.550 Y36.050 E6.61521 F900.000
G1 X-24.550 Y36.050 E4.50495
G1 X-24.550 Y-36.050 E6.61521
G1 X24.490 Y-36.050 E4.49945
G1 X24.350 Y-35.704 F9000.000
G1 X23.365 Y-34.513 F9000.000
G1 X23.013 Y-34.865 E0.04580 F900.000
G1 X21.970 Y-34.865 E0.09591
G1 X23.365 Y-33.470 E0.18144
G1 X23.365 Y-32.427 E0.09591
G1 X20.927 Y-34.865 E0.31709
G1 X19.885 Y-34.865 E0.09591
G1 X23.365 Y-31.385 E0.45273
G1 X23.365 Y-30.342 E0.09591
G1 X18.842 Y-34.865 E0.58837
G1 X17.799 Y-34.865 E0.09591
G1 X23.365 Y-29.299 E0.72402
G1 X23.365 Y-28.256 E0.09591
G1 X16.756 Y-34.865 E0.85966
G1 X15.713 Y-34.865 E0.09591
G1 X23.365 Y-27.213 E0.99531
G1 X23.365 Y-26.170 E0.09591
G1 X14.670 Y-34.865 E1.13095
G1 X13.627 Y-34.865 E0.09591
G1 X23.365 Y-25.127 E1.26659
G1 X23.365 Y-24.085 E0.09591
G1 X12.585 Y-34.865 E1.40224
G1 X11.542 Y-34.865 E0.09591
G1 X23.365 Y-23.042 E1.53788
G1 X23.365 Y-21.999 E0.09591
G1 X10.499 Y-34.865 E1.67353
G1 X9.456 Y-34.865 E0.09591
G1 X23.365 Y-20.956 E1.80917
G1 X23.365 Y-19.913 E0.09591
G1 X8.413 Y-34.865 E1.94481
G1 X7.370 Y-34.865 E0.09591
G1 X23.365 Y-18.870 E2.08046
G1 X23.365 Y-17.827 E0.09591
G1 X6.327 Y-34.865 E2.21610
G1 X5.285 Y-34.865 E0.09591
G1 X23.365 Y-16.785 E2.35175
G1 X23.365 Y-15.742 E0.09591
G1 X4.242 Y-34.865 E2.48739
G1 X3.199 Y-34.865 E0.09591
G1 X23.365 Y-14.699 E2.62303
G1 X23.365 Y-13.656 E0.09591
G1 X2.156 Y-34.865 E2.75868
G1 X1.113 Y-34.865 E0.09591
G1 X23.365 Y-12.613 E2.89432
G1 X23.365 Y-11.570 E0.09591
G1 X0.070 Y-34.865 E3.02997
G1 X-0.973 Y-34.865 E0.09591
G1 X23.365 Y-10.527 E3.16561
G1 X23.365 Y-9.485 E0.09591
G1 X-2.015 Y-34.865 E3.30125
G1 X-3.058 Y-34.865 E0.09591
G1 X23.365 Y-8.442 E3.43690
G1 X23.365 Y-7.399 E0.09591
G1 X-4.101 Y-34.865 E3.57254
G1 X-5.144 Y-34.865 E0.09591
G1 X23.365 Y-6.356 E3.70819
G1 X23.365 Y-5.313 E0.09591
G1 X-6.187 Y-34.865 E3.84383
G1 X-7.230 Y-34.865 E0.09591
G1 X23.365 Y-4.270 E3.97947
G1 X23.365 Y-3.228 E0.09591
G1 X-8.272 Y-34.865 E4.11512
G1 X-9.315 Y-34.865 E0.09591
G1 X23.365 Y-2.185 E4.25076
G1 X23.365 Y-1.142 E0.09591
G1 X14.386 Y-10.121 E1.16788
G1 X15.840 Y-7.624 F9000.000
G1 X23.365 Y-0.099 E0.97878 F900.000
G1 X23.365 Y0.944 E0.09591
G1 X16.524 Y-5.898 E0.88987
G1 X16.937 Y-4.441 E0.13926
G1 X23.365 Y1.987 E0.83607
G1 X23.365 Y3.030 E0.09591
G1 X17.234 Y-3.102 E0.79749
G1 X17.385 Y-1.908 E0.11066
G1 X23.365 Y4.072 E0.77787
G1 X23.365 Y5.115 E0.09591
G1 X17.466 Y-0.784 E0.76730
G1 X17.466 Y0.259 E0.09591
G1 X23.365 Y6.158 E0.76730
G1 X23.365 Y7.201 E0.09591
G1 X17.427 Y1.263 E0.77240
G1 X17.310 Y2.189 E0.08583
G1 X23.365 Y8.244 E0.78761
G1 X23.365 Y9.287 E0.09591
G1 X17.193 Y3.114 E0.80283
G1 X16.984 Y3.948 E0.07906
G1 X23.365 Y10.330 E0.83003
G1 X23.365 Y11.372 E0.09591
G1 X16.771 Y4.778 E0.85774
G1 X16.527 Y5.577 E0.07684
G1 X23.365 Y12.415 E0.88944
G1 X23.365 Y13.458 E0.09591
G1 X16.231 Y6.324 E0.92791
G1 X15.935 Y7.071 E0.07390
G1 X23.365 Y14.501 E0.96639
G1 X23.365 Y15.544 E0.09591
G1 X15.594 Y7.772 E1.01086
G1 X15.222 Y8.443 E0.07056
G1 X23.365 Y16.587 E1.05921
G1 X23.365 Y17.630 E0.09591
G1 X14.850 Y9.114 E1.10757
G1 X14.435 Y9.742 E0.06921
G1 X23.365 Y18.672 E1.16158
G1 X23.365 Y19.715 E0.09591
G1 X13.996 Y10.346 E1.21866
G1 X13.557 Y10.950 E0.06867
G1 X23.365 Y20.758 E1.27575
G1 X23.365 Y21.801 E0.09591
G1 X13.068 Y11.504 E1.33931
G1 X12.563 Y12.042 E0.06786
G1 X23.365 Y22.844 E1.40500
G1 X23.365 Y23.887 E0.09591
G1 X12.058 Y12.580 E1.47069
G1 X11.504 Y13.068 E0.06796
G1 X23.365 Y24.929 E1.54277
G1 X23.365 Y25.972 E0.09591
G1 X10.933 Y13.541 E1.61701
G1 X10.363 Y14.013 E0.06812
G1 X23.365 Y27.015 E1.69124
G1 X23.365 Y28.058 E0.09591
G1 X9.741 Y14.434 E1.77208
G1 X9.103 Y14.839 E0.06950
G1 X23.365 Y29.101 E1.85506
G1 X23.365 Y30.144 E0.09591
G1 X8.465 Y15.244 E1.93804
G1 X7.769 Y15.590 E0.07154
G1 X23.365 Y31.187 E2.02861
G1 X23.365 Y32.229 E0.09591
G1 X7.060 Y15.924 E2.12084
G1 X6.351 Y16.258 E0.07208
G1 X23.365 Y33.272 E2.21308
G1 X23.365 Y34.315 E0.09591
G1 X5.564 Y16.514 E2.31537
G1 X4.777 Y16.770 E0.07612
G1 X22.872 Y34.865 E2.35364
G1 X21.829 Y34.865 E0.09591
G1 X3.962 Y16.998 E2.32397
G1 X3.087 Y17.165 E0.08200
G1 X20.787 Y34.865 E2.30224
G1 X19.744 Y34.865 E0.09591
G1 X2.211 Y17.332 E2.28051
G1 X1.248 Y17.412 E0.08884
G1 X18.701 Y34.865 E2.27007
G1 X17.658 Y34.865 E0.09591
G1 X0.267 Y17.474 E2.26204
G1 X-0.789 Y17.461 E0.09714
G1 X16.615 Y34.865 E2.26376
G1 X15.572 Y34.865 E0.09591
G1 X-1.902 Y17.391 E2.27287
G1 X-3.117 Y17.219 E0.11285
G1 X14.530 Y34.865 E2.29524
G1 X13.487 Y34.865 E0.09591
G1 X-4.405 Y16.973 E2.32721
G1 X-5.922 Y16.500 E0.14613
G1 X12.444 Y34.865 E2.38883
G1 X11.401 Y34.865 E0.09591
G1 X-7.690 Y15.775 E2.48313
G1 X-10.107 Y14.400 F9000.000
G1 X10.358 Y34.865 E2.66194 F900.000
G1 X9.315 Y34.865 E0.09591
G1 X-23.365 Y2.185 E4.25075
G1 X-23.365 Y1.142 E0.09591
G1 X-14.386 Y10.121 E1.16791
G1 X-15.840 Y7.624 F9000.000
G1 X-23.365 Y0.099 E0.97874 F900.000
G1 X-23.365 Y-0.944 E0.09591
G1 X-16.513 Y5.908 E0.89121
G1 X-16.937 Y4.441 E0.14043
G1 X-23.365 Y-1.987 E0.83607
G1 X-23.365 Y-3.030 E0.09591
G1 X-17.234 Y3.102 E0.79749
G1 X-17.385 Y1.908 E0.11066
G1 X-23.365 Y-4.072 E0.77788
G1 X-23.365 Y-5.115 E0.09591
G1 X-17.465 Y0.785 E0.76746
G1 X-17.461 Y-0.254 E0.09561
G1 X-23.365 Y-6.158 E0.76790
G1 X-23.365 Y-7.201 E0.09591
G1 X-17.427 Y-1.263 E0.77240
G1 X-17.310 Y-2.188 E0.08583
G1 X-23.365 Y-8.244 E0.78761
G1 X-23.365 Y-9.287 E0.09591
G1 X-17.193 Y-3.114 E0.80283
G1 X-16.984 Y-3.948 E0.07906
G1 X-23.365 Y-10.329 E0.83003
G1 X-23.365 Y-11.372 E0.09591
G1 X-16.771 Y-4.778 E0.85774
G1 X-16.527 Y-5.577 E0.07684
G1 X-23.365 Y-12.415 E0.88944
G1 X-23.365 Y-13.458 E0.09591
G1 X-16.231 Y-6.324 E0.92791
G1 X-15.935 Y-7.071 E0.07390
G1 X-23.365 Y-14.501 E0.96638
G1 X-23.365 Y-15.544 E0.09591
G1 X-15.594 Y-7.773 E1.01075
G1 X-15.224 Y-8.446 E0.07063
G1 X-23.365 Y-16.587 E1.05886
G1 X-23.365 Y-17.629 E0.09591
G1 X-14.855 Y-9.119 E1.10698
G1 X-14.435 Y-9.742 E0.06910
G1 X-23.365 Y-18.672 E1.16158
G1 X-23.365 Y-19.715 E0.09591
G1 X-13.996 Y-10.346 E1.21866
G1 X-13.557 Y-10.950 E0.06867
G1 X-23.365 Y-20.758 E1.27574
G1 X-23.365 Y-21.801 E0.09591
G1 X-13.068 Y-11.504 E1.33931
G1 X-12.563 Y-12.042 E0.06786
G1 X-23.365 Y-22.844 E1.40500
G1 X-23.365 Y-23.887 E0.09591
G1 X-12.058 Y-12.580 E1.47069
G1 X-11.504 Y-13.068 E0.06796
G1 X-23.365 Y-24.929 E1.54277
G1 X-23.365 Y-25.972 E0.09591
G1 X-10.933 Y-13.540 E1.61700
G1 X-10.363 Y-14.013 E0.06812
G1 X-23.365 Y-27.015 E1.69124
G1 X-23.365 Y-28.058 E0.09591
G1 X-9.741 Y-14.434 E1.77207
G1 X-9.103 Y-14.839 E0.06950
G1 X-23.365 Y-29.101 E1.85505
G1 X-23.365 Y-30.144 E0.09591
G1 X-8.465 Y-15.244 E1.93803
G1 X-7.769 Y-15.590 E0.07153
G1 X-23.365 Y-31.187 E2.02860
G1 X-23.365 Y-32.229 E0.09591
G1 X-7.060 Y-15.924 E2.12084
G1 X-6.351 Y-16.258 E0.07208
G1 X-23.365 Y-33.272 E2.21307
G1 X-23.365 Y-34.315 E0.09591
G1 X-5.564 Y-16.514 E2.31536
G1 X-4.777 Y-16.770 E0.07612
G1 X-22.872 Y-34.865 E2.35364
G1 X-21.830 Y-34.865 E0.09591
G1 X-3.963 Y-16.998 E2.32397
G1 X-3.087 Y-17.165 E0.08200
G1 X-20.787 Y-34.865 E2.30224
G1 X-19.744 Y-34.865 E0.09591
G1 X-2.211 Y-17.332 E2.28051
G1 X-1.248 Y-17.413 E0.08884
G1 X-18.701 Y-34.865 E2.27007
G1 X-17.658 Y-34.865 E0.09591
G1 X-0.267 Y-17.474 E2.26204
G1 X0.794 Y-17.456 E0.09761
G1 X-16.615 Y-34.865 E2.26442
G1 X-15.572 Y-34.865 E0.09591
G1 X1.903 Y-17.390 E2.27303
G1 X3.117 Y-17.219 E0.11272
G1 X-14.530 Y-34.865 E2.29524
G1 X-13.487 Y-34.865 E0.09591
G1 X4.405 Y-16.973 E2.32720
G1 X5.922 Y-16.500 E0.14613
G1 X-12.444 Y-34.865 E2.38882
G1 X-11.401 Y-34.865 E0.09591
G1 X7.690 Y-15.775 E2.48312
G1 X10.107 Y-14.400 F9000.000
G1 X-10.358 Y-34.865 E2.66192 F900.000
G1 X-23.365 Y3.228 F9000.000
G1 X8.272 Y34.865 E4.11511 F900.000
G1 X7.230 Y34.865 E0.09591
G1 X-23.365 Y4.270 E3.97946
G1 X-23.365 Y5.313 E0.09591
G1 X6.187 Y34.865 E3.84382
G1 X5.144 Y34.865 E0.09591
G1 X-23.365 Y6.356 E3.70818
G1 X-23.365 Y7.399 E0.09591
G1 X4.101 Y34.865 E3.57253
G1 X3.058 Y34.865 E0.09591
G1 X-23.365 Y8.442 E3.43689
G1 X-23.365 Y9.485 E0.09591
G1 X2.015 Y34.865 E3.30124
G1 X0.972 Y34.865 E0.09591
G1 X-23.365 Y10.528 E3.16560
G1 X-23.365 Y11.570 E0.09591
G1 X-0.070 Y34.865 E3.02996
G1 X-1.113 Y34.865 E0.09591
G1 X-23.365 Y12.613 E2.89431
G1 X-23.365 Y13.656 E0.09591
G1 X-2.156 Y34.865 E2.75867
G1 X-3.199 Y34.865 E0.09591
G1 X-23.365 Y14.699 E2.62302
G1 X-23.365 Y15.742 E0.09591
G1 X-4.242 Y34.865 E2.48738
G1 X-5.285 Y34.865 E0.09591
G1 X-23.365 Y16.785 E2.35174
G1 X-23.365 Y17.828 E0.09591
G1 X-6.328 Y34.865 E2.21609
G1 X-7.370 Y34.865 E0.09591
G1 X-23.365 Y18.870 E2.08045
G1 X-23.365 Y19.913 E0.09591
G1 X-8.413 Y34.865 E1.94480
G1 X-9.456 Y34.865 E0.09591
G1 X-23.365 Y20.956 E1.80916
G1 X-23.365 Y21.999 E0.09591
G1 X-10.499 Y34.865 E1.67352
G1 X-11.542 Y34.865 E0.09591
G1 X-23.365 Y23.042 E1.53787
G1 X-23.365 Y24.085 E0.09591
G1 X-12.585 Y34.865 E1.40223
G1 X-13.627 Y34.865 E0.09591
G1 X-23.365 Y25.127 E1.26658
G1 X-23.365 Y26.170 E0.09591
G1 X-14.670 Y34.865 E1.13094
G1 X-15.713 Y34.865 E0.09591
G1 X-23.365 Y27.213 E0.99530
G1 X-23.365 Y28.256 E0.09591
G1 X-16.756 Y34.865 E0.85965
G1 X-17.799 Y34.865 E0.09591
G1 X-23.365 Y29.299 E0.72401
G1 X-23.365 Y30.342 E0.09591
G1 X-18.842 Y34.865 E0.58836
G1 X-19.885 Y34.865 E0.09591
G1 X-23.365 Y31.385 E0.45272
G1 X-23.365 Y32.427 E0.09591
G1 X-20.927 Y34.865 E0.31708
G1 X-21.970 Y34.865 E0.09591
G1 X-23.365 Y33.470 E0.18143
G1 X-23.365 Y34.513 E0.09591
G1 X-23.013 Y34.865 E0.04579
G1 E-3.20000 F3000.00000
G1 Z0.700 F9000.000
G1 X9.757 Y-13.429 F9000.000
G1 Z0.600 F9000.000
G1 E3.20000 F3000.00000
G1 X11.363 Y-12.101 E0.11326 F1800.000
G1 X12.790 Y-10.581 E0.11327
G1 X14.016 Y-8.894 E0.11326
G1 X15.020 Y-7.068 E0.11326
G1 X15.787 Y-5.130 E0.11326
G1 X16.306 Y-3.110 E0.11326
G1 X16.567 Y-1.042 E0.11326
G1 X16.567 Y1.042 E0.11326
G1 X16.306 Y3.110 E0.11326
G1 X15.787 Y5.130 E0.11326
G1 X15.020 Y7.068 E0.11326
G1 X14.016 Y8.894 E0.11326
G1 X12.790 Y10.581 E0.11326
G1 X11.363 Y12.101 E0.11327
G1 X9.757 Y13.429 E0.11326
G1 X7.997 Y14.546 E0.11326
G1 X6.111 Y15.434 E0.11326
G1 X4.128 Y16.078 E0.11327
G1 X2.080 Y16.469 E0.11326
G1 X-0.000 Y16.600 E0.11326
G1 X-2.080 Y16.469 E0.11326
G1 X-4.128 Y16.078 E0.11326
G1 X-6.111 Y15.434 E0.11327
G1 X-7.997 Y14.546 E0.11326
G1 X-9.757 Y13.429 E0.11326
G1 X-11.363 Y12.101 E0.11326
G1 X-12.790 Y10.581 E0.11327
G1 X-14.016 Y8.894 E0.11326
G1 X-15.020 Y7.068 E0.11326
G1 X-15.787 Y5.130 E0.11326
G1 X-15.836 Y4.940 E0.01063
G1 X-16.306 Y3.110 E0.10263
G1 X-16.567 Y1.042 E0.11326
G1 X-16.567 Y-1.042 E0.11326
G1 X-16.306 Y-3.110 E0.11326
G1 X-15.787 Y-5.130 E0.11326
G1 X-15.020 Y-7.068 E0.11326
G1 X-14.016 Y-8.894 E0.11326
G1 X-12.790 Y-10.581 E0.11326
G1 X-11.363 Y-12.101 E0.11327
G1 X-9.757 Y-13.429 E0.11326
G1 X-7.997 Y-14.546 E0.11326
G1 X-6.111 Y-15.434 E0.11326
G1 X-4.128 Y-16.078 E0.11327
G1 X-2.080 Y-16.469 E0.11326
G1 X-0.195 Y-16.587 E0.10263
G1 X0.000 Y-16.600 E0.01063 F1800.000
G1 X2.080 Y-16.469 E0.11326
G1 X4.128 Y-16.078 E0.11326
G1 X6.111 Y-15.434 E0.11327
G1 X7.997 Y-14.546 E0.11326
G1 X9.706 Y-13.461 E0.11000
G1 X9.500 Y-13.076 F9000.000
G1 X11.064 Y-11.782 E0.11028 F1800.000
G1 X12.454 Y-10.303 E0.11029
G1 X13.647 Y-8.661 E0.11029
G1 X14.625 Y-6.882 E0.11028
G1 X15.372 Y-4.995 E0.11028
G1 X15.877 Y-3.029 E0.11029
G1 X16.131 Y-1.015 E0.11028
G1 X16.131 Y1.015 E0.11028
G1 X15.877 Y3.029 E0.11028
G1 X15.372 Y4.995 E0.11029
G1 X14.625 Y6.882 E0.11028
G1 X13.647 Y8.661 E0.11028
G1 X12.454 Y10.303 E0.11029
