; generated by Slic3r 1.2.9 on 2016-09-30 at 11:08:17

; external perimeters extrusion width = 0.50mm
; perimeters extrusion width = 0.50mm
; infill extrusion width = 0.50mm
; solid infill extrusion width = 0.50mm
; top infill extrusion width = 0.50mm

M107
;Basic settings: Layer height: {layer_height} Walls: {wall_thickness} Fill: {fill_density}
;Print time: {print_time}
;Filament used: {filament_amount}m {filament_weight}g
;Filament cost: {filament_cost}
;M190 S{print_bed_temperature} ;Uncomment to add your own bed temperature line
;M109 S{print_temperature} ;Uncomment to add your own temperature line
G21        ;metric values
G90        ;absolute positioning
M83
G10 P0 S200
T0
M116


G21 ; set units to millimeters
G90 ; use absolute coordinates
M83 ; use relative distances for extrusion
G1 E-3.20000 F3000.00000
G1 Z0.400 F9000.000
G1 X0.000 Y-32.486 F9000.000
G1 Z0.300 F9000.000
G1 E3.20000 F3000.00000
G1 X30.838 Y-32.486 E2.82940 F1200.000
G1 X31.153 Y-32.472 E0.02894
G1 X31.820 Y-32.416 E0.06137 F1200.000
G1 X32.441 Y-32.310 E0.05782
G1 X33.086 Y-32.143 E0.06117
G1 X33.681 Y-31.934 E0.05782
G1 X34.289 Y-31.660 E0.06117
G1 X34.840 Y-31.354 E0.05783
G1 X35.393 Y-30.983 E0.06117
G1 X35.885 Y-30.589 E0.05783
G1 X36.435 Y-30.064 E0.06975
G1 X50.064 Y-16.435 E1.76835
G1 X50.589 Y-15.885 E0.06976
G1 X50.983 Y-15.393 E0.05784
G1 X51.354 Y-14.840 E0.06116
G1 X51.661 Y-14.289 E0.05785
G1 X51.934 Y-13.681 E0.06117
G1 X52.143 Y-13.086 E0.05782
G1 X52.310 Y-12.441 E0.06119
G1 X52.416 Y-11.819 E0.05781
G1 X52.486 Y-10.838 E0.09028
G1 X52.486 Y19.998 E2.82922
G1 X52.366 Y21.662 E0.15306
G1 X52.275 Y22.241 E0.05378
G1 X51.954 Y23.576 E0.12597
G1 X51.773 Y24.133 E0.05378
G1 X51.247 Y25.402 E0.12598
G1 X50.981 Y25.924 E0.05378
G1 X50.264 Y27.095 E0.12597
G1 X49.919 Y27.569 E0.05378
G1 X49.059 Y28.577 E0.12158
G1 X48.613 Y29.028 E0.05816
G1 X47.569 Y29.919 E0.12597
G1 X47.095 Y30.264 E0.05378
G1 X45.924 Y30.981 E0.12597
G1 X45.402 Y31.247 E0.05378
G1 X44.133 Y31.773 E0.12597
G1 X43.576 Y31.954 E0.05378
G1 X42.241 Y32.275 E0.12598
G1 X41.662 Y32.366 E0.05378
G1 X39.998 Y32.486 E0.15305
G1 X-39.998 Y32.486 E7.33968
G1 X-41.662 Y32.366 E0.15305
G1 X-42.241 Y32.275 E0.05378
G1 X-43.576 Y31.954 E0.12597
G1 X-44.133 Y31.773 E0.05378
G1 X-45.402 Y31.247 E0.12597
G1 X-45.924 Y30.981 E0.05378
G1 X-47.095 Y30.264 E0.12597
G1 X-47.569 Y29.919 E0.05378
G1 X-48.613 Y29.028 E0.12599
G1 X-49.028 Y28.613 E0.05377
G1 X-49.919 Y27.569 E0.12597
G1 X-50.264 Y27.095 E0.05378
G1 X-50.981 Y25.924 E0.12597
G1 X-51.247 Y25.402 E0.05378
G1 X-51.773 Y24.133 E0.12597
G1 X-51.954 Y23.576 E0.05378
G1 X-52.275 Y22.241 E0.12599
G1 X-52.366 Y21.662 E0.05377
G1 X-52.474 Y20.291 E0.12617
G1 X-52.474 Y-20.291 E3.72342
G1 X-52.366 Y-21.662 E0.12616
G1 X-52.275 Y-22.241 E0.05378
G1 X-51.954 Y-23.576 E0.12597
G1 X-51.773 Y-24.133 E0.05378
G1 X-51.247 Y-25.402 E0.12598
G1 X-50.981 Y-25.924 E0.05378
G1 X-50.264 Y-27.095 E0.12597
G1 X-49.919 Y-27.569 E0.05378
G1 X-49.028 Y-28.613 E0.12597
G1 X-48.613 Y-29.028 E0.05378
G1 X-47.569 Y-29.919 E0.12597
G1 X-47.095 Y-30.264 E0.05378
G1 X-45.924 Y-30.981 E0.12597
G1 X-45.402 Y-31.247 E0.05378
G1 X-44.133 Y-31.773 E0.12597
G1 X-43.576 Y-31.954 E0.05377
G1 X-42.241 Y-32.275 E0.12599
G1 X-41.662 Y-32.366 E0.05378
G1 X-39.998 Y-32.486 E0.15305
G1 X-0.060 Y-32.486 E3.66434
G1 E-3.20000 F3000.00000
G1 Z0.700 F9000.000
G1 X33.021 Y27.650 F9000.000
G1 Z0.300 F9000.000
G1 E3.20000 F3000.00000
G1 X33.021 Y26.346 E0.11967 F900.000
G1 X39.471 Y22.622 E0.68334
G1 X45.067 Y25.853 E0.59292
G1 X43.429 Y26.840 E0.17544
G1 X42.333 Y27.287 E0.10865
G1 X41.181 Y27.560 E0.10865
G1 X40.017 Y27.650 E0.10705
G1 X33.081 Y27.650 E0.63644
G1 X32.621 Y27.650 F9000.000
G1 E-3.20000 F3000.00000
G1 Z0.700 F9000.000
G1 X39.121 Y22.016 F9000.000
G1 Z0.300 F9000.000
G1 E3.20000 F3000.00000
G1 X32.671 Y25.739 E0.68334 F900.000
G1 X26.221 Y22.016 E0.68334
G1 X26.221 Y14.568 E0.68334
G1 X32.671 Y10.844 E0.68334
G1 X39.121 Y14.568 E0.68334
G1 X39.121 Y21.956 E0.67784
G1 X39.258 Y22.391 F9000.000
G1 X39.821 Y22.016 F9000.000
G1 X39.821 Y14.568 E0.68334 F900.000
G1 X46.271 Y10.844 E0.68334
G1 X47.650 Y11.640 E0.14612
G1 X47.650 Y20.016 E0.76851
G1 X47.573 Y21.094 E0.09912
G1 X47.338 Y22.165 E0.10061
G1 X46.954 Y23.192 E0.10061
G1 X46.426 Y24.153 E0.10061
G1 X45.546 Y25.321 E0.13418
G1 X39.873 Y22.046 E0.60107
G1 X39.427 Y21.946 F9000.000
G1 E-3.20000 F3000.00000
G1 Z0.700 F9000.000
G1 X46.656 Y10.217 F9000.000
G1 Z0.300 F9000.000
G1 E3.20000 F3000.00000
G1 X46.656 Y2.806 E0.67995 F900.000
G1 X47.614 Y2.253 E0.10149
G1 X47.614 Y10.770 E0.78143
G1 X46.708 Y10.247 E0.09598
G1 X45.921 Y2.786 F9000.000
G1 X45.921 Y10.233 E0.68334 F900.000
G1 X39.471 Y13.957 E0.68334
G1 X33.021 Y10.233 E0.68334
G1 X33.021 Y2.786 E0.68334
G1 X39.471 Y-0.938 E0.68334
G1 X45.869 Y2.756 E0.67784
G1 X46.315 Y2.855 F9000.000
G1 E-3.20000 F3000.00000
G1 Z0.700 F9000.000
G1 X32.671 Y2.179 F9000.000
G1 Z0.300 F9000.000
G1 E3.20000 F3000.00000
G1 X26.221 Y-1.544 E0.68334 F900.000
G1 X26.221 Y-8.992 E0.68334
G1 X32.671 Y-12.716 E0.68334
G1 X39.121 Y-8.992 E0.68334
G1 X39.121 Y-1.544 E0.68334
G1 X32.723 Y2.149 E0.67784
G1 X32.414 Y2.486 F9000.000
G1 E-3.20000 F3000.00000
G1 Z0.700 F9000.000
G1 X39.471 Y-9.603 F9000.000
G1 Z0.300 F9000.000
G1 E3.20000 F3000.00000
G1 X33.021 Y-13.327 E0.68334 F900.000
G1 X33.021 Y-20.774 E0.68334
G1 X34.855 Y-21.833 E0.19436
G1 X36.254 Y-19.615 E0.24062
G1 X37.647 Y-17.966 E0.19803
G1 X39.254 Y-16.526 E0.19804
G1 X41.046 Y-15.322 E0.19803
G1 X42.987 Y-14.378 E0.19804
G1 X46.032 Y-13.391 E0.29370
G1 X39.523 Y-9.633 E0.68962
G1 X39.214 Y-9.296 F9000.000
G1 E-3.20000 F3000.00000
G1 Z0.700 F9000.000
G1 X32.321 Y-20.774 F9000.000
G1 Z0.300 F9000.000
G1 E3.20000 F3000.00000
G1 X32.321 Y-13.327 E0.68334 F900.000
G1 X25.871 Y-9.603 E0.68334
G1 X19.421 Y-13.327 E0.68334
G1 X19.421 Y-20.774 E0.68334
G1 X25.871 Y-24.498 E0.68334
G1 X32.269 Y-20.804 E0.67784
G1 X32.715 Y-20.705 F9000.000
G1 X32.671 Y-21.381 F9000.000
G1 X26.221 Y-25.104 E0.68334 F900.000
G1 X26.221 Y-27.650 E0.23356
G1 X30.859 Y-27.650 E0.42556
G1 X31.320 Y-27.611 E0.04240
G1 X31.785 Y-27.490 E0.04415
G1 X32.224 Y-27.293 E0.04415
G1 X32.624 Y-27.025 E0.04415
G1 X32.973 Y-26.693 E0.04415
G1 X33.261 Y-26.308 E0.04415
G1 X33.480 Y-25.879 E0.04415
G1 X33.615 Y-25.447 E0.04151
G1 X33.972 Y-24.117 E0.12638
G1 X34.570 Y-22.477 E0.16018
G1 X32.723 Y-21.411 E0.19567
G1 X32.414 Y-21.074 F9000.000
G1 E-3.20000 F3000.00000
G1 Z0.700 F9000.000
G1 X25.521 Y-27.650 F9000.000
G1 Z0.300 F9000.000
G1 E3.20000 F3000.00000
G1 X25.521 Y-25.104 E0.23356 F900.000
G1 X19.071 Y-21.381 E0.68334
G1 X12.621 Y-25.104 E0.68334
G1 X12.621 Y-27.650 E0.23356
G1 X25.461 Y-27.650 E1.17808
G1 X25.921 Y-27.650 F9000.000
G1 E-3.20000 F3000.00000
G1 Z0.700 F9000.000
G1 X18.721 Y-20.774 F9000.000
G1 Z0.300 F9000.000
G1 E3.20000 F3000.00000
G1 X18.721 Y-13.327 E0.68334 F900.000
G1 X12.271 Y-9.603 E0.68334
G1 X5.821 Y-13.327 E0.68334
G1 X5.821 Y-20.774 E0.68334
G1 X12.271 Y-24.498 E0.68334
G1 X18.669 Y-20.804 E0.67784
G1 X19.115 Y-20.705 F9000.000
G1 E-3.20000 F3000.00000
G1 Z0.700 F9000.000
G1 X11.921 Y-27.650 F9000.000
G1 Z0.300 F9000.000
G1 E3.20000 F3000.00000
G1 X11.921 Y-25.104 E0.23356 F900.000
G1 X5.471 Y-21.381 E0.68334
G1 X-0.979 Y-25.104 E0.68334
G1 X-0.979 Y-27.650 E0.23356
G1 X11.861 Y-27.650 E1.17808
G1 X12.321 Y-27.650 F9000.000
G1 E-3.20000 F3000.00000
G1 Z0.700 F9000.000
G1 X5.121 Y-20.774 F9000.000
G1 Z0.300 F9000.000
G1 E3.20000 F3000.00000
G1 X5.121 Y-13.327 E0.68334 F900.000
G1 X-1.329 Y-9.603 E0.68334
G1 X-7.779 Y-13.327 E0.68334
G1 X-7.779 Y-20.774 E0.68334
G1 X-1.329 Y-24.498 E0.68334
G1 X5.069 Y-20.804 E0.67784
G1 X5.515 Y-20.705 F9000.000
G1 E-3.20000 F3000.00000
G1 Z0.700 F9000.000
G1 X-1.679 Y-27.650 F9000.000
G1 Z0.300 F9000.000
G1 E3.20000 F3000.00000
G1 X-1.679 Y-25.104 E0.23356 F900.000
G1 X-8.129 Y-21.381 E0.68334
G1 X-14.579 Y-25.104 E0.68334
G1 X-14.579 Y-27.650 E0.23356
G1 X-1.739 Y-27.650 E1.17808
G1 X-1.279 Y-27.650 F9000.000
G1 E-3.20000 F3000.00000
G1 Z0.700 F9000.000
G1 X-8.479 Y-20.774 F9000.000
G1 Z0.300 F9000.000
G1 E3.20000 F3000.00000
G1 X-8.479 Y-13.327 E0.68334 F900.000
G1 X-14.929 Y-9.603 E0.68334
G1 X-21.379 Y-13.327 E0.68334
G1 X-21.379 Y-20.774 E0.68334
G1 X-14.929 Y-24.498 E0.68334
G1 X-8.531 Y-20.804 E0.67784
G1 X-8.085 Y-20.705 F9000.000
G1 X-15.279 Y-25.104 F9000.000
G1 X-21.729 Y-21.381 E0.68334 F900.000
G1 X-28.179 Y-25.104 E0.68334
G1 X-28.179 Y-27.650 E0.23356
G1 X-15.279 Y-27.650 E1.18358
G1 X-15.279 Y-25.164 E0.22805
G1 X-15.142 Y-24.729 F9000.000
G1 X-22.079 Y-20.774 F9000.000
G1 X-22.079 Y-13.327 E0.68334 F900.000
G1 X-28.529 Y-9.603 E0.68334
G1 X-34.979 Y-13.327 E0.68334
G1 X-34.979 Y-20.774 E0.68334
G1 X-28.529 Y-24.498 E0.68334
G1 X-22.131 Y-20.804 E0.67784
G1 X-21.685 Y-20.705 F9000.000
G1 E-3.20000 F3000.00000
G1 Z0.700 F9000.000
G1 X-28.879 Y-27.650 F9000.000
G1 Z0.300 F9000.000
G1 E3.20000 F3000.00000
G1 X-28.879 Y-25.104 E0.23356 F900.000
G1 X-35.329 Y-21.381 E0.68334
G1 X-41.779 Y-25.104 E0.68334
G1 X-41.779 Y-27.468 E0.21682
G1 X-40.709 Y-27.618 E0.09913
G1 X-40.010 Y-27.650 E0.06418
G1 X-28.939 Y-27.650 E1.01580
G1 X-28.479 Y-27.650 F9000.000
G1 E-3.20000 F3000.00000
G1 Z0.700 F9000.000
G1 X-35.679 Y-20.774 F9000.000
G1 Z0.300 F9000.000
G1 E3.20000 F3000.00000
G1 X-35.679 Y-13.327 E0.68334 F900.000
G1 X-42.129 Y-9.603 E0.68334
G1 X-47.650 Y-12.790 E0.58490
G1 X-47.650 Y-20.017 E0.66310
G1 X-47.546 Y-21.371 E0.12456
G1 X-42.129 Y-24.498 E0.57388
G1 X-35.731 Y-20.804 E0.67784
G1 X-35.285 Y-20.705 F9000.000
G1 X-42.479 Y-25.104 F9000.000
G1 X-46.291 Y-22.904 E0.40379 F900.000
G1 X-46.833 Y-23.474 E0.07219
G1 X-46.067 Y-24.663 E0.12980
G1 X-45.215 Y-25.600 E0.11618
G1 X-44.178 Y-26.405 E0.12047
G1 X-42.479 Y-27.337 E0.17778
G1 X-42.479 Y-25.164 E0.19936
G1 X-42.342 Y-24.729 F9000.000
G1 E-3.20000 F3000.00000
G1 Z0.700 F9000.000
G1 X-41.779 Y-8.992 F9000.000
G1 Z0.300 F9000.000
G1 E3.20000 F3000.00000
G1 X-35.329 Y-12.716 E0.68334 F900.000
G1 X-28.879 Y-8.992 E0.68334
G1 X-28.879 Y-1.544 E0.68334
G1 X-35.329 Y2.179 E0.68334
G1 X-41.779 Y-1.544 E0.68334
G1 X-41.779 Y-8.932 E0.67784
G1 X-41.916 Y-9.368 F9000.000
G1 E-3.20000 F3000.00000
G1 Z0.700 F9000.000
G1 X-42.129 Y13.957 F9000.000
G1 Z0.300 F9000.000
G1 E3.20000 F3000.00000
G1 X-47.650 Y10.770 E0.58490 F900.000
G1 X-47.650 Y2.249 E0.78178
G1 X-42.129 Y-0.938 E0.58490
G1 X-35.679 Y2.786 E0.68334
G1 X-35.679 Y10.233 E0.68334
G1 X-42.077 Y13.927 E0.67784
G1 X-42.386 Y14.264 F9000.000
G1 E-3.20000 F3000.00000
G1 Z0.700 F9000.000
G1 X-47.650 Y1.441 F9000.000
G1 Z0.300 F9000.000
G1 E3.20000 F3000.00000
G1 X-47.650 Y-11.978 E1.23116 F900.000
G1 X-42.479 Y-8.992 E0.54782
G1 X-42.479 Y-1.544 E0.68334
G1 X-47.598 Y1.411 E0.54232
G1 X-48.044 Y1.510 F9000.000
G1 E-3.20000 F3000.00000
G1 Z0.700 F9000.000
G1 X-41.779 Y14.568 F9000.000
G1 Z0.300 F9000.000
G1 E3.20000 F3000.00000
G1 X-35.329 Y10.844 E0.68334 F900.000
G1 X-28.879 Y14.568 E0.68334
G1 X-28.879 Y22.016 E0.68334
G1 X-35.329 Y25.739 E0.68334
G1 X-41.779 Y22.016 E0.68334
G1 X-41.779 Y14.628 E0.67784
G1 X-41.916 Y14.192 F9000.000
G1 E-3.20000 F3000.00000
G1 Z0.700 F9000.000
G1 X-46.001 Y24.857 F9000.000
G1 Z0.300 F9000.000
G1 E3.20000 F3000.00000
G1 X-42.129 Y22.622 E0.41023 F900.000
G1 X-35.679 Y26.346 E0.68334
G1 X-35.679 Y27.650 E0.11967
G1 X-40.018 Y27.650 E0.39812
G1 X-41.242 Y27.550 E0.11263
G1 X-42.451 Y27.248 E0.11432
G1 X-43.595 Y26.754 E0.11432
G1 X-44.643 Y26.081 E0.11432
G1 X-45.957 Y24.898 E0.16224
G1 X-46.236 Y24.534 F9000.000
G1 X-46.395 Y24.277 F9000.000
G1 X-47.051 Y22.969 E0.13422 F900.000
G1 X-47.383 Y22.009 E0.09318
G1 X-47.584 Y21.013 E0.09318
G1 X-47.650 Y20.015 E0.09181
G1 X-47.650 Y11.582 E0.77370
G1 X-42.479 Y14.568 E0.54782
G1 X-42.479 Y22.016 E0.68334
G1 X-46.344 Y24.247 E0.40941
G1 X-46.749 Y24.463 F9000.000
G1 E-3.20000 F3000.00000
G1 Z0.700 F9000.000
G1 X-34.979 Y27.650 F9000.000
G1 Z0.300 F9000.000
G1 E3.20000 F3000.00000
G1 X-34.979 Y26.346 E0.11967 F900.000
G1 X-28.529 Y22.622 E0.68334
G1 X-22.079 Y26.346 E0.68334
G1 X-22.079 Y27.650 E0.11967
G1 X-34.919 Y27.650 E1.17808
G1 X-35.379 Y27.650 F9000.000
G1 E-3.20000 F3000.00000
G1 Z0.700 F9000.000
G1 X-28.179 Y22.016 F9000.000
G1 Z0.300 F9000.000
G1 E3.20000 F3000.00000
G1 X-28.179 Y14.568 E0.68334 F900.000
G1 X-21.729 Y10.844 E0.68334
G1 X-15.279 Y14.568 E0.68334
G1 X-15.279 Y22.016 E0.68334
G1 X-21.729 Y25.739 E0.68334
G1 X-28.127 Y22.046 E0.67784
G1 X-28.573 Y21.946 F9000.000
G1 E-3.20000 F3000.00000
G1 Z0.700 F9000.000
G1 X-21.379 Y27.650 F9000.000
G1 Z0.300 F9000.000
G1 E3.20000 F3000.00000
G1 X-21.379 Y26.346 E0.11967 F900.000
G1 X-14.929 Y22.622 E0.68334
G1 X-8.479 Y26.346 E0.68334
G1 X-8.479 Y27.650 E0.11967
G1 X-21.319 Y27.650 E1.17808
G1 X-21.779 Y27.650 F9000.000
G1 E-3.20000 F3000.00000
G1 Z0.700 F9000.000
G1 X-14.579 Y22.016 F9000.000
G1 Z0.300 F9000.000
G1 E3.20000 F3000.00000
G1 X-14.579 Y14.568 E0.68334 F900.000
G1 X-8.129 Y10.844 E0.68334
G1 X-1.679 Y14.568 E0.68334
G1 X-1.679 Y22.016 E0.68334
G1 X-8.129 Y25.739 E0.68334
G1 X-14.527 Y22.046 E0.67784
G1 X-14.973 Y21.946 F9000.000
G1 E-3.20000 F3000.00000
G1 Z0.700 F9000.000
G1 X-7.779 Y27.650 F9000.000
G1 Z0.300 F9000.000
G1 E3.20000 F3000.00000
G1 X-7.779 Y26.346 E0.11967 F900.000
G1 X-1.329 Y22.622 E0.68334
G1 X5.121 Y26.346 E0.68334
G1 X5.121 Y27.650 E0.11967
G1 X-7.719 Y27.650 E1.17808
G1 X-8.179 Y27.650 F9000.000
G1 E-3.20000 F3000.00000
G1 Z0.700 F9000.000
G1 X-0.979 Y22.016 F9000.000
G1 Z0.300 F9000.000
G1 E3.20000 F3000.00000
G1 X-0.979 Y14.568 E0.68334 F900.000
G1 X5.471 Y10.844 E0.68334
G1 X11.921 Y14.568 E0.68334
G1 X11.921 Y22.016 E0.68334
G1 X5.471 Y25.739 E0.68334
G1 X-0.927 Y22.046 E0.67784
G1 X-1.373 Y21.946 F9000.000
G1 E-3.20000 F3000.00000
G1 Z0.700 F9000.000
G1 X5.821 Y27.650 F9000.000
G1 Z0.300 F9000.000
G1 E3.20000 F3000.00000
G1 X5.821 Y26.346 E0.11967 F900.000
G1 X12.271 Y22.622 E0.68334
G1 X18.721 Y26.346 E0.68334
G1 X18.721 Y27.650 E0.11967
G1 X5.881 Y27.650 E1.17808
G1 X5.421 Y27.650 F9000.000
G1 X19.421 Y27.650 F9000.000
G1 X19.421 Y26.346 E0.11967 F900.000
G1 X25.871 Y22.622 E0.68334
G1 X32.321 Y26.346 E0.68334
G1 X32.321 Y27.650 E0.11967
G1 X19.481 Y27.650 E1.17808
G1 X19.021 Y27.650 F9000.000
G1 E-3.20000 F3000.00000
G1 Z0.700 F9000.000
G1 X25.521 Y22.016 F9000.000
G1 Z0.300 F9000.000
G1 E3.20000 F3000.00000
G1 X19.071 Y25.739 E0.68334 F900.000
G1 X12.621 Y22.016 E0.68334
G1 X12.621 Y14.568 E0.68334
G1 X19.071 Y10.844 E0.68334
G1 X25.521 Y14.568 E0.68334
G1 X25.521 Y21.956 E0.67784
G1 X25.658 Y22.391 F9000.000
G1 E-3.20000 F3000.00000
G1 Z0.700 F9000.000
G1 X12.271 Y13.957 F9000.000
G1 Z0.300 F9000.000
G1 E3.20000 F3000.00000
G1 X5.821 Y10.233 E0.68334 F900.000
G1 X5.821 Y2.786 E0.68334
G1 X12.271 Y-0.938 E0.68334
G1 X18.721 Y2.786 E0.68334
G1 X18.721 Y10.233 E0.68334
G1 X12.323 Y13.927 E0.67784
G1 X12.014 Y14.264 F9000.000
G1 E-3.20000 F3000.00000
G1 Z0.700 F9000.000
G1 X19.421 Y2.786 F9000.000
G1 Z0.300 F9000.000
G1 E3.20000 F3000.00000
G1 X25.871 Y-0.938 E0.68334 F900.000
G1 X32.321 Y2.786 E0.68334
G1 X32.321 Y10.233 E0.68334
G1 X25.871 Y13.957 E0.68334
G1 X19.421 Y10.233 E0.68334
G1 X19.421 Y2.846 E0.67784
G1 X19.284 Y2.410 F9000.000
G1 X19.071 Y2.179 F9000.000
G1 X12.621 Y-1.544 E0.68334 F900.000
G1 X12.621 Y-8.992 E0.68334
G1 X19.071 Y-12.716 E0.68334
G1 X25.521 Y-8.992 E0.68334
G1 X25.521 Y-1.544 E0.68334
G1 X19.123 Y2.149 E0.67784
G1 X18.814 Y2.486 F9000.000
G1 X11.921 Y-1.544 F9000.000
G1 X5.471 Y2.179 E0.68334 F900.000
G1 X-0.979 Y-1.544 E0.68334
G1 X-0.979 Y-8.992 E0.68334
G1 X5.471 Y-12.716 E0.68334
G1 X11.921 Y-8.992 E0.68334
G1 X11.921 Y-1.604 E0.67784
G1 X12.058 Y-1.169 F9000.000
G1 E-3.20000 F3000.00000
G1 Z0.700 F9000.000
G1 X-1.679 Y-1.544 F9000.000
G1 Z0.300 F9000.000
G1 E3.20000 F3000.00000
G1 X-8.129 Y2.179 E0.68334 F900.000
G1 X-14.579 Y-1.544 E0.68334
G1 X-14.579 Y-8.992 E0.68334
G1 X-8.129 Y-12.716 E0.68334
G1 X-1.679 Y-8.992 E0.68334
G1 X-1.679 Y-1.604 E0.67784
G1 X-1.542 Y-1.169 F9000.000
G1 X-8.479 Y2.786 F9000.000
G1 X-8.479 Y10.233 E0.68334 F900.000
