; generated by Slic3r 1.2.9 on 2017-03-03 at 12:26:29

; external perimeters extrusion width = 0.40mm
; perimeters extrusion width = 0.40mm
; infill extrusion width = 0.40mm
; solid infill extrusion width = 0.40mm
; top infill extrusion width = 0.40mm

M107
M83
T0
M116
G21 ; set units to millimeters
G90 ; use absolute coordinates
M83 ; use relative distances for extrusion
G1 E-3.20000 F3000.00000
G1 Z0.400 F15000.000
G1 X-4.276 Y-10.638 F15000.000
G1 Z0.300 F15000.000
G1 E3.20000 F3000.00000
G1 X23.708 Y-21.887 E2.32431 F960.000
G1 X24.739 Y-22.134 E0.08171
G1 X26.852 Y-22.324 E0.16355
G1 X28.528 Y-22.079 E0.13052
G1 X29.815 Y-21.206 E0.11981 F960.000
G1 X30.519 Y-20.456 E0.07928
G1 X31.746 Y-19.012 E0.14601
G1 X32.783 Y-17.660 E0.13134
G1 X33.860 Y-16.102 E0.14598
G1 X34.855 Y-14.489 E0.14601
G1 X35.763 Y-12.827 E0.14599
G1 X36.583 Y-11.119 E0.14600
G1 X37.313 Y-9.370 E0.14600
G1 X38.008 Y-7.405 E0.16067
G1 X38.492 Y-5.771 E0.13133
G1 X38.940 Y-3.930 E0.14601
G1 X39.319 Y-1.880 E0.16065
G1 X39.542 Y-0.191 E0.13134
G1 X39.696 Y1.698 E0.14600
G1 X39.750 Y3.591 E0.14600
G1 X39.705 Y5.485 E0.14599
G1 X39.542 Y7.564 E0.16067
G1 X39.319 Y9.253 E0.13133
G1 X38.979 Y11.117 E0.14599
G1 X38.492 Y13.144 E0.16068
G1 X37.950 Y14.959 E0.14598
G1 X37.313 Y16.743 E0.14601
G1 X36.576 Y18.506 E0.14721
G1 X35.769 Y20.180 E0.14322
G1 X34.698 Y21.492 E0.13052
G1 X32.394 Y22.235 E0.18654
G1 X29.860 Y22.156 E0.19537
G1 X-10.874 Y18.251 E3.15359
G1 X-11.795 Y18.125 E0.07162
G1 X-12.487 Y17.987 E0.05440
G1 X-13.102 Y17.832 E0.04888
G1 X-13.831 Y17.605 E0.05880
G1 X-14.507 Y17.351 E0.05572
G1 X-23.164 Y13.411 E0.73297
G1 X-24.141 Y12.917 E0.08439
G1 X-25.122 Y12.312 E0.08884
G1 X-25.606 Y11.954 E0.04635
G1 X-26.212 Y11.402 E0.06318
G1 X-26.512 Y11.081 E0.03384
G1 X-26.824 Y10.705 E0.03767
G1 X-27.314 Y10.010 E0.06554
G1 X-27.711 Y9.332 E0.06049
G1 X-27.852 Y9.055 E0.02403
G1 X-28.158 Y8.353 E0.05898
G1 X-28.402 Y7.675 E0.05556
G1 X-28.550 Y7.140 E0.04275
G1 X-28.612 Y6.823 E0.02489
G1 X-28.677 Y6.237 E0.04544
G1 X-28.706 Y5.261 E0.07524
G1 X-28.686 Y4.748 E0.03961
G1 X-28.651 Y4.441 E0.02378
G1 X-28.527 Y3.756 E0.05369
G1 X-28.368 Y3.201 E0.04449
G1 X-28.110 Y2.515 E0.05642
G1 X-27.959 Y2.169 E0.02912
G1 X-27.618 Y1.486 E0.05885
G1 X-27.354 Y1.040 E0.03991
G1 X-26.955 Y0.464 E0.05401
G1 X-26.656 Y0.088 E0.03702
G1 X-26.188 Y-0.427 E0.05365
G1 X-25.895 Y-0.715 E0.03161
G1 X-25.429 Y-1.124 E0.04783
G1 X-24.645 Y-1.716 E0.07569
G1 X-23.819 Y-2.242 E0.07551
G1 X-22.767 Y-2.810 E0.09210
G1 X-15.436 Y-6.151 E0.62086
G1 X-4.332 Y-10.615 E0.92234
G1 E-3.20000 F3000.00000
G1 Z0.700 F15000.000
G1 X33.701 Y-1.459 F15000.000
G1 Z0.300 F15000.000
G1 E3.20000 F3000.00000
G1 X33.419 Y-2.982 E0.11938 F720.000
G1 X33.021 Y-4.641 E0.13146
G1 X32.536 Y-6.275 E0.13137
G1 X31.967 Y-7.884 E0.13156
G1 X31.321 Y-9.445 E0.13012
G1 X30.580 Y-10.999 E0.13275
G1 X29.851 Y-12.360 E0.11899
G1 X28.884 Y-13.938 E0.14261
G1 X27.908 Y-15.360 E0.13288
G1 X26.868 Y-16.715 E0.13160
G1 X25.607 Y-18.192 E0.14968
G1 X27.106 Y-18.270 E0.11566
G1 X27.494 Y-17.861 E0.04353
G1 X28.589 Y-16.579 E0.12992 F720.000
G1 X29.616 Y-15.241 E0.12992
G1 X30.571 Y-13.852 E0.12992
G1 X31.451 Y-12.414 E0.12993
G1 X32.256 Y-10.933 E0.12992
G1 X32.982 Y-9.411 E0.12992
G1 X33.627 Y-7.854 E0.12992
G1 X34.190 Y-6.264 E0.12993
G1 X34.668 Y-4.648 E0.12992
G1 X35.062 Y-3.009 E0.12992
G1 X35.369 Y-1.351 E0.12992
G1 X35.589 Y0.320 E0.12993
G1 X35.721 Y2.001 E0.12992
G1 X35.766 Y3.686 E0.12992
G1 X35.721 Y5.372 E0.12992
G1 X35.683 Y5.855 E0.03737
G1 X35.589 Y7.052 E0.09255
G1 X35.369 Y8.724 E0.12992
G1 X35.062 Y10.381 E0.12992
G1 X34.668 Y12.021 E0.12992
G1 X34.189 Y13.637 E0.12992
G1 X33.627 Y15.226 E0.12992
G1 X32.982 Y16.783 E0.12986
G1 X32.360 Y18.074 E0.11040
G1 X30.779 Y18.157 E0.12199
G1 X31.313 Y17.046 E0.09498
G1 X31.963 Y15.479 E0.13076
G1 X32.536 Y13.862 E0.13223
G1 X33.022 Y12.222 E0.13179
G1 X33.419 Y10.567 E0.13115
G1 X33.730 Y8.890 E0.13146
G1 X33.953 Y7.199 E0.13145
G1 X34.086 Y5.498 E0.13149
G1 X34.131 Y3.792 E0.13147
G1 X34.085 Y2.071 E0.13269
G1 X33.952 Y0.387 E0.13023
G1 X33.712 Y-1.400 E0.13892
G1 X34.009 Y-1.714 F15000.000
G1 E-3.20000 F3000.00000
G1 Z0.700 F15000.000
G1 X26.614 Y-17.926 F15000.000
G1 Z0.300 F15000.000
G1 E3.20000 F3000.00000
G1 X27.338 Y-17.105 E0.17731 F960.000
G1 X28.091 Y-16.175 E0.19374
G1 X29.073 Y-14.847 E0.26748
G1 X29.451 Y-14.296 E0.10827
G1 X29.986 Y-13.472 E0.15899
G1 X30.829 Y-12.055 E0.26704
G1 X31.594 Y-10.596 E0.26684
G1 X31.995 Y-9.757 E0.15057
G1 X32.682 Y-8.146 E0.28349
G1 X32.901 Y-7.575 E0.09910
G1 X33.437 Y-6.020 E0.26637
G1 X33.893 Y-4.440 E0.26625
G1 X34.201 Y-3.161 E0.21303
G1 X34.563 Y-1.223 E0.31925
G1 X34.775 Y0.406 E0.26608
G1 X34.902 Y2.015 E0.26139
G1 X34.947 Y3.686 E0.27073
G1 X34.895 Y5.553 E0.30239
G1 X34.783 Y6.968 E0.22979
G1 X34.577 Y8.598 E0.26617
G1 X34.288 Y10.217 E0.26626
G1 X34.176 Y10.740 E0.08665
G1 X33.918 Y11.820 E0.17973
G1 X33.466 Y13.402 E0.26650
G1 X32.934 Y14.960 E0.26666
G1 X32.640 Y15.727 E0.13303
G1 X32.324 Y16.489 E0.13345
G1 X31.726 Y17.789 E0.23170
G1 E-3.20000 F3000.00000
G1 Z0.700 F15000.000
G1 X2.680 Y12.946 F15000.000
G1 Z0.300 F15000.000
G1 E3.20000 F3000.00000
G1 X2.235 Y13.017 E0.03471 F720.000
G1 X1.205 Y13.114 E0.07972
G1 X-1.650 Y13.283 E0.22044
G1 X-6.531 Y13.705 E0.37757
G1 X-7.694 Y13.761 E0.08970
G1 X-9.250 Y13.738 E0.11991
G1 X-10.425 Y13.651 E0.09080
G1 X-10.958 Y13.580 E0.04147
G1 X-11.385 Y13.499 E0.03351
G1 X-11.942 Y13.358 E0.04421
G1 X-12.390 Y13.214 E0.03630
G1 X-12.816 Y13.050 E0.03521
G1 X-13.211 Y12.871 E0.03341
G1 X-13.780 Y12.564 E0.04979
G1 X-15.221 Y11.640 E0.13192
G1 X-16.084 Y11.206 E0.07444
G1 X-17.065 Y10.820 E0.08126
G1 X-18.790 Y10.207 E0.14108
G1 X-20.145 Y9.675 E0.11218
G1 X-21.238 Y9.210 E0.09159
G1 X-22.001 Y8.821 E0.06595
G1 X-22.716 Y8.347 E0.06609
G1 X-22.992 Y8.087 E0.02925
G1 X-23.235 Y7.793 E0.02938
G1 X-23.464 Y7.454 E0.03155
G1 X-23.666 Y7.097 E0.03157
G1 X-23.824 Y6.751 E0.02934
G1 X-24.028 Y6.182 E0.04660
G1 X-24.060 Y6.018 E0.01289
G1 X-24.085 Y5.192 E0.06368
G1 X-24.064 Y4.998 E0.01502
G1 X-24.014 Y4.751 E0.01940
G1 X-23.802 Y4.187 E0.04642
G1 X-23.515 Y3.613 E0.04948
G1 X-23.193 Y3.148 E0.04355
G1 X-22.806 Y2.723 E0.04433
G1 X-22.414 Y2.379 E0.04020
G1 X-21.944 Y2.035 E0.04488
G1 X-21.402 Y1.697 E0.04920
G1 X-20.802 Y1.373 E0.05260
G1 X-19.562 Y0.800 E0.10524
G1 X-17.250 Y-0.125 E0.19195
G1 X-16.545 Y-0.427 E0.05906
G1 X-15.898 Y-0.740 E0.05542
G1 X-14.492 Y-1.492 E0.12292
G1 X-13.692 Y-1.872 E0.06820
G1 X-12.897 Y-2.177 E0.06562
G1 X-12.095 Y-2.405 E0.06429
G1 X-11.238 Y-2.553 E0.06696
G1 X-10.368 Y-2.633 E0.06740
G1 X-9.326 Y-2.680 E0.08032
G1 X-8.102 Y-2.696 E0.09438
G1 X-2.637 Y-2.618 E0.42116
G1 X-1.720 Y-2.635 E0.07074
G1 X0.511 Y-2.728 E0.17203
G1 X1.164 Y-2.734 E0.05033
G1 X1.748 Y-2.712 E0.04503
G1 X2.285 Y-2.659 E0.04165 F720.000
G1 X2.813 Y-2.571 E0.04118
G1 X3.694 Y-2.367 E0.06974
G1 X4.670 Y-2.089 E0.07821
G1 X5.644 Y-1.772 E0.07891
G1 X6.195 Y-1.565 E0.04535
G1 X6.870 Y-1.255 E0.05726
G1 X7.367 Y-0.965 E0.04430
G1 X7.754 Y-0.693 E0.03649
G1 X7.996 Y-0.496 E0.02409
G1 X9.479 Y0.830 E0.15331
G1 X10.362 Y1.440 E0.08270
G1 X11.048 Y1.945 E0.06565
G1 X11.431 Y2.292 E0.03978
G1 X11.974 Y2.890 E0.06224
G1 X12.359 Y3.243 E0.04025
G1 X12.861 Y3.429 E0.04127
G1 X13.609 Y3.510 E0.05803
G1 X13.617 Y3.957 E0.03441
G1 X13.711 Y4.743 E0.06099
G1 X13.040 Y4.967 E0.05451
G1 X12.750 Y5.099 E0.02451
G1 X12.475 Y5.317 E0.02707
G1 X11.785 Y6.313 E0.09336
G1 X11.221 Y7.016 E0.06948
G1 X10.357 Y7.865 E0.09332
G1 X9.963 Y8.287 E0.04449
G1 X8.764 Y9.776 E0.14737
G1 X8.507 Y10.032 E0.02798
G1 X8.217 Y10.284 E0.02953
G1 X7.728 Y10.631 E0.04622
G1 X6.752 Y11.188 E0.08660
G1 X5.750 Y11.832 E0.09179
G1 X5.363 Y12.046 E0.03410
G1 X4.577 Y12.411 E0.06677
G1 X3.957 Y12.634 E0.05077
G1 X3.415 Y12.790 E0.04350
G1 X2.739 Y12.936 E0.05330
G1 X2.839 Y13.564 F15000.000
G1 X2.315 Y13.648 E0.04091 F720.000
G1 X1.254 Y13.748 E0.08214
G1 X-1.604 Y13.917 E0.22063
G1 X-6.489 Y14.340 E0.37785
G1 X-7.684 Y14.397 E0.09217
G1 X-9.278 Y14.374 E0.12289
G1 X-10.491 Y14.284 E0.09371
G1 X-11.060 Y14.207 E0.04426
G1 X-11.523 Y14.120 E0.03629
G1 X-12.117 Y13.970 E0.04722
G1 X-12.602 Y13.814 E0.03928
G1 X-13.062 Y13.636 E0.03803
G1 X-13.494 Y13.440 E0.03651
G1 X-14.102 Y13.112 E0.05331
G1 X-15.536 Y12.193 E0.13123
G1 X-16.344 Y11.787 E0.06966
G1 X-17.288 Y11.415 E0.07820
G1 X-19.012 Y10.802 E0.14106
G1 X-20.385 Y10.263 E0.11367
G1 X-21.507 Y9.786 E0.09397
G1 X-22.317 Y9.373 E0.07000
G1 X-22.965 Y8.960 E0.05924
G1 X-23.132 Y8.829 E0.01633
G1 X-23.457 Y8.522 E0.03448
G1 X-23.744 Y8.175 E0.03473
G1 X-24.005 Y7.789 E0.03591
G1 X-24.233 Y7.386 E0.03565
G1 X-24.413 Y6.991 E0.03348
G1 X-24.643 Y6.351 E0.05238
G1 X-24.694 Y6.088 E0.02063
G1 X-24.722 Y5.166 E0.07113
G1 X-24.692 Y4.899 E0.02067
G1 X-24.626 Y4.575 E0.02548
G1 X-24.385 Y3.933 E0.05287
G1 X-24.063 Y3.288 E0.05552
G1 X-23.692 Y2.752 E0.05029
G1 X-23.252 Y2.269 E0.05034
G1 X-22.812 Y1.882 E0.04512
G1 X-22.301 Y1.508 E0.04888
G1 X-21.722 Y1.148 E0.05253
G1 X-21.087 Y0.804 E0.05564
G1 X-19.814 Y0.216 E0.10807
G1 X-17.493 Y-0.712 E0.19264
G1 X-16.809 Y-1.005 E0.05733
G1 X-16.187 Y-1.307 E0.05330
G1 X-14.778 Y-2.060 E0.12312
G1 X-13.943 Y-2.456 E0.07125
G1 X-13.098 Y-2.780 E0.06969
G1 X-12.236 Y-3.025 E0.06908
G1 X-11.322 Y-3.183 E0.07148
G1 X-10.411 Y-3.268 E0.07049
G1 X-9.345 Y-3.316 E0.08227
G1 X-8.101 Y-3.332 E0.09583
G1 X-2.638 Y-3.254 E0.42104
G1 X-1.738 Y-3.270 E0.06937
G1 X0.495 Y-3.363 E0.17224
G1 X1.173 Y-3.370 E0.05228
G1 X1.791 Y-3.346 E0.04768
G1 X2.369 Y-3.289 E0.04473 F720.000
G1 X2.937 Y-3.195 E0.04436
G1 X3.853 Y-2.982 E0.07252
G1 X4.856 Y-2.697 E0.08032
G1 X5.855 Y-2.372 E0.08095
G1 X6.439 Y-2.152 E0.04815
G1 X7.164 Y-1.820 E0.06140
G1 X7.710 Y-1.501 E0.04881
G1 X8.138 Y-1.200 E0.04027
G1 X8.409 Y-0.979 E0.02695
G1 X9.873 Y0.330 E0.15138
G1 X10.731 Y0.923 E0.08036
G1 X11.451 Y1.453 E0.06887
G1 X11.881 Y1.841 E0.04467
G1 X12.425 Y2.441 E0.06241
G1 X12.696 Y2.690 E0.02841
G1 X13.008 Y2.806 E0.02557
G1 X13.780 Y2.889 E0.05986
G1 X14.029 Y2.963 E0.01999
G1 X14.110 Y3.012 E0.00733
G1 X14.239 Y3.171 E0.01577
G1 X14.252 Y3.913 E0.05722
G1 X14.347 Y4.713 E0.06203
G1 X14.355 Y5.001 E0.02226
G1 X14.331 Y5.072 E0.00576
G1 X14.224 Y5.215 E0.01377
G1 X14.128 Y5.273 E0.00865
G1 X13.273 Y5.560 E0.06945
G1 X13.084 Y5.646 E0.01603
G1 X12.943 Y5.757 E0.01381
G1 X12.295 Y6.693 E0.08776
G1 X11.694 Y7.443 E0.07410
G1 X10.812 Y8.309 E0.09520
G1 X10.440 Y8.707 E0.04204
G1 X9.228 Y10.211 E0.14883
G1 X8.940 Y10.498 E0.03137
G1 X8.611 Y10.784 E0.03357
G1 X8.071 Y11.167 E0.05103
G1 X7.082 Y11.732 E0.08776
G1 X6.076 Y12.378 E0.09214
G1 X5.651 Y12.613 E0.03743
G1 X4.819 Y12.999 E0.07064
G1 X4.153 Y13.239 E0.05457
G1 X3.572 Y13.406 E0.04661
G1 X2.898 Y13.555 E0.05316
G1 X2.581 Y13.258 F15000.000
G1 X12.290 Y5.041 F15000.000
G1 X6.175 Y-1.075 E0.67935 F960.000
G1 X4.715 Y-1.618 F15000.000
G1 X11.898 Y5.565 E0.79794 F960.000
G1 X11.523 Y6.106 E0.05171
G1 X3.417 Y-2.000 E0.90050
G1 X2.251 Y-2.249 E0.09359
G1 X11.118 Y6.617 E0.98486
G1 X10.675 Y7.091 E0.05091
G1 X1.245 Y-2.340 E1.04755
G1 X0.329 Y-2.340 E0.07196
G1 X10.213 Y7.545 E1.09798
G1 X9.766 Y8.014 E0.05090
G1 X-0.551 Y-2.303 E1.14604
G1 X-1.430 Y-2.266 E0.06913
G1 X9.347 Y8.510 E1.19709
G1 X8.944 Y9.024 E0.05126
G1 X-2.321 Y-2.241 E1.25133
G1 X-3.236 Y-2.239 E0.07185
G1 X8.524 Y9.520 E1.30623
G1 X8.066 Y9.978 E0.05088
G1 X-4.165 Y-2.253 E1.35857
G1 X-5.094 Y-2.266 E0.07300
G1 X7.529 Y10.358 E1.40220
G1 X6.946 Y10.691 E0.05275
G1 X-6.024 Y-2.279 E1.44065
G1 X-6.953 Y-2.292 E0.07300
G1 X6.374 Y11.035 E1.48032
G1 X5.816 Y11.393 E0.05208
G1 X-7.882 Y-2.305 E1.52157
G1 X-8.796 Y-2.303 E0.07179
G1 X5.235 Y11.729 E1.55864
G1 X4.610 Y12.019 E0.05418
G1 X-9.693 Y-2.284 E1.58876
G1 X-10.565 Y-2.240 E0.06860
G1 X3.944 Y12.269 E1.61169
G1 X3.223 Y12.465 E0.05867
G1 X-11.397 Y-2.155 E1.62399
G1 X-12.173 Y-2.015 E0.06192
G1 X2.454 Y12.611 E1.62468
G1 X1.625 Y12.699 E0.06543
G1 X-12.885 Y-1.811 E1.61175
G1 X-13.547 Y-1.557 E0.05570
G1 X0.771 Y12.761 E1.59041
G1 X-0.094 Y12.813 E0.06804
G1 X-14.173 Y-1.266 E1.56389
G1 X-14.778 Y-0.956 E0.05346
G1 X-0.958 Y12.864 E1.53510
G1 X-1.816 Y12.922 E0.06755
G1 X-15.375 Y-0.637 E1.50610
G1 X-15.978 Y-0.323 E0.05337
G1 X-2.660 Y12.995 E1.47940
G1 X-3.503 Y13.068 E0.06648
G1 X-16.600 Y-0.030 E1.45485
G1 X-17.243 Y0.244 E0.05486
G1 X-4.346 Y13.141 E1.43258
G1 X-5.190 Y13.214 E0.06648
G1 X-17.897 Y0.506 E1.41158
G1 X-18.552 Y0.768 E0.05536
G1 X-6.033 Y13.286 E1.39059
G1 X-6.892 Y13.343 E0.06766
G1 X-19.206 Y1.029 E1.36780
G1 X-19.845 Y1.307 E0.05470
G1 X-7.779 Y13.372 E1.34025
G1 X-8.709 Y13.359 E0.07304
G1 X-20.472 Y1.596 E1.30660
G1 X-21.078 Y1.906 E0.05349
G1 X-9.674 Y13.310 E1.26680
G1 X-10.693 Y13.207 E0.08046
G1 X-21.653 Y2.247 E1.21742
G1 X-22.190 Y2.626 E0.05164
G1 X-11.899 Y12.917 E1.14312
G1 X-13.664 Y12.068 F15000.000
G1 X-22.660 Y3.072 E0.99930 F960.000
G1 X-23.080 Y3.569 E0.05106
G1 X-15.814 Y10.835 E0.80708
G1 X-17.290 Y10.274 F15000.000
G1 X-23.407 Y4.157 E0.67949 F960.000
G1 X-23.659 Y4.822 E0.05581
G1 X-18.727 Y9.754 E0.54791
G1 X-20.259 Y9.138 F15000.000
G1 X-23.680 Y5.717 E0.38001 F960.000
G1 X-22.883 Y7.430 F15000.000
G1 X-22.207 Y8.106 E0.07503 F960.000
G1 X9.826 Y1.661 F15000.000
G1 X12.846 Y4.680 E0.33543 F960.000
G1 X12.921 Y3.839 E0.06635
G1 X13.236 Y4.154 E0.03500
G1 E-3.20000 F3000.00000
G1 Z0.700 F15000.000
G1 X34.304 Y2.478 F15000.000
G1 Z0.500 F15000.000
G1 E3.20000 F3000.00000
G1 X34.293 Y2.076 E0.01159 F2879.117
G1 X34.158 Y0.365 E0.04955
G1 X33.934 Y-1.337 E0.04955
G1 X33.621 Y-3.025 E0.04955
G1 X33.221 Y-4.694 E0.04955
G1 X32.733 Y-6.341 E0.04955
G1 X32.160 Y-7.959 E0.04955
G1 X31.507 Y-9.535 E0.04925
G1 X30.764 Y-11.094 E0.04985
G1 X29.945 Y-12.603 E0.04955
G1 X29.052 Y-14.060 E0.04932
G1 X28.075 Y-15.482 E0.04978
G1 X27.030 Y-16.844 E0.04955
G1 X26.037 Y-18.007 E0.04415
G1 X27.021 Y-18.059 E0.02845
G1 X27.204 Y-17.866 E0.00768
G1 X28.429 Y-16.447 E0.05409 F2879.117
G1 X29.448 Y-15.119 E0.04830
G1 X30.397 Y-13.739 E0.04834
G1 X31.272 Y-12.311 E0.04835
G1 X32.071 Y-10.839 E0.04835
G1 X32.792 Y-9.327 E0.04835
G1 X33.433 Y-7.779 E0.04835
G1 X33.993 Y-6.200 E0.04835
G1 X34.468 Y-4.594 E0.04835
G1 X34.859 Y-2.966 E0.04835
G1 X35.165 Y-1.319 E0.04835
G1 X35.383 Y0.342 E0.04835
G1 X35.515 Y2.012 E0.04835
G1 X35.558 Y3.686 E0.04835
G1 X35.515 Y5.361 E0.04835
G1 X35.383 Y7.031 E0.04835
G1 X35.165 Y8.691 E0.04835
G1 X34.859 Y10.338 E0.04835
G1 X34.468 Y11.967 E0.04835
G1 X33.992 Y13.573 E0.04835
G1 X33.433 Y15.152 E0.04835
G1 X32.793 Y16.699 E0.04831
G1 X32.226 Y17.873 E0.03764
G1 X31.117 Y17.932 E0.03206
G1 X31.503 Y17.131 E0.02565
G1 X32.155 Y15.558 E0.04915
G1 X32.733 Y13.926 E0.04998
G1 X33.221 Y12.279 E0.04956
G1 X33.618 Y10.623 E0.04916
G1 X33.934 Y8.922 E0.04992
G1 X34.159 Y7.220 E0.04956
G1 X34.293 Y5.509 E0.04955
G1 X34.338 Y3.793 E0.04955
G1 X34.305 Y2.538 E0.03623
G1 X33.948 Y2.547 F15000.000
G1 X33.936 Y2.095 E0.01305 F2879.117
G1 X33.803 Y0.402 E0.04901
G1 X33.581 Y-1.281 E0.04901
G1 X33.272 Y-2.951 E0.04901
G1 X32.876 Y-4.602 E0.04901
G1 X32.393 Y-6.230 E0.04901
G1 X31.827 Y-7.831 E0.04901
G1 X31.181 Y-9.390 E0.04871
G1 X30.446 Y-10.932 E0.04931
G1 X29.635 Y-12.424 E0.04901
G1 X28.752 Y-13.865 E0.04878
G1 X27.786 Y-15.272 E0.04924
G1 X26.753 Y-16.619 E0.04901
G1 X25.650 Y-17.910 E0.04901
G1 X25.258 Y-18.323 E0.01644
G1 X27.167 Y-18.424 E0.05518
G1 X27.469 Y-18.105 E0.01268
G1 X28.706 Y-16.673 E0.05463 F2879.117
G1 X29.737 Y-15.329 E0.04887
G1 X30.696 Y-13.934 E0.04888
G1 X31.581 Y-12.489 E0.04889
G1 X32.390 Y-11.001 E0.04889
G1 X33.119 Y-9.472 E0.04889
G1 X33.767 Y-7.907 E0.04889
G1 X34.332 Y-6.311 E0.04889
G1 X34.813 Y-4.687 E0.04889
G1 X35.209 Y-3.040 E0.04889
G1 X35.517 Y-1.375 E0.04889
G1 X35.738 Y0.305 E0.04889
G1 X35.871 Y1.993 E0.04889
G1 X35.916 Y3.686 E0.04889
G1 X35.871 Y5.380 E0.04889
G1 X35.738 Y7.068 E0.04889
G1 X35.517 Y8.747 E0.04888
G1 X35.209 Y10.413 E0.04889
G1 X34.813 Y12.060 E0.04889
G1 X34.332 Y13.684 E0.04889
G1 X33.767 Y15.280 E0.04889
G1 X33.119 Y16.845 E0.04887
G1 X32.400 Y18.334 E0.04773
