; generated by Slic3r 1.2.9 on 2017-03-10 at 17:35:24

; external perimeters extrusion width = 0.40mm
; perimeters extrusion width = 0.40mm
; infill extrusion width = 0.40mm
; solid infill extrusion width = 0.40mm
; top infill extrusion width = 0.40mm

M107
M83
T0
M116
G21 ; set units to millimeters
G90 ; use absolute coordinates
M83 ; use relative distances for extrusion
G1 E-3.20000 F3000.00000
G1 Z0.400 F15000.000
G1 X23.586 Y0.000 F15000.000
G1 Z0.300 F15000.000
G1 E3.20000 F3000.00000
G1 X23.586 Y25.950 E1.99985 F960.000
G1 X23.191 Y27.597 E0.13052
G1 X22.093 Y28.887 E0.13052
G1 X19.950 Y29.586 E0.17373
G1 X-19.950 Y29.586 E3.07491
G1 X-21.597 Y29.191 E0.13052
G1 X-22.887 Y28.093 E0.13052
G1 X-23.586 Y25.950 E0.17373
G1 X-23.586 Y-25.950 E3.99970
G1 X-23.191 Y-27.597 E0.13052
G1 X-22.093 Y-28.887 E0.13052
G1 X-19.950 Y-29.586 E0.17373
G1 X19.950 Y-29.586 E3.07491
G1 X21.597 Y-29.191 E0.13052
G1 X22.887 Y-28.093 E0.13052 F960.000
G1 X23.586 Y-25.950 E0.17373
G1 X23.586 Y-0.060 E1.99523
G1 E-3.20000 F3000.00000
G1 Z0.700 F15000.000
G1 X4.842 Y18.535 F15000.000
G1 Z0.300 F15000.000
G1 E3.20000 F3000.00000
G1 X5.057 Y18.759 E0.02390 F600.000
G1 X5.256 Y19.007 E0.02453
G1 X5.557 Y19.510 E0.04519
G1 X5.683 Y19.803 E0.02454
G1 X5.779 Y20.098 E0.02391
G1 X5.847 Y20.401 E0.02398
G1 X5.888 Y20.716 E0.02449
G1 X5.888 Y21.284 E0.04370
G1 X5.847 Y21.599 E0.02449
G1 X5.779 Y21.902 E0.02398
G1 X5.680 Y22.204 E0.02448
G1 X5.426 Y22.733 E0.04523
G1 X5.251 Y22.999 E0.02451
G1 X5.052 Y23.247 E0.02451
G1 X4.628 Y23.653 E0.04522
G1 X4.365 Y23.844 E0.02506
G1 X3.848 Y24.122 E0.04522
G1 X3.551 Y24.234 E0.02451
G1 X3.244 Y24.318 E0.02451
G1 X2.663 Y24.397 E0.04522
G1 X2.345 Y24.397 E0.02448
G1 X2.028 Y24.368 E0.02454
G1 X1.456 Y24.237 E0.04519
G1 X1.158 Y24.124 E0.02452
G1 X0.872 Y23.985 E0.02453
G1 X0.384 Y23.662 E0.04512
G1 X0.158 Y23.465 E0.02311
G1 X-0.057 Y23.241 E0.02390
G1 X-0.256 Y22.993 E0.02453
G1 X-0.557 Y22.490 E0.04519
G1 X-0.683 Y22.197 E0.02454
G1 X-0.779 Y21.902 E0.02391
G1 X-0.847 Y21.599 E0.02398
G1 X-0.888 Y21.284 E0.02449
G1 X-0.888 Y20.716 E0.04370
G1 X-0.847 Y20.401 E0.02449
G1 X-0.779 Y20.098 E0.02398
G1 X-0.680 Y19.796 E0.02448
G1 X-0.426 Y19.267 E0.04522
G1 X-0.251 Y19.001 E0.02451
G1 X-0.052 Y18.753 E0.02451
G1 X0.372 Y18.347 E0.04522
G1 X0.635 Y18.156 E0.02506
G1 X1.152 Y17.878 E0.04523
G1 X1.449 Y17.766 E0.02451
G1 X1.756 Y17.682 E0.02451
G1 X2.337 Y17.603 E0.04522
G1 X2.655 Y17.603 E0.02448 F600.000
G1 X2.972 Y17.632 E0.02454
G1 X3.544 Y17.763 E0.04519
G1 X3.842 Y17.876 E0.02452
G1 X4.128 Y18.015 E0.02453
G1 X4.616 Y18.338 E0.04512
G1 X4.797 Y18.496 E0.01849
G1 X5.141 Y18.452 F15000.000
G1 X2.663 Y-17.603 F15000.000
G1 X2.345 Y-17.603 E0.02448 F600.000
G1 X2.028 Y-17.632 E0.02454
G1 X1.456 Y-17.763 E0.04519
G1 X1.158 Y-17.876 E0.02453
G1 X0.872 Y-18.015 E0.02453
G1 X0.384 Y-18.338 E0.04512
G1 X0.158 Y-18.535 E0.02311
G1 X-0.057 Y-18.759 E0.02390
G1 X-0.256 Y-19.007 E0.02453
G1 X-0.557 Y-19.510 E0.04519
G1 X-0.683 Y-19.803 E0.02454
G1 X-0.779 Y-20.098 E0.02391
G1 X-0.847 Y-20.401 E0.02398
G1 X-0.888 Y-20.716 E0.02449
G1 X-0.888 Y-21.284 E0.04370
G1 X-0.847 Y-21.599 E0.02449
G1 X-0.779 Y-21.902 E0.02398
G1 X-0.680 Y-22.204 E0.02448
G1 X-0.426 Y-22.733 E0.04522
G1 X-0.251 Y-22.999 E0.02451
G1 X-0.052 Y-23.247 E0.02451
G1 X0.372 Y-23.653 E0.04522
G1 X0.635 Y-23.844 E0.02506
G1 X1.152 Y-24.122 E0.04522
G1 X1.449 Y-24.234 E0.02451
G1 X1.756 Y-24.318 E0.02451
G1 X2.337 Y-24.397 E0.04522
G1 X2.655 Y-24.397 E0.02448 F600.000
G1 X2.972 Y-24.368 E0.02454
G1 X3.544 Y-24.237 E0.04519
G1 X3.842 Y-24.124 E0.02452
G1 X4.128 Y-23.986 E0.02451
G1 X4.601 Y-23.673 E0.04370
G1 X4.841 Y-23.466 E0.02448
G1 X5.057 Y-23.241 E0.02398
G1 X5.256 Y-22.993 E0.02453
G1 X5.557 Y-22.490 E0.04519
G1 X5.683 Y-22.197 E0.02454
G1 X5.779 Y-21.902 E0.02391
G1 X5.847 Y-21.599 E0.02398
G1 X5.888 Y-21.284 E0.02449
G1 X5.888 Y-20.716 E0.04370
G1 X5.847 Y-20.401 E0.02449
G1 X5.779 Y-20.098 E0.02398
G1 X5.680 Y-19.796 E0.02448
G1 X5.426 Y-19.267 E0.04523
G1 X5.251 Y-19.001 E0.02451
G1 X5.052 Y-18.753 E0.02451
G1 X4.628 Y-18.347 E0.04522
G1 X4.365 Y-18.156 E0.02506
G1 X3.848 Y-17.878 E0.04522
G1 X3.551 Y-17.766 E0.02451
G1 X3.244 Y-17.682 E0.02451
G1 X2.722 Y-17.611 E0.04060
G1 X2.516 Y-17.321 F15000.000
G1 X-9.683 Y17.557 F15000.000
G1 X-8.972 Y17.852 E0.05934 F600.000
G1 X-8.340 Y18.336 E0.06134
G1 X-7.855 Y18.967 E0.06139
G1 X-7.559 Y19.678 E0.05936
G1 X-7.446 Y20.491 E0.06324
G1 X-7.548 Y21.270 E0.06054
G1 X-7.845 Y21.994 E0.06028
G1 X-8.334 Y22.639 E0.06243
G1 X-8.967 Y23.126 E0.06156
G1 X-9.678 Y23.422 E0.05936
G1 X-10.491 Y23.535 E0.06324
G1 X-11.270 Y23.433 E0.06054
G1 X-11.994 Y23.136 E0.06028
G1 X-12.639 Y22.647 E0.06243
G1 X-13.126 Y22.014 E0.06156
G1 X-13.422 Y21.303 E0.05936
G1 X-13.535 Y20.490 E0.06324
G1 X-13.433 Y19.711 E0.06054
G1 X-13.136 Y18.987 E0.06028
G1 X-12.646 Y18.340 E0.06259
G1 X-11.999 Y17.847 E0.06269
G1 X-11.275 Y17.549 E0.06026
G1 X-10.498 Y17.446 E0.06047 F600.000
G1 X-9.743 Y17.548 E0.05870
G1 X-9.851 Y18.175 F15000.000
G1 X-9.293 Y18.407 E0.04658 F600.000
G1 X-8.793 Y18.789 E0.04848
G1 X-8.410 Y19.288 E0.04850
G1 X-8.177 Y19.847 E0.04662
G1 X-8.087 Y20.493 E0.05030
G1 X-8.168 Y21.105 E0.04757
G1 X-8.401 Y21.676 E0.04752
G1 X-8.789 Y22.187 E0.04945
G1 X-9.288 Y22.571 E0.04856
G1 X-9.847 Y22.804 E0.04662
G1 X-10.493 Y22.894 E0.05030
G1 X-11.105 Y22.813 E0.04757
G1 X-11.676 Y22.580 E0.04752
G1 X-12.187 Y22.192 E0.04945
G1 X-12.571 Y21.692 E0.04856
G1 X-12.804 Y21.134 E0.04662
G1 X-12.894 Y20.487 E0.05030
G1 X-12.813 Y19.875 E0.04757
G1 X-12.580 Y19.305 E0.04752
G1 X-12.192 Y18.793 E0.04950
G1 X-11.680 Y18.403 E0.04958
G1 X-11.110 Y18.169 E0.04748
G1 X-10.498 Y18.087 E0.04755 F600.000
G1 X-9.910 Y18.167 E0.04575
G1 X-9.555 Y17.906 F15000.000
G1 X12.855 Y7.014 F15000.000
G1 X12.559 Y6.303 E0.05936 F600.000
G1 X12.446 Y5.490 E0.06324
G1 X12.548 Y4.711 E0.06054
G1 X12.844 Y3.987 E0.06028
G1 X13.335 Y3.340 E0.06259
G1 X13.982 Y2.847 E0.06269
G1 X14.705 Y2.549 E0.06026
G1 X15.483 Y2.446 E0.06048 F600.000
G1 X16.297 Y2.556 E0.06333
G1 X17.008 Y2.852 E0.05934
G1 X17.641 Y3.335 E0.06133
G1 X18.126 Y3.967 E0.06139
G1 X18.422 Y4.678 E0.05936
G1 X18.535 Y5.491 E0.06324
G1 X18.433 Y6.270 E0.06054
G1 X18.136 Y6.994 E0.06028
G1 X17.647 Y7.639 E0.06243
G1 X17.014 Y8.126 E0.06156
G1 X16.303 Y8.422 E0.05936
G1 X15.490 Y8.535 E0.06324
G1 X14.711 Y8.433 E0.06054
G1 X13.987 Y8.136 E0.06028
G1 X13.341 Y7.647 E0.06243
G1 X12.891 Y7.061 E0.05694
G1 X13.410 Y6.692 F15000.000
G1 X13.177 Y6.134 E0.04662 F600.000
G1 X13.087 Y5.487 E0.05030
G1 X13.168 Y4.875 E0.04757
G1 X13.401 Y4.305 E0.04752
G1 X13.789 Y3.793 E0.04950
G1 X14.301 Y3.403 E0.04958
G1 X14.871 Y3.169 E0.04748
G1 X15.482 Y3.087 E0.04755 F600.000
G1 X16.130 Y3.175 E0.05037
G1 X16.688 Y3.407 E0.04658
G1 X17.188 Y3.789 E0.04848
G1 X17.571 Y4.288 E0.04850
G1 X17.804 Y4.847 E0.04662
G1 X17.894 Y5.493 E0.05030
G1 X17.813 Y6.105 E0.04757
G1 X17.580 Y6.676 E0.04752
G1 X17.192 Y7.187 E0.04945
G1 X16.692 Y7.571 E0.04856
G1 X16.134 Y7.804 E0.04662
G1 X15.487 Y7.894 E0.05030
G1 X14.875 Y7.813 E0.04757
G1 X14.305 Y7.580 E0.04752
G1 X13.793 Y7.192 E0.04945
G1 X13.446 Y6.740 E0.04394
G1 X13.010 Y6.675 F15000.000
G1 X6.838 Y-9.121 F15000.000
G1 X6.303 Y-8.898 E0.04468 F600.000
G1 X5.490 Y-8.786 E0.06324
G1 X4.711 Y-8.888 E0.06054
G1 X3.987 Y-9.184 E0.06028
G1 X3.341 Y-9.674 E0.06243
G1 X2.855 Y-10.307 E0.06156
G1 X2.559 Y-11.018 E0.05936
G1 X2.446 Y-11.831 E0.06324
G1 X2.548 Y-12.610 E0.06054
G1 X2.844 Y-13.333 E0.06028
G1 X3.335 Y-13.981 E0.06259
G1 X3.982 Y-14.474 E0.06269
G1 X4.705 Y-14.771 E0.06026
G1 X5.483 Y-14.874 E0.06047 F600.000
G1 X6.297 Y-14.764 E0.06333
G1 X7.008 Y-14.468 E0.05934
G1 X7.641 Y-13.985 E0.06134
G1 X8.126 Y-13.353 E0.06139
G1 X8.422 Y-12.642 E0.05936
G1 X8.535 Y-11.829 E0.06324
G1 X8.433 Y-11.051 E0.06054
G1 X8.136 Y-10.327 E0.06028
G1 X7.647 Y-9.681 E0.06243
G1 X7.014 Y-9.195 E0.06156
G1 X6.893 Y-9.144 E0.01006
G1 X6.649 Y-9.731 F15000.000
G1 X6.134 Y-9.517 E0.04297 F600.000
G1 X5.487 Y-9.427 E0.05030
G1 X4.875 Y-9.507 E0.04757
G1 X4.305 Y-9.741 E0.04752
G1 X3.793 Y-10.128 E0.04945
G1 X3.410 Y-10.628 E0.04856
G1 X3.177 Y-11.187 E0.04662
G1 X3.087 Y-11.833 E0.05030
G1 X3.168 Y-12.445 E0.04757
G1 X3.401 Y-13.016 E0.04752
G1 X3.789 Y-13.528 E0.04950
G1 X4.301 Y-13.918 E0.04958
G1 X4.871 Y-14.152 E0.04748
G1 X5.482 Y-14.233 E0.04755 F600.000
G1 X6.130 Y-14.145 E0.05037
G1 X6.688 Y-13.913 E0.04658
G1 X7.188 Y-13.531 E0.04848
G1 X7.571 Y-13.032 E0.04850
G1 X7.804 Y-12.474 E0.04662
G1 X7.894 Y-11.827 E0.05030
G1 X7.813 Y-11.215 E0.04757
G1 X7.580 Y-10.645 E0.04752
G1 X7.192 Y-10.133 E0.04945
G1 X6.702 Y-9.757 E0.04759
G1 X6.629 Y-9.332 F15000.000
G1 X-18.964 Y9.466 F15000.000
G1 X-18.964 Y-24.964 E2.65342 F720.000
G1 X0.768 Y-24.964 E1.52067
G1 X0.840 Y-24.676 E0.02290
G1 X0.296 Y-24.383 E0.04766 F720.000
G1 X-0.036 Y-24.142 E0.03165
G1 X-0.522 Y-23.677 E0.05180
G1 X-0.766 Y-23.373 E0.03005
G1 X-0.980 Y-23.047 E0.03005
G1 X-1.272 Y-22.441 E0.05180
G1 X-1.392 Y-22.071 E0.03003
G1 X-1.474 Y-21.710 E0.02849
G1 X-1.524 Y-21.325 E0.02994
G1 X-1.524 Y-20.675 E0.05008
G1 X-1.474 Y-20.290 E0.02994
G1 X-1.392 Y-19.929 E0.02849
G1 X-1.278 Y-19.579 E0.02842
G1 X-1.124 Y-19.220 E0.03006
G1 X-0.779 Y-18.644 E0.05177
G1 X-0.535 Y-18.339 E0.03009
G1 X-0.281 Y-18.075 E0.02827
G1 X-0.002 Y-17.831 E0.02850
G1 X0.556 Y-17.461 E0.05165
G1 X0.907 Y-17.291 E0.03004
G1 X1.272 Y-17.153 E0.03009
G1 X1.927 Y-17.003 E0.05177
G1 X2.316 Y-16.968 E0.03006
G1 X2.705 Y-16.968 E0.03003
G1 X3.371 Y-17.058 E0.05180
G1 X3.747 Y-17.161 E0.03005
G1 X4.112 Y-17.298 E0.03005
G1 X4.704 Y-17.617 E0.05180
G1 X5.036 Y-17.858 E0.03165
G1 X5.522 Y-18.323 E0.05180
G1 X5.766 Y-18.627 E0.03005
G1 X5.980 Y-18.953 E0.03005
G1 X6.272 Y-19.559 E0.05180
G1 X6.392 Y-19.929 E0.03003
G1 X6.474 Y-20.290 E0.02849
G1 X6.524 Y-20.675 E0.02994
G1 X6.524 Y-21.325 E0.05008
G1 X6.474 Y-21.710 E0.02994
G1 X6.392 Y-22.071 E0.02849
G1 X6.278 Y-22.421 E0.02842
G1 X6.124 Y-22.780 E0.03006
G1 X5.779 Y-23.356 E0.05177
G1 X5.535 Y-23.661 E0.03009
G1 X5.279 Y-23.927 E0.02849
G1 X4.985 Y-24.181 E0.02990
G1 X4.443 Y-24.539 E0.05008
G1 X4.176 Y-24.669 E0.02283
G1 X4.244 Y-24.964 E0.02340
G1 X18.964 Y-24.964 E1.13440
G1 X18.964 Y24.964 E3.84778
G1 X4.232 Y24.964 E1.13534
G1 X4.160 Y24.676 E0.02290
G1 X4.704 Y24.383 E0.04766
G1 X5.036 Y24.142 E0.03165
G1 X5.522 Y23.677 E0.05180
G1 X5.766 Y23.373 E0.03005
G1 X5.980 Y23.047 E0.03005
G1 X6.272 Y22.441 E0.05180
G1 X6.392 Y22.071 E0.03003
G1 X6.474 Y21.710 E0.02849
G1 X6.524 Y21.325 E0.02994
G1 X6.524 Y20.675 E0.05008
G1 X6.474 Y20.290 E0.02994
G1 X6.392 Y19.929 E0.02849
G1 X6.278 Y19.579 E0.02842
G1 X6.124 Y19.220 E0.03006
G1 X5.779 Y18.644 E0.05177
G1 X5.535 Y18.339 E0.03009
G1 X5.281 Y18.075 E0.02827
G1 X5.002 Y17.831 E0.02850
G1 X4.444 Y17.461 E0.05165
G1 X4.093 Y17.291 E0.03004
G1 X3.728 Y17.153 E0.03009
G1 X3.073 Y17.003 E0.05177
G1 X2.684 Y16.968 E0.03006
G1 X2.295 Y16.968 E0.03003
G1 X1.629 Y17.058 E0.05180
G1 X1.253 Y17.161 E0.03005
G1 X0.888 Y17.298 E0.03005
G1 X0.296 Y17.617 E0.05180
G1 X-0.036 Y17.858 E0.03165
G1 X-0.522 Y18.323 E0.05180
G1 X-0.766 Y18.627 E0.03005
G1 X-0.980 Y18.953 E0.03005
G1 X-1.272 Y19.559 E0.05180
G1 X-1.392 Y19.929 E0.03003
G1 X-1.474 Y20.290 E0.02849
G1 X-1.524 Y20.675 E0.02994
G1 X-1.524 Y21.325 E0.05008
G1 X-1.474 Y21.710 E0.02994
G1 X-1.392 Y22.071 E0.02849
G1 X-1.278 Y22.421 E0.02842
G1 X-1.124 Y22.780 E0.03006
G1 X-0.779 Y23.356 E0.05177
G1 X-0.535 Y23.661 E0.03009
G1 X-0.281 Y23.925 E0.02827
G1 X-0.002 Y24.169 E0.02850
G1 X0.556 Y24.539 E0.05165
G1 X0.824 Y24.669 E0.02289
G1 X0.756 Y24.964 E0.02340
G1 X-18.964 Y24.964 E1.51973
G1 X-18.964 Y9.526 E1.18974
G1 X-19.600 Y9.526 F15000.000
G1 X-19.600 Y-25.600 E2.70703 F720.000
G1 X19.600 Y-25.600 E3.02097
G1 X19.600 Y25.600 E3.94575
G1 X-19.600 Y25.600 E3.02097 F720.000
G1 X-19.600 Y9.586 E1.23410
G1 X-19.254 Y9.326 F15000.000
G1 X-11.223 Y24.205 F15000.000
G1 X-10.435 Y24.249 E0.12771 F960.000
G1 X-9.754 Y24.202 E0.11064
G1 X1.100 Y24.887 F15000.000
G1 X1.950 Y24.982 E0.13855 F960.000
G1 X2.684 Y24.998 E0.11890
G1 X3.352 Y24.955 E0.10835
G1 X3.884 Y24.884 E0.08701
G1 E-3.20000 F3000.00000
G1 Z0.700 F15000.000
G1 X3.900 Y-24.887 F15000.000
G1 Z0.300 F15000.000
G1 E3.20000 F3000.00000
G1 X3.050 Y-24.982 E0.13855 F960.000
G1 X2.316 Y-24.998 E0.11890
G1 X1.648 Y-24.955 E0.10835
G1 X1.116 Y-24.884 E0.08701
G1 X-0.372 Y-24.277 F15000.000
G1 X-0.674 Y-24.579 E0.03305 F960.000
G1 X-1.576 Y-24.579 E0.06976
G1 X-0.825 Y-23.828 E0.08213
G1 X-1.208 Y-23.308 E0.04990
G1 X-2.478 Y-24.579 E0.13898
G1 X-3.380 Y-24.579 E0.06976
G1 X-1.517 Y-22.716 E0.20377
G1 X-1.763 Y-22.059 E0.05421
G1 X-4.282 Y-24.579 E0.27558
G1 X-5.185 Y-24.579 E0.06976
G1 X-1.900 Y-21.295 E0.35921
G1 X-1.894 Y-20.386 E0.07027
G1 X-6.087 Y-24.579 E0.45859
G1 X-6.989 Y-24.579 E0.06976
G1 X-1.601 Y-19.191 E0.58924
G1 X0.689 Y-16.901 F15000.000
G1 X3.254 Y-14.336 E0.28057 F960.000
G1 X3.766 Y-14.726 E0.04978
G1 X1.885 Y-16.607 E0.20576
G1 X2.788 Y-16.607 E0.06980
G1 X4.383 Y-15.011 E0.17453
G1 X5.101 Y-15.196 E0.05729
G1 X3.556 Y-16.741 E0.16897
G1 X4.224 Y-16.975 E0.05473
G1 X5.984 Y-15.215 E0.19248
G1 X7.247 Y-14.854 E0.10158
G1 X4.810 Y-17.291 E0.26647
G1 X5.325 Y-17.678 E0.04982
G1 X18.579 Y-4.424 E1.44963
G1 X18.579 Y-5.326 E0.06976
G1 X5.784 Y-18.121 E1.39938
G1 X6.171 Y-18.636 E0.04983
G1 X18.579 Y-6.228 E1.35709
G1 X18.579 Y-7.130 E0.06976
G1 X6.487 Y-19.222 E1.32249
G1 X6.741 Y-19.870 E0.05383
G1 X18.579 Y-8.032 E1.29471
G1 X18.579 Y-8.934 E0.06976
G1 X6.889 Y-20.624 E1.27850
G1 X6.908 Y-21.508 E0.06838
G1 X18.579 Y-9.836 E1.27651
G1 X18.579 Y-10.738 E0.06976
G1 X6.656 Y-22.661 E1.30399
G1 X5.640 Y-24.579 F15000.000
G1 X18.579 Y-11.640 E1.41511 F960.000
G1 X18.579 Y-12.542 E0.06976
G1 X6.542 Y-24.579 E1.31645
G1 X7.444 Y-24.579 E0.06976
G1 X18.579 Y-13.444 E1.21779
G1 X18.579 Y-14.347 E0.06976
G1 X8.347 Y-24.579 E1.11913
G1 X9.249 Y-24.579 E0.06976
G1 X18.579 Y-15.249 E1.02047
G1 X18.579 Y-16.151 E0.06976
G1 X10.151 Y-24.579 E0.92181
G1 X11.053 Y-24.579 E0.06976
G1 X18.579 Y-17.053 E0.82315
G1 X18.579 Y-17.955 E0.06976
G1 X11.955 Y-24.579 E0.72449
G1 X12.857 Y-24.579 E0.06976
G1 X18.579 Y-18.857 E0.62583
G1 X18.579 Y-19.759 E0.06976
G1 X13.759 Y-24.579 E0.52717
G1 X14.661 Y-24.579 E0.06976
G1 X18.579 Y-20.661 E0.42851
G1 X18.579 Y-21.563 E0.06976
G1 X15.563 Y-24.579 E0.32985
G1 X16.465 Y-24.579 E0.06976
G1 X18.579 Y-22.465 E0.23119
G1 X18.579 Y-23.367 E0.06976
G1 X17.367 Y-24.579 E0.13253
G1 X18.269 Y-24.579 E0.06976
G1 X18.579 Y-24.269 E0.03387
G1 X18.579 Y-3.522 F15000.000
G1 X8.513 Y-13.587 E1.10087 F960.000
G1 X8.876 Y-12.323 E0.10170
G1 X18.579 Y-2.620 E1.06127
G1 X18.579 Y-1.718 E0.06976
G1 X8.856 Y-11.440 E1.06341
G1 X8.671 Y-10.724 E0.05726
G1 X18.579 Y-0.815 E1.08366
G1 X18.579 Y0.087 E0.06976
G1 X8.385 Y-10.107 E1.11488
G1 X7.997 Y-9.594 E0.04980
G1 X18.579 Y0.989 E1.15741
G1 X18.579 Y1.891 E0.06976
G1 X7.521 Y-9.167 E1.20939
G1 X6.979 Y-8.807 E0.05034
G1 X18.579 Y2.793 E1.26873
G1 X17.452 Y2.568 F15000.000
G1 X6.342 Y-8.542 E1.21516 F960.000
G1 X5.559 Y-8.423 E0.06128
G1 X16.104 Y2.122 E1.15334
G1 E-3.20000 F3000.00000
G1 Z0.700 F15000.000
G1 X12.147 Y6.283 F15000.000
G1 Z0.300 F15000.000
G1 E3.20000 F3000.00000
G1 X-18.579 Y-24.442 E3.36051 F960.000
G1 X-17.813 Y-24.579 E0.06014
G1 X12.095 Y5.329 E3.27109
G1 X12.235 Y4.567 E0.05992
G1 X-16.911 Y-24.579 E3.18775
G1 X-16.009 Y-24.579 E0.06976
G1 X12.497 Y3.927 E3.11775
G1 X12.873 Y3.401 E0.05001
G1 X-15.107 Y-24.579 E3.06021
G1 X-14.205 Y-24.579 E0.06976
G1 X13.313 Y2.940 E3.00975
G1 X13.825 Y2.550 E0.04978
G1 X-13.303 Y-24.579 E2.96709
G1 X-12.401 Y-24.579 E0.06976
G1 X14.457 Y2.279 E2.93751
G1 X15.193 Y2.113 E0.05832
G1 X4.583 Y-8.497 E1.16039
G1 X2.164 Y-10.916 F15000.000
G1 X-11.499 Y-24.579 E1.49428 F960.000
G1 X-10.597 Y-24.579 E0.06976
G1 X2.083 Y-11.899 E1.38678
G1 X2.205 Y-12.680 E0.06107
G1 X-9.695 Y-24.579 E1.30145
G1 X-8.793 Y-24.579 E0.06976
G1 X2.467 Y-13.320 E1.23146
G1 X2.828 Y-13.860 E0.05030
G1 X-7.891 Y-24.579 E1.17231
G1 X-18.579 Y-23.540 F15000.000
