; generated by Slic3r 1.2.9 on 2017-03-08 at 15:17:58

; external perimeters extrusion width = 0.40mm
; perimeters extrusion width = 0.40mm
; infill extrusion width = 0.40mm
; solid infill extrusion width = 0.40mm
; top infill extrusion width = 0.40mm

M107
M83
T0
M116
G21 ; set units to millimeters
G90 ; use absolute coordinates
M83 ; use relative distances for extrusion
G1 E-3.20000 F3000.00000
G1 Z0.400 F15000.000
G1 X2.175 Y-9.093 F15000.000
G1 Z0.300 F15000.000
G1 E3.20000 F3000.00000
G1 X22.325 Y-4.266 E1.59684 F960.000
G1 X23.221 Y-3.968 E0.07271
G1 X23.613 Y-3.806 E0.03273
G1 X24.229 Y-3.508 E0.05273
G1 X25.040 Y-3.026 E0.07271
G1 X25.389 Y-2.784 E0.03273
G1 X25.928 Y-2.362 E0.05272
G1 X26.618 Y-1.719 E0.07271
G1 X27.057 Y-1.236 E0.05033
G1 X27.337 Y-0.890 E0.03424
G1 X27.742 Y-0.325 E0.05360
G1 X28.208 Y0.459 E0.07032
G1 X28.521 Y1.102 E0.05512
G1 X28.684 Y1.495 E0.03273
G1 X28.909 Y2.141 E0.05272
G1 X29.087 Y2.802 E0.05273
G1 X29.254 Y3.730 E0.07271
G1 X29.318 Y4.411 E0.05273
G1 X29.333 Y4.837 E0.03280
G1 X29.336 Y7.964 E0.24103
G1 X29.317 Y8.433 E0.03616
G1 X29.240 Y9.074 E0.04978
G1 X29.100 Y9.705 E0.04979
G1 X28.996 Y10.047 E0.02750
G1 X28.898 Y10.319 E0.02231
G1 X28.638 Y10.910 E0.04978
G1 X28.470 Y11.225 E0.02750
G1 X28.123 Y11.770 E0.04979
G1 X27.724 Y12.278 E0.04979
G1 X27.277 Y12.745 E0.04979
G1 X26.787 Y13.166 E0.04979
G1 X26.258 Y13.537 E0.04979
G1 X25.695 Y13.854 E0.04979
G1 X25.104 Y14.114 E0.04979
G1 X24.490 Y14.315 E0.04979
G1 X24.209 Y14.385 E0.02231
G1 X23.573 Y14.497 E0.04979
G1 X22.746 Y14.551 E0.06382
G1 X11.322 Y14.543 E0.88038
G1 X10.744 Y14.496 E0.04470
G1 X-26.281 Y8.504 E2.89047
G1 X-27.844 Y7.852 E0.13052
G1 X-28.941 Y6.562 E0.13052
G1 X-29.336 Y4.915 E0.13048
G1 X-29.336 Y-0.985 E0.45469
G1 X-28.879 Y-2.748 E0.14039
G1 X-25.629 Y-8.607 E0.51633
G1 X-24.485 Y-9.856 E0.13052
G1 X-22.450 Y-10.479 E0.16404
G1 X-4.050 Y-10.479 E1.41801
G1 X-3.204 Y-10.379 E0.06563
G1 X2.116 Y-9.107 E0.42161 F960.000
G1 E-3.20000 F3000.00000
G1 Z0.700 F15000.000
G1 X19.978 Y5.307 F15000.000
G1 Z0.300 F15000.000
G1 E3.20000 F3000.00000
G1 X20.192 Y5.094 E0.02327 F600.000
G1 X20.429 Y4.907 E0.02327
G1 X20.688 Y4.751 E0.02327
G1 X20.963 Y4.627 E0.02327
G1 X21.252 Y4.537 E0.02327
G1 X21.549 Y4.483 E0.02327
G1 X21.833 Y4.466 E0.02197 F600.000
G1 X22.150 Y4.483 E0.02447
G1 X22.448 Y4.537 E0.02337
G1 X22.737 Y4.627 E0.02327
G1 X23.012 Y4.751 E0.02327
G1 X23.271 Y4.907 E0.02327
G1 X23.508 Y5.094 E0.02327
G1 X23.722 Y5.307 E0.02327
G1 X23.909 Y5.546 E0.02337
G1 X24.071 Y5.819 E0.02447
G1 X24.188 Y6.079 E0.02197
G1 X24.278 Y6.367 E0.02327
G1 X24.332 Y6.664 E0.02327
G1 X24.351 Y6.967 E0.02337
G1 X24.329 Y7.283 E0.02447
G1 X24.278 Y7.564 E0.02197
G1 X24.188 Y7.852 E0.02327
G1 X24.064 Y8.128 E0.02327
G1 X23.907 Y8.387 E0.02337
G1 X23.710 Y8.636 E0.02447
G1 X23.508 Y8.837 E0.02197
G1 X23.271 Y9.023 E0.02327
G1 X23.012 Y9.180 E0.02327
G1 X22.737 Y9.304 E0.02327
G1 X22.448 Y9.393 E0.02327
G1 X22.151 Y9.448 E0.02327
G1 X21.850 Y9.466 E0.02327
G1 X21.549 Y9.448 E0.02327
G1 X21.252 Y9.393 E0.02327
G1 X20.963 Y9.304 E0.02327
G1 X20.688 Y9.180 E0.02327
G1 X20.429 Y9.023 E0.02327
G1 X20.192 Y8.837 E0.02327
G1 X19.978 Y8.624 E0.02327
G1 X19.792 Y8.386 E0.02327
G1 X19.636 Y8.128 E0.02327
G1 X19.512 Y7.852 E0.02327
G1 X19.422 Y7.564 E0.02327
G1 X19.371 Y7.283 E0.02197
G1 X19.349 Y6.965 E0.02457
G1 X19.371 Y6.647 E0.02457
G1 X19.422 Y6.367 E0.02197
G1 X19.512 Y6.079 E0.02327
G1 X19.636 Y5.803 E0.02327
G1 X19.792 Y5.545 E0.02327
G1 X19.941 Y5.354 E0.01865
G1 X19.888 Y5.019 F15000.000
G1 X15.293 Y2.979 F15000.000
G1 X14.983 Y3.405 E0.04063 F600.000
G1 X14.577 Y3.741 E0.04063
G1 X14.100 Y3.966 E0.04063
G1 X13.577 Y4.065 E0.04106
G1 X13.577 Y4.200 E0.01040
G1 X12.555 Y3.868 E0.08281
G1 X12.109 Y3.586 E0.04063
G1 X11.748 Y3.202 E0.04063
G1 X11.509 Y2.766 E0.03830
G1 X11.363 Y2.232 E0.04269
G1 X11.363 Y1.702 E0.04083
G1 X11.495 Y1.191 E0.04063
G1 X11.748 Y0.729 E0.04063
G1 X12.109 Y0.345 E0.04063
G1 X12.557 Y0.061 E0.04083
G1 X13.086 Y-0.102 E0.04270
G1 X13.582 Y-0.134 E0.03830 F600.000
G1 X14.100 Y-0.035 E0.04063
G1 X14.577 Y0.190 E0.04063
G1 X14.983 Y0.526 E0.04063
G1 X15.293 Y0.952 E0.04063
G1 X15.487 Y1.442 E0.04063
G1 X15.553 Y1.965 E0.04063
G1 X15.487 Y2.488 E0.04063
G1 X15.315 Y2.923 E0.03600
G1 X15.486 Y3.329 F15000.000
G1 E-3.20000 F3000.00000
G1 Z0.700 F15000.000
G1 X-5.036 Y-5.858 F15000.000
G1 Z0.300 F15000.000
G1 E3.20000 F3000.00000
G1 X-5.036 Y0.001 E0.45152 F720.000
G1 X11.560 Y0.001 E1.27898 F720.000
G1 X11.230 Y0.353 E0.03717
G1 X10.899 Y0.955 E0.05301
G1 X10.728 Y1.622 E0.05301
G1 X10.728 Y2.317 E0.05357
G1 X10.916 Y3.006 E0.05507
G1 X11.230 Y3.578 E0.05031
G1 X11.701 Y4.080 E0.05301
G1 X12.282 Y4.448 E0.05300
G1 X14.212 Y5.075 E0.15642
G1 X14.212 Y4.615 E0.03545
G1 X14.920 Y4.282 E0.06031
G1 X15.450 Y3.844 E0.05301
G1 X15.854 Y3.287 E0.05300
G1 X16.108 Y2.648 E0.05300
G1 X16.194 Y1.965 E0.05300
G1 X16.108 Y1.283 E0.05301
G1 X15.854 Y0.644 E0.05300
G1 X15.388 Y0.001 E0.06121
G1 X19.732 Y0.001 E0.33476
G1 X20.104 Y0.014 E0.02873
G1 X20.456 Y0.052 E0.02731
G1 X20.805 Y0.115 E0.02731
G1 X21.148 Y0.203 E0.02731
G1 X21.485 Y0.315 E0.02731
G1 X21.812 Y0.450 E0.02731
G1 X22.129 Y0.609 E0.02731
G1 X22.434 Y0.790 E0.02731
G1 X22.725 Y0.992 E0.02731
G1 X23.001 Y1.214 E0.02731
G1 X23.489 Y1.702 E0.05319
G1 X23.725 Y1.992 E0.02882
G1 X23.926 Y2.282 E0.02719
G1 X24.266 Y2.905 E0.05470
G1 X24.401 Y3.231 E0.02719
G1 X24.513 Y3.567 E0.02731
G1 X24.600 Y3.910 E0.02731
G1 X24.663 Y4.259 E0.02731
G1 X24.701 Y4.611 E0.02731
G1 X24.714 Y5.127 E0.03973
G1 X24.457 Y5.215 E0.02095
G1 X24.198 Y4.885 E0.03236
G1 X23.931 Y4.617 E0.02920
G1 X23.632 Y4.383 E0.02920
G1 X23.308 Y4.187 E0.02920
G1 X22.963 Y4.032 E0.02920
G1 X22.601 Y3.919 E0.02920
G1 X22.225 Y3.850 E0.02946
G1 X21.831 Y3.829 E0.03040
G1 X21.472 Y3.851 E0.02773
G1 X21.099 Y3.919 E0.02920
G1 X20.737 Y4.032 E0.02920
G1 X20.392 Y4.187 E0.02920
G1 X20.068 Y4.383 E0.02920
G1 X19.769 Y4.617 E0.02920
G1 X19.502 Y4.885 E0.02920
G1 X19.268 Y5.183 E0.02920
G1 X19.072 Y5.507 E0.02920
G1 X18.916 Y5.853 E0.02920
G1 X18.804 Y6.215 E0.02920
G1 X18.739 Y6.568 E0.02773
G1 X18.712 Y6.965 E0.03066
G1 X18.739 Y7.362 E0.03066
G1 X18.804 Y7.716 E0.02773
G1 X18.916 Y8.078 E0.02920
G1 X19.072 Y8.423 E0.02920
G1 X19.268 Y8.748 E0.02920
G1 X19.502 Y9.046 E0.02920
G1 X19.769 Y9.314 E0.02920
G1 X20.068 Y9.548 E0.02920
G1 X20.235 Y9.649 E0.01510
G1 X20.157 Y9.928 E0.02233
G1 X11.455 Y9.922 E0.67064
G1 X1.596 Y5.837 E0.82240
G1 X-0.321 Y3.930 E0.20842
G1 X-12.241 Y3.930 E0.91862
G1 X-8.944 Y0.001 E0.39524
G1 X-5.714 Y0.001 E0.24892
G1 X-5.714 Y-5.858 E0.45152
G1 X-5.096 Y-5.858 E0.04769
G1 X-5.096 Y-6.494 F15000.000
G1 X-4.400 Y-6.494 E0.05361 F720.000
G1 X-4.400 Y-0.635 E0.45152
G1 X19.743 Y-0.635 E1.86058 F720.000
G1 X20.149 Y-0.620 E0.03136
G1 X20.547 Y-0.577 E0.03081
G1 X20.940 Y-0.506 E0.03081
G1 X21.328 Y-0.408 E0.03081
G1 X21.707 Y-0.281 E0.03081
G1 X22.076 Y-0.128 E0.03081
G1 X22.434 Y0.051 E0.03081
G1 X22.777 Y0.255 E0.03081
G1 X23.106 Y0.483 E0.03081
G1 X23.417 Y0.733 E0.03081
G1 X23.710 Y1.006 E0.03081
G1 X23.969 Y1.284 E0.02934
G1 X24.233 Y1.610 E0.03231
G1 X24.461 Y1.938 E0.03076
G1 X24.655 Y2.265 E0.02934
G1 X24.844 Y2.640 E0.03231
G1 X24.997 Y3.008 E0.03076
G1 X25.123 Y3.388 E0.03081
G1 X25.222 Y3.775 E0.03081
G1 X25.293 Y4.168 E0.03081
G1 X25.335 Y4.566 E0.03081
G1 X25.350 Y4.973 E0.03136
G1 X25.350 Y7.956 E0.22989
G1 X25.337 Y8.220 E0.02042
G1 X25.300 Y8.473 E0.01966
G1 X25.238 Y8.720 E0.01966
G1 X25.152 Y8.960 E0.01966
G1 X25.043 Y9.191 E0.01966
G1 X24.911 Y9.410 E0.01966
G1 X24.759 Y9.615 E0.01966
G1 X24.588 Y9.804 E0.01966
G1 X24.399 Y9.975 E0.01966
G1 X24.194 Y10.127 E0.01966
G1 X23.975 Y10.258 E0.01966
G1 X23.745 Y10.367 E0.01966
G1 X23.505 Y10.453 E0.01966
G1 X23.257 Y10.515 E0.01966
G1 X23.005 Y10.552 E0.01966
G1 X22.740 Y10.565 E0.02041
G1 X11.371 Y10.557 E0.87617
G1 X11.197 Y10.510 E0.01392
G1 X1.276 Y6.392 E0.82784
G1 X1.132 Y6.282 E0.01393
G1 X-0.584 Y4.565 E0.18708
G1 X-13.604 Y4.565 E1.00338
G1 X-9.241 Y-0.635 E0.52313
G1 X-6.350 Y-0.635 E0.22278
G1 X-6.350 Y-6.494 E0.45152
G1 X-5.156 Y-6.494 E0.09205
G1 X-4.896 Y-6.147 F15000.000
G1 E-3.20000 F3000.00000
G1 Z0.700 F15000.000
G1 X-10.928 Y3.544 F15000.000
G1 Z0.300 F15000.000
G1 E3.20000 F3000.00000
G1 X-11.231 Y3.241 E0.03353 F960.000
G1 X-10.816 Y2.746 E0.05041
G1 X-10.017 Y3.544 E0.08814
G1 X-9.107 Y3.544 E0.07102
G1 X-10.401 Y2.251 E0.14275
G1 X-9.986 Y1.756 E0.05041
G1 X-8.197 Y3.544 E0.19736
G1 X-7.287 Y3.544 E0.07102
G1 X-9.570 Y1.261 E0.25197
G1 X-9.155 Y0.766 E0.05041
G1 X-6.377 Y3.544 E0.30658
G1 X-5.467 Y3.544 E0.07102
G1 X-8.625 Y0.386 E0.34847
G1 X-7.715 Y0.386 E0.07102
G1 X-4.557 Y3.544 E0.34847
G1 X-3.647 Y3.544 E0.07102
G1 X-6.804 Y0.386 E0.34847
G1 X-5.894 Y0.386 E0.07102
G1 X-2.736 Y3.544 E0.34847
G1 X-1.826 Y3.544 E0.07102
G1 X-4.984 Y0.386 E0.34847
G1 X-4.074 Y0.386 E0.07102
G1 X-0.916 Y3.544 E0.34847
G1 X-0.006 Y3.544 E0.07102
G1 X-3.164 Y0.386 E0.34847
G1 X-2.254 Y0.386 E0.07102
G1 X3.502 Y6.142 E0.63517
G1 X5.056 Y6.786 F15000.000
G1 X-1.344 Y0.386 E0.70621 F960.000
G1 X-0.433 Y0.386 E0.07102
G1 X6.610 Y7.430 E0.77726
G1 X8.164 Y8.074 F15000.000
G1 X0.477 Y0.386 E0.84830 F960.000
G1 X1.387 Y0.386 E0.07102
G1 X9.718 Y8.718 E0.91935
G1 X11.272 Y9.362 F15000.000
G1 X2.297 Y0.386 E0.99040 F960.000
G1 X3.207 Y0.386 E0.07102
G1 X12.357 Y9.537 E1.00973
G1 X13.268 Y9.537 E0.07107
G1 X4.117 Y0.386 E1.00980
G1 X5.027 Y0.386 E0.07102
G1 X14.179 Y9.538 E1.00988
G1 X15.090 Y9.539 E0.07107
G1 X5.937 Y0.386 E1.00995
G1 X10.453 Y1.261 F15000.000
G1 X9.578 Y0.386 E0.09652 F960.000
G1 X8.668 Y0.386 E0.07102
G1 X10.342 Y2.061 E0.18478
G1 X10.511 Y3.140 E0.08519
G1 X7.758 Y0.386 E0.30381
G1 X6.848 Y0.386 E0.07102
G1 X16.001 Y9.539 E1.01002
G1 X16.911 Y9.540 E0.07107
G1 X12.272 Y4.901 E0.51191
G1 X13.621 Y5.339 E0.11061
G1 X17.822 Y9.541 E0.46364
G1 X18.733 Y9.541 E0.07107
G1 X14.598 Y5.406 E0.45633
G1 X14.812 Y4.710 E0.05682
G1 X18.617 Y8.515 E0.41989
G1 X18.341 Y7.329 E0.09501
G1 X15.359 Y4.348 E0.32900
G1 X15.821 Y3.899 E0.05022
G1 X18.388 Y6.466 E0.28333
G1 X18.586 Y5.754 E0.05769
G1 X16.196 Y3.363 E0.26377
G1 X16.454 Y2.712 E0.05472
G1 X18.895 Y5.153 E0.26936
G1 X19.286 Y4.634 E0.05070
G1 X16.572 Y1.920 E0.29951
G1 X16.415 Y0.853 E0.08413
G1 X19.764 Y4.201 E0.36946
G1 X20.318 Y3.845 E0.05140
G1 X16.859 Y0.386 E0.38170
G1 X17.769 Y0.386 E0.07102
G1 X20.973 Y3.590 E0.35354
G1 X21.749 Y3.456 E0.06143
G1 X18.679 Y0.386 E0.33870
G1 X19.590 Y0.387 E0.07102
G1 X22.726 Y3.523 E0.34614
G1 X23.358 Y2.335 F15000.000
G1 X22.376 Y1.353 E0.10837 F960.000
G1 X20.617 Y0.504 F15000.000
G1 X24.212 Y4.099 E0.39672 F960.000
G1 X24.667 Y5.479 F15000.000
G1 X24.808 Y6.250 E0.06041 F960.000
G1 X24.851 Y6.957 E0.05454
G1 X24.839 Y7.313 E0.02751
G1 X24.841 Y7.314 F15000.000
G1 X24.805 Y7.708 E0.06410 F960.000
G1 X24.743 Y8.081 E0.06123
G1 X24.647 Y8.411 E0.05567
G1 X24.519 Y8.698 E0.05093
G1 X24.425 Y8.861 E0.03041
G1 X24.203 Y9.158 E0.06006
G1 X23.940 Y9.416 E0.05963
G1 X23.640 Y9.630 E0.05978
G1 X23.310 Y9.796 E0.05970
G1 X22.985 Y9.901 E0.05546
G1 X22.608 Y9.969 E0.06204
G1 X22.234 Y10.004 E0.06080
G1 X21.466 Y10.003 E0.12427
G1 X21.093 Y9.968 E0.06079
G1 X20.501 Y9.878 E0.09685
G1 E-3.20000 F3000.00000
G1 Z0.700 F15000.000
G1 X-15.164 Y0.001 F15000.000
G1 Z0.300 F15000.000
G1 E3.20000 F3000.00000
G1 X-14.259 Y0.001 E0.06972 F600.000
G1 X-17.556 Y3.930 E0.39524
G1 X-24.714 Y3.930 E0.55169
G1 X-24.714 Y0.001 E0.30277
G1 X-21.464 Y0.001 E0.25046
G1 X-21.464 Y-5.858 E0.45152
G1 X-20.786 Y-5.858 E0.05231
G1 X-20.786 Y0.001 E0.45152
G1 X-15.224 Y0.001 E0.42864 F600.000
G1 X-15.224 Y-0.635 F15000.000
G1 X-12.896 Y-0.635 E0.17939 F720.000
G1 X-17.259 Y4.565 E0.52313
G1 X-25.350 Y4.565 E0.62352
G1 X-25.350 Y-0.635 E0.40074
G1 X-22.100 Y-0.635 E0.25046
G1 X-22.100 Y-6.494 E0.45152
G1 X-20.150 Y-6.494 E0.15028
G1 X-20.150 Y-0.635 E0.45152
G1 X-15.284 Y-0.635 E0.37503 F720.000
G1 X-15.024 Y-0.288 F15000.000
G1 X-15.269 Y0.690 F15000.000
G1 X-15.572 Y0.386 E0.03563 F960.000
G1 X-15.710 Y1.216 E0.06973
G1 X-16.539 Y0.386 E0.09728
G1 X-17.507 Y0.386 E0.08018
G1 X-16.151 Y1.742 E0.15894
G1 X-16.592 Y2.268 E0.05691
G1 X-18.474 Y0.386 E0.22059
G1 X-19.441 Y0.386 E0.08018
G1 X-17.033 Y2.794 E0.28225
G1 X-17.475 Y3.319 E0.05691
G1 X-20.408 Y0.386 E0.34391
G1 X-21.375 Y0.386 E0.08018
G1 X-18.217 Y3.544 E0.37027
G1 X-19.184 Y3.544 E0.08018
G1 X-22.342 Y0.386 E0.37027
G1 X-23.309 Y0.386 E0.08018
G1 X-20.151 Y3.544 E0.37027
G1 X-21.118 Y3.544 E0.08018
G1 X-24.276 Y0.386 E0.37027
G1 X-24.329 Y1.301 E0.07592
G1 X-22.085 Y3.544 E0.26309
G1 X-23.052 Y3.544 E0.08018
G1 X-24.329 Y2.268 E0.14970
G1 X-24.329 Y3.235 E0.08018
G1 X-24.019 Y3.544 E0.03631
G1 E-3.20000 F3000.00000
G1 Z0.700 F15000.000
G1 X11.513 Y2.210 F15000.000
G1 Z0.500 F15000.000
G1 E3.20000 F3000.00000
G1 X11.513 Y1.721 E0.01412 F2400.000
G1 X11.635 Y1.247 E0.01412
G1 X11.871 Y0.818 E0.01412
G1 X12.206 Y0.461 E0.01412
G1 X12.619 Y0.199 E0.01412
G1 X13.084 Y0.048 E0.01412
G1 X13.172 Y0.042 E0.00255
G1 X13.573 Y0.017 E0.01157 F2400.000
G1 X14.053 Y0.109 E0.01412
G1 X14.496 Y0.317 E0.01412
G1 X14.873 Y0.629 E0.01412
G1 X15.161 Y1.025 E0.01412
G1 X15.341 Y1.480 E0.01412
G1 X15.402 Y1.965 E0.01412
G1 X15.341 Y2.451 E0.01412
G1 X15.161 Y2.906 E0.01412
G1 X14.873 Y3.302 E0.01412
G1 X14.496 Y3.614 E0.01412
G1 X14.053 Y3.822 E0.01412
G1 X13.573 Y3.914 E0.01412
G1 X13.084 Y3.883 E0.01412
G1 X12.619 Y3.732 E0.01412
G1 X12.206 Y3.469 E0.01412
G1 X11.871 Y3.113 E0.01412
G1 X11.635 Y2.684 E0.01412
G1 X11.528 Y2.268 E0.01239
G1 X11.151 Y2.040 F15000.000
G1 E-3.20000 F3000.00000
G1 Z0.900 F15000.000
G1 X19.352 Y5.931 F15000.000
G1 Z0.500 F15000.000
G1 E3.20000 F3000.00000
G1 X19.473 Y5.672 E0.00827 F2400.000
G1 X19.621 Y5.427 E0.00825
G1 X19.823 Y5.170 E0.00944
G1 X20.054 Y4.938 E0.00944
G1 X20.312 Y4.737 E0.00944
G1 X20.591 Y4.567 E0.00944
G1 X20.890 Y4.433 E0.00944
G1 X21.202 Y4.336 E0.00944
G1 X21.524 Y4.277 E0.00944
G1 X21.809 Y4.260 E0.00825 F2400.000
G1 X22.172 Y4.276 E0.01050
G1 X22.498 Y4.336 E0.00956
G1 X22.810 Y4.433 E0.00944
G1 X23.109 Y4.567 E0.00944
G1 X23.388 Y4.737 E0.00944
G1 X23.646 Y4.938 E0.00944
G1 X23.877 Y5.170 E0.00944
G1 X24.079 Y5.427 E0.00944
G1 X24.248 Y5.707 E0.00944
G1 X24.382 Y6.005 E0.00944
G1 X24.479 Y6.317 E0.00944
G1 X24.538 Y6.639 E0.00944
G1 X24.558 Y6.965 E0.00944
G1 X24.538 Y7.292 E0.00944
G1 X24.479 Y7.614 E0.00944
G1 X24.382 Y7.926 E0.00944
G1 X24.248 Y8.224 E0.00944
G1 X24.077 Y8.507 E0.00956
G1 X23.848 Y8.790 E0.01050
G1 X23.646 Y8.992 E0.00825
G1 X23.388 Y9.194 E0.00944
G1 X23.109 Y9.363 E0.00944
G1 X22.810 Y9.498 E0.00944
G1 X22.498 Y9.595 E0.00944
G1 X22.176 Y9.654 E0.00944
G1 X21.850 Y9.674 E0.00944
G1 X21.524 Y9.654 E0.00944
G1 X21.202 Y9.595 E0.00944
G1 X20.890 Y9.498 E0.00944
G1 X20.591 Y9.363 E0.00944
G1 X20.312 Y9.194 E0.00944
G1 X20.054 Y8.993 E0.00944
G1 X19.823 Y8.761 E0.00944
G1 X19.621 Y8.504 E0.00944
G1 X19.452 Y8.224 E0.00944
G1 X19.318 Y7.926 E0.00944
G1 X19.221 Y7.614 E0.00944
G1 X19.162 Y7.292 E0.00944
G1 X19.142 Y6.965 E0.00944
G1 X19.162 Y6.639 E0.00944
G1 X19.221 Y6.317 E0.00944
G1 X19.326 Y5.985 E0.01005
G1 X19.653 Y6.130 F15000.000
G1 X19.789 Y5.840 E0.00925 F2400.000
G1 X19.916 Y5.630 E0.00709
G1 X20.091 Y5.407 E0.00819
G1 X20.291 Y5.206 E0.00819
G1 X20.515 Y5.031 E0.00819
G1 X20.758 Y4.884 E0.00819
G1 X21.017 Y4.768 E0.00819
G1 X21.288 Y4.683 E0.00819
G1 X21.567 Y4.632 E0.00819
G1 X21.812 Y4.617 E0.00709 F2400.000
G1 X22.132 Y4.632 E0.00925
G1 X22.412 Y4.683 E0.00824
G1 X22.683 Y4.768 E0.00819
G1 X22.942 Y4.884 E0.00819
G1 X23.185 Y5.031 E0.00819
G1 X23.409 Y5.206 E0.00819
G1 X23.609 Y5.407 E0.00819
G1 X23.784 Y5.630 E0.00819
G1 X23.931 Y5.873 E0.00819
G1 X24.048 Y6.132 E0.00819
G1 X24.132 Y6.403 E0.00819
G1 X24.183 Y6.682 E0.00819
G1 X24.200 Y6.965 E0.00819
G1 X24.183 Y7.249 E0.00819
G1 X24.132 Y7.528 E0.00819
G1 X24.048 Y7.799 E0.00819
G1 X23.931 Y8.058 E0.00819
G1 X23.784 Y8.302 E0.00824
G1 X23.582 Y8.551 E0.00925
G1 X23.409 Y8.725 E0.00709
G1 X23.185 Y8.900 E0.00819
G1 X22.942 Y9.047 E0.00819
G1 X22.683 Y9.163 E0.00819
