; generated by Slic3r 1.2.9 on 2017-03-01 at 14:04:20

; external perimeters extrusion width = 0.40mm
; perimeters extrusion width = 0.40mm
; infill extrusion width = 0.40mm
; solid infill extrusion width = 0.40mm
; top infill extrusion width = 0.40mm

M107
M83
T0
M116
G21 ; set units to millimeters
G90 ; use absolute coordinates
M83 ; use relative distances for extrusion
G1 E-3.20000 F3000.00000
G1 Z0.400 F15000.000
G1 X7.469 Y-10.616 F15000.000
G1 Z0.300 F15000.000
G1 E3.20000 F3000.00000
G1 X26.645 Y2.875 E1.80687 F960.000
G1 X27.765 Y4.146 E0.13052
G1 X28.188 Y5.849 E0.13524
G1 X28.188 Y12.469 E0.51024
G1 X27.794 Y14.116 E0.13052
G1 X26.696 Y15.406 E0.13052
G1 X24.553 Y16.105 E0.17373
G1 X-5.396 Y16.105 E2.30802
G1 X-6.786 Y16.046 E0.10718
G1 X-8.306 Y15.851 E0.11815
G1 X-9.788 Y15.520 E0.11698
G1 X-10.118 Y15.426 E0.02647
G1 X-11.220 Y15.054 E0.08958
G1 X-11.543 Y14.928 E0.02677
G1 X-12.594 Y14.457 E0.08874
G1 X-12.906 Y14.300 E0.02691
G1 X-13.901 Y13.733 E0.08827
G1 X-14.197 Y13.546 E0.02696
G1 X-15.133 Y12.888 E0.08818
G1 X-15.409 Y12.673 E0.02695
G1 X-16.280 Y11.925 E0.08846
G1 X-16.533 Y11.686 E0.02684
G1 X-17.334 Y10.852 E0.08911
G1 X-17.562 Y10.592 E0.02665
G1 X-18.288 Y9.676 E0.09015
G1 X-18.488 Y9.398 E0.02633
G1 X-19.286 Y8.148 E0.11433
G1 X-19.828 Y7.127 E0.08905
G1 X-20.318 Y6.022 E0.09316
G1 X-20.735 Y4.870 E0.09445
G1 X-21.137 Y3.390 E0.11815
G1 X-21.398 Y1.895 E0.11696
G1 X-21.437 Y1.553 E0.02651
G1 X-21.516 Y0.394 E0.08958
G1 X-21.523 Y0.047 E0.02673
G1 X-21.490 Y-1.104 E0.08875
G1 X-21.464 Y-1.453 E0.02691
G1 X-21.322 Y-2.589 E0.08827
G1 X-21.262 Y-2.934 E0.02697
G1 X-21.012 Y-4.050 E0.08818
G1 X-20.919 Y-4.388 E0.02698
G1 X-20.561 Y-5.479 E0.08846
G1 X-20.437 Y-5.804 E0.02680
G1 X-19.974 Y-6.863 E0.08911
G1 X-19.820 Y-7.173 E0.02666
G1 X-19.252 Y-8.195 E0.09015
G1 X-19.072 Y-8.486 E0.02635
G1 X-18.222 Y-9.702 E0.11431
G1 X-17.486 Y-10.593 E0.08906
G1 X-16.653 Y-11.468 E0.09316
G1 X-15.491 Y-12.509 E0.12018
G1 X-14.255 Y-13.425 E0.11860
G1 X-13.253 Y-14.046 E0.09081
G1 X-12.953 Y-14.213 E0.02650
G1 X-11.911 Y-14.729 E0.08958
G1 X-11.594 Y-14.868 E0.02673
G1 X-10.518 Y-15.279 E0.08874
G1 X-10.186 Y-15.387 E0.02692
G1 X-9.081 Y-15.691 E0.08827
G1 X-8.740 Y-15.768 E0.02696
G1 X-7.613 Y-15.964 E0.08818
G1 X-7.265 Y-16.007 E0.02697
G1 X-6.121 Y-16.094 E0.08846
G1 X-5.773 Y-16.104 E0.02681
G1 X-4.623 Y-16.082 E0.08863
G1 X-4.280 Y-16.058 E0.02653 F960.000
G1 X-3.112 Y-15.924 E0.09063
G1 X-2.773 Y-15.869 E0.02647
G1 X-1.610 Y-15.622 E0.09159
G1 X-0.219 Y-15.211 E0.11179
G1 X0.917 Y-14.771 E0.09391
G1 X2.092 Y-14.218 E0.10005
G1 X2.405 Y-14.051 E0.02733
G1 X3.494 Y-13.401 E0.09779
G1 X7.420 Y-10.651 E0.36939
G1 E-3.20000 F3000.00000
G1 Z0.700 F15000.000
G1 X-13.354 Y-8.223 F15000.000
G1 Z0.300 F15000.000
G1 E3.20000 F3000.00000
G1 X-12.665 Y-8.852 E0.07193 F720.000
G1 X-11.782 Y-9.521 E0.08538
G1 X-10.859 Y-10.093 E0.08366
G1 X-9.901 Y-10.567 E0.08236
G1 X-8.914 Y-10.944 E0.08146
G1 X-7.901 Y-11.223 E0.08096
G1 X-6.867 Y-11.403 E0.08086
G1 X-5.817 Y-11.483 E0.08116
G1 X-4.761 Y-11.462 E0.08139
G1 X-3.686 Y-11.338 E0.08344 F720.000
G1 X-2.608 Y-11.110 E0.08491
G1 X-1.810 Y-10.872 E0.06413
G1 X-1.017 Y-10.574 E0.06529
G1 X0.077 Y-10.058 E0.09323
G1 X1.083 Y-9.458 E0.09031
G1 X2.005 Y-8.775 E0.08844
G1 X2.841 Y-8.015 E0.08706
G1 X3.588 Y-7.183 E0.08616
G1 X4.243 Y-6.283 E0.08573
G1 X4.803 Y-5.322 E0.08578
G1 X5.266 Y-4.302 E0.08631
G1 X5.627 Y-3.228 E0.08731
G1 X5.881 Y-2.110 E0.08834
G1 X6.217 Y0.819 E0.22719
G1 X6.507 Y2.067 E0.09877
G1 X6.844 Y3.077 E0.08204
G1 X7.181 Y3.832 E0.06373
G1 X7.592 Y4.543 E0.06330
G1 X7.931 Y5.006 E0.04421
G1 X8.311 Y5.433 E0.04406
G1 X8.744 Y5.821 E0.04482
G1 X9.231 Y6.162 E0.04580
G1 X9.772 Y6.442 E0.04698
G1 X10.364 Y6.653 E0.04841
G1 X11.001 Y6.786 E0.05014
G1 X11.652 Y6.834 E0.05033
G1 X23.567 Y6.834 E0.91822
G1 X23.567 Y11.484 E0.35832
G1 X-5.374 Y11.484 E2.23035
G1 X-6.532 Y11.431 E0.08930
G1 X-7.629 Y11.280 E0.08537
G1 X-8.686 Y11.032 E0.08366
G1 X-9.698 Y10.690 E0.08236
G1 X-10.663 Y10.259 E0.08146
G1 X-11.577 Y9.739 E0.08096
G1 X-12.435 Y9.136 E0.08086
G1 X-13.234 Y8.450 E0.08116
G1 X-13.970 Y7.684 E0.08186
G1 X-14.639 Y6.840 E0.08296
G1 X-15.239 Y5.916 E0.08493
G1 X-15.635 Y5.184 E0.06413
G1 X-15.986 Y4.412 E0.06540
G1 X-16.375 Y3.339 E0.08795
G1 X-16.655 Y2.267 E0.08538
G1 X-16.830 Y1.196 E0.08366
G1 X-16.902 Y0.129 E0.08236
G1 X-16.872 Y-0.927 E0.08147
G1 X-16.742 Y-1.970 E0.08096
G1 X-16.513 Y-2.994 E0.08086
G1 X-16.185 Y-3.994 E0.08116
G1 X-15.759 Y-4.968 E0.08186
G1 X-15.236 Y-5.908 E0.08295
G1 X-14.612 Y-6.817 E0.08493
G1 X-14.087 Y-7.462 E0.06414
G1 X-13.398 Y-8.182 E0.07676
G1 X-13.827 Y-8.651 F15000.000
G1 X-13.072 Y-9.341 E0.07881 F720.000
G1 X-12.142 Y-10.046 E0.08992
G1 X-11.168 Y-10.649 E0.08827
G1 X-10.156 Y-11.150 E0.08702
G1 X-9.112 Y-11.549 E0.08616
G1 X-8.040 Y-11.844 E0.08568
G1 X-6.946 Y-12.034 E0.08558
G1 X-5.835 Y-12.119 E0.08587
G1 X-4.719 Y-12.097 E0.08606
G1 X-3.583 Y-11.967 E0.08808 F720.000
G1 X-2.451 Y-11.726 E0.08922
G1 X-1.608 Y-11.475 E0.06781
G1 X-0.770 Y-11.160 E0.06898
G1 X0.376 Y-10.620 E0.09762
G1 X1.436 Y-9.987 E0.09514
G1 X2.409 Y-9.266 E0.09334
G1 X3.293 Y-8.463 E0.09201
G1 X4.083 Y-7.583 E0.09114
G1 X4.776 Y-6.631 E0.09074
G1 X5.369 Y-5.614 E0.09078
G1 X5.858 Y-4.535 E0.09128
G1 X6.239 Y-3.400 E0.09225
G1 X6.509 Y-2.217 E0.09349
G1 X6.844 Y0.710 E0.22709
G1 X7.119 Y1.894 E0.09367
G1 X7.437 Y2.846 E0.07735
G1 X7.748 Y3.542 E0.05877
G1 X8.126 Y4.195 E0.05813
G1 X8.426 Y4.606 E0.03921
G1 X8.762 Y4.983 E0.03894
G1 X9.140 Y5.322 E0.03912
G1 X9.561 Y5.617 E0.03959
G1 X10.027 Y5.858 E0.04042
G1 X10.537 Y6.040 E0.04172
G1 X11.090 Y6.155 E0.04356
G1 X11.676 Y6.199 E0.04528
G1 X24.203 Y6.199 E0.96539
G1 X24.203 Y12.119 E0.45629
G1 X-5.388 Y12.119 E2.28044
G1 X-6.589 Y12.065 E0.09266
G1 X-7.745 Y11.905 E0.08992
G1 X-8.860 Y11.644 E0.08827
G1 X-9.930 Y11.283 E0.08702
G1 X-10.951 Y10.826 E0.08615
G1 X-11.917 Y10.277 E0.08568
G1 X-12.825 Y9.638 E0.08558
G1 X-13.671 Y8.912 E0.08587
G1 X-14.449 Y8.103 E0.08654
G1 X-15.155 Y7.212 E0.08759
G1 X-15.786 Y6.241 E0.08923
G1 X-16.205 Y5.467 E0.06781
G1 X-16.575 Y4.652 E0.06902
G1 X-16.982 Y3.528 E0.09214
G1 X-17.277 Y2.399 E0.08992
G1 X-17.462 Y1.268 E0.08827
G1 X-17.538 Y0.142 E0.08701
G1 X-17.507 Y-0.976 E0.08617
G1 X-17.369 Y-2.079 E0.08567
G1 X-17.126 Y-3.163 E0.08558
G1 X-16.779 Y-4.221 E0.08587
G1 X-16.329 Y-5.250 E0.08654
G1 X-15.777 Y-6.243 E0.08759
G1 X-15.121 Y-7.198 E0.08923
G1 X-14.566 Y-7.880 E0.06781
G1 X-13.871 Y-8.611 E0.07770
G1 X-13.443 Y-8.539 F15000.000
G1 X-10.631 Y-9.827 F15000.000
G1 X10.294 Y11.098 E2.31957 F960.000
G1 X11.208 Y11.098 E0.07167
G1 X-10.020 Y-10.130 E2.35315
G1 X-9.374 Y-10.398 E0.05482
G1 X12.122 Y11.098 E2.38291
G1 X13.037 Y11.098 E0.07167
G1 X-8.698 Y-10.636 E2.40930
G1 X-7.981 Y-10.833 E0.05829
G1 X6.687 Y3.835 E1.62599
G1 X6.155 Y2.389 F15000.000
G1 X-7.207 Y-10.974 E1.48129 F960.000
G1 X-6.382 Y-11.063 E0.06505
G1 X5.873 Y1.192 E1.35852
G1 X5.735 Y0.140 E0.08321
G1 X-5.493 Y-11.088 E1.24463
G1 X-4.520 Y-11.030 E0.07637
G1 X5.616 Y-0.893 E1.12370
G1 X5.493 Y-1.931 E0.08196
G1 X-3.436 Y-10.860 E0.98976
G1 X-2.202 Y-10.541 E0.09990
G1 X5.196 Y-3.142 E0.82013
G1 X4.617 Y-4.636 F15000.000
G1 X-0.640 Y-9.893 E0.58274 F960.000
G1 X9.753 Y6.901 F15000.000
G1 X13.951 Y11.098 E0.46528 F960.000
G1 X14.865 Y11.098 E0.07167
G1 X10.945 Y7.179 E0.43450
G1 X11.901 Y7.220 E0.07494
G1 X15.779 Y11.098 E0.42997
G1 X16.694 Y11.098 E0.07167
G1 X12.815 Y7.220 E0.42997
G1 X13.729 Y7.220 E0.07167
G1 X17.608 Y11.098 E0.42997
G1 X18.522 Y11.098 E0.07167
G1 X14.643 Y7.220 E0.42997
G1 X15.558 Y7.220 E0.07167
G1 X19.436 Y11.098 E0.42997
G1 X20.351 Y11.098 E0.07166
G1 X16.472 Y7.220 E0.42997
G1 X17.386 Y7.220 E0.07167
G1 X21.265 Y11.098 E0.42997
G1 X22.179 Y11.098 E0.07167
G1 X18.301 Y7.220 E0.42997
G1 X19.215 Y7.220 E0.07166
G1 X23.094 Y11.098 E0.42997
G1 X23.182 Y10.272 E0.06513
G1 X20.129 Y7.220 E0.33838
G1 X21.043 Y7.220 E0.07167
G1 X23.182 Y9.358 E0.23703
G1 X23.182 Y8.444 E0.07166
G1 X21.958 Y7.220 E0.13568
G1 X22.872 Y7.220 E0.07167
G1 X23.182 Y7.529 E0.03433
G1 X9.379 Y11.098 F15000.000
G1 X-11.204 Y-9.485 E2.28172 F960.000
G1 X-11.757 Y-9.124 E0.05178
G1 X8.465 Y11.098 E2.24167
G1 X7.551 Y11.098 E0.07166
G1 X-12.277 Y-8.730 E2.19799
G1 X-12.771 Y-8.309 E0.05083
G1 X6.637 Y11.098 E2.15132
G1 X5.722 Y11.098 E0.07167
G1 X-13.236 Y-7.859 E2.10150
G1 X-13.692 Y-7.402 E0.05067
G1 X4.808 Y11.098 E2.05078
G1 X3.894 Y11.098 E0.07167
G1 X-14.112 Y-6.907 E1.99597
G1 X-14.504 Y-6.386 E0.05118
G1 X2.979 Y11.098 E1.93811
G1 X2.065 Y11.098 E0.07167
G1 X-14.877 Y-5.843 E1.87802
G1 X-15.210 Y-5.262 E0.05251
G1 X1.151 Y11.098 E1.81359
G1 X0.237 Y11.098 E0.07167
G1 X-15.520 Y-4.658 E1.74667
G1 X-15.798 Y-4.022 E0.05442
G1 X-0.678 Y11.098 E1.67616
G1 X-1.592 Y11.098 E0.07167
G1 X-16.031 Y-3.340 E1.60055
G1 X-16.228 Y-2.623 E0.05831
G1 X-2.506 Y11.098 E1.52104
G1 X-3.421 Y11.098 E0.07167
G1 X-16.383 Y-1.864 E1.43688
G1 X-16.484 Y-1.051 E0.06421
G1 X-4.335 Y11.098 E1.34677
G1 X-5.250 Y11.097 E0.07175
G1 X-16.512 Y-0.164 E1.24837
G1 X-16.461 Y0.801 E0.07577
G1 X-6.208 Y11.054 E1.13656
G1 X-7.253 Y10.923 E0.08259
G1 X-16.305 Y1.871 E1.00341
G1 X-15.996 Y3.095 E0.09892
G1 X-8.433 Y10.657 E0.83834
G1 X-9.900 Y10.105 F15000.000
G1 X-15.401 Y4.604 E0.60978 F960.000
G1 X-13.711 Y7.207 F15000.000
G1 X-12.541 Y8.377 E0.12970 F960.000
G1 E-3.20000 F3000.00000
G1 Z0.700 F15000.000
G1 X3.690 Y-7.711 F15000.000
G1 Z0.500 F15000.000
G1 E3.20000 F3000.00000
G1 X3.922 Y-7.453 E0.01002 F2869.252
G1 X4.602 Y-6.518 E0.03337
G1 X5.185 Y-5.518 E0.03339
G1 X5.665 Y-4.459 E0.03358
G1 X6.040 Y-3.344 E0.03394
G1 X6.304 Y-2.182 E0.03439
G1 X6.640 Y0.746 E0.08506
G1 X6.932 Y2.004 E0.03729
G1 X7.245 Y2.923 E0.02800
G1 X7.563 Y3.637 E0.02257
G1 X7.952 Y4.309 E0.02240
G1 X8.264 Y4.737 E0.01530
G1 X8.615 Y5.130 E0.01521
G1 X9.011 Y5.485 E0.01535
G1 X9.454 Y5.794 E0.01558
G1 X9.944 Y6.048 E0.01594
G1 X10.480 Y6.240 E0.01644
G1 X11.061 Y6.361 E0.01712
G1 X11.668 Y6.406 E0.01757
G1 X23.996 Y6.406 E0.35580
G1 X23.996 Y11.912 E0.15894
G1 X-5.384 Y11.912 E0.84796
G1 X-6.571 Y11.859 E0.03430
G1 X-7.707 Y11.702 E0.03312
G1 X-8.803 Y11.444 E0.03250
G1 X-9.855 Y11.090 E0.03202
G1 X-10.857 Y10.641 E0.03169
G1 X-11.806 Y10.102 E0.03151
G1 X-12.698 Y9.474 E0.03148
G1 X-13.528 Y8.761 E0.03158
G1 X-14.293 Y7.966 E0.03184
G1 X-14.987 Y7.091 E0.03224
G1 X-15.608 Y6.135 E0.03289
G1 X-16.019 Y5.375 E0.02495
G1 X-16.383 Y4.574 E0.02541
G1 X-16.784 Y3.466 E0.03400
G1 X-17.074 Y2.356 E0.03312
G1 X-17.256 Y1.245 E0.03250
G1 X-17.331 Y0.138 E0.03202
G1 X-17.300 Y-0.960 E0.03170
G1 X-17.165 Y-2.043 E0.03151
G1 X-16.926 Y-3.108 E0.03147
G1 X-16.586 Y-4.147 E0.03159
G1 X-16.143 Y-5.158 E0.03184
G1 X-15.600 Y-6.134 E0.03224
G1 X-14.955 Y-7.074 E0.03289
G1 X-14.410 Y-7.744 E0.02495
G1 X-13.809 Y-8.387 E0.02541
G1 X-12.939 Y-9.182 E0.03400
G1 X-12.024 Y-9.875 E0.03312
G1 X-11.067 Y-10.468 E0.03250
G1 X-10.073 Y-10.960 E0.03202
G1 X-9.047 Y-11.352 E0.03169
G1 X-7.995 Y-11.642 E0.03151
G1 X-6.920 Y-11.829 E0.03148
G1 X-5.829 Y-11.912 E0.03158
G1 X-4.747 Y-11.890 E0.03125
G1 X-3.616 Y-11.762 E0.03284 F2869.252
G1 X-2.502 Y-11.526 E0.03288
G1 X-1.674 Y-11.278 E0.02495
G1 X-0.850 Y-10.969 E0.02538
G1 X0.279 Y-10.437 E0.03603
G1 X1.321 Y-9.815 E0.03504
G1 X2.278 Y-9.106 E0.03436
G1 X3.146 Y-8.317 E0.03386
G1 X3.650 Y-7.756 E0.02178
G1 X3.915 Y-7.994 F15000.000
G1 X4.199 Y-7.678 E0.01227 F2869.252
G1 X4.902 Y-6.714 E0.03442
G1 X5.502 Y-5.682 E0.03444
G1 X5.998 Y-4.590 E0.03463
G1 X6.384 Y-3.441 E0.03498
G1 X6.657 Y-2.243 E0.03547
G1 X6.992 Y0.685 E0.08504
G1 X7.276 Y1.906 E0.03619
G1 X7.577 Y2.792 E0.02702
G1 X7.882 Y3.474 E0.02156
G1 X8.252 Y4.113 E0.02132
G1 X8.542 Y4.512 E0.01424
G1 X8.868 Y4.877 E0.01413
G1 X9.233 Y5.205 E0.01415
G1 X9.639 Y5.488 E0.01428
G1 X10.087 Y5.720 E0.01456
G1 X10.577 Y5.895 E0.01503
G1 X11.111 Y6.006 E0.01573
G1 X11.681 Y6.049 E0.01651
G1 X24.353 Y6.049 E0.36573
G1 X24.353 Y12.269 E0.17955
G1 X-5.392 Y12.269 E0.85850
G1 X-6.603 Y12.215 E0.03500
G1 X-7.773 Y12.053 E0.03408
G1 X-8.902 Y11.788 E0.03347
G1 X-9.985 Y11.423 E0.03300
G1 X-11.019 Y10.960 E0.03268
G1 X-11.998 Y10.404 E0.03251
G1 X-12.918 Y9.756 E0.03247
G1 X-13.774 Y9.021 E0.03258
G1 X-14.562 Y8.201 E0.03282
G1 X-15.277 Y7.300 E0.03322
G1 X-15.915 Y6.318 E0.03380
G1 X-16.339 Y5.534 E0.02572
G1 X-16.714 Y4.708 E0.02617
G1 X-17.126 Y3.572 E0.03488
G1 X-17.424 Y2.430 E0.03408
G1 X-17.611 Y1.286 E0.03347
G1 X-17.688 Y0.145 E0.03300
G1 X-17.656 Y-0.987 E0.03269
G1 X-17.517 Y-2.105 E0.03250
G1 X-17.271 Y-3.202 E0.03247
G1 X-16.920 Y-4.275 E0.03258
G1 X-16.464 Y-5.317 E0.03282
G1 X-15.904 Y-6.322 E0.03322
G1 X-15.242 Y-7.288 E0.03380
G1 X-14.679 Y-7.979 E0.02572
G1 X-14.060 Y-8.642 E0.02617
G1 X-13.168 Y-9.457 E0.03488
G1 X-12.227 Y-10.170 E0.03408
G1 X-11.241 Y-10.780 E0.03347
G1 X-10.217 Y-11.288 E0.03300
G1 X-9.159 Y-11.692 E0.03268
G1 X-8.073 Y-11.991 E0.03250
G1 X-6.965 Y-12.183 E0.03247
G1 X-5.839 Y-12.269 E0.03258
G1 X-4.723 Y-12.247 E0.03223
G1 X-3.559 Y-12.115 E0.03382 F2869.252
G1 X-2.414 Y-11.872 E0.03379
G1 X-1.560 Y-11.617 E0.02572
G1 X-0.711 Y-11.299 E0.02616
G1 X0.447 Y-10.753 E0.03695
G1 X1.519 Y-10.112 E0.03606
G1 X2.505 Y-9.383 E0.03539
G1 X3.399 Y-8.569 E0.03490
G1 X3.875 Y-8.039 E0.02057
G1 X3.791 Y-7.614 F15000.000
G1 X-9.224 Y-11.028 F15000.000
G1 X-16.452 Y-3.800 E0.29507 F3825.669
G1 X-16.698 Y-3.049 E0.02282
G1 X-8.477 Y-11.270 E0.33561
G1 X-7.790 Y-11.452 E0.02053
G1 X-16.856 Y-2.385 E0.37012
G1 X-16.981 Y-1.756 E0.01854
G1 X-7.178 Y-11.559 E0.40018
G1 X-6.592 Y-11.639 E0.01707
G1 X-17.053 Y-1.178 E0.42703
G1 X-17.099 Y-0.627 E0.01596
G1 X-6.046 Y-11.681 E0.45122
G1 X-5.522 Y-11.699 E0.01512
G1 X-17.114 Y-0.108 E0.47318
G1 X-17.110 Y0.393 E0.01447
G1 X-5.027 Y-11.690 E0.49325
G1 X-4.545 Y-11.667 E0.01393
G1 X-17.078 Y0.867 E0.51162
G1 X-17.042 Y1.335 E0.01357
G1 X-4.092 Y-11.615 E0.52865
G1 X-3.638 Y-11.563 E0.01317
G1 X-16.971 Y1.769 E0.54426
G1 X-16.900 Y2.203 E0.01270
G1 X-3.217 Y-11.479 E0.55855
G1 X-2.801 Y-11.391 E0.01229
G1 X-16.809 Y2.617 E0.57182
G1 X-16.704 Y3.017 E0.01195
G1 X-2.391 Y-11.295 E0.58425
G1 X-2.003 Y-11.179 E0.01172
G1 X-16.599 Y3.418 E0.59586
G1 X-16.468 Y3.792 E0.01143
G1 X-1.618 Y-11.059 E0.60620
G1 X-1.251 Y-10.921 E0.01132
G1 X-16.334 Y4.162 E0.61572
G1 X-16.200 Y4.533 E0.01138
G1 X-0.883 Y-10.783 E0.62522
G1 X-0.540 Y-10.621 E0.01095
G1 X-16.042 Y4.881 E0.63281
G1 X-15.884 Y5.228 E0.01101
G1 X-0.197 Y-10.459 E0.64038
G1 X0.146 Y-10.298 E0.01095
G1 X-15.713 Y5.561 E0.64738
G1 X-15.536 Y5.889 E0.01076
G1 X0.468 Y-10.115 E0.65330
G1 X0.785 Y-9.926 E0.01063
G1 X-15.348 Y6.207 E0.65857
G1 X-15.149 Y6.513 E0.01054
G1 X1.101 Y-9.737 E0.66335
G1 X1.402 Y-9.534 E0.01050
G1 X-14.951 Y6.819 E0.66754
G1 X-14.742 Y7.115 E0.01046
G1 X1.693 Y-9.319 E0.67086
G1 X1.983 Y-9.104 E0.01042
G1 X-14.518 Y7.397 E0.67359
G1 X-14.295 Y7.679 E0.01038
G1 X2.264 Y-8.880 E0.67595
G1 X2.529 Y-8.640 E0.01032
G1 X-14.062 Y7.950 E0.67723
G1 X-13.809 Y8.203 E0.01031
G1 X2.793 Y-8.399 E0.67772
G1 X3.054 Y-8.155 E0.01031
G1 X-13.557 Y8.455 E0.67806
G1 X-13.304 Y8.708 E0.01031
G1 X3.293 Y-7.889 E0.67750
G1 X3.532 Y-7.623 E0.01032
G1 X-13.039 Y8.948 E0.67645
G1 X-12.768 Y9.182 E0.01034
G1 X3.771 Y-7.357 E0.67511
G1 X3.984 Y-7.065 E0.01043
G1 X-12.487 Y9.405 E0.67235
G1 X-12.190 Y9.614 E0.01046
G1 X4.197 Y-6.773 E0.66894
G1 X4.410 Y-6.481 E0.01043
G1 X-11.894 Y9.823 E0.66552
G1 X-11.586 Y10.020 E0.01055
G1 X4.599 Y-6.165 E0.66070
G1 X4.785 Y-5.846 E0.01066
G1 X-11.264 Y10.203 E0.65514
G1 X-10.942 Y10.386 E0.01069
G1 X4.971 Y-5.527 E0.64959
G1 X5.134 Y-5.185 E0.01093
G1 X-10.604 Y10.553 E0.64247
G1 X-10.255 Y10.710 E0.01103
G1 X5.292 Y-4.838 E0.63466
G1 X5.449 Y-4.490 E0.01101
G1 X-9.906 Y10.866 E0.62685
G1 X-9.535 Y11.000 E0.01139
G1 X5.582 Y-4.118 E0.61710
G1 X5.709 Y-3.740 E0.01151
G1 X-9.158 Y11.127 E0.60687
G1 X-8.778 Y11.252 E0.01154
G1 X5.836 Y-3.362 E0.59656
G1 X5.931 Y-2.952 E0.01214
G1 X-8.369 Y11.349 E0.58376
G1 X-7.960 Y11.445 E0.01213
G1 X6.025 Y-2.541 E0.57089
G1 X6.110 Y-2.121 E0.01236
G1 X-7.536 Y11.525 E0.55706
