; generated by Slic3r 1.2.9 on 2017-01-03 at 15:07:18

; external perimeters extrusion width = 0.50mm
; perimeters extrusion width = 0.50mm
; infill extrusion width = 0.50mm
; solid infill extrusion width = 0.50mm
; top infill extrusion width = 0.50mm
; support material extrusion width = 0.50mm

M107
;Basic settings: Layer height: {layer_height} Walls: {wall_thickness} Fill: {fill_density}
;Print time: {print_time}
;Filament used: {filament_amount}m {filament_weight}g
;Filament cost: {filament_cost}
;M190 S{print_bed_temperature} ;Uncomment to add your own bed temperature line
;M109 S{print_temperature} ;Uncomment to add your own temperature line
G21        ;metric values
G90        ;absolute positioning
M83
G10 P0 S200
T0
M116


G21 ; set units to millimeters
G90 ; use absolute coordinates
M83 ; use relative distances for extrusion
G1 E-3.20000 F3000.00000
G1 Z0.400 F9000.000
G1 X-14.438 Y0.226 F9000.000
G1 Z0.300 F9000.000
G1 E3.20000 F3000.00000
G1 X-14.586 Y-9.213 E0.86619 F1200.000
G1 X-14.240 Y-10.843 E0.15284
G1 X-12.397 Y-14.818 E0.40201
G1 X-11.964 Y-15.687 E0.08915
G1 X-10.862 Y-17.005 E0.15755
G1 X-9.944 Y-17.508 E0.09604
G1 X-5.944 Y-19.019 E0.39230
G1 X-4.624 Y-19.260 E0.12314
G1 X4.624 Y-19.260 E0.84854
G1 X5.914 Y-19.031 E0.12016
G1 X10.021 Y-17.521 E0.40150 F1200.000
G1 X11.453 Y-16.573 E0.15755
G1 X12.014 Y-15.797 E0.08787
G1 X12.307 Y-15.258 E0.05629
G1 X14.310 Y-10.937 E0.43696
G1 X14.647 Y-9.327 E0.15094
G1 X14.304 Y12.576 E2.00991
G1 X13.909 Y14.192 E0.15259
G1 X11.112 Y19.772 E0.57268
G1 X9.903 Y21.166 E0.16929
G1 X7.379 Y22.920 E0.28203
G1 X6.386 Y23.409 E0.10152
G1 X4.426 Y24.037 E0.18884
G1 X3.287 Y24.215 E0.10576
G1 X-3.295 Y24.215 E0.60397
G1 X-4.230 Y24.096 E0.08640
G1 X-5.687 Y23.720 E0.13807
G1 X-7.227 Y23.276 E0.14709
G1 X-8.678 Y22.474 E0.15211
G1 X-10.952 Y20.444 E0.27968
G1 X-11.714 Y19.498 E0.11146
G1 X-12.723 Y17.693 E0.18970
G1 X-13.516 Y15.991 E0.17224
G1 X-13.829 Y14.934 E0.10114
G1 X-14.190 Y12.371 E0.23753
G1 X-14.225 Y11.944 E0.03930
G1 X-14.304 Y8.782 E0.29021
G1 X-14.437 Y0.286 E0.77959
G1 E-3.20000 F3000.00000
G1 Z0.700 F9000.000
G1 X4.993 Y-15.188 F9000.000
G1 Z0.300 F9000.000
G1 E3.20000 F3000.00000
G1 X-4.993 Y-15.188 E0.91631 F900.000
G1 E-3.20000 F3000.00000
G1 Z0.700 F9000.000
G1 X-8.624 Y-14.014 F9000.000
G1 Z0.300 F9000.000
G1 E3.20000 F3000.00000
G1 X-9.008 Y-13.247 E0.04659 F1200.000
G1 E-3.20000 F3000.00000
G1 Z0.700 F9000.000
G1 X-9.970 Y-10.235 F9000.000
G1 Z0.300 F9000.000
G1 E3.20000 F3000.00000
G1 X-8.076 Y-14.014 E0.22962 F1200.000
G1 X-7.528 Y-14.014 E0.02976
G1 X-9.422 Y-10.235 E0.22962
G1 X-8.874 Y-10.235 E0.02976
G1 X-7.482 Y-13.014 E0.16885
G1 X-6.934 Y-13.014 E0.02976
G1 X-8.327 Y-10.235 E0.16885
G1 X-7.779 Y-10.235 E0.02976
G1 X-6.386 Y-13.014 E0.16885
G1 X-5.839 Y-13.014 E0.02976
G1 X-7.231 Y-10.235 E0.16885
G1 X-6.683 Y-10.235 E0.02976
G1 X-5.291 Y-13.014 E0.16885
G1 X-4.743 Y-13.014 E0.02976
G1 X-6.136 Y-10.235 E0.16885
G1 X-5.588 Y-10.235 E0.02976
G1 X-4.196 Y-13.014 E0.16885
G1 X-3.648 Y-13.014 E0.02976
G1 X-5.040 Y-10.235 E0.16885
G1 X-4.492 Y-10.235 E0.02976
G1 X-3.100 Y-13.014 E0.16885
G1 X-2.552 Y-13.014 E0.02976
G1 X-3.945 Y-10.235 E0.16885
G1 X-3.397 Y-10.235 E0.02976
G1 X-2.005 Y-13.014 E0.16885
G1 X-1.457 Y-13.014 E0.02976
G1 X-2.766 Y-10.401 E0.15880
G1 X-1.942 Y-10.953 E0.05394
G1 X-1.166 Y-12.502 E0.09408
G1 X-0.959 Y-11.821 E0.03863
G1 X-1.117 Y-11.506 E0.01916
G1 E-3.20000 F3000.00000
G1 Z0.700 F9000.000
G1 X1.205 Y-11.356 F9000.000
G1 Z0.300 F9000.000
G1 E3.20000 F3000.00000
G1 X2.039 Y-13.018 E0.10106 F1200.000
G1 X2.602 Y-13.018 E0.03059
G1 X1.627 Y-11.073 E0.11823
G1 X2.048 Y-10.791 E0.02757
G1 X3.165 Y-13.018 E0.13539
G1 X3.728 Y-13.018 E0.03059
G1 X2.470 Y-10.508 E0.15256
G1 X2.901 Y-10.245 E0.02744
G1 X4.291 Y-13.018 E0.16855
G1 X4.854 Y-13.018 E0.03059
G1 X3.457 Y-10.231 E0.16943
G1 X4.020 Y-10.231 E0.03059
G1 X5.417 Y-13.018 E0.16943
G1 X5.980 Y-13.018 E0.03059
G1 X4.583 Y-10.231 E0.16943
G1 X5.146 Y-10.231 E0.03059
G1 X6.543 Y-13.018 E0.16943
G1 X7.106 Y-13.018 E0.03059
G1 X5.709 Y-10.231 E0.16943
G1 X6.272 Y-10.231 E0.03059
G1 X7.669 Y-13.018 E0.16943
G1 X7.755 Y-13.191 F9000.000
G1 X8.170 Y-14.018 E0.05030 F1200.000
G1 X8.731 Y-14.014 E0.03048
G1 X6.835 Y-10.231 E0.22996
G1 X7.398 Y-10.231 E0.03059
G1 X9.024 Y-13.475 E0.19720
G1 X9.293 Y-12.887 E0.03511
G1 X7.961 Y-10.231 E0.16147
G1 X8.524 Y-10.231 E0.03059
G1 X9.561 Y-12.300 E0.12575
G1 X9.829 Y-11.712 E0.03511
G1 X9.087 Y-10.231 E0.09002
G1 X9.650 Y-10.231 E0.03059
G1 X10.098 Y-11.124 E0.05430
G1 X10.366 Y-10.536 E0.03511
G1 X10.213 Y-10.231 E0.01857
G1 E-3.20000 F3000.00000
G1 Z0.700 F9000.000
G1 X10.378 Y-7.269 F9000.000
G1 Z0.300 F9000.000
G1 E3.20000 F3000.00000
G1 X10.532 Y-7.575 E0.01863 F1200.000
G1 X9.851 Y-7.269 E0.04059
G1 X10.912 Y-9.386 E0.12866
G1 X10.660 Y-9.936 E0.03290
G1 X9.323 Y-7.269 E0.16213
G1 X8.795 Y-7.269 E0.02867
G1 X10.177 Y-10.025 E0.16754
G1 X9.650 Y-10.025 E0.02867
G1 X8.268 Y-7.269 E0.16754
G1 X7.740 Y-7.269 E0.02867
G1 X9.122 Y-10.025 E0.16754
G1 X8.594 Y-10.025 E0.02867
G1 X7.213 Y-7.269 E0.16754
G1 X6.685 Y-7.269 E0.02867
G1 X8.067 Y-10.025 E0.16754
G1 X7.539 Y-10.025 E0.02867
G1 X6.157 Y-7.269 E0.16754
G1 X5.630 Y-7.269 E0.02867
G1 X7.012 Y-10.025 E0.16754
G1 X6.484 Y-10.025 E0.02867
G1 X5.102 Y-7.269 E0.16754
G1 X4.575 Y-7.269 E0.02867
G1 X5.956 Y-10.025 E0.16754
G1 X5.429 Y-10.025 E0.02867
G1 X4.047 Y-7.269 E0.16751
G1 X3.864 Y-7.955 E0.03859
G1 X4.901 Y-10.025 E0.12581
G1 X4.373 Y-10.025 E0.02867
G1 X3.720 Y-8.722 E0.07921
G1 X3.471 Y-9.277 E0.03307
G1 X3.846 Y-10.025 E0.04547
G1 X3.318 Y-10.025 E0.02867
G1 X3.174 Y-9.738 E0.01746
G1 E-3.20000 F3000.00000
G1 Z0.700 F9000.000
G1 X1.281 Y-12.630 F9000.000
G1 Z0.300 F9000.000
G1 E3.20000 F3000.00000
G1 X1.476 Y-13.018 E0.02362 F1200.000
G1 E-3.20000 F3000.00000
G1 Z0.700 F9000.000
G1 X7.369 Y-13.543 F9000.000
G1 Z0.300 F9000.000
G1 E3.20000 F3000.00000
G1 X7.607 Y-14.018 E0.02889 F1200.000
G1 E-3.20000 F3000.00000
G1 Z0.700 F9000.000
G1 X-4.139 Y-7.275 F9000.000
G1 Z0.300 F9000.000
G1 E3.20000 F3000.00000
G1 X-3.979 Y-7.594 E0.01935 F1200.000
G1 X-4.653 Y-7.275 E0.04049
G1 X-3.278 Y-10.019 E0.16676
G1 X-3.792 Y-10.019 E0.02794
G1 X-5.167 Y-7.275 E0.16676
G1 X-5.681 Y-7.275 E0.02794
G1 X-4.306 Y-10.019 E0.16676
G1 X-4.820 Y-10.019 E0.02794
G1 X-6.196 Y-7.275 E0.16676
G1 X-6.710 Y-7.275 E0.02794
G1 X-5.335 Y-10.019 E0.16676
G1 X-5.849 Y-10.019 E0.02794
G1 X-7.224 Y-7.275 E0.16676
G1 X-7.738 Y-7.275 E0.02794
G1 X-6.363 Y-10.019 E0.16676
G1 X-6.877 Y-10.019 E0.02794
G1 X-8.252 Y-7.275 E0.16676
G1 X-8.766 Y-7.275 E0.02794
G1 X-7.391 Y-10.019 E0.16676
G1 X-7.905 Y-10.019 E0.02794
G1 X-9.281 Y-7.275 E0.16676
G1 X-9.795 Y-7.275 E0.02794
G1 X-8.420 Y-10.019 E0.16676
G1 X-8.934 Y-10.019 E0.02794
G1 X-10.309 Y-7.275 E0.16676
G1 X-10.529 Y-7.863 E0.03408
G1 X-9.448 Y-10.019 E0.13105
G1 X-9.962 Y-10.019 E0.02794
G1 X-10.593 Y-8.760 E0.07651
G1 X-10.851 Y-9.272 E0.03113
G1 X-10.476 Y-10.019 E0.04540
G1 E-3.20000 F3000.00000
G1 Z0.700 F9000.000
G1 X-9.206 Y-7.129 F9000.000
G1 Z0.300 F9000.000
G1 E3.20000 F3000.00000
G1 X-10.569 Y-4.410 E0.27903 F1200.000
G1 X-9.016 Y-4.225 E0.14347
G1 X-7.560 Y-7.129 E0.29809
G1 X-5.915 Y-7.129 E0.15099
G1 X-7.371 Y-4.225 E0.29810
G1 X-5.725 Y-4.225 E0.15099
G1 X-4.269 Y-7.129 E0.29809
G1 X-3.265 Y-5.848 E0.14931
G1 X-4.079 Y-4.225 E0.16662
G1 E-3.20000 F3000.00000
G1 Z0.700 F9000.000
G1 X3.959 Y-7.129 F9000.000
G1 Z0.300 F9000.000
G1 E3.20000 F3000.00000
G1 X3.459 Y-6.131 E0.10251 F1200.000
G1 X4.149 Y-4.225 E0.18598
G1 X5.605 Y-7.129 E0.29809
G1 X7.251 Y-7.129 E0.15099
G1 X5.795 Y-4.225 E0.29809
G1 X7.441 Y-4.225 E0.15099
G1 X8.896 Y-7.129 E0.29810
G1 X10.535 Y-7.116 E0.15039
G1 X9.086 Y-4.225 E0.29674
G1 E-3.20000 F3000.00000
G1 Z0.700 F9000.000
G1 X5.511 Y6.191 F9000.000
G1 Z0.300 F9000.000
G1 E3.20000 F3000.00000
G1 X5.248 Y6.718 E0.05403 F1200.000
G1 X5.248 Y10.001 E0.30126
G1 X7.157 Y6.191 E0.39101
G1 X8.803 Y6.191 E0.15099
G1 X5.966 Y11.850 E0.58077
G1 X7.612 Y11.850 E0.15099
G1 X10.448 Y6.191 E0.58077
G1 X10.569 Y9.235 E0.27943
G1 X9.258 Y11.850 E0.26845
G1 E-3.20000 F3000.00000
G1 Z0.700 F9000.000
G1 X5.248 Y13.285 F9000.000
G1 Z0.300 F9000.000
G1 E3.20000 F3000.00000
G1 X5.683 Y12.416 E0.08920 F1200.000
G1 X7.329 Y12.416 E0.15099
G1 X5.248 Y16.568 E0.42618
G1 X5.248 Y19.852 E0.30126
G1 X8.974 Y12.416 E0.76316
G1 X10.569 Y12.518 E0.14659
G1 X7.772 Y18.098 E0.57268
G1 E-3.20000 F3000.00000
G1 Z0.700 F9000.000
G1 X3.287 Y20.479 F9000.000
G1 Z0.300 F9000.000
G1 E3.20000 F3000.00000
G1 X4.485 Y18.089 E0.24530 F1200.000
G1 X4.485 Y14.806 E0.30126
G1 X1.642 Y20.479 E0.58228
G1 X-0.004 Y20.479 E0.15099
G1 X4.037 Y12.416 E0.82756
G1 X1.414 Y14.367 E0.30003
G1 X-1.650 Y20.479 E0.62726
G1 X-3.295 Y20.479 E0.15099
G1 X-0.318 Y14.539 E0.60968
G1 X-1.740 Y14.092 E0.13674
G1 X-4.752 Y20.103 E0.61691
G1 X-4.752 Y16.819 E0.30126
G1 X-2.917 Y13.156 E0.37595
G1 X-4.191 Y12.416 E0.13524
G1 X-4.752 Y13.536 E0.11497
G1 X-4.033 Y12.100 F9000.000
G1 X-3.735 Y11.505 E0.06106 F1200.000
G1 X-5.002 Y10.751 E0.13534
G1 X-2.717 Y6.191 E0.46798
G1 X-4.363 Y6.191 E0.15099
G1 X-5.002 Y7.468 E0.13100
G1 E-3.20000 F3000.00000
G1 Z0.700 F9000.000
G1 X-7.199 Y11.850 F9000.000
G1 Z0.300 F9000.000
G1 E3.20000 F3000.00000
G1 X-5.515 Y8.490 E0.34488 F1200.000
G1 X-6.008 Y6.191 E0.21569
G1 X-8.845 Y11.850 E0.58077
G1 X-10.490 Y11.850 E0.15099
G1 X-7.654 Y6.191 E0.58077
G1 X-9.300 Y6.191 E0.15099
G1 X-10.569 Y8.723 E0.25987
G1 E-3.20000 F3000.00000
G1 Z0.700 F9000.000
G1 X-10.130 Y14.414 F9000.000
G1 Z0.300 F9000.000
G1 E3.20000 F3000.00000
G1 X-9.128 Y12.416 E0.20507 F1200.000
G1 X-7.482 Y12.416 E0.15099
G1 X-9.337 Y16.115 E0.37971
G1 X-8.464 Y17.657 E0.16255
G1 X-5.837 Y12.416 E0.53793
G1 X-5.515 Y15.057 E0.24411
G1 X-7.327 Y18.672 E0.37106
G1 X-5.515 Y18.340 E0.16903
G1 X-6.190 Y19.687 E0.13826
G1 E-3.20000 F3000.00000
G1 Z0.700 F9000.000
G1 X4.196 Y12.100 F9000.000
G1 Z0.300 F9000.000
G1 E3.20000 F3000.00000
G1 X4.735 Y11.023 E0.11053 F1200.000
G1 X3.586 Y10.033 E0.13919
G1 X4.735 Y7.740 E0.23538
G1 X2.981 Y7.957 E0.16218
G1 X3.866 Y6.191 E0.18117
G1 E-3.20000 F3000.00000
G1 Z0.700 F9000.000
G1 X-4.993 Y-14.053 F9000.000
G1 Z0.600 F9000.000
G1 E3.20000 F3000.00000
G1 X-5.289 Y-14.053 E0.01544 F1800.000
G1 X-4.631 Y-14.652 E0.04650
G1 X-4.359 Y-14.900 E0.01999 F1110.048
G1 X4.359 Y-14.900 E0.47364
G1 X4.631 Y-14.652 E0.01999
G1 X5.289 Y-14.053 E0.04650 F1800.000
G1 X-4.933 Y-14.053 E0.53404
G1 X-4.933 Y-13.617 F9000.000
G1 X-6.414 Y-13.617 E0.07736 F1800.000
G1 X-5.278 Y-14.652 E0.08030
G1 X-4.527 Y-15.335 E0.05514 F1110.048
G1 X4.527 Y-15.335 E0.49197
G1 X5.278 Y-14.652 E0.05514
G1 X6.414 Y-13.617 E0.08030 F1800.000
G1 X-4.873 Y-13.617 E0.58968
G1 X-4.500 Y-14.476 F9000.000
G1 X4.500 Y-14.476 E1.05033 F740.032
G1 E-3.20000 F3000.00000
G1 Z1.000 F9000.000
G1 X1.575 Y-12.223 F9000.000
G1 Z0.600 F9000.000
G1 E3.20000 F3000.00000
G1 X1.718 Y-12.508 E0.01734 F1480.064
G1 X2.149 Y-12.315 E0.02567
G1 X1.872 Y-11.762 E0.03362
G1 X2.168 Y-11.301 E0.02980
G1 X2.544 Y-12.050 E0.04555
G1 X2.939 Y-11.785 E0.02585
G1 X2.465 Y-10.840 E0.05747
G1 X2.762 Y-10.379 E0.02980
G1 X3.337 Y-11.525 E0.06967
G1 X3.865 Y-11.525 E0.02869
G1 X3.059 Y-9.918 E0.09770
G1 X3.356 Y-9.457 E0.02980
G1 X4.393 Y-11.525 E0.12572
G1 X4.921 Y-11.525 E0.02869
G1 X3.653 Y-8.995 E0.15374
G1 X4.060 Y-8.754 E0.02571
G1 X5.449 Y-11.525 E0.16842
G1 X5.977 Y-11.525 E0.02869
G1 X4.588 Y-8.754 E0.16842
G1 X5.116 Y-8.754 E0.02869
G1 X6.504 Y-11.525 E0.16842
G1 X7.032 Y-11.525 E0.02869
G1 X5.644 Y-8.754 E0.16842
G1 X6.171 Y-8.754 E0.02869
G1 X7.560 Y-11.525 E0.16842
G1 X8.088 Y-11.525 F9000.000
G1 X6.699 Y-8.754 E0.16842 F1480.064
G1 X7.227 Y-8.754 E0.02869
G1 X9.117 Y-12.525 E0.22919
G1 X9.558 Y-12.350 E0.02574
G1 X7.755 Y-8.754 E0.21855
G1 X8.283 Y-8.754 E0.02869
G1 X9.809 Y-11.799 E0.18505
G1 X10.061 Y-11.248 E0.03292
G1 X8.811 Y-8.754 E0.15155
G1 X9.339 Y-8.754 E0.02869
G1 X10.313 Y-10.696 E0.11805
G1 X10.564 Y-10.145 E0.03292
G1 X9.867 Y-8.754 E0.08456
G1 X10.395 Y-8.754 E0.02869
G1 X10.816 Y-9.594 E0.05106
G1 X11.068 Y-9.043 E0.03292
G1 X10.923 Y-8.754 E0.01756
G1 E-3.20000 F3000.00000
G1 Z1.000 F9000.000
G1 X10.382 Y-5.790 F9000.000
G1 Z0.600 F9000.000
G1 E3.20000 F3000.00000
G1 X10.529 Y-6.084 E0.01784 F1480.064
G1 X9.894 Y-5.790 E0.03800
G1 X10.529 Y-7.057 E0.07697
G1 X10.529 Y-8.030 E0.05286
G1 X9.406 Y-5.790 E0.13610
G1 X8.919 Y-5.790 E0.02649
G1 X10.294 Y-8.534 E0.16676
G1 X9.806 Y-8.534 E0.02649
G1 X8.431 Y-5.790 E0.16676
G1 X7.943 Y-5.790 E0.02649
G1 X9.319 Y-8.534 E0.16676
G1 X8.831 Y-8.534 E0.02649
G1 X7.456 Y-5.790 E0.16676
G1 X6.968 Y-5.790 E0.02649
G1 X8.343 Y-8.534 E0.16676
G1 X7.856 Y-8.534 E0.02649
G1 X6.480 Y-5.790 E0.16676
G1 X5.993 Y-5.790 E0.02649
G1 X7.368 Y-8.534 E0.16676
G1 X6.880 Y-8.534 E0.02649
G1 X5.505 Y-5.790 E0.16676
G1 X5.018 Y-5.790 E0.02649
G1 X6.393 Y-8.534 E0.16676
G1 X5.905 Y-8.534 E0.02649
G1 X4.530 Y-5.790 E0.16676
G1 X4.042 Y-5.790 E0.02649
G1 X5.418 Y-8.534 E0.16676
G1 X4.930 Y-8.534 E0.02649
G1 X3.555 Y-5.790 E0.16676
G1 X3.831 Y-7.315 F9000.000
G1 X4.442 Y-8.534 E0.07408 F1480.064
G1 X3.955 Y-8.534 E0.02649
G1 X3.813 Y-8.251 E0.01721
G1 E-3.20000 F3000.00000
G1 Z1.000 F9000.000
G1 X8.318 Y-11.984 F9000.000
G1 Z0.600 F9000.000
G1 E3.20000 F3000.00000
G1 X8.590 Y-12.525 E0.03291 F1480.064
G1 E-3.20000 F3000.00000
G1 Z1.000 F9000.000
G1 X-1.794 Y-12.073 F9000.000
G1 Z0.600 F9000.000
G1 E3.20000 F3000.00000
G1 X-1.583 Y-12.493 E0.02552 F1480.064
G1 X-2.327 Y-12.115 E0.04535
G1 X-4.014 Y-8.750 E0.20450
G1 X-4.568 Y-8.750 E0.03013
G1 X-3.162 Y-11.556 E0.17049
G1 X-3.731 Y-11.529 E0.03090
G1 X-5.123 Y-8.750 E0.16886
G1 X-5.678 Y-8.750 E0.03013
G1 X-4.285 Y-11.529 E0.16886
G1 X-4.840 Y-11.529 E0.03013
G1 X-6.232 Y-8.750 E0.16886
G1 X-6.787 Y-8.750 E0.03013
G1 X-5.394 Y-11.529 E0.16886
G1 X-5.949 Y-11.529 E0.03013
G1 X-7.341 Y-8.750 E0.16886
G1 X-7.896 Y-8.750 E0.03013
G1 X-6.503 Y-11.529 E0.16886
G1 X-7.058 Y-11.529 E0.03013
G1 X-8.451 Y-8.750 E0.16886
G1 X-9.005 Y-8.750 E0.03013
G1 X-7.613 Y-11.529 E0.16886
G1 X-8.167 Y-11.529 E0.03013
G1 X-9.560 Y-8.750 E0.16886
G1 X-10.114 Y-8.750 E0.03013
G1 X-8.221 Y-12.529 E0.22963
G1 X-8.775 Y-12.529 E0.03013
G1 X-10.669 Y-8.750 E0.22963
G1 X-10.381 Y-8.534 F9000.000
G1 X-10.529 Y-8.240 E0.01785 F1480.064
G1 X-10.529 Y-7.217 F9000.000
G1 X-9.869 Y-8.534 E0.08005 F1480.064
G1 X-9.356 Y-8.534 E0.02787
G1 X-10.529 Y-6.193 E0.14225
G1 X-10.218 Y-5.790 E0.02767
G1 X-8.843 Y-8.534 E0.16677
G1 X-8.330 Y-8.534 E0.02787
G1 X-9.705 Y-5.790 E0.16677
G1 X-9.192 Y-5.790 E0.02787
G1 X-7.817 Y-8.534 E0.16677
G1 X-7.304 Y-8.534 E0.02787
G1 X-8.679 Y-5.790 E0.16677
G1 X-8.166 Y-5.790 E0.02787
G1 X-6.791 Y-8.534 E0.16677
G1 X-6.278 Y-8.534 E0.02787
G1 X-7.653 Y-5.790 E0.16677
G1 X-7.140 Y-5.790 E0.02787
G1 X-5.765 Y-8.534 E0.16677
G1 X-5.252 Y-8.534 E0.02787
G1 X-6.627 Y-5.790 E0.16677
G1 X-6.114 Y-5.790 E0.02787
G1 X-4.739 Y-8.534 E0.16677
G1 X-4.226 Y-8.534 E0.02787
G1 X-5.602 Y-5.790 E0.16677
G1 X-5.089 Y-5.790 E0.02787
G1 X-3.857 Y-8.247 E0.14932
G1 X-3.782 Y-7.374 E0.04759
G1 X-4.576 Y-5.790 E0.09629
G1 X-4.063 Y-5.790 E0.02787
G1 X-3.595 Y-6.722 E0.05666
G1 X-3.409 Y-6.070 E0.03684
G1 X-3.550 Y-5.790 E0.01703
G1 E-3.20000 F3000.00000
G1 Z1.000 F9000.000
G1 X-9.714 Y-11.762 F9000.000
G1 Z0.600 F9000.000
G1 E3.20000 F3000.00000
G1 X-9.330 Y-12.529 E0.04659 F1480.064
G1 E-3.20000 F3000.00000
G1 Z1.000 F9000.000
G1 X-5.894 Y-5.427 F9000.000
G1 Z0.600 F9000.000
G1 E3.20000 F3000.00000
G1 X-10.450 Y-5.427 E0.24754 F1480.064
G1 X-10.450 Y-4.442 E0.05352
G1 X-3.040 Y-4.442 E0.40261
G1 X-3.321 Y-5.427 E0.05566
G1 X-5.894 Y-5.427 E0.13979
G1 X-5.894 Y-4.991 F9000.000
G1 X-8.697 Y-4.991 E0.15228 F1480.064
G1 X-8.762 Y-4.878 E0.00714
G1 X-3.617 Y-4.878 E0.27955
G1 X-3.650 Y-4.991 E0.00643
G1 X-5.894 Y-4.991 E0.12193
G1 E-3.20000 F3000.00000
G1 Z1.000 F9000.000
G1 X-3.318 Y6.948 F9000.000
G1 Z0.600 F9000.000
G1 E3.20000 F3000.00000
G1 X-3.378 Y6.844 E0.00652 F1480.064
G1 X-4.448 Y6.844 E0.05813
G1 X-4.448 Y10.781 E0.21388
G1 X-4.434 Y10.781 E0.00074
