; generated by Slic3r 1.2.9 on 2017-01-03 at 15:22:44

; external perimeters extrusion width = 0.50mm
; perimeters extrusion width = 0.50mm
; infill extrusion width = 0.50mm
; solid infill extrusion width = 0.50mm
; top infill extrusion width = 0.50mm
; support material extrusion width = 0.50mm

M107
;Basic settings: Layer height: {layer_height} Walls: {wall_thickness} Fill: {fill_density}
;Print time: {print_time}
;Filament used: {filament_amount}m {filament_weight}g
;Filament cost: {filament_cost}
;M190 S{print_bed_temperature} ;Uncomment to add your own bed temperature line
;M109 S{print_temperature} ;Uncomment to add your own temperature line
G21        ;metric values
G90        ;absolute positioning
M83
G10 P0 S200
T0
M116


G21 ; set units to millimeters
G90 ; use absolute coordinates
M83 ; use relative distances for extrusion
G1 E-3.20000 F3000.00000
G1 Z0.400 F9000.000
G1 X-14.680 Y0.475 F9000.000
G1 Z0.300 F9000.000
G1 E3.20000 F3000.00000
G1 X-14.964 Y-8.281 E0.80384 F1200.000
G1 X-14.719 Y-9.736 E0.13532
G1 X-14.530 Y-10.224 E0.04806
G1 X-13.806 Y-11.926 E0.16972
G1 X-11.871 Y-15.846 E0.40104
G1 X-11.050 Y-16.928 E0.12462
G1 X-10.094 Y-17.799 E0.11872
G1 X-9.802 Y-18.039 E0.03469
G1 X-7.385 Y-19.830 E0.27597
G1 X-5.883 Y-20.493 E0.15065
G1 X-5.406 Y-20.587 E0.04459
G1 X-4.695 Y-20.658 E0.06558
G1 X4.254 Y-20.659 E0.82104
G1 X4.747 Y-20.659 E0.04523 F1200.000
G1 X5.417 Y-20.624 E0.06155
G1 X6.776 Y-20.273 E0.12883
G1 X7.422 Y-19.894 E0.06867
G1 X9.765 Y-18.181 E0.26635
G1 X10.077 Y-17.927 E0.03687
G1 X11.147 Y-16.951 E0.13288
G1 X11.555 Y-16.515 E0.05482
G1 X12.025 Y-15.814 E0.07745
G1 X13.081 Y-13.784 E0.20989
G1 X14.016 Y-11.905 E0.19264
G1 X14.764 Y-10.113 E0.17814
G1 X15.050 Y-8.543 E0.14642
G1 X14.302 Y12.650 E1.94562
G1 X14.259 Y13.102 E0.04169
G1 X14.140 Y13.853 E0.06977
G1 X13.836 Y14.847 E0.09532
G1 X12.000 Y18.789 E0.39900
G1 X11.324 Y19.782 E0.11022
G1 X10.483 Y20.669 E0.11218
G1 X10.175 Y20.958 E0.03873
G1 X7.309 Y23.362 E0.34322
G1 X4.933 Y24.215 E0.23160
G1 X-4.941 Y24.215 E0.90596
G1 X-6.941 Y23.634 E0.19110
G1 X-8.190 Y22.842 E0.13567
G1 X-8.678 Y22.474 E0.05609
G1 X-10.952 Y20.444 E0.27968
G1 X-11.714 Y19.498 E0.11146
G1 X-12.723 Y17.693 E0.18970
G1 X-13.516 Y15.991 E0.17224
G1 X-13.727 Y15.421 E0.05582
G1 X-14.047 Y14.276 E0.10907
G1 X-14.169 Y13.619 E0.06128
G1 X-14.288 Y12.357 E0.11632
G1 X-14.678 Y0.535 E1.08524
G1 E-3.20000 F3000.00000
G1 Z0.700 F9000.000
G1 X-11.596 Y-3.109 F9000.000
G1 Z0.300 F9000.000
G1 E3.20000 F3000.00000
G1 X-12.072 Y-3.710 E0.07040 F1200.000
G1 X-12.072 Y-7.805 E0.37566
G1 X-12.057 Y-7.932 E0.01177
G1 X-11.963 Y-8.269 E0.03206
G1 X-10.097 Y-11.990 E0.38197
G1 X-10.076 Y-12.282 E0.02685
G1 X-10.482 Y-13.503 E0.11799
G1 X-9.931 Y-14.601 E0.11275
G1 X-9.521 Y-14.912 E0.04723
G1 X-9.445 Y-14.926 E0.00706
G1 X-9.171 Y-15.134 E0.03149
G1 X-9.023 Y-15.430 E0.03040
G1 X-8.582 Y-15.576 E0.04266
G1 X-8.360 Y-15.768 E0.02685
G1 X-8.116 Y-16.256 E0.05011
G1 X-7.674 Y-16.403 E0.04266
G1 X-7.453 Y-16.594 E0.02685
G1 X-7.208 Y-17.083 E0.05011
G1 X-6.767 Y-17.229 E0.04266
G1 X-6.546 Y-17.421 E0.02685
G1 X-6.301 Y-17.909 E0.05011
G1 X-5.439 Y-18.195 E0.08333
G1 X-5.184 Y-18.341 E0.02701
G1 X-4.888 Y-18.425 E0.02818
G1 X5.274 Y-18.425 E0.93239
G1 X5.381 Y-18.439 E0.00989
G1 X5.877 Y-18.302 E0.04726
G1 X10.187 Y-14.389 E0.53408 F1200.000
G1 X10.363 Y-14.074 E0.03311
G1 X10.437 Y-13.674 E0.03733
G1 X10.613 Y-13.417 E0.02861
G1 X10.835 Y-13.280 E0.02390
G1 X12.012 Y-10.943 E0.24014
G1 X12.072 Y-10.692 E0.02367
G1 X12.073 Y-10.244 E0.04107
G1 X11.997 Y-9.923 E0.03029
G1 X12.213 Y-9.459 E0.04692
G1 X12.577 Y-9.277 E0.03735
G1 X12.865 Y-8.409 E0.08387
G1 X10.063 Y-2.817 E0.57391
G1 X9.855 Y-2.591 E0.02818
G1 X9.401 Y-2.310 E0.04901
G1 X9.105 Y-2.226 E0.02818
G1 X6.682 Y-2.226 E0.22230
G1 X6.358 Y-2.407 E0.03405
G1 X6.050 Y-2.436 E0.02841
G1 X5.819 Y-2.359 E0.02238
G1 X5.436 Y-2.551 E0.03924
G1 X5.081 Y-2.547 E0.03264
G1 X4.330 Y-2.153 E0.07778
G1 X3.060 Y-2.328 E0.11767
G1 X2.546 Y-2.817 E0.06506
G1 X1.939 Y-5.974 E0.29498
G1 X1.935 Y-6.155 E0.01660
G1 X1.977 Y-6.465 E0.02871
G1 X2.031 Y-6.638 E0.01660
G1 X2.520 Y-7.613 E0.10008
G1 X2.468 Y-8.050 E0.04041
G1 X1.207 Y-9.551 E0.17990
G1 X0.949 Y-9.686 E0.02671
G1 X-0.935 Y-9.857 E0.17350
G1 X-1.331 Y-9.636 E0.04164
G1 X-1.531 Y-9.238 E0.04089
G1 X-2.334 Y-8.828 E0.08275
G1 X-2.541 Y-8.323 E0.05005
G1 X-2.321 Y-7.661 E0.06409
G1 X-2.546 Y-7.213 E0.04594
G1 X-2.353 Y-6.635 E0.05591
G1 X-2.001 Y-6.458 E0.03615
G1 X-1.713 Y-5.591 E0.08387
G1 X-3.188 Y-2.648 E0.30205
G1 X-4.056 Y-2.359 E0.08387
G1 X-4.570 Y-2.617 E0.05280
G1 X-4.862 Y-2.638 E0.02685
G1 X-5.701 Y-2.359 E0.08115
G1 X-6.209 Y-2.614 E0.05215
G1 X-6.592 Y-2.597 E0.03510
G1 X-7.056 Y-2.310 E0.05010
G1 X-7.352 Y-2.226 E0.02818
G1 X-9.774 Y-2.226 E0.22230
G1 X-10.276 Y-2.506 E0.05266
G1 X-10.402 Y-2.711 E0.02212
G1 X-10.640 Y-2.882 E0.02685
G1 X-11.538 Y-3.095 E0.08469
G1 X-11.178 Y-3.766 F9000.000
G1 X-11.337 Y-3.966 E0.02347 F1200.000
G1 X-11.332 Y-7.805 E0.35217
G1 X-11.286 Y-7.977 E0.01639
G1 X-9.092 Y-12.355 E0.44926
G1 X-9.186 Y-12.845 E0.04579
G1 X-9.428 Y-13.060 E0.02972
G1 X-9.591 Y-13.156 E0.01741
G1 X-9.687 Y-13.445 E0.02796
G1 X-9.350 Y-14.118 E0.06904
G1 X-9.213 Y-14.222 E0.01574
G1 X-8.950 Y-14.272 E0.02462
G1 X-8.676 Y-14.479 E0.03149
G1 X-8.502 Y-14.828 E0.03574
G1 X-8.060 Y-14.974 E0.04266
G1 X-7.839 Y-15.166 E0.02685
G1 X-7.594 Y-15.654 E0.05011
G1 X-7.153 Y-15.801 E0.04266
G1 X-6.932 Y-15.992 E0.02685
G1 X-6.687 Y-16.481 E0.05011
G1 X-6.246 Y-16.627 E0.04266
G1 X-6.025 Y-16.819 E0.02685
G1 X-5.780 Y-17.307 E0.05011
G1 X-5.316 Y-17.461 E0.04487
G1 X-5.201 Y-17.466 E0.01055
G1 X-4.884 Y-17.662 E0.03414
G1 X-4.786 Y-17.690 E0.00939
G1 X5.164 Y-17.690 E0.91291
G1 X5.281 Y-17.671 E0.01082 F1200.000
G1 X5.351 Y-17.684 E0.00654
G1 X5.516 Y-17.639 E0.01575
G1 X9.603 Y-13.926 E0.50657
G1 X9.661 Y-13.821 E0.01104
G1 X9.773 Y-13.219 E0.05625
G1 X9.950 Y-12.961 E0.02861
G1 X10.272 Y-12.763 E0.03472
G1 X11.317 Y-10.689 E0.21311
G1 X11.337 Y-10.605 E0.00789
G1 X11.337 Y-10.329 E0.02529
G1 X11.317 Y-10.246 E0.00789
G1 X11.045 Y-9.704 E0.05561
G1 X11.238 Y-9.125 E0.05591
G1 X11.975 Y-8.756 E0.07568
G1 X12.071 Y-8.467 E0.02796
G1 X11.689 Y-7.705 E0.07821
G1 X11.551 Y-7.658 E0.01340
G1 X11.278 Y-7.114 E0.05591
G1 X11.324 Y-6.975 E0.01340
G1 X9.451 Y-3.238 E0.38348
G1 X9.382 Y-3.163 E0.00939
G1 X9.101 Y-2.990 E0.03022
G1 X9.003 Y-2.962 E0.00939
G1 X6.874 Y-2.962 E0.19535
G1 X6.434 Y-3.207 E0.04622
G1 X6.126 Y-3.236 E0.02841
G1 X5.876 Y-3.153 E0.02415
G1 X5.138 Y-3.523 E0.07568
G1 X4.560 Y-3.331 E0.05591
G1 X4.406 Y-3.024 E0.03152
G1 X4.197 Y-2.914 E0.02169
G1 X3.395 Y-3.025 E0.07429
G1 X3.223 Y-3.187 E0.02169
G1 X2.673 Y-6.053 E0.26776
G1 X2.716 Y-6.362 E0.02856
G1 X3.466 Y-7.859 E0.15364
G1 X3.235 Y-8.464 E0.05940
G1 X3.005 Y-8.555 E0.02274
G1 X1.575 Y-10.256 E0.20391
G1 X1.317 Y-10.391 E0.02671
G1 X-0.890 Y-10.591 E0.20328
G1 X-1.068 Y-10.707 E0.01952
G1 X-1.703 Y-10.535 E0.06040
G1 X-2.080 Y-9.783 E0.07716
G1 X-2.295 Y-9.674 E0.02217
G1 X-3.371 Y-9.851 E0.10003
G1 X-3.802 Y-9.632 E0.04435
G1 X-4.141 Y-8.955 E0.06945
G1 X-3.949 Y-8.377 E0.05591
G1 X-3.211 Y-8.007 E0.07568
G1 X-3.115 Y-7.718 E0.02796
G1 X-3.533 Y-6.885 E0.08547
G1 X-3.341 Y-6.307 E0.05591
G1 X-2.603 Y-5.937 E0.07568
G1 X-2.507 Y-5.648 E0.02796
G1 X-3.709 Y-3.250 E0.24614
G1 X-3.998 Y-3.153 E0.02796
G1 X-4.736 Y-3.523 E0.07568
G1 X-5.314 Y-3.331 E0.05591
G1 X-5.355 Y-3.250 E0.00835
G1 X-5.644 Y-3.153 E0.02796
G1 X-6.355 Y-3.510 E0.07294
G1 X-6.840 Y-3.420 E0.04527
G1 X-7.075 Y-3.163 E0.03198
G1 X-7.356 Y-2.990 E0.03022
G1 X-7.454 Y-2.962 E0.00939
G1 X-9.583 Y-2.962 E0.19535
G1 X-9.750 Y-3.055 E0.01755
G1 X-9.936 Y-3.357 E0.03253
G1 X-10.174 Y-3.528 E0.02685
G1 X-11.120 Y-3.752 E0.08918
G1 E-3.20000 F3000.00000
G1 Z0.700 F9000.000
G1 X-9.572 Y4.821 F9000.000
G1 Z0.300 F9000.000
G1 E3.20000 F3000.00000
G1 X-9.063 Y5.075 E0.05215 F1200.000
G1 X-8.681 Y5.059 E0.03510
G1 X-8.217 Y4.772 E0.05010
G1 X-7.921 Y4.688 E0.02818
G1 X-5.498 Y4.688 E0.22230
G1 X-5.344 Y4.774 E0.01624
G1 X-5.053 Y4.808 E0.02685
G1 X-4.630 Y4.688 E0.04037
G1 X-2.207 Y4.688 E0.22230
G1 X-1.706 Y4.967 E0.05266
G1 X-1.170 Y5.836 E0.09360
G1 X-1.144 Y6.409 E0.05266
G1 X-2.786 Y9.685 E0.33623
G1 X-2.787 Y10.031 E0.03177
G1 X-1.595 Y12.438 E0.24642
G1 X-1.366 Y12.633 E0.02758
G1 X0.369 Y13.178 E0.16686
G1 X0.601 Y13.177 E0.02127
G1 X1.142 Y12.997 E0.05231
G1 X1.494 Y13.173 E0.03615
G1 X2.072 Y12.981 E0.05591
G1 X2.688 Y11.752 E0.12616
G1 X2.581 Y11.247 E0.04734
G1 X2.322 Y11.036 E0.03066
G1 X1.488 Y8.210 E0.27035
G1 X1.467 Y8.003 E0.01908
G1 X1.499 Y7.644 E0.03304
G1 X1.556 Y7.444 E0.01908
G1 X2.726 Y5.109 E0.23962
G1 X3.594 Y4.821 E0.08387
G1 X4.102 Y5.075 E0.05215
G1 X4.484 Y5.059 E0.03510
G1 X4.949 Y4.772 E0.05010
G1 X5.244 Y4.688 E0.02818
G1 X7.667 Y4.688 E0.22230
G1 X7.822 Y4.774 E0.01624
G1 X8.112 Y4.808 E0.02685
G1 X8.536 Y4.688 E0.04037
G1 X10.959 Y4.688 E0.22230
G1 X11.460 Y4.967 E0.05266 F1200.000
G1 X11.996 Y5.836 E0.09360
G1 X12.021 Y6.409 E0.05266
G1 X11.362 Y7.723 E0.13489
G1 X11.415 Y8.162 E0.04052
G1 X11.909 Y8.746 E0.07025
G1 X12.076 Y12.574 E0.35147
G1 X12.064 Y12.713 E0.01288
G1 X11.967 Y13.083 E0.03507
G1 X8.911 Y19.180 E0.62575
G1 X8.044 Y19.469 E0.08387
G1 X7.692 Y19.292 E0.03614
G1 X7.113 Y19.484 E0.05591
G1 X6.072 Y21.561 E0.21319
G1 X5.205 Y21.850 E0.08387
G1 X4.741 Y21.617 E0.04763
G1 X4.336 Y21.647 E0.03720
G1 X3.953 Y21.915 E0.04299
G1 X2.969 Y22.030 E0.09084
G1 X2.686 Y21.917 E0.02798
G1 X2.504 Y21.893 E0.01680
G1 X1.323 Y22.030 E0.10908
G1 X1.040 Y21.917 E0.02798
G1 X0.859 Y21.893 E0.01680
G1 X-0.322 Y22.030 E0.10907
G1 X-0.606 Y21.917 E0.02798
G1 X-0.787 Y21.893 E0.01680
G1 X-1.968 Y22.030 E0.10908
G1 X-2.251 Y21.917 E0.02798
G1 X-2.433 Y21.893 E0.01680
G1 X-3.614 Y22.030 E0.10908
G1 X-4.025 Y21.865 E0.04067
G1 X-4.266 Y21.852 E0.02214
G1 X-4.936 Y22.038 E0.06374
G1 X-5.399 Y21.969 E0.04293
G1 X-7.298 Y20.765 E0.20638
G1 X-7.543 Y20.435 E0.03764
G1 X-7.702 Y19.860 E0.05479
G1 X-7.900 Y19.619 E0.02862
G1 X-8.714 Y19.211 E0.08349
G1 X-8.891 Y19.172 E0.01662
G1 X-8.971 Y19.174 E0.00738
G1 X-9.503 Y18.873 E0.05608
G1 X-10.761 Y16.651 E0.23425
G1 X-10.834 Y16.389 E0.02493
G1 X-10.841 Y16.098 E0.02678
G1 X-10.958 Y15.832 E0.02664
G1 X-11.493 Y15.317 E0.06808
G1 X-12.076 Y12.125 E0.29773
G1 X-12.079 Y11.947 E0.01636
G1 X-12.035 Y11.641 E0.02831
G1 X-11.982 Y11.471 E0.01636
G1 X-11.451 Y10.412 E0.10872
G1 X-11.540 Y9.928 E0.04516
G1 X-11.792 Y9.696 E0.03141
G1 X-12.120 Y8.912 E0.07797
G1 X-12.103 Y8.430 E0.04427
G1 X-10.439 Y5.109 E0.34079
G1 X-9.629 Y4.840 E0.07837
G1 X-9.629 Y5.615 F9000.000
G1 X-8.918 Y5.971 E0.07294 F1200.000
G1 X-8.433 Y5.882 E0.04527
G1 X-8.198 Y5.625 E0.03198
G1 X-7.917 Y5.451 E0.03022
G1 X-7.819 Y5.424 E0.00939
G1 X-5.690 Y5.424 E0.19535
G1 X-5.310 Y5.635 E0.03992
G1 X-4.910 Y5.627 E0.03670
G1 X-4.626 Y5.451 E0.03060
G1 X-4.527 Y5.424 E0.00939
G1 X-2.398 Y5.424 E0.19535
G1 X-2.231 Y5.517 E0.01755
G1 X-1.896 Y6.059 E0.05850
G1 X-1.888 Y6.250 E0.01755
G1 X-3.784 Y10.035 E0.38838
G1 X-3.630 Y10.583 E0.05232
G1 X-3.203 Y10.849 E0.04609
G1 X-2.114 Y13.046 E0.22496
G1 X-1.886 Y13.241 E0.02758
G1 X0.375 Y13.952 E0.21746
G1 X0.607 Y13.950 E0.02127
G1 X1.085 Y13.791 E0.04617
G1 X1.822 Y14.161 E0.07568
G1 X2.400 Y13.968 E0.05591
G1 X3.610 Y11.556 E0.24763
G1 X3.502 Y11.051 E0.04734
G1 X2.964 Y10.610 E0.06385
G1 X2.213 Y8.068 E0.24320
G1 X2.206 Y7.999 E0.00636
G1 X2.245 Y7.712 E0.02659
G1 X3.248 Y5.711 E0.20530
G1 X3.537 Y5.615 E0.02796
G1 X4.247 Y5.971 E0.07294
G1 X4.733 Y5.882 E0.04527
G1 X4.968 Y5.625 E0.03198
G1 X5.248 Y5.451 E0.03022
G1 X5.347 Y5.424 E0.00939
G1 X7.476 Y5.424 E0.19535
G1 X7.856 Y5.635 E0.03992
G1 X8.256 Y5.627 E0.03670
G1 X8.540 Y5.451 E0.03060
G1 X8.638 Y5.424 E0.00939
G1 X10.767 Y5.424 E0.19535 F1200.000
G1 X10.934 Y5.517 E0.01755
G1 X11.269 Y6.059 E0.05850
G1 X11.278 Y6.250 E0.01755
G1 X10.346 Y8.109 E0.19077
G1 X10.659 Y8.760 E0.06625
G1 X11.023 Y8.838 E0.03415
G1 X11.185 Y9.030 E0.02306
G1 X11.339 Y12.559 E0.32412
G1 X11.289 Y12.795 E0.02219
G1 X8.390 Y18.578 E0.59350
G1 X8.101 Y18.674 E0.02796
G1 X7.364 Y18.305 E0.07568
G1 X6.785 Y18.497 E0.05591
G1 X5.551 Y20.959 E0.25272
G1 X5.262 Y21.055 E0.02796
G1 X4.525 Y20.686 E0.07568
G1 X3.946 Y20.878 E0.05591
G1 X3.835 Y21.100 E0.02273
G1 X3.683 Y21.206 E0.01706
G1 X3.069 Y21.278 E0.05672
G1 X2.896 Y21.209 E0.01706
G1 X2.827 Y21.126 E0.00985
G1 X2.259 Y21.051 E0.05258
G1 X2.037 Y21.206 E0.02486
G1 X1.423 Y21.278 E0.05672
G1 X1.250 Y21.209 E0.01706
G1 X1.182 Y21.126 E0.00985
G1 X0.614 Y21.051 E0.05258
G1 X0.392 Y21.206 E0.02486
G1 X-0.222 Y21.278 E0.05672
G1 X-0.395 Y21.209 E0.01706
G1 X-0.464 Y21.126 E0.00985
G1 X-1.032 Y21.051 E0.05258
G1 X-1.254 Y21.206 E0.02486
G1 X-1.868 Y21.278 E0.05672
G1 X-2.041 Y21.209 E0.01706
G1 X-2.110 Y21.126 E0.00985
G1 X-2.678 Y21.051 E0.05258
G1 X-2.900 Y21.206 E0.02486
G1 X-3.514 Y21.278 E0.05672
G1 X-3.687 Y21.209 E0.01706
G1 X-3.769 Y21.111 E0.01172
G1 X-4.372 Y21.054 E0.05562
G1 X-4.490 Y21.151 E0.01397
G1 X-4.982 Y21.287 E0.04689
G1 X-5.136 Y21.264 E0.01431
G1 X-6.789 Y20.217 E0.17952
G1 X-6.870 Y20.107 E0.01255
G1 X-6.989 Y19.678 E0.04081
G1 X-6.977 Y19.548 E0.01200
G1 X-7.197 Y19.149 E0.04187
G1 X-7.985 Y18.754 E0.08089
G1 X-8.002 Y18.703 E0.00492
G1 X-8.400 Y18.424 E0.04456
G1 X-8.786 Y18.433 E0.03545
G1 X-8.963 Y18.333 E0.01869
G1 X-10.076 Y16.367 E0.20725
G1 X-10.101 Y16.280 E0.00831
G1 X-10.108 Y15.990 E0.02666
G1 X-10.039 Y15.679 E0.02918
G1 X-10.404 Y15.150 E0.05901
G1 X-10.641 Y15.116 E0.02193
G1 X-10.812 Y14.952 E0.02177
G1 X-11.341 Y12.051 E0.27050
G1 X-11.298 Y11.748 E0.02817
G1 X-10.472 Y10.101 E0.16904
G1 X-10.733 Y9.477 E0.06199
G1 X-11.057 Y9.372 E0.03123
G1 X-11.175 Y9.263 E0.01476
G1 X-11.379 Y8.776 E0.04846
G1 X-11.374 Y8.615 E0.01476
G1 X-9.918 Y5.711 E0.29808
G1 X-9.686 Y5.634 E0.02245
G1 E-3.20000 F3000.00000
G1 Z0.700 F9000.000
G1 X-8.933 Y-13.238 F9000.000
G1 Z0.300 F9000.000
G1 E3.20000 F3000.00000
G1 X-8.791 Y-13.521 E0.01722 F1200.000
G1 X-8.450 Y-13.218 E0.02480
G1 X-7.884 Y-14.347 E0.06867
G1 X-6.976 Y-15.174 F9000.000
G1 X-7.957 Y-13.218 E0.11889 F1200.000
G1 X-7.464 Y-13.218 E0.02679
G1 X-6.069 Y-16.000 E0.16912
G1 X-5.162 Y-16.827 F9000.000
G1 X-6.971 Y-13.218 E0.21934 F1200.000
G1 X-6.478 Y-13.218 E0.02679
G1 X-4.621 Y-16.922 E0.22513
G1 X-4.128 Y-16.922 E0.02679
G1 X-5.985 Y-13.218 E0.22513
G1 X-5.492 Y-13.218 E0.02679
G1 X-3.635 Y-16.922 E0.22513
G1 X-3.142 Y-16.922 E0.02679
G1 X-4.999 Y-13.218 E0.22513
G1 X-4.506 Y-13.218 E0.02679
G1 X-2.649 Y-16.922 E0.22513
G1 X-2.156 Y-16.922 E0.02679
G1 X-4.013 Y-13.218 E0.22513
G1 X-3.520 Y-13.218 E0.02679
G1 X-1.663 Y-16.922 E0.22513
G1 X-1.170 Y-16.922 E0.02679
G1 X-3.027 Y-13.218 E0.22513
G1 X-2.534 Y-13.218 E0.02679
G1 X-0.677 Y-16.922 E0.22513
G1 X-0.184 Y-16.922 E0.02679
G1 X-2.041 Y-13.218 E0.22513
G1 X-1.548 Y-13.218 E0.02679
G1 X0.309 Y-16.922 E0.22513
G1 X0.802 Y-16.922 E0.02679
G1 X-1.055 Y-13.218 E0.22513
G1 X-0.562 Y-13.218 E0.02679
G1 X1.295 Y-16.922 E0.22513
G1 X1.788 Y-16.922 E0.02679
G1 X-0.069 Y-13.218 E0.22513
G1 X0.424 Y-13.218 E0.02679
G1 X2.281 Y-16.922 E0.22513
G1 X2.774 Y-16.922 E0.02679
G1 X0.917 Y-13.218 E0.22513
G1 X1.410 Y-13.218 E0.02679
G1 X3.267 Y-16.922 E0.22513
G1 X3.760 Y-16.922 E0.02679
G1 X1.903 Y-13.218 E0.22513
G1 X2.396 Y-13.218 E0.02679
G1 X4.253 Y-16.922 E0.22513
G1 X4.746 Y-16.922 E0.02679
G1 X2.889 Y-13.218 E0.22513
G1 X3.383 Y-13.218 E0.02679
G1 X5.217 Y-16.877 E0.22240
G1 X5.557 Y-16.573 E0.02480
G1 X3.876 Y-13.218 E0.20393
G1 X4.369 Y-13.218 E0.02679
G1 X5.896 Y-16.265 E0.18520
G1 X6.234 Y-15.957 E0.02488
G1 X4.862 Y-13.218 E0.16646
G1 X5.355 Y-13.218 E0.02679
G1 X6.573 Y-15.648 E0.14772
G1 X6.911 Y-15.340 E0.02488
G1 X5.848 Y-13.218 E0.12898
G1 X6.341 Y-13.218 E0.02679
G1 X7.250 Y-15.032 E0.11024
G1 X7.588 Y-14.723 E0.02488
G1 X6.834 Y-13.218 E0.09150
G1 X7.327 Y-13.218 E0.02679
G1 X7.927 Y-14.415 E0.07276
G1 X8.265 Y-14.107 E0.02488
G1 X7.820 Y-13.218 E0.05402
G1 X8.313 Y-13.218 E0.02679
G1 X8.604 Y-13.798 E0.03528
G1 X8.942 Y-13.490 E0.02488
