; generated by Slic3r 1.2.9 on 2018-05-30 at 11:55:14

; external perimeters extrusion width = 0.40mm
; perimeters extrusion width = 0.40mm
; infill extrusion width = 0.40mm
; solid infill extrusion width = 0.40mm
; top infill extrusion width = 0.40mm

M107
M83
T0
M116
G21 ; set units to millimeters
G90 ; use absolute coordinates
M83 ; use relative distances for extrusion
G1 E-3.50000 F1500.00000
G1 Z0.400 F15000.000
G1 X25.161 Y-5.098 F15000.000
G1 Z0.300 F15000.000
G1 E3.50000 F1500.00000
G1 X28.154 Y9.674 E1.16151 F960.000
G1 X28.226 Y10.394 E0.05581
G1 X28.235 Y33.519 E1.78211
G1 X28.159 Y34.260 E0.05742
G1 X28.118 Y34.460 E0.01571
G1 X27.678 Y35.586 E0.09316
G1 X27.579 Y35.753 E0.01500
G1 X26.823 Y36.648 E0.09026
G1 X26.677 Y36.774 E0.01487
G1 X25.646 Y37.395 E0.09278
G1 X25.456 Y37.470 E0.01571
G1 X24.125 Y37.723 E0.10439
G1 X9.504 Y37.736 E1.12682
G1 X8.515 Y37.689 E0.07624
G1 X8.137 Y37.649 E0.02933
G1 X7.351 Y37.525 E0.06131
G1 X6.526 Y37.333 E0.06531
G1 X5.510 Y37.001 E0.08234
G1 X-24.165 Y26.424 E2.42788
G1 X-24.502 Y26.288 E0.02795
G1 X-24.997 Y26.043 E0.04256
G1 X-25.360 Y25.827 E0.03258
G1 X-25.821 Y25.502 E0.04348
G1 X-26.124 Y25.251 E0.03030
G1 X-26.508 Y24.883 E0.04098
G1 X-26.751 Y24.614 E0.02795
G1 X-27.098 Y24.161 E0.04397
G1 X-27.345 Y23.781 E0.03493
G1 X-27.617 Y23.280 E0.04396
G1 X-27.764 Y22.948 E0.02795
G1 X-27.955 Y22.411 E0.04397
G1 X-28.072 Y21.973 E0.03493
G1 X-28.182 Y21.348 E0.04886
G1 X-28.236 Y20.580 E0.05937
G1 X-28.236 Y-28.500 E3.78233
G1 X-28.220 Y-29.017 E0.03993
G1 X-28.161 Y-29.659 E0.04968
G1 X-28.058 Y-30.296 E0.04967
G1 X-27.911 Y-30.923 E0.04967
G1 X-27.720 Y-31.539 E0.04967
G1 X-27.487 Y-32.140 E0.04967
G1 X-27.212 Y-32.723 E0.04967
G1 X-26.898 Y-33.285 E0.04967
G1 X-26.280 Y-34.175 E0.08348
G1 X-26.004 Y-34.513 E0.03361
G1 X-25.565 Y-34.990 E0.04994
G1 X-25.275 Y-35.272 E0.03119
G1 X-24.833 Y-35.657 E0.04517
G1 X-24.058 Y-36.226 E0.07409
G1 X-23.451 Y-36.589 E0.05455
G1 X-22.928 Y-36.855 E0.04517
G1 X-22.033 Y-37.220 E0.07447
G1 X-21.105 Y-37.489 E0.07448
G1 X-20.159 Y-37.661 E0.07409
G1 X-19.517 Y-37.720 E0.04968
G1 X-18.999 Y-37.736 E0.03995
G1 X11.131 Y-37.733 E2.32200
G1 X11.795 Y-37.699 E0.05128 F960.000
G1 X12.696 Y-37.576 E0.07005
G1 X13.049 Y-37.503 E0.02778
G1 X13.844 Y-37.285 E0.06353
G1 X14.503 Y-37.044 E0.05406
G1 X15.133 Y-36.756 E0.05337
G1 X15.637 Y-36.484 E0.04419
G1 X16.223 Y-36.115 E0.05337
G1 X16.926 Y-35.580 E0.06809
G1 X17.473 Y-35.085 E0.05678
G1 X18.048 Y-34.465 E0.06522
G1 X18.278 Y-34.181 E0.02815
G1 X18.617 Y-33.718 E0.04419
G1 X19.017 Y-33.082 E0.05796
G1 X19.397 Y-32.340 E0.06424
G1 X19.541 Y-32.007 E0.02794
G1 X19.844 Y-31.153 E0.06982
G1 X20.016 Y-30.497 E0.05230
G1 X25.149 Y-5.157 E1.99253
G1 E-3.50000 F1500.00000
G1 Z0.700 F15000.000
G1 X-17.251 Y-24.928 F15000.000
G1 Z0.300 F15000.000
G1 E3.50000 F1500.00000
G1 X-17.332 Y-24.752 E0.01494 F600.000
G1 X-17.529 Y-24.460 E0.02712
G1 X-17.765 Y-24.199 E0.02713
G1 X-18.092 Y-23.934 E0.03242
G1 X-18.340 Y-23.773 E0.02282
G1 X-18.809 Y-23.596 E0.03859
G1 X-19.152 Y-23.523 E0.02703
G1 X-19.506 Y-23.499 E0.02736
G1 X-20.017 Y-23.552 E0.03960
G1 X-20.440 Y-23.682 E0.03408
G1 X-20.896 Y-23.924 E0.03983
G1 X-21.240 Y-24.203 E0.03408
G1 X-21.572 Y-24.599 E0.03983
G1 X-21.787 Y-24.985 E0.03408
G1 X-21.947 Y-25.480 E0.04007
G1 X-22.000 Y-25.981 E0.03886
G1 X-21.999 Y-29.596 E0.27856
G1 X-21.951 Y-29.997 E0.03110
G1 X-21.850 Y-30.357 E0.02889
G1 X-21.668 Y-30.748 E0.03320
G1 X-21.471 Y-31.040 E0.02713
G1 X-21.237 Y-31.299 E0.02689
G1 X-20.970 Y-31.523 E0.02689
G1 X-20.678 Y-31.706 E0.02653
G1 X-20.369 Y-31.853 E0.02638
G1 X-19.932 Y-31.963 E0.03471
G1 X-19.521 Y-32.001 E0.03186 F600.000
G1 X-19.063 Y-31.963 E0.03536
G1 X-18.563 Y-31.820 E0.04009
G1 X-18.121 Y-31.587 E0.03853
G1 X-17.765 Y-31.302 E0.03513
G1 X-17.530 Y-31.040 E0.02716
G1 X-17.273 Y-30.661 E0.03529
G1 X-17.075 Y-30.113 E0.04487
G1 X-17.023 Y-29.845 E0.02107
G1 X-17.000 Y-29.513 E0.02568
G1 X-17.003 Y-25.820 E0.28460
G1 X-17.054 Y-25.478 E0.02660
G1 X-17.151 Y-25.142 E0.02698
G1 X-17.225 Y-24.982 E0.01356
G1 X-17.139 Y-24.769 F15000.000
G1 X9.000 Y-25.981 F15000.000
G1 X9.001 Y-29.596 E0.27856 F600.000
G1 X9.049 Y-29.997 E0.03110
G1 X9.150 Y-30.355 E0.02865
G1 X9.292 Y-30.674 E0.02696
G1 X9.478 Y-30.972 E0.02707
G1 X9.746 Y-31.282 E0.03158
G1 X10.031 Y-31.524 E0.02884
G1 X10.382 Y-31.737 E0.03165
G1 X10.726 Y-31.878 E0.02865
G1 X11.068 Y-31.963 E0.02715
G1 X11.479 Y-32.001 E0.03182 F600.000
G1 X11.937 Y-31.963 E0.03536
G1 X12.437 Y-31.820 E0.04014
G1 X12.896 Y-31.576 E0.04007
G1 X13.238 Y-31.299 E0.03384
G1 X13.526 Y-30.968 E0.03384
G1 X13.786 Y-30.518 E0.04007
G1 X13.947 Y-30.020 E0.04031
G1 X14.000 Y-29.519 E0.03886
G1 X13.999 Y-25.904 E0.27856
G1 X13.951 Y-25.503 E0.03110
G1 X13.850 Y-25.143 E0.02889
G1 X13.668 Y-24.752 E0.03320
G1 X13.469 Y-24.458 E0.02731
G1 X13.191 Y-24.158 E0.03158
G1 X12.897 Y-23.925 E0.02889
G1 X12.520 Y-23.716 E0.03320
G1 X12.189 Y-23.596 E0.02712
G1 X11.848 Y-23.523 E0.02689
G1 X11.494 Y-23.499 E0.02736
G1 X10.983 Y-23.552 E0.03960
G1 X10.560 Y-23.682 E0.03408
G1 X10.104 Y-23.924 E0.03983
G1 X9.762 Y-24.201 E0.03384
G1 X9.474 Y-24.532 E0.03384
G1 X9.214 Y-24.982 E0.04007
G1 X9.053 Y-25.480 E0.04031
G1 X9.006 Y-25.922 E0.03423
G1 X8.647 Y-26.169 F15000.000
G1 E-3.50000 F1500.00000
G1 Z0.700 F15000.000
G1 X-17.298 Y-0.740 F15000.000
G1 Z0.300 F15000.000
G1 E3.50000 F1500.00000
G1 X-16.890 Y-0.246 E0.04939 F600.000
G1 X-16.622 Y0.244 E0.04303
G1 X-16.426 Y0.854 E0.04938
G1 X-16.364 Y1.449 E0.04609
G1 X-16.367 Y5.228 E0.29128
G1 X-16.432 Y5.657 E0.03343
G1 X-16.554 Y6.082 E0.03401
G1 X-16.778 Y6.562 E0.04084
G1 X-17.027 Y6.932 E0.03441
G1 X-17.325 Y7.262 E0.03426
G1 X-17.718 Y7.584 E0.03916
G1 X-18.122 Y7.819 E0.03602
G1 X-18.537 Y7.987 E0.03446
G1 X-19.031 Y8.103 E0.03916
G1 X-19.472 Y8.136 E0.03403
G1 X-19.735 Y8.132 E0.02032
G1 X-20.143 Y8.071 E0.03179
G1 X-20.674 Y7.912 E0.04269
G1 X-21.171 Y7.658 E0.04304
G1 X-21.680 Y7.261 E0.04979
G1 X-22.085 Y6.782 E0.04827
G1 X-22.371 Y6.272 E0.04513
G1 X-22.572 Y5.653 E0.05013
G1 X-22.636 Y5.052 E0.04658
G1 X-22.634 Y1.366 E0.28406
G1 X-22.573 Y0.863 E0.03906
G1 X-22.453 Y0.438 E0.03403
G1 X-22.276 Y0.036 E0.03388
G1 X-22.006 Y-0.389 E0.03873
G1 X-21.702 Y-0.736 E0.03563
G1 X-21.371 Y-1.019 E0.03357
G1 X-20.999 Y-1.258 E0.03403
G1 X-20.511 Y-1.472 E0.04105
G1 X-19.994 Y-1.599 E0.04105
G1 X-19.546 Y-1.638 E0.03469 F600.000
G1 X-19.030 Y-1.603 E0.03984
G1 X-18.618 Y-1.515 E0.03242
G1 X-18.348 Y-1.418 E0.02215
G1 X-17.806 Y-1.145 E0.04675
G1 X-17.345 Y-0.777 E0.04543
G1 X-17.746 Y-0.284 F15000.000
G1 X-17.419 Y0.112 E0.03963 F600.000
G1 X-17.209 Y0.496 E0.03370
G1 X-17.052 Y0.985 E0.03963
G1 X-17.000 Y1.482 E0.03844
G1 X-17.003 Y5.180 E0.28506
G1 X-17.054 Y5.522 E0.02660
G1 X-17.151 Y5.858 E0.02698
G1 X-17.332 Y6.248 E0.03313
G1 X-17.529 Y6.540 E0.02713
G1 X-17.764 Y6.801 E0.02707
G1 X-18.082 Y7.060 E0.03158
G1 X-18.403 Y7.247 E0.02865
G1 X-18.729 Y7.379 E0.02715
G1 X-19.128 Y7.473 E0.03158
G1 X-19.490 Y7.500 E0.02794
G1 X-19.683 Y7.497 E0.01487
G1 X-20.005 Y7.449 E0.02506
G1 X-20.436 Y7.320 E0.03473
G1 X-20.828 Y7.120 E0.03391
G1 X-21.237 Y6.800 E0.04002
G1 X-21.560 Y6.418 E0.03853
G1 X-21.786 Y6.016 E0.03560
G1 X-21.947 Y5.520 E0.04014
G1 X-22.000 Y5.019 E0.03886
G1 X-21.999 Y1.405 E0.27853
G1 X-21.948 Y0.989 E0.03229
G1 X-21.853 Y0.654 E0.02683
G1 X-21.713 Y0.336 E0.02678
G1 X-21.496 Y-0.006 E0.03123
G1 X-21.254 Y-0.283 E0.02834
G1 X-20.991 Y-0.508 E0.02666
G1 X-20.698 Y-0.696 E0.02683
G1 X-20.306 Y-0.868 E0.03300
G1 X-19.890 Y-0.970 E0.03300
G1 X-19.540 Y-1.001 E0.02706 F600.000
G1 X-19.119 Y-0.972 E0.03257
G1 X-18.793 Y-0.902 E0.02565
G1 X-18.599 Y-0.832 E0.01587
G1 X-18.151 Y-0.607 E0.03870
G1 X-17.793 Y-0.322 E0.03524
G1 X-17.357 Y-0.378 F15000.000
G1 X-14.075 Y-3.145 F15000.000
G1 X-14.277 Y-3.410 E0.02566 F720.000
G1 X-14.807 Y-4.247 E0.07632
G1 X-15.028 Y-4.646 E0.03517
G1 X-15.406 Y-5.420 E0.06639
G1 X-15.690 Y-6.116 E0.05789
G1 X-16.002 Y-7.055 E0.07629
G1 X-16.213 Y-7.903 E0.06730
G1 X-16.344 Y-8.633 E0.05718
G1 X-16.418 Y-9.197 E0.04388
G1 X-16.469 Y-9.884 E0.05308
G1 X-16.486 Y-10.486 E0.04639
G1 X-16.486 Y-13.518 E0.23364
G1 X-16.456 Y-14.370 E0.06569
G1 X-16.381 Y-15.108 E0.05718
G1 X-16.296 Y-15.673 E0.04405
G1 X-16.115 Y-16.521 E0.06680
G1 X-15.873 Y-17.365 E0.06769
G1 X-15.462 Y-18.450 E0.08942
G1 X-15.221 Y-18.976 E0.04463
G1 X-14.877 Y-19.628 E0.05681
G1 X-14.586 Y-20.121 E0.04405
G1 X-14.102 Y-20.839 E0.06680
G1 X-13.565 Y-21.526 E0.06716
G1 X-12.982 Y-22.174 E0.06716
G1 X-12.355 Y-22.779 E0.06716
G1 X-11.687 Y-23.339 E0.06716
G1 X-10.982 Y-23.852 E0.06716
G1 X-10.243 Y-24.313 E0.06716
G1 X-9.474 Y-24.723 E0.06716
G1 X-8.677 Y-25.077 E0.06716
G1 X-7.858 Y-25.375 E0.06716
G1 X-7.021 Y-25.615 E0.06716
G1 X-6.177 Y-25.795 E0.06650
G1 X-5.729 Y-25.866 E0.03491
G1 X-4.872 Y-25.956 E0.06639
G1 X-4.122 Y-25.984 E0.05789 F720.000
G1 X-3.132 Y-25.956 E0.07629
G1 X-2.271 Y-25.866 E0.06675
G1 X-1.823 Y-25.795 E0.03491
G1 X-0.979 Y-25.615 E0.06650
G1 X-0.142 Y-25.375 E0.06716
G1 X0.669 Y-25.080 E0.06650
G1 X1.086 Y-24.903 E0.03491
G1 X1.854 Y-24.528 E0.06584
G1 X2.250 Y-24.309 E0.03491
G1 X2.975 Y-23.856 E0.06584
G1 X3.346 Y-23.596 E0.03491
G1 X4.026 Y-23.065 E0.06650
G1 X4.667 Y-22.488 E0.06650
G1 X4.987 Y-22.168 E0.03480
G1 X5.485 Y-21.618 E0.05722
G1 X6.100 Y-20.842 E0.07629
G1 X6.584 Y-20.124 E0.06675
G1 X6.817 Y-19.736 E0.03491
G1 X7.223 Y-18.974 E0.06650
G1 X7.577 Y-18.177 E0.06716
G1 X7.875 Y-17.358 E0.06716
G1 X8.113 Y-16.529 E0.06650
G1 X8.215 Y-16.088 E0.03491
G1 X8.365 Y-15.238 E0.06650
G1 X8.456 Y-14.371 E0.06716
G1 X8.486 Y-13.518 E0.06580
G1 X8.486 Y-10.482 E0.23392
G1 X8.456 Y-9.638 E0.06514
G1 X8.417 Y-9.188 E0.03480
G1 X8.316 Y-8.452 E0.05722
G1 X8.117 Y-7.484 E0.07618
G1 X7.911 Y-6.758 E0.05814
G1 X7.578 Y-5.826 E0.07629
G1 X7.226 Y-5.034 E0.06675
G1 X7.020 Y-4.631 E0.03491
G1 X6.589 Y-3.883 E0.06650
G1 X6.098 Y-3.155 E0.06769
G1 X5.371 Y-2.251 E0.08942
G1 X4.979 Y-1.824 E0.04463
G1 X4.451 Y-1.310 E0.05681
G1 X4.022 Y-0.932 E0.04405
G1 X3.346 Y-0.404 E0.06614
G1 X2.975 Y-0.144 E0.03491
G1 X2.243 Y0.313 E0.06650
G1 X1.475 Y0.722 E0.06705
G1 X0.790 Y1.029 E0.05789
G1 X-0.138 Y1.374 E0.07629
G1 X-0.979 Y1.615 E0.06742
G1 X-1.830 Y1.796 E0.06705
G1 X-2.565 Y1.902 E0.05718
G1 X-3.134 Y1.956 E0.04405
G1 X-3.999 Y1.986 E0.06669
G1 X-4.740 Y1.962 E0.05718
G1 X-5.316 Y1.917 E0.04453
G1 X-6.443 Y1.744 E0.08786
G1 X-7.430 Y1.506 E0.07822
G1 X-7.867 Y1.372 E0.03521
G1 X-8.676 Y1.078 E0.06639
G1 X-9.363 Y0.774 E0.05789
G1 X-10.240 Y0.315 E0.07629
G1 X-10.975 Y-0.144 E0.06675
G1 X-11.346 Y-0.404 E0.03491
G1 X-12.026 Y-0.935 E0.06650
G1 X-12.674 Y-1.518 E0.06716
G1 X-13.273 Y-2.139 E0.06650
G1 X-13.575 Y-2.486 E0.03543
G1 X-14.039 Y-3.097 E0.05918
G1 X-13.533 Y-3.482 F15000.000
G1 X-13.754 Y-3.773 E0.02822 F720.000
G1 X-14.260 Y-4.571 E0.07281
G1 X-14.464 Y-4.939 E0.03244
G1 X-14.825 Y-5.680 E0.06347
G1 X-15.093 Y-6.336 E0.05463
G1 X-15.391 Y-7.233 E0.07280
G1 X-15.591 Y-8.036 E0.06379
G1 X-15.716 Y-8.730 E0.05438
G1 X-15.785 Y-9.262 E0.04135
G1 X-15.834 Y-9.917 E0.05057
G1 X-15.850 Y-10.495 E0.04457
G1 X-15.850 Y-13.507 E0.23211
G1 X-15.821 Y-14.326 E0.06320
G1 X-15.750 Y-15.028 E0.05438
G1 X-15.670 Y-15.559 E0.04141
G1 X-15.498 Y-16.367 E0.06361
G1 X-15.270 Y-17.164 E0.06393
G1 X-14.875 Y-18.205 E0.08576
G1 X-14.650 Y-18.696 E0.04161
G1 X-14.322 Y-19.318 E0.05425
G1 X-14.049 Y-19.781 E0.04141
G1 X-13.587 Y-20.465 E0.06361
G1 X-13.078 Y-21.117 E0.06374
G1 X-12.524 Y-21.732 E0.06374
G1 X-11.929 Y-22.306 E0.06374
G1 X-11.296 Y-22.838 E0.06374
G1 X-10.627 Y-23.324 E0.06374
G1 X-9.925 Y-23.763 E0.06374
G1 X-9.195 Y-24.151 E0.06374
G1 X-8.439 Y-24.487 E0.06374
G1 X-7.662 Y-24.770 E0.06374
G1 X-6.867 Y-24.998 E0.06374
G1 X-6.061 Y-25.170 E0.06351
G1 X-5.646 Y-25.235 E0.03235
G1 X-4.827 Y-25.321 E0.06347
G1 X-4.119 Y-25.348 E0.05463 F720.000
G1 X-3.175 Y-25.321 E0.07280
G1 X-2.354 Y-25.235 E0.06360
G1 X-1.939 Y-25.170 E0.03235
G1 X-1.133 Y-24.998 E0.06351
G1 X-0.338 Y-24.770 E0.06374
G1 X0.436 Y-24.488 E0.06351
G1 X0.823 Y-24.324 E0.03235
G1 X1.561 Y-23.964 E0.06327
G1 X1.928 Y-23.761 E0.03235
G1 X2.624 Y-23.326 E0.06327
G1 X2.968 Y-23.085 E0.03235
G1 X3.617 Y-22.578 E0.06351
G1 X4.230 Y-22.026 E0.06351
G1 X4.526 Y-21.730 E0.03231
G1 X5.000 Y-21.207 E0.05439
G1 X5.586 Y-20.466 E0.07280
G1 X6.048 Y-19.782 E0.06360
G1 X6.264 Y-19.422 E0.03235
G1 X6.651 Y-18.695 E0.06351
G1 X6.987 Y-17.939 E0.06374
G1 X7.270 Y-17.162 E0.06374
G1 X7.497 Y-16.370 E0.06351
G1 X7.592 Y-15.961 E0.03235
G1 X7.735 Y-15.149 E0.06351
G1 X7.821 Y-14.327 E0.06374
G1 X7.850 Y-13.507 E0.06324
G1 X7.850 Y-10.493 E0.23221
G1 X7.821 Y-9.676 E0.06300
G1 X7.785 Y-9.259 E0.03231
G1 X7.689 Y-8.560 E0.05439
G1 X7.499 Y-7.635 E0.07276
G1 X7.305 Y-6.952 E0.05472
G1 X6.988 Y-6.062 E0.07280
G1 X6.652 Y-5.308 E0.06360
G1 X6.462 Y-4.934 E0.03235
G1 X6.050 Y-4.220 E0.06351
G1 X5.586 Y-3.533 E0.06393
G1 X4.889 Y-2.665 E0.08576
G1 X4.523 Y-2.267 E0.04161
G1 X4.019 Y-1.777 E0.05425
G1 X3.616 Y-1.421 E0.04141
G1 X2.968 Y-0.915 E0.06338
G1 X2.624 Y-0.674 E0.03235
G1 X1.925 Y-0.237 E0.06351
G1 X1.195 Y0.151 E0.06370
G1 X0.549 Y0.441 E0.05463
G1 X-0.337 Y0.770 E0.07280
G1 X-1.133 Y0.998 E0.06383
G1 X-1.942 Y1.170 E0.06370
G1 X-2.640 Y1.270 E0.05438
G1 X-3.175 Y1.321 E0.04141
G1 X-3.999 Y1.350 E0.06357
G1 X-4.705 Y1.328 E0.05438
G1 X-5.243 Y1.285 E0.04158
G1 X-6.320 Y1.119 E0.08401
G1 X-7.262 Y0.892 E0.07468
G1 X-7.665 Y0.769 E0.03245
G1 X-8.439 Y0.488 E0.06347
G1 X-9.087 Y0.201 E0.05463
G1 X-9.924 Y-0.237 E0.07280
G1 X-10.624 Y-0.674 E0.06360
G1 X-10.968 Y-0.915 E0.03235
G1 X-11.617 Y-1.422 E0.06351
G1 X-12.232 Y-1.976 E0.06374
G1 X-12.804 Y-2.568 E0.06351
G1 X-13.081 Y-2.887 E0.03253
G1 X-13.497 Y-3.434 E0.05293
G1 X-13.896 Y-3.436 F15000.000
G1 E-3.50000 F1500.00000
G1 Z0.700 F15000.000
G1 X8.424 Y0.879 F15000.000
G1 Z0.300 F15000.000
G1 E3.50000 F1500.00000
G1 X8.552 Y0.423 E0.03655 F600.000
G1 X8.766 Y-0.041 E0.03936
G1 X9.025 Y-0.430 E0.03602
G1 X9.320 Y-0.757 E0.03394
G1 X9.662 Y-1.044 E0.03441
G1 X10.116 Y-1.317 E0.04084
G1 X10.530 Y-1.484 E0.03440
G1 X10.962 Y-1.592 E0.03426
G1 X11.476 Y-1.639 E0.03984 F600.000
G1 X12.051 Y-1.592 E0.04446
G1 X12.677 Y-1.412 E0.05013
G1 X13.249 Y-1.108 E0.04994
G1 X13.686 Y-0.754 E0.04336
G1 X14.085 Y-0.282 E0.04760
G1 X14.371 Y0.228 E0.04513
G1 X14.572 Y0.847 E0.05013
G1 X14.636 Y1.448 E0.04658
G1 X14.634 Y5.134 E0.28403
G1 X14.576 Y5.621 E0.03782
G1 X14.448 Y6.079 E0.03669
G1 X14.222 Y6.562 E0.04104
G1 X13.973 Y6.932 E0.03441
G1 X13.675 Y7.262 E0.03426
G1 X13.282 Y7.584 E0.03916
G1 X12.878 Y7.819 E0.03602
G1 X12.463 Y7.987 E0.03446
G1 X11.969 Y8.103 E0.03916
G1 X11.528 Y8.136 E0.03403
G1 X11.265 Y8.132 E0.02032
G1 X10.857 Y8.071 E0.03179
G1 X10.326 Y7.912 E0.04269
G1 X9.829 Y7.658 E0.04304
G1 X9.320 Y7.261 E0.04979
G1 X8.915 Y6.782 E0.04827
G1 X8.629 Y6.272 E0.04513
G1 X8.428 Y5.653 E0.05013
G1 X8.364 Y5.052 E0.04658
G1 X8.366 Y1.366 E0.28403
G1 X8.417 Y0.939 E0.03319
G1 X9.048 Y1.014 F15000.000
G1 X9.150 Y0.643 E0.02963 F600.000
G1 X9.322 Y0.270 E0.03165
G1 X9.529 Y-0.039 E0.02865
G1 X9.763 Y-0.299 E0.02696
G1 X10.032 Y-0.525 E0.02713
G1 X10.401 Y-0.747 E0.03313
G1 X10.727 Y-0.878 E0.02712
G1 X11.068 Y-0.963 E0.02707
G1 X11.479 Y-1.001 E0.03182 F600.000
G1 X11.937 Y-0.963 E0.03536
G1 X12.437 Y-0.820 E0.04014
G1 X12.896 Y-0.576 E0.04007
G1 X13.239 Y-0.298 E0.03402
G1 X13.560 Y0.082 E0.03829
G1 X13.786 Y0.484 E0.03560
G1 X13.947 Y0.980 E0.04014
G1 X14.000 Y1.481 E0.03886
G1 X13.999 Y5.096 E0.27856
G1 X13.951 Y5.497 E0.03110
G1 X13.850 Y5.857 E0.02889
G1 X13.668 Y6.248 E0.03320
G1 X13.471 Y6.540 E0.02713
G1 X13.236 Y6.801 E0.02707
G1 X12.918 Y7.060 E0.03158
G1 X12.597 Y7.247 E0.02865
G1 X12.271 Y7.379 E0.02715
G1 X11.872 Y7.473 E0.03158
G1 X11.317 Y7.497 E0.04277
G1 X10.995 Y7.449 E0.02506
G1 X10.564 Y7.320 E0.03473
G1 X10.172 Y7.120 E0.03391
G1 X9.763 Y6.800 E0.04002
G1 X9.440 Y6.418 E0.03853
G1 X9.214 Y6.016 E0.03560
G1 X9.053 Y5.520 E0.04014
G1 X9.000 Y5.019 E0.03886
G1 X9.001 Y1.404 E0.27856
G1 X9.041 Y1.073 E0.02567
G1 X8.765 Y0.754 F15000.000
