; generated by Slic3r 1.2.9 on 2018-05-30 at 15:20:49

; external perimeters extrusion width = 0.40mm
; perimeters extrusion width = 0.40mm
; infill extrusion width = 0.40mm
; solid infill extrusion width = 0.40mm
; top infill extrusion width = 0.40mm

M107
M83
T0
M116
G21 ; set units to millimeters
G90 ; use absolute coordinates
M83 ; use relative distances for extrusion
G1 E-3.50000 F1500.00000
G1 Z0.400 F15000.000
G1 X-5.101 Y25.157 F15000.000
G1 Z0.300 F15000.000
G1 E3.50000 F1500.00000
G1 X-30.672 Y19.972 E2.01074 F960.000
G1 X-31.118 Y19.852 E0.03562
G1 X-31.600 Y19.677 E0.03952
G1 X-32.732 Y19.191 E0.09494
G1 X-33.478 Y18.761 E0.06634
G1 X-34.464 Y18.023 E0.09494
G1 X-34.857 Y17.693 E0.03952
G1 X-35.317 Y17.208 E0.05151
G1 X-36.079 Y16.240 E0.09494
G1 X-36.373 Y15.820 E0.03952
G1 X-36.712 Y15.201 E0.05439
G1 X-37.285 Y13.799 E0.11669
G1 X-37.508 Y12.968 E0.06634
G1 X-37.683 Y11.749 E0.09494
G1 X-37.736 Y10.998 E0.05796
G1 X-37.736 Y-18.998 E2.31171
G1 X-37.683 Y-19.749 E0.05796
G1 X-37.508 Y-20.968 E0.09494
G1 X-37.352 Y-21.618 E0.05151
G1 X-37.177 Y-22.100 E0.03952
G1 X-36.691 Y-23.232 E0.09494
G1 X-36.261 Y-23.978 E0.06634
G1 X-35.523 Y-24.964 E0.09494
G1 X-35.193 Y-25.357 E0.03952
G1 X-34.708 Y-25.817 E0.05151
G1 X-33.740 Y-26.579 E0.09494
G1 X-33.320 Y-26.873 E0.03952
G1 X-32.701 Y-27.212 E0.05439
G1 X-31.299 Y-27.785 E0.11669
G1 X-30.468 Y-28.008 E0.06634
G1 X-28.968 Y-28.213 E0.11669
G1 X-28.498 Y-28.236 E0.03622
G1 X20.577 Y-28.236 E3.78202
G1 X21.052 Y-28.205 E0.03665
G1 X21.728 Y-28.116 E0.05255 F960.000
G1 X22.644 Y-27.870 E0.07314
G1 X23.271 Y-27.610 E0.05230
G1 X24.093 Y-27.136 E0.07314
G1 X24.632 Y-26.722 E0.05230
G1 X25.303 Y-26.051 E0.07314
G1 X25.716 Y-25.513 E0.05230
G1 X26.191 Y-24.691 E0.07314
G1 X26.516 Y-23.894 E0.06637
G1 X36.993 Y5.495 E2.40449
G1 X37.320 Y6.495 E0.08111
G1 X37.434 Y6.938 E0.03519
G1 X37.611 Y7.871 E0.07319
G1 X37.669 Y8.324 E0.03519
G1 X37.736 Y9.501 E0.09091
G1 X37.736 Y23.997 E1.11709
G1 X37.684 Y24.630 E0.04896
G1 X37.438 Y25.546 E0.07312
G1 X37.378 Y25.691 E0.01206
G1 X36.904 Y26.513 E0.07316
G1 X36.808 Y26.637 E0.01206
G1 X36.137 Y27.308 E0.07313
G1 X36.013 Y27.404 E0.01206
G1 X35.191 Y27.878 E0.07314
G1 X35.047 Y27.938 E0.01206
G1 X34.130 Y28.184 E0.07314
G1 X33.971 Y28.205 E0.01232
G1 X33.497 Y28.236 E0.03665
G1 X10.503 Y28.236 E1.77200
G1 X10.029 Y28.205 E0.03665
G1 X9.622 Y28.142 E0.03168
G1 X-5.042 Y25.169 E1.15312
G1 E-3.50000 F1500.00000
G1 Z0.700 F15000.000
G1 X-23.832 Y12.752 F15000.000
G1 Z0.300 F15000.000
G1 E3.50000 F1500.00000
G1 X-24.230 Y13.270 E0.05037 F600.000
G1 X-24.748 Y13.668 E0.05036
G1 X-25.352 Y13.918 E0.05036
G1 X-25.974 Y14.000 E0.04833
G1 X-29.526 Y14.000 E0.27377
G1 X-30.148 Y13.918 E0.04833
G1 X-30.752 Y13.668 E0.05036
G1 X-31.270 Y13.270 E0.05036
G1 X-31.668 Y12.752 E0.05036
G1 X-31.741 Y12.576 E0.01462
G1 X-31.918 Y12.148 E0.03574
G1 X-32.003 Y11.500 E0.05036
G1 X-31.918 Y10.852 E0.05036
G1 X-31.668 Y10.248 E0.05036
G1 X-31.270 Y9.730 E0.05036
G1 X-30.752 Y9.332 E0.05036
G1 X-30.148 Y9.082 E0.05037
G1 X-29.526 Y9.000 E0.04833
G1 X-25.974 Y9.000 E0.27377 F600.000
G1 X-25.352 Y9.082 E0.04833
G1 X-24.748 Y9.332 E0.05036
G1 X-24.230 Y9.730 E0.05036
G1 X-23.832 Y10.248 E0.05036
G1 X-23.582 Y10.852 E0.05036
G1 X-23.497 Y11.500 E0.05036
G1 X-23.582 Y12.148 E0.05036
G1 X-23.809 Y12.696 E0.04574
G1 X-23.647 Y13.107 F15000.000
G1 E-3.50000 F1500.00000
G1 Z0.700 F15000.000
G1 X-25.974 Y-17.000 F15000.000
G1 Z0.300 F15000.000
G1 E3.50000 F1500.00000
G1 X-29.526 Y-17.000 E0.27377 F600.000
G1 X-30.148 Y-17.082 E0.04833
G1 X-30.752 Y-17.332 E0.05036
G1 X-31.270 Y-17.730 E0.05036
G1 X-31.668 Y-18.248 E0.05037
G1 X-31.918 Y-18.852 E0.05036
G1 X-32.003 Y-19.500 E0.05036
G1 X-31.918 Y-20.148 E0.05036
G1 X-31.668 Y-20.752 E0.05036
G1 X-31.270 Y-21.270 E0.05036
G1 X-30.752 Y-21.668 E0.05036
G1 X-30.148 Y-21.918 E0.05036
G1 X-29.526 Y-22.000 E0.04833
G1 X-25.974 Y-22.000 E0.27377 F600.000
G1 X-25.352 Y-21.918 E0.04833
G1 X-24.748 Y-21.668 E0.05036
G1 X-24.230 Y-21.270 E0.05036
G1 X-23.832 Y-20.752 E0.05036
G1 X-23.582 Y-20.148 E0.05036
G1 X-23.497 Y-19.500 E0.05036
G1 X-23.582 Y-18.852 E0.05036
G1 X-23.832 Y-18.248 E0.05036
G1 X-24.230 Y-17.730 E0.05036
G1 X-24.748 Y-17.332 E0.05036
G1 X-25.352 Y-17.082 E0.05036
G1 X-25.914 Y-17.008 E0.04370
G1 X-26.158 Y-16.645 F15000.000
G1 E-3.50000 F1500.00000
G1 Z0.700 F15000.000
G1 X-0.724 Y9.276 F15000.000
G1 Z0.300 F15000.000
G1 E3.50000 F1500.00000
G1 X-0.072 Y8.777 E0.06326 F600.000
G1 X0.686 Y8.463 E0.06326
G1 X1.432 Y8.364 E0.05799
G1 X5.068 Y8.364 E0.28019 F600.000
G1 X5.814 Y8.463 E0.05799
G1 X6.572 Y8.777 E0.06326
G1 X7.224 Y9.276 E0.06326
G1 X7.723 Y9.928 E0.06326
G1 X8.040 Y10.692 E0.06377
G1 X8.140 Y11.536 E0.06548
G1 X8.037 Y12.314 E0.06047
G1 X7.723 Y13.072 E0.06326
G1 X7.224 Y13.724 E0.06326
G1 X6.572 Y14.223 E0.06326
G1 X5.814 Y14.537 E0.06326
G1 X5.068 Y14.636 E0.05799
G1 X1.432 Y14.636 E0.28019
G1 X0.686 Y14.537 E0.05799
G1 X-0.072 Y14.223 E0.06326
G1 X-0.724 Y13.724 E0.06326
G1 X-1.223 Y13.072 E0.06326
G1 X-1.537 Y12.314 E0.06326
G1 X-1.645 Y11.500 E0.06326
G1 X-1.537 Y10.686 E0.06326
G1 X-1.223 Y9.928 E0.06326
G1 X-0.760 Y9.324 E0.05864
G1 X-0.270 Y9.730 F15000.000
G1 X0.248 Y9.332 E0.05036 F600.000
G1 X0.852 Y9.082 E0.05036
G1 X1.474 Y9.000 E0.04833
G1 X5.026 Y9.000 E0.27377 F600.000
G1 X5.648 Y9.082 E0.04833
G1 X6.252 Y9.332 E0.05036
G1 X6.770 Y9.730 E0.05036
G1 X7.168 Y10.248 E0.05036
G1 X7.419 Y10.854 E0.05054
G1 X7.499 Y11.532 E0.05258
G1 X7.418 Y12.148 E0.04790
G1 X7.168 Y12.752 E0.05036
G1 X6.770 Y13.270 E0.05036
G1 X6.252 Y13.668 E0.05036
G1 X5.648 Y13.918 E0.05036
G1 X5.026 Y14.000 E0.04833
G1 X1.474 Y14.000 E0.27377
G1 X0.852 Y13.918 E0.04833
G1 X0.248 Y13.668 E0.05036
G1 X-0.270 Y13.270 E0.05036
G1 X-0.668 Y12.752 E0.05036
G1 X-0.918 Y12.148 E0.05036
G1 X-1.003 Y11.500 E0.05036
G1 X-0.918 Y10.852 E0.05036
G1 X-0.668 Y10.248 E0.05036
G1 X-0.307 Y9.777 E0.04574
G1 X-0.357 Y9.339 F15000.000
G1 X-3.087 Y6.029 F15000.000
G1 X-3.563 Y6.382 E0.04569 F720.000
G1 X-4.614 Y7.012 E0.09444
G1 X-5.721 Y7.536 E0.09444
G1 X-6.875 Y7.949 E0.09444
G1 X-8.064 Y8.247 E0.09444
G1 X-9.276 Y8.427 E0.09444
G1 X-10.475 Y8.486 E0.09247
G1 X-13.525 Y8.486 E0.23511
G1 X-14.724 Y8.427 E0.09247
G1 X-15.936 Y8.247 E0.09444
G1 X-17.125 Y7.949 E0.09444
G1 X-18.279 Y7.536 E0.09444
G1 X-19.386 Y7.012 E0.09444
G1 X-20.437 Y6.382 E0.09444
G1 X-21.422 Y5.652 E0.09444
G1 X-22.330 Y4.830 E0.09444
G1 X-23.152 Y3.922 E0.09444
G1 X-23.882 Y2.937 E0.09444
G1 X-24.512 Y1.886 E0.09444
G1 X-25.036 Y0.779 E0.09444
G1 X-25.449 Y-0.375 E0.09444
G1 X-25.747 Y-1.564 E0.09444
G1 X-25.927 Y-2.776 E0.09444
G1 X-25.987 Y-4.000 E0.09444
G1 X-25.927 Y-5.224 E0.09444
G1 X-25.747 Y-6.436 E0.09444
G1 X-25.449 Y-7.625 E0.09444
G1 X-25.036 Y-8.779 E0.09444
G1 X-24.512 Y-9.886 E0.09444
G1 X-23.882 Y-10.937 E0.09444
G1 X-23.152 Y-11.922 E0.09444
G1 X-22.330 Y-12.830 E0.09444
G1 X-21.422 Y-13.652 E0.09444
G1 X-20.437 Y-14.382 E0.09444
G1 X-19.386 Y-15.012 E0.09444
G1 X-18.279 Y-15.536 E0.09444
G1 X-17.125 Y-15.949 E0.09444
G1 X-15.936 Y-16.247 E0.09444
G1 X-14.724 Y-16.427 E0.09444
G1 X-13.525 Y-16.486 E0.09247
G1 X-10.475 Y-16.486 E0.23511 F720.000
G1 X-9.276 Y-16.427 E0.09247
G1 X-8.064 Y-16.247 E0.09444
G1 X-6.875 Y-15.949 E0.09444
G1 X-6.520 Y-15.822 E0.02911
G1 X-5.721 Y-15.536 E0.06533
G1 X-4.614 Y-15.012 E0.09444
G1 X-3.563 Y-14.382 E0.09444
G1 X-2.578 Y-13.652 E0.09444
G1 X-1.670 Y-12.830 E0.09444
G1 X-0.848 Y-11.922 E0.09444
G1 X-0.118 Y-10.937 E0.09444
G1 X0.512 Y-9.886 E0.09444
G1 X1.036 Y-8.779 E0.09444
G1 X1.449 Y-7.625 E0.09444
G1 X1.747 Y-6.436 E0.09444
G1 X1.927 Y-5.224 E0.09444
G1 X1.987 Y-4.000 E0.09444
G1 X1.927 Y-2.776 E0.09444
G1 X1.747 Y-1.564 E0.09444
G1 X1.449 Y-0.375 E0.09444
G1 X1.036 Y0.779 E0.09444
G1 X0.512 Y1.886 E0.09444
G1 X-0.118 Y2.937 E0.09444
G1 X-0.848 Y3.922 E0.09444
G1 X-1.670 Y4.830 E0.09444
G1 X-2.578 Y5.652 E0.09444
G1 X-3.038 Y5.994 E0.04413
G1 X-3.417 Y5.483 F15000.000
G1 X-3.916 Y5.853 E0.04790 F720.000
G1 X-4.914 Y6.451 E0.08962
G1 X-5.965 Y6.948 E0.08962
G1 X-7.060 Y7.340 E0.08962
G1 X-8.188 Y7.623 E0.08962
G1 X-9.338 Y7.793 E0.08962
G1 X-10.490 Y7.850 E0.08887
G1 X-13.510 Y7.850 E0.23271
G1 X-14.662 Y7.793 E0.08887
G1 X-15.812 Y7.623 E0.08962
G1 X-16.940 Y7.340 E0.08962
G1 X-18.035 Y6.948 E0.08962
G1 X-19.086 Y6.451 E0.08962
G1 X-20.084 Y5.853 E0.08962
G1 X-20.362 Y5.647 E0.02670
G1 X-21.018 Y5.161 E0.06292
G1 X-21.880 Y4.380 E0.08962
G1 X-22.661 Y3.518 E0.08962
G1 X-23.353 Y2.584 E0.08962
G1 X-23.951 Y1.586 E0.08962
G1 X-24.448 Y0.535 E0.08962
G1 X-24.840 Y-0.560 E0.08962
G1 X-25.123 Y-1.688 E0.08962
G1 X-25.293 Y-2.838 E0.08962
G1 X-25.350 Y-4.000 E0.08962
G1 X-25.293 Y-5.162 E0.08962
G1 X-25.123 Y-6.312 E0.08962
G1 X-24.840 Y-7.440 E0.08962
G1 X-24.448 Y-8.535 E0.08962
G1 X-23.951 Y-9.586 E0.08962
G1 X-23.353 Y-10.584 E0.08962
G1 X-22.661 Y-11.518 E0.08962
G1 X-21.880 Y-12.380 E0.08962
G1 X-21.018 Y-13.161 E0.08962
G1 X-20.084 Y-13.853 E0.08962
G1 X-19.086 Y-14.451 E0.08962
G1 X-18.035 Y-14.948 E0.08962
G1 X-16.940 Y-15.340 E0.08962
G1 X-15.812 Y-15.623 E0.08962
G1 X-14.662 Y-15.793 E0.08962
G1 X-13.510 Y-15.850 E0.08887
G1 X-10.490 Y-15.850 E0.23271 F720.000
G1 X-9.338 Y-15.793 E0.08887
G1 X-8.188 Y-15.623 E0.08962
G1 X-7.060 Y-15.340 E0.08962
G1 X-5.965 Y-14.948 E0.08962
G1 X-4.914 Y-14.451 E0.08962
G1 X-3.916 Y-13.853 E0.08962
G1 X-2.982 Y-13.161 E0.08962
G1 X-2.120 Y-12.380 E0.08962
G1 X-1.339 Y-11.518 E0.08962
G1 X-0.647 Y-10.584 E0.08962
G1 X-0.049 Y-9.586 E0.08962
G1 X0.448 Y-8.535 E0.08962
G1 X0.840 Y-7.440 E0.08962
G1 X1.123 Y-6.312 E0.08962
G1 X1.293 Y-5.162 E0.08962
G1 X1.350 Y-4.000 E0.08962
G1 X1.293 Y-2.838 E0.08962
G1 X1.123 Y-1.688 E0.08962
G1 X0.840 Y-0.560 E0.08962
G1 X0.448 Y0.535 E0.08962
G1 X-0.049 Y1.586 E0.08962
G1 X-0.647 Y2.584 E0.08962
G1 X-1.339 Y3.518 E0.08962
G1 X-2.120 Y4.380 E0.08962
G1 X-2.982 Y5.161 E0.08962
G1 X-3.369 Y5.447 E0.03709
G1 X-3.371 Y5.880 F15000.000
G1 E-3.50000 F1500.00000
G1 Z0.700 F15000.000
G1 X0.686 Y-16.463 F15000.000
G1 Z0.300 F15000.000
G1 E3.50000 F1500.00000
G1 X-0.072 Y-16.777 E0.06326 F600.000
G1 X-0.724 Y-17.276 E0.06326
G1 X-1.223 Y-17.928 E0.06326
G1 X-1.537 Y-18.686 E0.06326
G1 X-1.645 Y-19.500 E0.06326
G1 X-1.537 Y-20.314 E0.06326
G1 X-1.223 Y-21.072 E0.06326
G1 X-0.724 Y-21.724 E0.06326
G1 X-0.072 Y-22.223 E0.06326
G1 X0.686 Y-22.537 E0.06326
G1 X1.432 Y-22.636 E0.05799
G1 X5.068 Y-22.636 E0.28019 F600.000
G1 X5.814 Y-22.537 E0.05799
G1 X6.572 Y-22.223 E0.06326
G1 X7.224 Y-21.724 E0.06326
G1 X7.723 Y-21.072 E0.06326
G1 X8.037 Y-20.314 E0.06326
G1 X8.145 Y-19.500 E0.06326
G1 X8.037 Y-18.686 E0.06326
G1 X7.723 Y-17.928 E0.06326
G1 X7.224 Y-17.276 E0.06326
G1 X6.572 Y-16.777 E0.06326
G1 X5.814 Y-16.463 E0.06326
G1 X5.068 Y-16.364 E0.05799
G1 X1.432 Y-16.364 E0.28019
G1 X0.746 Y-16.455 E0.05336
G1 X0.852 Y-17.082 F15000.000
G1 X0.248 Y-17.332 E0.05036 F600.000
G1 X-0.270 Y-17.730 E0.05036
G1 X-0.668 Y-18.248 E0.05036
G1 X-0.918 Y-18.852 E0.05036
G1 X-1.003 Y-19.500 E0.05036
G1 X-0.918 Y-20.148 E0.05036
G1 X-0.668 Y-20.752 E0.05036
G1 X-0.270 Y-21.270 E0.05036
G1 X0.248 Y-21.668 E0.05036
G1 X0.852 Y-21.918 E0.05036
G1 X1.474 Y-22.000 E0.04833
G1 X5.026 Y-22.000 E0.27377 F600.000
G1 X5.648 Y-21.918 E0.04833
G1 X6.252 Y-21.668 E0.05036
G1 X6.770 Y-21.270 E0.05036
G1 X7.168 Y-20.752 E0.05036
G1 X7.418 Y-20.148 E0.05036
G1 X7.503 Y-19.500 E0.05036
G1 X7.418 Y-18.852 E0.05037
G1 X7.168 Y-18.248 E0.05036
G1 X6.770 Y-17.730 E0.05036
G1 X6.252 Y-17.332 E0.05036
G1 X5.648 Y-17.082 E0.05036
G1 X5.026 Y-17.000 E0.04833
G1 X1.474 Y-17.000 E0.27377
G1 X0.912 Y-17.074 E0.04370
G1 X0.557 Y-16.812 F15000.000
G1 E-3.50000 F1500.00000
G1 Z0.700 F15000.000
G1 X18.904 Y-23.614 F15000.000
G1 Z0.300 F15000.000
G1 E3.50000 F1500.00000
G1 X20.512 Y-23.614 E0.12392 F720.000
G1 X20.996 Y-23.551 E0.03757
G1 X21.383 Y-23.390 E0.03230 F720.000
G1 X21.716 Y-23.135 E0.03230
G1 X21.971 Y-22.803 E0.03230
G1 X22.131 Y-22.416 E0.03230
G1 X22.195 Y-21.932 E0.03757
G1 X22.195 Y-10.729 E0.86340
G1 X21.858 Y-10.669 E0.02632
G1 X20.855 Y-10.327 E0.08173
G1 X19.916 Y-9.833 E0.08170
G1 X19.065 Y-9.201 E0.08173
G1 X18.340 Y-8.465 E0.07962
G1 X18.137 Y-8.213 E0.02491
G1 X17.911 Y-7.874 E0.03144
G1 X17.663 Y-8.163 E0.02932
G1 X16.970 Y-8.756 E0.07031
G1 X16.169 Y-9.248 E0.07242
G1 X15.320 Y-9.600 E0.07087
G1 X14.421 Y-9.816 E0.07123
G1 X13.473 Y-9.891 E0.07333
G1 X11.974 Y-9.694 E0.11647
G1 X10.553 Y-9.105 E0.11859
G1 X9.332 Y-8.168 E0.11859
G1 X8.395 Y-6.947 E0.11859
G1 X7.806 Y-5.526 E0.11859
G1 X7.675 Y-4.528 E0.07755
G1 X7.605 Y-4.000 E0.04104
G1 X7.806 Y-2.474 E0.11859
G1 X8.395 Y-1.053 E0.11859
G1 X9.332 Y0.168 E0.11859
G1 X10.553 Y1.105 E0.11859
G1 X11.974 Y1.694 E0.11859
G1 X13.473 Y1.891 E0.11647
G1 X14.421 Y1.816 E0.07333
G1 X15.320 Y1.600 E0.07123
G1 X16.174 Y1.246 E0.07122
G1 X16.962 Y0.763 E0.07122
G1 X17.663 Y0.163 E0.07117
G1 X17.906 Y-0.121 E0.02876
G1 X18.064 Y0.122 E0.02230
G1 X18.649 Y0.806 E0.06939
G1 X19.342 Y1.428 E0.07175
G1 X20.093 Y1.939 E0.07001
G1 X20.909 Y2.349 E0.07041
G1 X21.778 Y2.648 E0.07082
G1 X21.453 Y2.898 E0.03156
G1 X20.993 Y3.497 E0.05823
G1 X20.704 Y4.195 E0.05823
G1 X20.605 Y4.944 E0.05823
G1 X20.704 Y5.693 E0.05823
G1 X20.993 Y6.392 E0.05823
G1 X21.453 Y6.991 E0.05823
G1 X22.053 Y7.451 E0.05823
G1 X22.751 Y7.740 E0.05823
G1 X23.500 Y7.839 E0.05823
G1 X24.249 Y7.740 E0.05823
G1 X24.947 Y7.451 E0.05823
G1 X25.547 Y6.991 E0.05823
G1 X26.007 Y6.392 E0.05823
G1 X26.296 Y5.693 E0.05823
G1 X26.395 Y4.944 E0.05823
G1 X26.296 Y4.195 E0.05823
G1 X26.007 Y3.497 E0.05823
G1 X25.538 Y2.886 E0.05939
G1 X26.468 Y2.886 E0.07167
G1 X27.324 Y2.940 E0.06616
G1 X28.135 Y3.094 E0.06363
G1 X28.943 Y3.357 E0.06542
G1 X29.873 Y3.814 E0.07990
G1 X30.556 Y4.278 E0.06363
G1 X31.176 Y4.824 E0.06366
G1 X31.728 Y5.451 E0.06443
G1 X31.844 Y5.615 E0.01541
G1 X32.184 Y6.123 E0.04716
G1 X32.571 Y6.883 E0.06572
G1 X32.906 Y7.865 E0.07990
G1 X33.060 Y8.676 E0.06363
G1 X33.114 Y9.532 E0.06616
G1 X33.114 Y23.614 E1.08524
G1 X10.886 Y23.614 E1.71307
G1 X10.886 Y19.932 E0.28378
G1 X10.745 Y18.863 E0.08313
G1 X10.306 Y17.803 E0.08841
G1 X9.607 Y16.893 E0.08841
G1 X8.697 Y16.194 E0.08841
G1 X7.637 Y15.755 E0.08841
G1 X6.568 Y15.614 E0.08313
G1 X-28.466 Y15.614 E2.69991
G1 X-29.719 Y15.447 E0.09740
G1 X-30.804 Y14.990 E0.09071
G1 X-31.741 Y14.279 E0.09071
G1 X-32.035 Y13.905 E0.03664
G1 X-31.799 Y13.666 E0.02593
G1 X-31.072 Y14.223 E0.07059
G1 X-30.314 Y14.537 E0.06326
G1 X-29.568 Y14.636 E0.05799
G1 X-25.932 Y14.636 E0.28019
G1 X-25.186 Y14.537 E0.05799
G1 X-24.428 Y14.223 E0.06326
G1 X-23.776 Y13.724 E0.06326
G1 X-23.277 Y13.072 E0.06326
G1 X-22.963 Y12.314 E0.06326
G1 X-22.855 Y11.500 E0.06326
G1 X-22.963 Y10.686 E0.06326
G1 X-23.277 Y9.928 E0.06326
G1 X-23.776 Y9.276 E0.06326
G1 X-24.428 Y8.777 E0.06326
G1 X-25.186 Y8.463 E0.06326
G1 X-25.932 Y8.364 E0.05799
G1 X-29.568 Y8.364 E0.28019
G1 X-30.314 Y8.463 E0.05799
G1 X-31.072 Y8.777 E0.06326
G1 X-31.724 Y9.276 E0.06326
G1 X-32.223 Y9.928 E0.06326
G1 X-32.537 Y10.686 E0.06326
G1 X-32.645 Y11.500 E0.06326
G1 X-32.535 Y12.331 E0.06463
G1 X-32.861 Y12.417 E0.02593
G1 X-32.950 Y12.192 E0.01860
G1 X-33.114 Y10.966 E0.09535
G1 X-33.114 Y-18.966 E2.30674
G1 X-32.947 Y-20.219 E0.09740
G1 X-32.865 Y-20.458 E0.01944
G1 X-32.529 Y-20.379 E0.02664
G1 X-32.645 Y-19.500 E0.06833
G1 X-32.537 Y-18.686 E0.06326
G1 X-32.223 Y-17.928 E0.06326
G1 X-31.724 Y-17.276 E0.06326
G1 X-31.072 Y-16.777 E0.06326
G1 X-30.314 Y-16.463 E0.06326
G1 X-29.568 Y-16.364 E0.05799
G1 X-25.932 Y-16.364 E0.28019
G1 X-25.186 Y-16.463 E0.05799
G1 X-24.428 Y-16.777 E0.06326
G1 X-23.776 Y-17.276 E0.06326
G1 X-23.277 Y-17.928 E0.06326
G1 X-22.963 Y-18.686 E0.06326
G1 X-22.855 Y-19.500 E0.06326
G1 X-22.963 Y-20.314 E0.06326
G1 X-23.277 Y-21.072 E0.06326
G1 X-23.776 Y-21.724 E0.06326
G1 X-24.428 Y-22.223 E0.06326
G1 X-25.186 Y-22.537 E0.06326
G1 X-25.932 Y-22.636 E0.05799
G1 X-29.568 Y-22.636 E0.28019
G1 X-30.314 Y-22.537 E0.05799
G1 X-31.072 Y-22.223 E0.06326
G1 X-31.820 Y-21.649 E0.07265
G1 X-32.057 Y-21.883 E0.02562
G1 X-31.779 Y-22.241 E0.03496
