; generated by Slic3r 1.2.9 on 2018-05-30 at 14:57:25

; external perimeters extrusion width = 0.40mm
; perimeters extrusion width = 0.40mm
; infill extrusion width = 0.40mm
; solid infill extrusion width = 0.40mm
; top infill extrusion width = 0.40mm

M107
M83
T0
M116
G21 ; set units to millimeters
G90 ; use absolute coordinates
M83 ; use relative distances for extrusion
G1 E-3.50000 F1500.00000
G1 Z0.400 F15000.000
G1 X-8.105 Y-9.425 F15000.000
G1 Z0.300 F15000.000
G1 E3.50000 F1500.00000
G1 X4.087 Y-19.909 E1.23921 F960.000
G1 X5.042 Y-20.650 E0.09316
G1 X5.844 Y-21.116 E0.07146
G1 X6.816 Y-21.526 E0.08130
G1 X7.753 Y-21.780 E0.07483
G1 X8.779 Y-21.915 E0.07971
G1 X9.253 Y-21.946 E0.03665
G1 X9.935 Y-21.917 E0.05258
G1 X10.899 Y-21.795 E0.07487 F960.000
G1 X11.763 Y-21.575 E0.06876
G1 X12.709 Y-21.206 E0.07824
G1 X13.529 Y-20.758 E0.07201
G1 X14.331 Y-20.173 E0.07646
G1 X14.996 Y-19.547 E0.07038
G1 X15.627 Y-18.781 E0.07646
G1 X16.114 Y-18.009 E0.07038
G1 X16.534 Y-17.110 E0.07646
G1 X16.814 Y-16.241 E0.07038
G1 X16.998 Y-15.263 E0.07671
G1 X17.054 Y-14.809 E0.03526
G1 X17.797 Y-2.346 E0.96217
G1 X17.829 Y-1.561 E0.06053
G1 X17.836 Y12.358 E1.07265
G1 X17.777 Y13.375 E0.07850
G1 X17.715 Y13.846 E0.03665
G1 X17.563 Y14.609 E0.05998
G1 X17.440 Y15.069 E0.03665
G1 X17.190 Y15.806 E0.05998
G1 X17.008 Y16.245 E0.03665
G1 X16.663 Y16.943 E0.05998
G1 X16.426 Y17.355 E0.03665
G1 X15.993 Y18.002 E0.05998
G1 X15.704 Y18.379 E0.03665
G1 X15.191 Y18.965 E0.05998
G1 X14.854 Y19.301 E0.03665
G1 X14.269 Y19.814 E0.05998
G1 X13.892 Y20.103 E0.03665
G1 X13.262 Y20.525 E0.05842
G1 X12.861 Y20.757 E0.03572
G1 X12.146 Y21.113 E0.06153
G1 X11.696 Y21.300 E0.03757
G1 X10.959 Y21.550 E0.05998
G1 X10.499 Y21.673 E0.03665
G1 X9.736 Y21.825 E0.05998
G1 X9.264 Y21.887 E0.03665
G1 X8.248 Y21.946 E0.07843
G1 X-7.751 Y21.946 E1.23303
G1 X-8.798 Y21.883 E0.08080
G1 X-9.283 Y21.818 E0.03775
G1 X-10.069 Y21.656 E0.06179
G1 X-10.541 Y21.526 E0.03776
G1 X-11.298 Y21.261 E0.06179
G1 X-11.748 Y21.068 E0.03775
G1 X-12.462 Y20.703 E0.06179
G1 X-12.882 Y20.452 E0.03775
G1 X-13.541 Y19.995 E0.06179
G1 X-13.924 Y19.689 E0.03775
G1 X-14.691 Y18.975 E0.08079
G1 X-15.599 Y18.022 E0.10139
G1 X-15.896 Y17.669 E0.03554
G1 X-16.566 Y16.759 E0.08708
G1 X-17.013 Y15.955 E0.07095
G1 X-17.432 Y14.909 E0.08683
G1 X-17.663 Y14.018 E0.07095
G1 X-17.806 Y12.897 E0.08708
G1 X-17.836 Y12.437 E0.03554
G1 X-17.836 Y2.643 E0.75474
G1 X-17.803 Y2.160 E0.03735
G1 X-17.645 Y0.983 E0.09148
G1 X-17.390 Y0.050 E0.07454
G1 X-16.929 Y-1.040 E0.09122
G1 X-16.423 Y-1.891 E0.07630
G1 X-15.667 Y-2.838 E0.09339
G1 X-15.196 Y-3.327 E0.05236
G1 X-8.151 Y-9.386 E0.71608
G1 E-3.50000 F1500.00000
G1 Z0.700 F15000.000
G1 X-9.750 Y9.861 F15000.000
G1 Z0.300 F15000.000
G1 E3.50000 F1500.00000
G1 X-9.290 Y9.922 E0.03578 F600.000
G1 X-8.861 Y10.100 E0.03578
G1 X-8.492 Y10.382 E0.03578
G1 X-8.210 Y10.751 E0.03578
G1 X-8.032 Y11.180 E0.03578
G1 X-7.972 Y11.640 E0.03578
G1 X-8.032 Y12.100 E0.03578
G1 X-8.210 Y12.529 E0.03578
G1 X-8.492 Y12.897 E0.03578
G1 X-8.861 Y13.180 E0.03578
G1 X-9.290 Y13.358 E0.03578
G1 X-9.750 Y13.418 E0.03578
G1 X-10.191 Y13.360 E0.03428
G1 X-10.638 Y13.181 E0.03707
G1 X-11.008 Y12.897 E0.03594
G1 X-11.290 Y12.529 E0.03578
G1 X-11.468 Y12.100 E0.03578
G1 X-11.528 Y11.640 E0.03578
G1 X-11.500 Y11.424 E0.01677
G1 X-11.807 Y11.424 E0.02365
G1 X-11.008 Y10.382 E0.10120
G1 X-10.638 Y10.098 E0.03594
G1 X-10.191 Y9.919 E0.03707
G1 X-9.809 Y9.869 E0.02966 F600.000
G1 X-9.535 Y9.524 F15000.000
G1 X-9.750 Y4.418 F15000.000
G1 X-10.191 Y4.360 E0.03428 F600.000
G1 X-10.638 Y4.181 E0.03707
G1 X-11.008 Y3.897 E0.03594
G1 X-11.290 Y3.529 E0.03578
G1 X-11.468 Y3.100 E0.03578
G1 X-11.528 Y2.640 E0.03578
G1 X-11.500 Y2.424 E0.01677
G1 X-11.807 Y2.424 E0.02365
G1 X-11.008 Y1.382 E0.10120
G1 X-10.638 Y1.098 E0.03594
G1 X-10.191 Y0.919 E0.03707
G1 X-9.750 Y0.861 E0.03428 F600.000
G1 X-9.290 Y0.922 E0.03578
G1 X-8.861 Y1.100 E0.03578
G1 X-8.492 Y1.382 E0.03578
G1 X-8.210 Y1.751 E0.03578
G1 X-8.032 Y2.180 E0.03578
G1 X-7.972 Y2.640 E0.03578
G1 X-8.032 Y3.100 E0.03578
G1 X-8.210 Y3.529 E0.03578
G1 X-8.492 Y3.897 E0.03578
G1 X-8.861 Y4.180 E0.03578
G1 X-9.290 Y4.358 E0.03578
G1 X-9.691 Y4.410 E0.03116
G1 X-9.965 Y4.756 F15000.000
G1 X7.792 Y-1.702 F15000.000
G1 X7.705 Y-2.360 E0.05119 F600.000
G1 X7.792 Y-3.019 E0.05119
G1 X8.046 Y-3.632 E0.05119
G1 X8.451 Y-4.159 E0.05119
G1 X8.982 Y-4.567 E0.05163
G1 X9.615 Y-4.821 E0.05256
G1 X10.250 Y-4.905 E0.04935 F600.000
G1 X10.909 Y-4.818 E0.05119
G1 X11.522 Y-4.564 E0.05119
G1 X12.049 Y-4.159 E0.05119
G1 X12.454 Y-3.632 E0.05119
G1 X12.708 Y-3.019 E0.05119
G1 X12.795 Y-2.360 E0.05119
G1 X12.708 Y-1.702 E0.05119
G1 X12.451 Y-1.083 E0.05163
G1 X12.030 Y-0.546 E0.05256
G1 X11.522 Y-0.157 E0.04935
G1 X10.909 Y0.098 E0.05119
G1 X10.250 Y0.184 E0.05119
G1 X9.591 Y0.098 E0.05119
G1 X8.978 Y-0.157 E0.05119
G1 X8.451 Y-0.561 E0.05119
G1 X8.046 Y-1.088 E0.05119
G1 X7.815 Y-1.646 E0.04657
G1 X8.411 Y-1.868 F15000.000
G1 X8.347 Y-2.360 E0.03829 F600.000
G1 X8.411 Y-2.853 E0.03829
G1 X8.602 Y-3.312 E0.03829
G1 X8.904 Y-3.706 E0.03829
G1 X9.300 Y-4.010 E0.03845
G1 X9.777 Y-4.201 E0.03966
G1 X10.250 Y-4.264 E0.03673 F600.000
G1 X10.743 Y-4.199 E0.03829
G1 X11.202 Y-4.009 E0.03829
G1 X11.596 Y-3.706 E0.03829
G1 X11.898 Y-3.312 E0.03829
G1 X12.089 Y-2.853 E0.03829
G1 X12.153 Y-2.360 E0.03829
G1 X12.089 Y-1.868 E0.03829
G1 X11.898 Y-1.407 E0.03845
G1 X11.580 Y-1.002 E0.03966
G1 X11.202 Y-0.712 E0.03673
G1 X10.743 Y-0.522 E0.03829
G1 X10.250 Y-0.457 E0.03829
G1 X9.757 Y-0.522 E0.03829
G1 X9.298 Y-0.712 E0.03829
G1 X8.904 Y-1.014 E0.03829
G1 X8.602 Y-1.408 E0.03829
G1 X8.434 Y-1.812 E0.03367
G1 X8.030 Y-1.988 F15000.000
G1 X13.212 Y4.577 F15000.000
G1 X13.214 Y12.326 E0.59720 F720.000
G1 X13.170 Y13.008 E0.05263
G1 X13.043 Y13.644 E0.05002
G1 X12.834 Y14.259 E0.05002
G1 X12.547 Y14.841 E0.05002
G1 X12.187 Y15.381 E0.05002
G1 X11.759 Y15.869 E0.05002
G1 X11.271 Y16.297 E0.05002
G1 X10.747 Y16.647 E0.04859
G1 X10.147 Y16.945 E0.05157
G1 X9.534 Y17.153 E0.04990
G1 X8.898 Y17.280 E0.05002
G1 X8.216 Y17.325 E0.05264
G1 X-7.718 Y17.325 E1.22799
G1 X-8.420 Y17.277 E0.05423
G1 X-9.075 Y17.143 E0.05153
G1 X-9.706 Y16.922 E0.05153
G1 X-10.302 Y16.618 E0.05153
G1 X-10.851 Y16.236 E0.05153
G1 X-11.370 Y15.761 E0.05423
G1 X-12.212 Y14.878 E0.09400
G1 X-12.770 Y14.120 E0.07256
G1 X-13.095 Y13.308 E0.06744
G1 X-13.214 Y12.374 E0.07256
G1 X-13.214 Y12.060 E0.02422
G1 X-12.114 Y12.060 E0.08478
G1 X-12.087 Y12.266 E0.01604
G1 X-11.845 Y12.850 E0.04868
G1 X-11.461 Y13.351 E0.04868
G1 X-10.955 Y13.739 E0.04912
G1 X-10.353 Y13.980 E0.04997
G1 X-9.750 Y14.059 E0.04689
G1 X-9.124 Y13.977 E0.04868
G1 X-8.540 Y13.735 E0.04868
G1 X-8.039 Y13.351 E0.04868
G1 X-7.655 Y12.850 E0.04868
G1 X-7.413 Y12.266 E0.04868
G1 X-7.330 Y11.640 E0.04868
G1 X-7.413 Y11.014 E0.04868
G1 X-7.655 Y10.430 E0.04868
G1 X-8.039 Y9.929 E0.04868
G1 X-8.540 Y9.544 E0.04868
G1 X-9.124 Y9.303 E0.04868
G1 X-9.750 Y9.220 E0.04868
G1 X-10.353 Y9.300 E0.04689
G1 X-10.955 Y9.541 E0.04997
G1 X-11.461 Y9.929 E0.04912
G1 X-12.956 Y11.877 E0.18922
G1 X-13.214 Y11.789 E0.02106
G1 X-13.214 Y3.060 E0.67273
G1 X-12.114 Y3.060 E0.08478
G1 X-12.087 Y3.266 E0.01604
G1 X-11.845 Y3.850 E0.04868
G1 X-11.461 Y4.351 E0.04868
G1 X-10.955 Y4.739 E0.04912
G1 X-10.353 Y4.980 E0.04997
G1 X-9.750 Y5.059 E0.04689
G1 X-9.124 Y4.977 E0.04868
G1 X-8.540 Y4.735 E0.04868
G1 X-8.039 Y4.351 E0.04868
G1 X-7.655 Y3.850 E0.04868
G1 X-7.413 Y3.266 E0.04868
G1 X-7.330 Y2.640 E0.04868
G1 X-7.413 Y2.014 E0.04868
G1 X-7.655 Y1.430 E0.04868
G1 X-8.039 Y0.929 E0.04868
G1 X-8.540 Y0.544 E0.04868
G1 X-9.124 Y0.303 E0.04868
G1 X-9.750 Y0.220 E0.04868
G1 X-10.353 Y0.300 E0.04689
G1 X-10.955 Y0.541 E0.04997
G1 X-11.461 Y0.929 E0.04912
G1 X-12.950 Y2.870 E0.18855
G1 X-13.221 Y2.758 E0.02258
G1 X-13.083 Y1.729 E0.07999
G1 X-12.726 Y0.885 E0.07059
G1 X-12.135 Y0.145 E0.07301
G1 X-11.417 Y-0.386 E0.06883
G1 X-10.560 Y-0.719 E0.07083
G1 X-9.646 Y-0.814 E0.07083
G1 X-8.739 Y-0.664 E0.07083
G1 X-7.812 Y-0.239 E0.07861
G1 X-6.899 Y0.265 E0.08032
G1 X-5.840 Y0.693 E0.08804
G1 X-4.738 Y0.991 E0.08804
G1 X-3.642 Y1.151 E0.08531
G1 X-2.467 Y1.185 E0.09060
G1 X-1.328 Y1.077 E0.08818
G1 X-0.212 Y0.835 E0.08804
G1 X0.867 Y0.460 E0.08804
G1 X1.894 Y-0.040 E0.08804
G1 X2.854 Y-0.660 E0.08804
G1 X3.733 Y-1.389 E0.08804
G1 X4.519 Y-2.219 E0.08804
G1 X5.199 Y-3.136 E0.08804
G1 X5.770 Y-4.136 E0.08870
G1 X6.055 Y-4.842 E0.05869
G1 X6.230 Y-5.592 E0.05936
G1 X6.286 Y-6.321 E0.05630
G1 X6.286 Y-14.292 E0.61435
G1 X6.395 Y-15.125 E0.06473
G1 X6.691 Y-15.838 E0.05946
G1 X7.160 Y-16.450 E0.05946
G1 X7.755 Y-16.906 E0.05779
G1 X8.488 Y-17.215 E0.06130
G1 X9.318 Y-17.325 E0.06450
G1 X10.197 Y-17.226 E0.06821
G1 X10.911 Y-16.947 E0.05901 F720.000
G1 X11.509 Y-16.512 E0.05700
G1 X11.981 Y-15.939 E0.05723
G1 X12.295 Y-15.266 E0.05723
G1 X12.445 Y-14.472 E0.06230
G1 X13.184 Y-2.080 E0.95663
G1 X13.211 Y-1.397 E0.05271
G1 X13.212 Y4.517 E0.45578
G1 X13.848 Y4.517 F15000.000
G1 X13.850 Y12.347 E0.60343 F720.000
G1 X13.801 Y13.091 E0.05745
G1 X13.658 Y13.809 E0.05644
G1 X13.423 Y14.503 E0.05644
G1 X13.099 Y15.160 E0.05644
G1 X12.692 Y15.769 E0.05644
G1 X12.209 Y16.319 E0.05644
G1 X11.659 Y16.802 E0.05644
G1 X11.066 Y17.198 E0.05493
G1 X10.392 Y17.533 E0.05799
G1 X9.699 Y17.769 E0.05640
G1 X8.981 Y17.911 E0.05644
G1 X8.237 Y17.960 E0.05745
G1 X-7.740 Y17.960 E1.23124
G1 X-8.506 Y17.908 E0.05919
G1 X-9.245 Y17.757 E0.05814
G1 X-9.957 Y17.507 E0.05814
G1 X-10.629 Y17.164 E0.05814
G1 X-11.249 Y16.734 E0.05814
G1 X-11.815 Y16.215 E0.05919
G1 X-12.699 Y15.288 E0.09877
G1 X-13.330 Y14.432 E0.08192
G1 X-13.715 Y13.469 E0.07995
G1 X-13.850 Y12.414 E0.08192
G1 X-13.850 Y2.667 E0.75122
G1 X-13.701 Y1.560 E0.08606
G1 X-13.277 Y0.557 E0.08389
G1 X-12.580 Y-0.317 E0.08615
G1 X-11.727 Y-0.948 E0.08182
G1 X-10.711 Y-1.342 E0.08398
G1 X-9.627 Y-1.455 E0.08398
G1 X-8.552 Y-1.277 E0.08398
G1 X-7.526 Y-0.807 E0.08698
G1 X-6.626 Y-0.310 E0.07919
G1 X-5.637 Y0.089 E0.08217
G1 X-4.608 Y0.368 E0.08217
G1 X-3.587 Y0.517 E0.07953
G1 X-2.488 Y0.549 E0.08473
G1 X-1.426 Y0.448 E0.08222
G1 X-0.384 Y0.222 E0.08217
G1 X0.623 Y-0.128 E0.08217
G1 X1.582 Y-0.595 E0.08217
G1 X2.477 Y-1.173 E0.08217
G1 X3.298 Y-1.854 E0.08217
G1 X4.031 Y-2.628 E0.08217
G1 X4.666 Y-3.484 E0.08217
G1 X5.197 Y-4.413 E0.08242
G1 X5.447 Y-5.034 E0.05159
G1 X5.600 Y-5.689 E0.05185
G1 X5.650 Y-6.345 E0.05067
G1 X5.650 Y-14.334 E0.61568
G1 X5.776 Y-15.291 E0.07439
G1 X6.135 Y-16.158 E0.07236
G1 X6.707 Y-16.903 E0.07236
G1 X7.433 Y-17.460 E0.07053
G1 X8.320 Y-17.834 E0.07420
G1 X9.276 Y-17.960 E0.07431
G1 X9.456 Y-17.960 E0.01388
G1 X10.355 Y-17.846 E0.06984
G1 X11.219 Y-17.510 E0.07141 F720.000
G1 X11.948 Y-16.978 E0.06955
G1 X12.523 Y-16.281 E0.06963
G1 X12.905 Y-15.462 E0.06963
G1 X13.077 Y-14.549 E0.07159
G1 X13.819 Y-2.112 E0.96020
G1 X13.846 Y-1.410 E0.05416
G1 X13.848 Y4.457 E0.45212
G1 X13.502 Y4.717 F15000.000
G1 X12.826 Y0.115 F15000.000
G1 X12.325 Y-0.386 E0.05520 F960.000
G1 X11.828 Y0.026 E0.05028
G1 X12.826 Y1.024 E0.10997
G1 X12.826 Y1.933 E0.07082
G1 X11.230 Y0.337 E0.17589
G1 X10.507 Y0.523 E0.05816
G1 X12.826 Y2.842 E0.25559
G1 X12.827 Y3.751 E0.07082
G1 X9.579 Y0.504 E0.35784
G1 E-3.50000 F1500.00000
G1 Z0.700 F15000.000
G1 X11.152 Y-5.194 F15000.000
G1 Z0.300 F15000.000
G1 E3.50000 F1500.00000
G1 X6.671 Y-9.674 E0.49370 F960.000
G1 X6.671 Y-8.766 E0.07080
G1 X10.170 Y-5.266 E0.38556
G1 X9.415 Y-5.113 E0.06003
G1 X6.671 Y-7.857 E0.30237
G1 X6.671 Y-6.948 E0.07080
G1 X8.785 Y-4.834 E0.23297
G1 X8.271 Y-4.439 E0.05050
G1 X6.643 Y-6.068 E0.17942
G1 X6.524 Y-5.277 E0.06225
G1 X7.863 Y-3.938 E0.14757
G1 X7.553 Y-3.340 E0.05251
G1 X6.318 Y-4.574 E0.13600
G1 X6.045 Y-3.939 E0.05389
G1 X7.367 Y-2.617 E0.14565
G1 X7.386 Y-1.689 E0.07230
G1 X5.715 Y-3.360 E0.18414
G1 X5.364 Y-2.802 E0.05136
G1 X12.827 Y4.660 E0.82223
G1 X12.827 Y5.569 E0.07082
G1 X4.977 Y-2.280 E0.86492
G1 X4.563 Y-1.786 E0.05026
G1 X12.827 Y6.478 E0.91062
G1 X12.828 Y7.387 E0.07082
G1 X4.121 Y-1.319 E0.95935
G1 X3.645 Y-0.887 E0.05012
G1 X12.828 Y8.296 E1.01183
G1 X12.828 Y9.205 E0.07082
G1 X3.148 Y-0.475 E1.06656
G1 X2.609 Y-0.105 E0.05092
G1 X12.828 Y10.114 E1.12595
G1 X12.829 Y11.023 E0.07082
G1 X2.057 Y0.252 E1.18682
G1 X1.451 Y0.554 E0.05280
G1 X12.829 Y11.932 E1.25368
G1 X12.805 Y12.817 E0.06894
G1 X0.830 Y0.842 E1.31939
G1 X0.155 Y1.076 E0.05564
G1 X12.682 Y13.604 E1.38028
G1 X12.447 Y14.277 E0.05557
G1 X-0.553 Y1.277 E1.43236
G1 X-1.299 Y1.439 E0.05951
G1 X12.129 Y14.868 E1.47956
G1 X11.741 Y15.389 E0.05060
G1 X-2.120 Y1.527 E1.52726
G1 X-2.997 Y1.560 E0.06834
G1 X11.287 Y15.843 E1.57385
G1 X10.768 Y16.232 E0.05058
G1 X-3.948 Y1.517 E1.62135
G1 X-5.017 Y1.356 E0.08427
G1 X10.177 Y16.551 E1.67418
G1 X9.507 Y16.790 E0.05542
G1 X-6.291 Y0.991 E1.74071
G1 X-6.945 Y1.247 E0.05467
G1 X8.722 Y16.914 E1.72624
G1 X7.839 Y16.939 E0.06885
G1 X-6.993 Y2.107 E1.63424
G1 X-7.006 Y3.003 E0.06979
G1 X6.930 Y16.939 E1.53556
G1 X6.022 Y16.939 E0.07080
G1 X-7.219 Y3.698 E1.45894
G1 X-7.558 Y4.268 E0.05166
G1 X5.113 Y16.939 E1.39614
G1 X4.204 Y16.939 E0.07080
G1 X-7.998 Y4.737 E1.34449
G1 X-8.537 Y5.106 E0.05093
G1 X3.295 Y16.939 E1.30376
G1 X2.387 Y16.939 E0.07080
G1 X-9.194 Y5.358 E1.27601
G1 X-10.031 Y5.430 E0.06546
G1 X1.478 Y16.939 E1.26811
G1 X0.569 Y16.939 E0.07080
G1 X-11.283 Y5.087 E1.30590
G1 X-12.195 Y4.176 F15000.000
G1 X-12.829 Y3.541 E0.06991 F960.000
G1 X-12.829 Y4.450 E0.07080
G1 X-0.340 Y16.939 E1.37610
G1 X-1.248 Y16.939 E0.07080
G1 X-6.980 Y11.208 E0.63148
G1 X-7.016 Y12.080 E0.06801
G1 X-2.157 Y16.939 E0.53538
G1 X-3.066 Y16.939 E0.07080
G1 X-7.245 Y12.760 E0.46046
G1 X-7.596 Y13.318 E0.05134
G1 X-3.975 Y16.939 E0.39903
G1 X-4.884 Y16.939 E0.07080
G1 X-8.048 Y13.775 E0.34865
G1 X-8.599 Y14.132 E0.05120
G1 X-5.792 Y16.939 E0.30929
G1 X-6.701 Y16.939 E0.07080
G1 X-9.272 Y14.369 E0.28324
G1 X-10.132 Y14.417 E0.06716
G1 X-7.613 Y16.936 E0.27758
G1 X-8.652 Y16.806 E0.08158
G1 X-11.481 Y13.977 E0.31168
G1 X-11.722 Y14.644 E0.05528
G1 X-10.534 Y15.833 E0.13098
G1 X-12.280 Y10.452 F15000.000
G1 X-12.829 Y9.902 E0.06053 F960.000
G1 X-12.829 Y8.994 E0.07080
G1 X-11.885 Y9.938 E0.10400
G1 X-11.428 Y9.486 E0.05007
G1 X-12.829 Y8.085 E0.15438
G1 X-12.829 Y7.176 E0.07080
G1 X-10.870 Y9.135 E0.21584
G1 X-10.190 Y8.906 E0.05588
G1 X-12.829 Y6.267 E0.29073
G1 X-12.829 Y5.359 E0.07080
G1 X-9.318 Y8.869 E0.38683
G1 E-3.50000 F1500.00000
G1 Z0.700 F15000.000
G1 X12.638 Y-4.616 F15000.000
G1 Z0.300 F15000.000
G1 E3.50000 F1500.00000
G1 X6.671 Y-10.583 E0.65746 F960.000
G1 X6.671 Y-11.492 E0.07080
G1 X12.580 Y-5.583 E0.65111
G1 X12.523 Y-6.549 E0.07543
G1 X6.671 Y-12.401 E0.64476
G1 X6.671 Y-13.309 E0.07080
G1 X12.465 Y-7.515 E0.63840
G1 X12.407 Y-8.482 E0.07543
G1 X6.671 Y-14.218 E0.63205
G1 X6.756 Y-15.042 E0.06449
G1 X12.350 Y-9.448 E0.61629
G1 X12.292 Y-10.415 E0.07543
G1 X7.006 Y-15.701 E0.58243
G1 X7.399 Y-16.216 E0.05052
G1 X12.234 Y-11.381 E0.53274
G1 X12.177 Y-12.348 E0.07543
G1 X7.921 Y-16.603 E0.46893
G1 X8.578 Y-16.855 E0.05483
G1 X12.119 Y-13.314 E0.39017
G1 X12.060 Y-14.281 E0.07552
G1 X9.434 Y-16.908 E0.28936
G1 X10.909 Y-16.341 F15000.000
G1 X11.417 Y-15.833 E0.05599 F960.000
G1 E-3.50000 F1500.00000
G1 Z0.700 F15000.000
G1 X-7.334 Y0.410 F15000.000
G1 Z0.300 F15000.000
G1 E3.50000 F1500.00000
G1 X-7.784 Y0.196 E0.03837 F960.000
G1 X-8.024 Y0.261 E0.01911
G1 X-7.738 Y0.645 E0.03689
G1 X-7.447 Y1.149 E0.04482
G1 X-7.710 Y0.466 F15000.000
G1 X-8.263 Y0.115 E0.05051 F960.000
G1 X-8.967 Y-0.185 E0.05895
G1 X-9.725 Y-0.292 E0.05896
G1 X-10.507 Y-0.190 E0.06076
G1 X-11.187 Y0.081 E0.05642
G1 X-11.805 Y0.549 E0.05978
G1 X-12.280 Y1.151 E0.05906
G1 X-12.680 Y1.839 E0.06136
G1 X-12.800 Y2.126 E0.02398
G1 X-12.648 Y12.377 F15000.000
G1 X-12.444 Y13.143 E0.12828 F960.000
G1 X-12.021 Y13.898 E0.14011
G1 E-3.50000 F1500.00000
G1 Z0.700 F15000.000
G1 X-11.155 Y13.045 F15000.000
G1 Z0.500 F15000.000
G1 E3.50000 F1500.00000
G1 X-11.446 Y12.667 E0.01377 F2466.844
G1 X-11.669 Y12.160 E0.01596
G1 X-11.737 Y11.640 E0.01516
G1 X-11.675 Y11.167 E0.01377
G1 X-11.475 Y10.651 E0.01596
