; generated by Slic3r 1.2.9 on 2018-05-30 at 16:41:47

; external perimeters extrusion width = 0.40mm
; perimeters extrusion width = 0.40mm
; infill extrusion width = 0.40mm
; solid infill extrusion width = 0.40mm
; top infill extrusion width = 0.40mm

M107
M83
T0
M116
G21 ; set units to millimeters
G90 ; use absolute coordinates
M83 ; use relative distances for extrusion
G1 E-3.50000 F1500.00000
G1 Z0.400 F15000.000
G1 X-7.591 Y8.828 F15000.000
G1 Z0.300 F15000.000
G1 E3.50000 F1500.00000
G1 X-15.043 Y2.421 E0.75739 F960.000
G1 X-15.529 Y1.913 E0.05415
G1 X-16.220 Y1.035 E0.08610
G1 X-16.712 Y0.203 E0.07454
G1 X-17.147 Y-0.826 E0.08610
G1 X-17.402 Y-1.759 E0.07453
G1 X-17.551 Y-2.870 E0.08636
G1 X-17.583 Y-3.353 E0.03735
G1 X-17.583 Y-13.147 E0.75473
G1 X-17.552 Y-13.621 E0.03665
G1 X-17.409 Y-14.711 E0.08474
G1 X-17.163 Y-15.628 E0.07314
G1 X-16.744 Y-16.641 E0.08449
G1 X-16.269 Y-17.463 E0.07314
G1 X-15.602 Y-18.333 E0.08449
G1 X-14.931 Y-19.004 E0.07314
G1 X-14.061 Y-19.671 E0.08449
G1 X-13.239 Y-20.146 E0.07314
G1 X-12.226 Y-20.565 E0.08449
G1 X-11.309 Y-20.811 E0.07314
G1 X-10.219 Y-20.955 E0.08474
G1 X-9.745 Y-20.986 E0.03665
G1 X-3.601 Y-20.983 E0.47348
G1 X-2.158 Y-20.924 E0.11125 F960.000
G1 X-0.431 Y-20.724 E0.13398
G1 X1.561 Y-20.312 E0.15679
G1 X3.226 Y-19.811 E0.13398
G1 X4.572 Y-19.294 E0.11117
G1 X6.144 Y-18.551 E0.13398
G1 X7.651 Y-17.683 E0.13398
G1 X9.317 Y-16.515 E0.15680
G1 X10.426 Y-15.593 E0.11117
G1 X11.678 Y-14.386 E0.13398
G1 X12.826 Y-13.081 E0.13398
G1 X13.865 Y-11.687 E0.13398
G1 X14.932 Y-9.954 E0.15680
G1 X15.709 Y-8.399 E0.13398
G1 X16.356 Y-6.786 E0.13398
G1 X16.793 Y-5.411 E0.11117
G1 X17.194 Y-3.719 E0.13398
G1 X17.486 Y-1.706 E0.15680
G1 X17.583 Y0.030 E0.13398
G1 X17.550 Y1.621 E0.12266
G1 X16.806 Y14.084 E0.96211
G1 X16.751 Y14.538 E0.03526
G1 X16.579 Y15.454 E0.07187
G1 X16.299 Y16.324 E0.07038
G1 X15.905 Y17.166 E0.07162
G1 X15.417 Y17.938 E0.07038
G1 X14.826 Y18.655 E0.07162
G1 X14.162 Y19.281 E0.07038
G1 X13.410 Y19.828 E0.07162
G1 X12.611 Y20.269 E0.07038
G1 X11.747 Y20.612 E0.07162
G1 X10.862 Y20.840 E0.07038
G1 X9.937 Y20.957 E0.07187
G1 X9.481 Y20.986 E0.03526
G1 X8.781 Y20.955 E0.05397
G1 X7.820 Y20.828 E0.07468
G1 X6.903 Y20.582 E0.07314
G1 X6.011 Y20.213 E0.07443
G1 X5.189 Y19.738 E0.07314
G1 X4.423 Y19.150 E0.07443
G1 X-7.545 Y8.867 E1.21602
G1 E-3.50000 F1500.00000
G1 Z0.700 F15000.000
G1 X6.538 Y10.742 F15000.000
G1 Z0.300 F15000.000
G1 E3.50000 F1500.00000
G1 X6.538 Y5.610 E0.39546 F600.000
G1 X6.479 Y4.844 E0.05924
G1 X6.270 Y3.949 E0.07084
G1 X6.548 Y3.817 E0.02373
G1 X6.954 Y4.346 E0.05134
G1 X7.215 Y4.687 E0.03314 F600.000
G1 X8.105 Y5.369 E0.08640
G1 X9.141 Y5.798 E0.08640
G1 X10.252 Y5.945 E0.08640
G1 X11.364 Y5.798 E0.08640
G1 X12.399 Y5.369 E0.08640
G1 X12.711 Y5.130 E0.03028
G1 X12.197 Y13.746 E0.66521
G1 X12.060 Y14.479 E0.05746
G1 X11.772 Y15.095 E0.05239
G1 X11.339 Y15.620 E0.05239
G1 X10.790 Y16.020 E0.05239
G1 X10.158 Y16.271 E0.05239
G1 X9.320 Y16.364 E0.06498
G1 X8.552 Y16.263 E0.05970
G1 X7.899 Y15.993 E0.05443
G1 X7.339 Y15.563 E0.05443
G1 X6.909 Y15.003 E0.05443
G1 X6.639 Y14.350 E0.05443
G1 X6.538 Y13.582 E0.05970
G1 X6.538 Y10.802 E0.21427
G1 E-3.50000 F1500.00000
G1 Z0.700 F15000.000
G1 X-1.035 Y-16.142 F15000.000
G1 Z0.300 F15000.000
G1 E3.50000 F1500.00000
G1 X0.299 Y-15.866 E0.10497 F720.000
G1 X1.606 Y-15.483 E0.10497
G1 X2.877 Y-14.994 E0.10497
G1 X4.105 Y-14.404 E0.10497
G1 X5.280 Y-13.715 E0.10497
G1 X6.396 Y-12.934 E0.10497
G1 X7.444 Y-12.063 E0.10497
G1 X8.417 Y-11.111 E0.10497
G1 X9.310 Y-10.082 E0.10497
G1 X10.116 Y-8.984 E0.10497
G1 X10.830 Y-7.824 E0.10497
G1 X11.447 Y-6.610 E0.10497
G1 X11.964 Y-5.350 E0.10497
G1 X12.376 Y-4.052 E0.10497
G1 X12.681 Y-2.724 E0.10497
G1 X12.823 Y-1.744 E0.07629
G1 X12.399 Y-2.069 E0.04113
G1 X11.364 Y-2.498 E0.08640
G1 X10.252 Y-2.645 E0.08640
G1 X9.141 Y-2.498 E0.08640
G1 X8.105 Y-2.069 E0.08640
G1 X7.215 Y-1.387 E0.08640
G1 X6.533 Y-0.497 E0.08640
G1 X6.104 Y0.538 E0.08640
G1 X5.958 Y1.650 E0.08640
G1 X6.125 Y2.918 E0.09856
G1 X5.827 Y3.018 E0.02418
G1 X5.411 Y2.289 E0.06470
G1 X4.712 Y1.348 E0.09034
G1 X3.906 Y0.497 E0.09034
G1 X3.004 Y-0.252 E0.09034
G1 X2.019 Y-0.888 E0.09034
G1 X0.965 Y-1.401 E0.09034
G1 X-0.142 Y-1.785 E0.09034
G1 X-1.288 Y-2.035 E0.09034
G1 X-2.455 Y-2.145 E0.09034
G1 X-3.626 Y-2.116 E0.09034
G1 X-4.786 Y-1.946 E0.09034
G1 X-5.839 Y-1.661 E0.08401
G1 X-5.600 Y-2.238 E0.04814
G1 X-5.453 Y-3.350 E0.08640
G1 X-5.600 Y-4.462 E0.08640
G1 X-6.029 Y-5.497 E0.08640
G1 X-6.711 Y-6.387 E0.08640
G1 X-7.601 Y-7.069 E0.08640
G1 X-8.636 Y-7.498 E0.08640
G1 X-9.748 Y-7.645 E0.08640
G1 X-10.859 Y-7.498 E0.08640
G1 X-11.895 Y-7.069 E0.08640
G1 X-12.962 Y-6.250 E0.10366
G1 X-12.962 Y-9.450 E0.24655
G1 X-11.895 Y-8.631 E0.10366
G1 X-10.859 Y-8.202 E0.08640
G1 X-9.748 Y-8.055 E0.08640
G1 X-8.636 Y-8.202 E0.08640
G1 X-7.601 Y-8.631 E0.08640
G1 X-6.711 Y-9.313 E0.08640
G1 X-6.029 Y-10.203 E0.08640
G1 X-5.600 Y-11.238 E0.08640
G1 X-5.453 Y-12.350 E0.08640
G1 X-5.600 Y-13.462 E0.08640
G1 X-6.029 Y-14.497 E0.08640
G1 X-6.711 Y-15.387 E0.08640
G1 X-7.648 Y-16.106 E0.09101
G1 X-7.560 Y-16.364 E0.02106
G1 X-3.769 Y-16.364 E0.29217
G1 X-3.240 Y-16.343 E0.04077
G1 X-2.387 Y-16.308 E0.06583 F720.000
G1 X-1.095 Y-16.149 E0.10035
G1 X-1.017 Y-16.780 F15000.000
G1 X0.453 Y-16.483 E0.11557 F720.000
G1 X1.810 Y-16.085 E0.10897
G1 X3.130 Y-15.578 E0.10897
G1 X4.404 Y-14.965 E0.10897
G1 X5.624 Y-14.251 E0.10897
G1 X6.782 Y-13.439 E0.10897
G1 X7.870 Y-12.536 E0.10897
G1 X8.880 Y-11.547 E0.10897
G1 X9.807 Y-10.479 E0.10897
G1 X10.644 Y-9.340 E0.10897
G1 X11.385 Y-8.136 E0.10897
G1 X12.026 Y-6.875 E0.10897
G1 X12.562 Y-5.567 E0.10897
G1 X12.989 Y-4.219 E0.10897
G1 X13.306 Y-2.841 E0.10897
G1 X13.509 Y-1.442 E0.10897
G1 X13.573 Y-0.415 E0.07925
G1 X13.309 Y-0.316 E0.02177
G1 X12.836 Y-0.933 E0.05994
G1 X12.079 Y-1.514 E0.07350
G1 X11.198 Y-1.879 E0.07350
G1 X10.252 Y-2.003 E0.07350
G1 X9.307 Y-1.879 E0.07350
G1 X8.425 Y-1.514 E0.07350
G1 X7.669 Y-0.933 E0.07350
G1 X7.088 Y-0.177 E0.07350
G1 X6.723 Y0.704 E0.07350
G1 X6.599 Y1.650 E0.07350
G1 X6.723 Y2.596 E0.07350
G1 X7.088 Y3.477 E0.07350
G1 X7.458 Y3.959 E0.04681
G1 X7.669 Y4.233 E0.02669
G1 X8.425 Y4.814 E0.07350
G1 X9.307 Y5.179 E0.07350
G1 X10.252 Y5.303 E0.07350
G1 X11.198 Y5.179 E0.07350
G1 X12.079 Y4.814 E0.07350
G1 X12.836 Y4.233 E0.07350
G1 X13.156 Y3.815 E0.04059
G1 X13.420 Y3.914 E0.02173
G1 X12.829 Y13.824 E0.76510
G1 X12.669 Y14.676 E0.06675
G1 X12.313 Y15.437 E0.06479
G1 X11.779 Y16.086 E0.06479
G1 X11.099 Y16.581 E0.06479
G1 X10.318 Y16.891 E0.06479
G1 X9.458 Y17.000 E0.06675
G1 X9.278 Y17.000 E0.01388
G1 X8.386 Y16.883 E0.06936
G1 X7.579 Y16.548 E0.06733
G1 X6.886 Y16.016 E0.06733
G1 X6.354 Y15.323 E0.06733
G1 X6.020 Y14.516 E0.06733
G1 X5.902 Y13.624 E0.06936
G1 X5.902 Y5.635 E0.61568
G1 X5.849 Y4.941 E0.05361
G1 X5.687 Y4.249 E0.05480
G1 X5.423 Y3.592 E0.05454
G1 X4.878 Y2.637 E0.08473
G1 X4.224 Y1.757 E0.08447
G1 X3.471 Y0.962 E0.08447
G1 X2.627 Y0.261 E0.08447
G1 X1.706 Y-0.333 E0.08447
G1 X1.342 Y-0.511 E0.03127
G1 X0.721 Y-0.813 E0.05320
G1 X-0.314 Y-1.172 E0.08447
G1 X-1.385 Y-1.405 E0.08447
G1 X-2.477 Y-1.509 E0.08447
G1 X-3.572 Y-1.481 E0.08447
G1 X-4.657 Y-1.323 E0.08447
G1 X-5.715 Y-1.036 E0.08447
G1 X-6.731 Y-0.626 E0.08447
G1 X-7.007 Y-0.473 E0.02430
G1 X-7.209 Y-0.708 E0.02388
G1 X-6.584 Y-1.523 E0.07917
G1 X-6.219 Y-2.404 E0.07350
G1 X-6.094 Y-3.350 E0.07350
G1 X-6.219 Y-4.296 E0.07350
G1 X-6.584 Y-5.177 E0.07350
G1 X-7.164 Y-5.933 E0.07350
G1 X-7.921 Y-6.514 E0.07350
G1 X-8.802 Y-6.879 E0.07350
G1 X-9.748 Y-7.003 E0.07350
G1 X-10.350 Y-6.924 E0.04681
G1 X-10.693 Y-6.879 E0.02669
G1 X-11.575 Y-6.514 E0.07350
G1 X-12.331 Y-5.933 E0.07350
G1 X-12.912 Y-5.177 E0.07350
G1 X-13.291 Y-4.262 E0.07633
G1 X-13.598 Y-4.323 E0.02412
G1 X-13.598 Y-11.377 E0.54367
G1 X-13.291 Y-11.438 E0.02412
G1 X-12.912 Y-10.523 E0.07633
G1 X-12.331 Y-9.767 E0.07350
G1 X-11.575 Y-9.186 E0.07350
G1 X-10.693 Y-8.821 E0.07350
G1 X-9.748 Y-8.697 E0.07350
G1 X-8.802 Y-8.821 E0.07350
G1 X-7.921 Y-9.186 E0.07350
G1 X-7.164 Y-9.767 E0.07350
G1 X-6.584 Y-10.523 E0.07350
G1 X-6.219 Y-11.404 E0.07350
G1 X-6.094 Y-12.350 E0.07350
G1 X-6.219 Y-13.296 E0.07350
G1 X-6.584 Y-14.177 E0.07350
G1 X-7.164 Y-14.933 E0.07350
G1 X-7.921 Y-15.514 E0.07350
G1 X-8.802 Y-15.879 E0.07350
G1 X-9.748 Y-16.003 E0.07350
G1 X-10.350 Y-15.924 E0.04681
G1 X-10.693 Y-15.879 E0.02669
G1 X-11.575 Y-15.514 E0.07350
G1 X-12.331 Y-14.933 E0.07350 F720.000
G1 X-12.912 Y-14.177 E0.07350
G1 X-13.224 Y-13.423 E0.06286
G1 X-13.547 Y-13.510 E0.02577
G1 X-13.463 Y-14.146 E0.04943
G1 X-13.079 Y-15.073 E0.07739
G1 X-12.468 Y-15.870 E0.07739
G1 X-11.671 Y-16.481 E0.07739
G1 X-10.743 Y-16.865 E0.07739
G1 X-9.722 Y-17.000 E0.07942
G1 X-3.756 Y-17.000 E0.45974
G1 X-2.335 Y-16.942 E0.10959
G1 X-1.077 Y-16.787 E0.09772
G1 X-0.880 Y-16.404 F15000.000
G1 E-3.50000 F1500.00000
G1 Z0.700 F15000.000
G1 X-13.461 Y-3.939 F15000.000
G1 Z0.300 F15000.000
G1 E3.50000 F1500.00000
G1 X-13.497 Y-3.383 E0.04288 F720.000
G1 X-13.363 Y-2.362 E0.07941
G1 X-12.974 Y-1.444 E0.07683
G1 X-12.357 Y-0.661 E0.07682
G1 X-11.570 Y-0.078 E0.07552
G1 X-10.626 Y0.290 E0.07804
G1 X-9.635 Y0.392 E0.07675
G1 X-8.836 Y0.273 E0.06224
G1 X-8.653 Y0.229 E0.01454
G1 X-7.930 Y-0.087 E0.06079
G1 X-7.402 Y-0.396 E0.04712
G1 E-3.50000 F1500.00000
G1 Z0.700 F15000.000
G1 X13.540 Y-0.029 F15000.000
G1 Z0.300 F15000.000
G1 E3.50000 F1500.00000
G1 X13.685 Y0.763 E0.06210 F720.000
G1 X13.728 Y1.673 E0.07017
G1 X13.637 Y2.586 E0.07068
G1 X13.417 Y3.539 E0.07541
G1 X12.267 Y6.226 F15000.000
G1 X11.964 Y5.922 E0.03315 F960.000
G1 X11.318 Y6.176 E0.05350
G1 X12.217 Y7.075 E0.09803
G1 X12.166 Y7.924 E0.06560
G1 X10.523 Y6.281 E0.17922
G1 X9.610 Y6.268 E0.07043
G1 X12.115 Y8.773 E0.27328
G1 X12.065 Y9.622 E0.06560
G1 X8.431 Y5.989 E0.39633
G1 X6.923 Y6.280 F15000.000
G1 X11.964 Y11.320 E0.54979 F960.000
G1 X11.913 Y12.169 E0.06560
G1 X6.923 Y7.179 E0.54426
G1 X6.923 Y8.079 E0.06939
G1 X11.862 Y13.018 E0.53874
G1 X11.806 Y13.862 E0.06521
G1 X6.923 Y8.979 E0.53263
G1 X6.923 Y9.878 E0.06939
G1 X11.633 Y14.588 E0.51368
G1 X11.297 Y15.152 E0.05062
G1 X6.923 Y10.778 E0.47707
G1 X6.923 Y11.678 E0.06939
G1 X10.828 Y15.582 E0.42587
G1 X10.221 Y15.875 E0.05197
G1 X6.923 Y12.577 E0.35966
G1 X6.933 Y13.487 E0.07014
G1 X9.416 Y15.969 E0.27082
G1 X7.968 Y15.421 F15000.000
G1 X7.481 Y14.935 E0.05304 F960.000
G1 X12.014 Y10.471 F15000.000
G1 X6.917 Y5.374 E0.55599 F960.000
G1 X5.691 Y0.851 F15000.000
G1 X-5.571 Y-10.410 E1.26747 F960.000
G1 X-5.299 Y-11.066 E0.05655
G1 X5.900 Y0.132 E1.26041
G1 X6.172 Y-0.524 E0.05655
G1 X-5.148 Y-11.844 E1.27404
G1 X-5.094 Y-12.718 E0.06974
G1 X6.555 Y-1.070 E1.31109
G1 X6.958 Y-1.595 E0.05269
G1 X-5.261 Y-13.814 E1.37529
G1 X-6.498 Y-15.979 F15000.000
G1 X7.476 Y-2.004 E1.57288 F960.000
G1 X8.008 Y-2.401 E0.05279
G1 X-5.570 Y-15.979 E1.52820
G1 X-4.642 Y-15.979 E0.07388
G1 X8.664 Y-2.673 E1.49760
G1 X9.366 Y-2.900 E0.05868
G1 X-3.705 Y-15.970 E1.47111
G1 X-2.737 Y-15.931 E0.07709
G1 X10.186 Y-3.008 E1.45452
G1 X11.194 Y-2.928 E0.08048
G1 X-1.695 Y-15.817 E1.45068
G1 X-0.571 Y-15.622 E0.09077
G1 X12.228 Y-2.823 E1.44058
G1 X11.919 Y-4.059 E0.10146
G1 X0.668 Y-15.311 E1.26641
G1 X2.081 Y-14.826 F15000.000
G1 X11.428 Y-5.479 E1.05202 F960.000
G1 X10.625 Y-7.211 F15000.000
G1 X3.800 Y-14.035 E0.76813 F960.000
G1 X6.914 Y-11.850 F15000.000
G1 X8.359 Y-10.405 E0.16265 F960.000
G1 X3.239 Y-0.672 F15000.000
G1 X-5.907 Y-9.818 E1.02939 F960.000
G1 X-6.310 Y-9.292 E0.05269
G1 X1.200 Y-1.783 E0.84524
G1 X-0.163 Y-2.217 E0.11381
G1 X-6.785 Y-8.839 E0.74536
G1 X-7.310 Y-8.436 E0.05269
G1 X-1.312 Y-2.437 E0.67517
G1 X-2.333 Y-2.530 E0.08162
G1 X-5.749 Y-5.947 E0.38450
G1 X-5.192 Y-4.461 F15000.000
G1 X-3.238 Y-2.508 E0.21988 F960.000
G1 X-4.080 Y-2.421 E0.06733
G1 X-5.073 Y-3.414 E0.11175
G1 X-5.181 Y-2.593 E0.06585
G1 X-4.877 Y-2.290 E0.03419
G1 X-7.151 Y-7.349 F15000.000
G1 X-7.926 Y-8.124 E0.08720 F960.000
G1 X-11.287 Y-7.715 F15000.000
G1 X-11.594 Y-8.022 E0.05592 F960.000
G1 X-12.273 Y-7.197 E0.13781
G1 X-12.577 Y-7.501 E0.05543
G1 E-3.50000 F1500.00000
G1 Z0.700 F15000.000
G1 X-12.795 Y-14.881 F15000.000
G1 Z0.300 F15000.000
G1 E3.50000 F1500.00000
G1 X-12.571 Y-15.177 E0.02860 F960.000
G1 X-12.173 Y-15.575 E0.04338
G1 X-11.793 Y-15.867 E0.03694
G1 X-11.436 Y-16.075 E0.03178
G1 X-10.833 Y-16.325 E0.05035
G1 X-10.615 Y-16.386 E0.01744
G1 X-9.771 Y-16.497 E0.06563
G1 X-9.474 Y-16.486 E0.02287
G1 X-9.474 Y-16.486 F15000.000
G1 X-8.687 Y-16.434 E0.12775 F960.000
G1 X-7.922 Y-16.287 E0.12613
G1 E-3.50000 F1500.00000
G1 Z0.700 F15000.000
G1 X7.953 Y-0.650 F15000.000
G1 Z0.500 F15000.000
G1 E3.50000 F1500.00000
G1 X8.626 Y-1.166 E0.02450 F2400.000
G1 X9.410 Y-1.491 E0.02450
G1 X10.252 Y-1.602 E0.02450 F2400.000
G1 X11.094 Y-1.491 E0.02450
G1 X11.878 Y-1.166 E0.02450
G1 X12.552 Y-0.650 E0.02450
G1 X13.069 Y0.024 E0.02450
G1 X13.394 Y0.808 E0.02450
G1 X13.504 Y1.650 E0.02450
G1 X13.394 Y2.492 E0.02450
G1 X13.069 Y3.276 E0.02450
G1 X12.552 Y3.950 E0.02450
G1 X11.878 Y4.466 E0.02450
G1 X11.094 Y4.791 E0.02450
G1 X10.252 Y4.902 E0.02450
G1 X9.410 Y4.791 E0.02450
G1 X8.626 Y4.466 E0.02450
G1 X7.953 Y3.950 E0.02450
G1 X7.436 Y3.276 E0.02450
G1 X7.111 Y2.492 E0.02450
G1 X7.000 Y1.650 E0.02450
G1 X7.111 Y0.808 E0.02450
G1 X7.436 Y0.024 E0.02450
G1 X7.916 Y-0.602 E0.02277
G1 X7.866 Y-1.040 F15000.000
G1 E-3.50000 F1500.00000
G1 Z0.900 F15000.000
G1 X-6.252 Y-2.467 F15000.000
G1 Z0.500 F15000.000
G1 E3.50000 F1500.00000
G1 X-6.259 Y-2.415 E0.00152 F2400.000
G1 X-6.619 Y-1.544 E0.02722
G1 X-7.194 Y-0.796 E0.02722
G1 X-7.942 Y-0.222 E0.02722
G1 X-8.813 Y0.139 E0.02722
G1 X-9.748 Y0.262 E0.02722
G1 X-10.683 Y0.139 E0.02722
G1 X-11.554 Y-0.222 E0.02722
G1 X-12.302 Y-0.796 E0.02722
G1 X-12.876 Y-1.544 E0.02722
G1 X-13.237 Y-2.415 E0.02722
G1 X-13.360 Y-3.350 E0.02722
G1 X-13.237 Y-4.285 E0.02722
G1 X-12.876 Y-5.156 E0.02722
G1 X-12.302 Y-5.904 E0.02722
G1 X-11.554 Y-6.478 E0.02722
G1 X-10.683 Y-6.839 E0.02722
G1 X-9.748 Y-6.962 E0.02722 F2400.000
G1 X-8.813 Y-6.839 E0.02722
G1 X-7.942 Y-6.478 E0.02722
G1 X-7.194 Y-5.904 E0.02722
G1 X-6.619 Y-5.156 E0.02722
G1 X-6.259 Y-4.285 E0.02722
G1 X-6.136 Y-3.350 E0.02722
G1 X-6.244 Y-2.527 E0.02397
G1 X-6.598 Y-2.573 F15000.000
G1 X-6.606 Y-2.508 E0.00189 F2400.000
G1 X-6.931 Y-1.724 E0.02450
G1 X-7.448 Y-1.050 E0.02450
G1 X-8.122 Y-0.534 E0.02450
G1 X-8.906 Y-0.209 E0.02450
G1 X-9.748 Y-0.098 E0.02450
G1 X-10.590 Y-0.209 E0.02450
G1 X-11.374 Y-0.534 E0.02450
G1 X-12.047 Y-1.050 E0.02450
G1 X-12.564 Y-1.724 E0.02450
G1 X-12.889 Y-2.508 E0.02450
G1 X-13.000 Y-3.350 E0.02450
G1 X-12.889 Y-4.192 E0.02450
G1 X-12.564 Y-4.976 E0.02450
G1 X-12.047 Y-5.650 E0.02450
G1 X-11.374 Y-6.166 E0.02450
G1 X-10.590 Y-6.491 E0.02450
G1 X-9.748 Y-6.602 E0.02450 F2400.000
G1 X-8.906 Y-6.491 E0.02450
G1 X-8.122 Y-6.166 E0.02450
G1 X-7.448 Y-5.650 E0.02450
G1 X-6.931 Y-4.976 E0.02450
G1 X-6.606 Y-4.192 E0.02450
G1 X-6.496 Y-3.350 E0.02450
G1 X-6.590 Y-2.633 E0.02088
G1 X-6.546 Y-2.533 F15000.000
G1 E-3.50000 F1500.00000
G1 Z0.900 F15000.000
G1 X-8.813 Y-8.861 F15000.000
G1 Z0.500 F15000.000
G1 E3.50000 F1500.00000
G1 X-9.748 Y-8.738 E0.02722 F2400.000
G1 X-10.683 Y-8.861 E0.02722
G1 X-11.554 Y-9.222 E0.02722
G1 X-12.302 Y-9.796 E0.02722
G1 X-12.876 Y-10.544 E0.02722
G1 X-13.237 Y-11.415 E0.02722
G1 X-13.360 Y-12.350 E0.02722
G1 X-13.237 Y-13.285 E0.02722
G1 X-12.876 Y-14.156 E0.02722
G1 X-12.302 Y-14.904 E0.02722
G1 X-11.554 Y-15.478 E0.02722
G1 X-10.683 Y-15.839 E0.02722
G1 X-9.748 Y-15.962 E0.02722 F2400.000
G1 X-8.813 Y-15.839 E0.02722
G1 X-7.942 Y-15.478 E0.02722
G1 X-7.194 Y-14.904 E0.02722
G1 X-6.619 Y-14.156 E0.02722
G1 X-6.259 Y-13.285 E0.02722
G1 X-6.136 Y-12.350 E0.02722
G1 X-6.259 Y-11.415 E0.02722
G1 X-6.619 Y-10.544 E0.02722
G1 X-7.194 Y-9.796 E0.02722
G1 X-7.942 Y-9.222 E0.02722
G1 X-8.757 Y-8.884 E0.02549
G1 X-8.894 Y-9.214 F15000.000
G1 X-9.748 Y-9.098 E0.02487 F2400.000
G1 X-10.590 Y-9.209 E0.02450
G1 X-11.374 Y-9.534 E0.02450
G1 X-12.047 Y-10.050 E0.02450
G1 X-12.564 Y-10.724 E0.02450
G1 X-12.889 Y-11.508 E0.02450
