; generated by Slic3r 1.2.9 on 2018-05-30 at 13:17:46

; external perimeters extrusion width = 0.40mm
; perimeters extrusion width = 0.40mm
; infill extrusion width = 0.40mm
; solid infill extrusion width = 0.40mm
; top infill extrusion width = 0.40mm

M107
M83
T0
M116
G21 ; set units to millimeters
G90 ; use absolute coordinates
M83 ; use relative distances for extrusion
G1 E-3.50000 F1500.00000
G1 Z0.400 F15000.000
G1 X18.994 Y-15.360 F15000.000
G1 Z0.300 F15000.000
G1 E3.50000 F1500.00000
G1 X25.164 Y-7.717 E0.75703 F960.000
G1 X25.483 Y-7.249 E0.04363
G1 X25.820 Y-6.644 E0.05340
G1 X25.979 Y-6.304 E0.02886
G1 X26.245 Y-5.598 E0.05820
G1 X26.437 Y-4.867 E0.05821
G1 X26.548 Y-4.183 E0.05341
G1 X26.582 Y-3.805 E0.02923
G1 X27.325 Y8.660 E0.96237
G1 X27.361 Y10.014 E0.10437
G1 X27.304 Y11.493 E0.11404
G1 X27.208 Y12.480 E0.07646
G1 X27.027 Y13.694 E0.09462
G1 X26.652 Y15.385 E0.13346
G1 X26.304 Y16.563 E0.09462
G1 X25.886 Y17.721 E0.09493
G1 X25.402 Y18.863 E0.09557
G1 X24.856 Y19.962 E0.09462
G1 X24.115 Y21.244 E0.11404
G1 X23.678 Y21.917 E0.06189
G1 X22.992 Y22.864 E0.09008
G1 X22.255 Y23.782 E0.09071
G1 X21.722 Y24.382 E0.06189
G1 X20.864 Y25.261 E0.09462
G1 X19.954 Y26.090 E0.09493
G1 X19.170 Y26.737 E0.07832
G1 X17.840 Y27.698 E0.12643
G1 X17.162 Y28.129 E0.06189
G1 X15.930 Y28.829 E0.10919
G1 X15.225 Y29.181 E0.06075
G1 X14.161 Y29.652 E0.08968
G1 X13.221 Y30.017 E0.07768
G1 X11.933 Y30.433 E0.10433
G1 X10.801 Y30.722 E0.09008
G1 X9.805 Y30.928 E0.07832
G1 X8.853 Y31.077 E0.07428
G1 X7.632 Y31.204 E0.09462
G1 X6.153 Y31.264 E0.11408
G1 X-0.271 Y31.256 E0.49511
G1 X-0.709 Y31.229 E0.03375
G1 X-1.301 Y31.153 E0.04599
G1 X-17.413 Y28.464 E1.25894
G1 X-18.625 Y28.156 E0.09635
G1 X-18.987 Y28.039 E0.02933
G1 X-19.828 Y27.716 E0.06937
G1 X-20.175 Y27.561 E0.02933
G1 X-20.977 Y27.153 E0.06937
G1 X-21.307 Y26.962 E0.02933
G1 X-22.062 Y26.472 E0.06937
G1 X-22.370 Y26.248 E0.02933
G1 X-23.069 Y25.682 E0.06937
G1 X-23.342 Y25.438 E0.02820
G1 X-23.915 Y24.869 E0.06218
G1 X-24.572 Y24.117 E0.07703
G1 X-24.782 Y23.846 E0.02641
G1 X-25.298 Y23.108 E0.06937
G1 X-25.500 Y22.785 E0.02933
G1 X-25.936 Y21.998 E0.06937
G1 X-26.103 Y21.656 E0.02933
G1 X-26.455 Y20.827 E0.06937
G1 X-26.581 Y20.484 E0.02820
G1 X-26.820 Y19.713 E0.06218
G1 X-27.047 Y18.740 E0.07703
G1 X-27.214 Y17.509 E0.09577
G1 X-27.241 Y17.129 E0.02933
G1 X-27.253 Y15.996 E0.08734
G1 X-25.980 Y-11.197 E2.09792
G1 X-25.924 Y-11.879 E0.05268
G1 X-25.867 Y-12.281 E0.03130
G1 X-25.166 Y-15.799 E0.27648
G1 X-25.049 Y-16.239 E0.03510
G1 X-24.749 Y-17.137 E0.07296
G1 X-24.577 Y-17.561 E0.03528
G1 X-23.022 Y-20.795 E0.27648
G1 X-22.815 Y-21.169 E0.03296
G1 X-22.364 Y-21.875 E0.06460
G1 X-22.014 Y-22.355 E0.04577
G1 X-19.704 Y-25.100 E0.27648
G1 X-19.071 Y-25.734 E0.06901
G1 X-18.656 Y-26.107 E0.04300
G1 X-18.339 Y-26.361 E0.03131
G1 X-15.419 Y-28.445 E0.27648
G1 X-14.649 Y-28.902 E0.06901
G1 X-14.154 Y-29.160 E0.04300
G1 X-13.784 Y-29.327 E0.03131
G1 X-10.437 Y-30.620 E0.27648
G1 X-10.003 Y-30.757 E0.03510
G1 X-9.084 Y-30.985 E0.07296
G1 X-8.634 Y-31.067 E0.03528
G1 X-5.071 Y-31.487 E0.27648
G1 X-4.644 Y-31.512 E0.03296
G1 X-3.922 Y-31.512 E0.05562
G1 X-3.213 Y-31.472 E0.05474 F960.000
G1 X0.343 Y-30.992 E0.27648
G1 X1.095 Y-30.829 E0.05935
G1 X1.754 Y-30.647 E0.05268
G1 X2.139 Y-30.515 E0.03131
G1 X5.463 Y-29.167 E0.27648
G1 X5.873 Y-28.969 E0.03510
G1 X6.699 Y-28.507 E0.07296
G1 X7.084 Y-28.258 E0.03527
G1 X9.968 Y-26.125 E0.27648
G1 X10.297 Y-25.851 E0.03296
G1 X11.065 Y-25.116 E0.08194
G1 X11.312 Y-24.842 E0.02843
G1 X13.576 Y-22.059 E0.27648
G1 X18.956 Y-15.407 E0.65933
G1 E-3.50000 F1500.00000
G1 Z0.700 F15000.000
G1 X15.818 Y7.893 F15000.000
G1 Z0.300 F15000.000
G1 E3.50000 F1500.00000
G1 X15.765 Y8.166 E0.02139 F720.000
G1 X15.740 Y8.631 E0.03591
G1 X15.765 Y9.096 E0.03591
G1 X15.901 Y9.796 E0.05495
G1 X16.053 Y10.237 E0.03591
G1 X16.250 Y10.659 E0.03591
G1 X16.638 Y11.257 E0.05495
G1 X16.944 Y11.609 E0.03591
G1 X17.272 Y11.915 E0.03458
G1 X17.630 Y12.185 E0.03458
G1 X18.015 Y12.416 E0.03458
G1 X18.421 Y12.606 E0.03458
G1 X18.862 Y12.758 E0.03591
G1 X19.562 Y12.894 E0.05495
G1 X20.045 Y12.919 E0.03724
G1 X20.755 Y12.857 E0.05495
G1 X21.209 Y12.752 E0.03591
G1 X21.633 Y12.606 E0.03458
G1 X22.056 Y12.409 E0.03591
G1 X22.599 Y12.056 E0.04994
G1 X22.461 Y12.977 E0.07173
G1 X22.211 Y14.108 E0.08934
G1 X21.882 Y15.222 E0.08950
G1 X21.557 Y16.104 E0.07239
G1 X21.249 Y16.835 E0.06118
G1 X20.732 Y17.877 E0.08964
G1 X20.141 Y18.885 E0.09000
G1 X19.830 Y19.356 E0.04352
G1 X19.272 Y20.122 E0.07305
G1 X18.769 Y20.748 E0.06184
G1 X18.396 Y21.173 E0.04366
G1 X17.579 Y22.011 E0.09016
G1 X16.880 Y22.639 E0.07239
G1 X16.266 Y23.142 E0.06118
G1 X15.315 Y23.827 E0.09030
G1 X14.842 Y24.132 E0.04336
G1 X13.822 Y24.717 E0.09066
G1 X13.318 Y24.971 E0.04352
G1 X12.452 Y25.358 E0.07305
G1 X11.705 Y25.651 E0.06184
G1 X10.613 Y26.004 E0.08848
G1 X9.694 Y26.236 E0.07305
G1 X8.907 Y26.395 E0.06184
G1 X8.348 Y26.483 E0.04366
G1 X7.186 Y26.605 E0.09000
G1 X6.011 Y26.645 E0.09063
G1 X2.211 Y26.639 E0.29283
G1 X2.134 Y26.360 E0.02233
G1 X2.425 Y26.185 E0.02616
G1 X2.779 Y25.918 E0.03421
G1 X3.044 Y25.676 E0.02765
G1 X3.313 Y25.385 E0.03053
G1 X3.581 Y25.028 E0.03441
G1 X3.813 Y24.644 E0.03458
G1 X4.002 Y24.237 E0.03458
G1 X4.148 Y23.813 E0.03458
G1 X4.253 Y23.359 E0.03591
G1 X4.317 Y22.631 E0.05629
G1 X4.253 Y21.903 E0.05629
G1 X4.148 Y21.449 E0.03591
G1 X4.002 Y21.025 E0.03458
G1 X3.813 Y20.618 E0.03458
G1 X3.581 Y20.234 E0.03458
G1 X3.311 Y19.875 E0.03458
G1 X2.994 Y19.535 E0.03591
G1 X2.439 Y19.086 E0.05495
G1 X2.040 Y18.846 E0.03591
G1 X1.633 Y18.656 E0.03458
G1 X1.209 Y18.510 E0.03458
G1 X0.772 Y18.409 E0.03458
G1 X0.309 Y18.352 E0.03591
G1 X-0.404 Y18.365 E0.05495
G1 X-0.864 Y18.438 E0.03591
G1 X-1.297 Y18.554 E0.03458
G1 X-1.732 Y18.721 E0.03591
G1 X-2.356 Y19.067 E0.05495
G1 X-2.728 Y19.347 E0.03591
G1 X-3.180 Y19.768 E0.04758
G1 X-3.182 Y16.492 E0.25249
G1 X-2.728 Y16.915 E0.04784
G1 X-2.356 Y17.196 E0.03591
G1 X-1.732 Y17.541 E0.05495
G1 X-1.297 Y17.708 E0.03591
G1 X-0.864 Y17.824 E0.03458
G1 X-0.421 Y17.895 E0.03458
G1 X0.045 Y17.919 E0.03591
G1 X0.755 Y17.857 E0.05495
G1 X1.209 Y17.752 E0.03591
G1 X1.633 Y17.606 E0.03458
G1 X2.040 Y17.416 E0.03458
G1 X2.425 Y17.185 E0.03458
G1 X2.779 Y16.918 E0.03421
G1 X3.044 Y16.676 E0.02765
G1 X3.313 Y16.385 E0.03053
G1 X3.581 Y16.028 E0.03441
G1 X3.813 Y15.644 E0.03458
G1 X4.010 Y15.221 E0.03591
G1 X4.218 Y14.539 E0.05495
G1 X4.291 Y14.079 E0.03591
G1 X4.315 Y13.614 E0.03591
G1 X4.253 Y12.903 E0.05495
G1 X4.148 Y12.449 E0.03591
G1 X3.979 Y11.957 E0.04012
G1 X4.561 Y12.127 E0.04671
G1 X5.229 Y12.273 E0.05271
G1 X5.914 Y12.373 E0.05338
G1 X6.921 Y12.431 E0.07773
G1 X7.622 Y12.410 E0.05404
G1 X8.632 Y12.292 E0.07839
G1 X9.625 Y12.068 E0.07839
G1 X10.284 Y11.857 E0.05338
G1 X10.928 Y11.601 E0.05338
G1 X11.833 Y11.146 E0.07803
G1 X12.523 Y10.712 E0.06287
G1 X13.236 Y10.175 E0.06877
G1 X13.751 Y9.716 E0.05319
G1 X14.229 Y9.227 E0.05271
G1 X14.672 Y8.705 E0.05271
G1 X15.077 Y8.154 E0.05271
G1 X15.445 Y7.572 E0.05308
G1 X15.609 Y7.259 E0.02724
G1 X15.920 Y7.368 E0.02538
G1 X15.829 Y7.834 E0.03661 F720.000
G1 X16.315 Y-2.356 F15000.000
G1 X16.315 Y-3.464 E0.08539 F600.000
G1 X16.374 Y-3.936 E0.03666
G1 X16.507 Y-4.373 E0.03525
G1 X16.686 Y-4.740 E0.03149
G1 X16.944 Y-5.106 E0.03446
G1 X17.350 Y-5.502 E0.04371
G1 X17.590 Y-5.670 E0.02255
G1 X17.995 Y-5.878 E0.03512
G1 X18.371 Y-6.000 E0.03049
G1 X18.740 Y-6.065 E0.02887
G1 X19.319 Y-6.081 E0.04463
G1 X19.534 Y-6.068 E0.01657
G1 X19.987 Y-5.983 E0.03554 F600.000
G1 X20.423 Y-5.820 E0.03587
G1 X20.676 Y-5.683 E0.02219
G1 X20.906 Y-5.525 E0.02153
G1 X21.119 Y-5.344 E0.02153
G1 X21.313 Y-5.142 E0.02153
G1 X21.581 Y-4.772 E0.03521
G1 X21.717 Y-4.518 E0.02219
G1 X21.822 Y-4.259 E0.02153
G1 X21.900 Y-3.991 E0.02153
G1 X21.969 Y-3.513 E0.03720
G1 X22.482 Y5.086 E0.66390
G1 X21.650 Y4.662 E0.07203
G1 X21.209 Y4.510 E0.03591
G1 X20.772 Y4.409 E0.03458
G1 X20.309 Y4.352 E0.03591
G1 X19.596 Y4.365 E0.05495
G1 X19.136 Y4.438 E0.03591
G1 X18.703 Y4.554 E0.03458
G1 X18.268 Y4.721 E0.03591
G1 X17.644 Y5.067 E0.05495
G1 X17.272 Y5.347 E0.03591
G1 X16.931 Y5.665 E0.03591
G1 X16.482 Y6.219 E0.05495
G1 X16.341 Y6.453 E0.02107
G1 X16.036 Y6.324 E0.02556
G1 X16.211 Y5.672 E0.05197
G1 X16.289 Y5.150 E0.04069
G1 X16.313 Y4.656 E0.03815
G1 X16.315 Y-2.296 E0.53571
G1 X15.679 Y-2.296 F15000.000
G1 X15.680 Y-3.486 E0.09172 F720.000
G1 X15.751 Y-4.066 E0.04507
G1 X15.920 Y-4.619 E0.04457
G1 X16.130 Y-5.049 E0.03684
G1 X16.460 Y-5.520 E0.04429
G1 X16.791 Y-5.862 E0.03672
G1 X16.963 Y-6.007 E0.01731
G1 X17.252 Y-6.210 E0.02726
G1 X17.767 Y-6.472 E0.04453
G1 X18.217 Y-6.619 E0.03648
G1 X18.676 Y-6.700 E0.03590
G1 X19.330 Y-6.717 E0.05039
G1 X19.602 Y-6.701 E0.02103
G1 X20.165 Y-6.594 E0.04416 F720.000
G1 X20.703 Y-6.392 E0.04428
G1 X21.008 Y-6.225 E0.02682
G1 X21.293 Y-6.030 E0.02659
G1 X21.556 Y-5.807 E0.02659
G1 X21.794 Y-5.558 E0.02659
G1 X22.130 Y-5.095 E0.04404
G1 X22.293 Y-4.788 E0.02682
G1 X22.423 Y-4.468 E0.02659
G1 X22.519 Y-4.137 E0.02659
G1 X22.603 Y-3.562 E0.04477
G1 X23.193 Y6.324 E0.76322
G1 X22.927 Y6.422 E0.02183
G1 X22.563 Y6.005 E0.04264
G1 X22.275 Y5.754 E0.02945
G1 X21.957 Y5.532 E0.02992
G1 X21.401 Y5.248 E0.04810
G1 X21.034 Y5.122 E0.02992
G1 X20.661 Y5.036 E0.02945
G1 X20.276 Y4.989 E0.02992
G1 X19.652 Y5.000 E0.04810
G1 X19.268 Y5.060 E0.02992
G1 X18.899 Y5.159 E0.02945
G1 X18.537 Y5.298 E0.02992
G1 X17.991 Y5.601 E0.04810
G1 X17.681 Y5.835 E0.02992
G1 X17.397 Y6.099 E0.02992
G1 X17.004 Y6.584 E0.04810
G1 X16.804 Y6.917 E0.02992
G1 X16.643 Y7.264 E0.02945
G1 X16.516 Y7.631 E0.02992
G1 X16.397 Y8.243 E0.04810
G1 X16.377 Y8.631 E0.02992
G1 X16.397 Y9.019 E0.02992
G1 X16.516 Y9.631 E0.04810
G1 X16.643 Y9.999 E0.02992
G1 X16.807 Y10.350 E0.02992
G1 X17.147 Y10.874 E0.04810
G1 X17.401 Y11.167 E0.02992
G1 X17.681 Y11.427 E0.02945
G1 X17.986 Y11.657 E0.02945
G1 X18.314 Y11.854 E0.02945
G1 X18.660 Y12.016 E0.02945
G1 X19.027 Y12.142 E0.02992
G1 X19.640 Y12.261 E0.04810
G1 X20.034 Y12.282 E0.03039
G1 X20.655 Y12.227 E0.04810
G1 X21.034 Y12.140 E0.02992
G1 X21.395 Y12.016 E0.02945
G1 X21.747 Y11.852 E0.02992
G1 X22.270 Y11.512 E0.04810
G1 X22.563 Y11.257 E0.02992
G1 X22.824 Y10.978 E0.02945
G1 X23.084 Y10.632 E0.03331
G1 X23.348 Y10.727 E0.02166
G1 X23.323 Y11.306 E0.04466
G1 X23.265 Y11.899 E0.04591
G1 X23.087 Y13.092 E0.09298
G1 X22.827 Y14.267 E0.09274
G1 X22.485 Y15.422 E0.09280
G1 X22.149 Y16.337 E0.07513
G1 X21.827 Y17.100 E0.06383
G1 X21.291 Y18.179 E0.09285
G1 X20.681 Y19.220 E0.09298
G1 X20.353 Y19.719 E0.04597
G1 X19.777 Y20.509 E0.07537
G1 X19.256 Y21.157 E0.06406
G1 X18.862 Y21.605 E0.04602
G1 X18.019 Y22.470 E0.09303
G1 X17.294 Y23.122 E0.07513
G1 X16.653 Y23.646 E0.06383
G1 X15.674 Y24.352 E0.09308
G1 X15.173 Y24.675 E0.04591
G1 X14.123 Y25.276 E0.09321
G1 X13.591 Y25.545 E0.04597
G1 X12.698 Y25.945 E0.07537
G1 X11.924 Y26.248 E0.06406
G1 X11.356 Y26.442 E0.04625
G1 X10.783 Y26.617 E0.04620
G1 X9.835 Y26.856 E0.07537
G1 X9.020 Y27.021 E0.06406
G1 X8.430 Y27.114 E0.04602
G1 X7.230 Y27.239 E0.09298
G1 X6.021 Y27.281 E0.09322
G1 X-0.244 Y27.271 E0.48282
G1 X-0.638 Y27.222 E0.03060
G1 X-1.162 Y27.092 E0.04162
G1 X-1.663 Y26.889 E0.04162
G1 X-2.013 Y26.696 E0.03082
G1 X-2.343 Y26.465 E0.03105
G1 X-2.647 Y26.200 E0.03105
G1 X-2.919 Y25.908 E0.03082
G1 X-3.237 Y25.471 E0.04162
G1 X-3.490 Y24.994 E0.04162
G1 X-3.634 Y24.621 E0.03082
G1 X-3.737 Y24.234 E0.03081
G1 X-3.804 Y23.761 E0.03683
G1 X-3.467 Y23.680 E0.02670
G1 X-3.357 Y23.999 E0.02594
G1 X-3.196 Y24.345 E0.02945
G1 X-2.996 Y24.678 E0.02992
G1 X-2.603 Y25.163 E0.04810
G1 X-2.319 Y25.427 E0.02992
G1 X-2.014 Y25.657 E0.02945
G1 X-1.681 Y25.857 E0.02992
G1 X-1.107 Y26.101 E0.04810
G1 X-0.732 Y26.202 E0.02992
G1 X-0.354 Y26.262 E0.02945
G1 X0.034 Y26.282 E0.02992
G1 X0.655 Y26.227 E0.04810
G1 X1.034 Y26.140 E0.02992
G1 X1.395 Y26.016 E0.02945
G1 X1.741 Y25.854 E0.02945
G1 X2.069 Y25.657 E0.02945
G1 X2.373 Y25.429 E0.02932
G1 X2.595 Y25.225 E0.02326
G1 X2.824 Y24.977 E0.02601
G1 X3.054 Y24.672 E0.02938
G1 X3.251 Y24.345 E0.02945
G1 X3.412 Y23.999 E0.02945
G1 X3.536 Y23.637 E0.02945
G1 X3.624 Y23.259 E0.02992
G1 X3.679 Y22.631 E0.04858
G1 X3.624 Y22.003 E0.04858
G1 X3.536 Y21.625 E0.02992
G1 X3.412 Y21.264 E0.02945
G1 X3.251 Y20.917 E0.02945
G1 X3.054 Y20.590 E0.02945
G1 X2.824 Y20.285 E0.02945
G1 X2.559 Y20.001 E0.02992
G1 X2.074 Y19.608 E0.04810
G1 X1.741 Y19.408 E0.02992
G1 X1.395 Y19.246 E0.02945
G1 X1.034 Y19.122 E0.02945
G1 X0.661 Y19.036 E0.02945
G1 X0.276 Y18.989 E0.02992
G1 X-0.348 Y19.000 E0.04810
G1 X-0.732 Y19.060 E0.02992
G1 X-1.101 Y19.159 E0.02945
G1 X-1.463 Y19.298 E0.02992
G1 X-2.009 Y19.601 E0.04810
G1 X-2.319 Y19.835 E0.02992
G1 X-2.603 Y20.099 E0.02992
G1 X-2.996 Y20.584 E0.04810
G1 X-3.196 Y20.917 E0.02992
G1 X-3.357 Y21.264 E0.02945
G1 X-3.496 Y21.665 E0.03275
G1 X-3.814 Y21.612 E0.02487
G1 X-3.819 Y14.635 E0.53767
G1 X-3.501 Y14.582 E0.02489
G1 X-3.357 Y14.999 E0.03395
G1 X-3.196 Y15.345 E0.02945
G1 X-2.996 Y15.678 E0.02992
G1 X-2.603 Y16.163 E0.04810
G1 X-2.319 Y16.427 E0.02992
G1 X-2.009 Y16.661 E0.02992
G1 X-1.463 Y16.964 E0.04810
G1 X-1.101 Y17.103 E0.02992
G1 X-0.732 Y17.202 E0.02945
G1 X-0.354 Y17.262 E0.02945
G1 X0.034 Y17.282 E0.02992
G1 X0.655 Y17.227 E0.04810
G1 X1.034 Y17.140 E0.02992
G1 X1.395 Y17.016 E0.02945
G1 X1.741 Y16.854 E0.02945
G1 X2.069 Y16.657 E0.02945
G1 X2.373 Y16.429 E0.02932
G1 X2.595 Y16.225 E0.02326
G1 X2.824 Y15.977 E0.02601
G1 X3.054 Y15.672 E0.02938
G1 X3.251 Y15.345 E0.02945
G1 X3.415 Y14.993 E0.02992
G1 X3.597 Y14.396 E0.04810
G1 X3.658 Y14.013 E0.02992
G1 X3.678 Y13.625 E0.02992
G1 X3.624 Y13.003 E0.04810
G1 X3.536 Y12.625 E0.02992
G1 X3.412 Y12.264 E0.02945
G1 X3.251 Y11.917 E0.02945
G1 X3.054 Y11.590 E0.02945
G1 X2.824 Y11.285 E0.02945
G1 X2.585 Y11.028 E0.02704
G1 X2.782 Y10.772 E0.02495
G1 X3.504 Y11.110 E0.06140
G1 X4.104 Y11.331 E0.04929
G1 X4.718 Y11.511 E0.04929
G1 X5.343 Y11.647 E0.04929
G1 X5.979 Y11.740 E0.04953
G1 X6.930 Y11.795 E0.07345
G1 X7.575 Y11.776 E0.04976
G1 X8.525 Y11.664 E0.07368
G1 X9.458 Y11.454 E0.07368
G1 X10.070 Y11.259 E0.04953
G1 X10.667 Y11.021 E0.04953
G1 X11.520 Y10.592 E0.07356
G1 X12.162 Y10.188 E0.05847
G1 X12.833 Y9.683 E0.06469
G1 X13.312 Y9.256 E0.04946
G1 X13.759 Y8.799 E0.04929
G1 X14.172 Y8.311 E0.04929
G1 X14.551 Y7.795 E0.04929
G1 X14.894 Y7.253 E0.04942
G1 X15.261 Y6.555 E0.06078
G1 X15.431 Y6.126 E0.03558
G1 X15.588 Y5.543 E0.04653
G1 X15.655 Y5.088 E0.03546
G1 X15.677 Y4.640 E0.03454
G1 X15.679 Y-2.236 E0.52989
G1 X16.026 Y-2.496 F15000.000
G1 X23.184 Y6.700 F15000.000
G1 X23.405 Y7.651 E0.07520 F720.000
G1 X23.482 Y8.252 E0.04676
G1 X23.504 Y8.622 E0.02851
G1 X23.503 Y9.014 E0.03019
G1 X23.454 Y9.590 E0.04459
G1 X23.320 Y10.345 E0.05910
G1 E-3.50000 F1500.00000
G1 Z0.700 F15000.000
G1 X2.397 Y10.698 F15000.000
G1 Z0.300 F15000.000
G1 E3.50000 F1500.00000
G1 X1.806 Y10.330 E0.05362 F720.000
G1 X1.409 Y10.148 E0.03367
G1 X0.973 Y10.004 E0.03545
G1 X0.655 Y9.936 E0.02502
G1 X0.312 Y9.894 E0.02662
G1 X-0.325 Y9.900 E0.04914
G1 X-0.816 Y9.979 E0.03833
G1 X-1.317 Y10.133 E0.04034
G1 X-1.826 Y10.374 E0.04342
G1 X-2.316 Y10.707 E0.04567
G1 X-2.684 Y11.046 E0.03850
G1 X-2.950 Y11.353 E0.03135
G1 X-3.139 Y11.625 E0.02551
G1 X-3.404 Y12.127 E0.04375
G1 X-3.581 Y12.611 E0.03974
G1 X-3.684 Y13.121 E0.04004
G1 X-3.721 Y13.608 E0.03763
G1 X-3.705 Y14.261 E0.05040
G1 X-2.339 Y17.890 F15000.000
G1 X-2.675 Y17.554 E0.04149 F960.000
G1 X-2.795 Y18.452 E0.07911
G1 X-2.491 Y18.756 E0.03759
G1 X-1.867 Y18.432 F15000.000
G1 X-1.300 Y18.174 E0.04801 F960.000
G1 X-1.172 Y18.071 E0.01268
G1 X-1.007 Y18.131 F15000.000
G1 X-1.246 Y18.131 E0.01842 F960.000
G1 X-1.300 Y18.088 E0.00530
G1 X-1.867 Y17.830 E0.04801
G1 E-3.50000 F1500.00000
G1 Z0.700 F15000.000
G1 X-2.986 Y25.225 F15000.000
G1 Z0.300 F15000.000
G1 E3.50000 F1500.00000
G1 X-2.859 Y25.399 E0.01662 F960.000
G1 X-2.624 Y25.665 E0.02733
G1 X-2.363 Y25.906 E0.02745
G1 X-1.889 Y26.246 E0.04495
G1 X-1.460 Y26.463 E0.03707
G1 X-1.012 Y26.629 E0.03680
G1 X-0.547 Y26.733 E0.03668
G1 X0.030 Y26.777 E0.04461
