; generated by Slic3r 1.2.9 on 2018-05-22 at 16:33:50

; external perimeters extrusion width = 0.40mm
; perimeters extrusion width = 0.40mm
; infill extrusion width = 0.40mm
; solid infill extrusion width = 0.40mm
; top infill extrusion width = 0.40mm

M107
M83
T0
M116
G21 ; set units to millimeters
G90 ; use absolute coordinates
M83 ; use relative distances for extrusion
G1 E-3.50000 F1500.00000
G1 Z0.400 F15000.000
G1 X12.021 Y27.013 F15000.000
G1 Z0.300 F15000.000
G1 E3.50000 F1500.00000
G1 X5.956 Y29.712 E0.51162 F960.000
G1 X4.478 Y30.026 E0.11646
G1 X-9.571 Y30.026 E1.08266
G1 X-10.319 Y29.989 E0.05773
G1 X-10.724 Y29.944 E0.03142
G1 X-11.261 Y29.853 E0.04191
G1 X-11.658 Y29.762 E0.03142
G1 X-12.271 Y29.584 E0.04917
G1 X-46.952 Y18.612 E2.80329
G1 X-48.224 Y17.904 E0.11217
G1 X-50.224 Y16.187 E0.20315
G1 X-51.216 Y14.815 E0.13052
G1 X-51.490 Y13.529 E0.10130
G1 X-51.918 Y-1.983 E1.19587
G1 X-51.920 Y-5.983 E0.30829
G1 X-51.525 Y-7.630 E0.13052
G1 X-49.901 Y-9.239 E0.17616
G1 X-9.774 Y-29.173 E3.45298
G1 X-9.062 Y-29.477 E0.05968
G1 X-8.677 Y-29.611 E0.03142
G1 X-8.154 Y-29.762 E0.04191
G1 X-7.757 Y-29.853 E0.03142
G1 X-7.220 Y-29.944 E0.04191
G1 X-6.815 Y-29.989 E0.03142
G1 X-6.067 Y-30.026 E0.05773
G1 X7.982 Y-30.026 E1.08266
G1 X9.093 Y-29.852 E0.08667
G1 X46.967 Y-17.695 E3.06545 F960.000
G1 X48.224 Y-16.992 E0.11102
G1 X50.224 Y-15.274 E0.20315
G1 X51.216 Y-13.902 E0.13052
G1 X51.490 Y-12.616 E0.10129
G1 X51.920 Y2.996 E1.20361
G1 X51.920 Y6.896 E0.30056
G1 X51.525 Y8.543 E0.13052
G1 X49.762 Y10.217 E0.18738
G1 X12.076 Y26.988 E3.17891
G1 E-3.50000 F1500.00000
G1 Z0.700 F15000.000
G1 X6.870 Y-3.036 F15000.000
G1 Z0.300 F15000.000
G1 E3.50000 F1500.00000
G1 X-31.059 Y-3.036 E2.92300 F720.000
G1 X-31.059 Y-3.069 E0.00252
G1 X-47.298 Y-3.069 E1.25149
G1 X-47.298 Y-4.998 E0.14864
G1 X-38.728 Y-4.998 E0.66044
G1 X-37.921 Y-5.117 E0.06287
G1 X-37.102 Y-5.504 E0.06983
G1 X-36.432 Y-6.117 E0.06997
G1 X-35.859 Y-7.107 E0.08812
G1 X-35.680 Y-7.288 E0.01969
G1 X-35.463 Y-7.415 E0.01935
G1 X-35.220 Y-7.480 E0.01935
G1 X-34.969 Y-7.480 E0.01935
G1 X-34.727 Y-7.415 E0.01928
G1 X-34.509 Y-7.288 E0.01945
G1 X-34.332 Y-7.109 E0.01944
G1 X-33.795 Y-6.169 E0.08344
G1 X-33.197 Y-5.585 E0.06441
G1 X-31.059 Y-4.418 E0.18770
G1 X-31.059 Y-11.530 E0.54810
G1 X30.941 Y-11.530 E4.77806
G1 X30.941 Y-13.248 E0.13234
G1 X44.870 Y-13.248 E1.07343
G1 X44.870 Y-11.530 E0.13234
G1 X46.870 Y-11.530 E0.15413 F720.000
G1 X46.870 Y-8.319 E0.24750
G1 X6.870 Y-8.319 E3.08262
G1 X6.870 Y-3.096 E0.40249
G1 X7.505 Y-3.096 F15000.000
G1 X7.505 Y-2.401 E0.05361 F720.000
G1 X-31.695 Y-2.401 E3.02097
G1 X-31.695 Y-2.433 E0.00252
G1 X-47.934 Y-2.433 E1.25149
G1 X-47.934 Y-5.633 E0.24661
G1 X-38.775 Y-5.633 E0.70582
G1 X-38.108 Y-5.732 E0.05200
G1 X-37.460 Y-6.038 E0.05517
G1 X-36.934 Y-6.520 E0.05505
G1 X-36.368 Y-7.496 E0.08688
G1 X-36.072 Y-7.795 E0.03246
G1 X-35.710 Y-8.007 E0.03234
G1 X-35.304 Y-8.116 E0.03234
G1 X-34.885 Y-8.116 E0.03234
G1 X-34.481 Y-8.007 E0.03226
G1 X-34.117 Y-7.795 E0.03244
G1 X-33.821 Y-7.497 E0.03237
G1 X-33.287 Y-6.561 E0.08302
G1 X-32.816 Y-6.101 E0.05079
G1 X-31.695 Y-5.489 E0.09842
G1 X-31.695 Y-12.166 E0.51457
G1 X30.305 Y-12.166 E4.77806
G1 X30.305 Y-13.883 E0.13234
G1 X45.505 Y-13.883 E1.17140
G1 X45.505 Y-12.166 E0.13234
G1 X47.505 Y-12.166 E0.15413 F720.000
G1 X47.505 Y-7.683 E0.34547
G1 X7.505 Y-7.683 E3.08262
G1 X7.505 Y-3.156 E0.34889
G1 X7.159 Y-2.896 F15000.000
G1 E-3.50000 F1500.00000
G1 Z0.700 F15000.000
G1 X30.772 Y-11.145 F15000.000
G1 Z0.300 F15000.000
G1 E3.50000 F1500.00000
G1 X33.213 Y-8.704 E0.27946 F960.000
G1 X32.307 Y-8.704 E0.07336
G1 X29.866 Y-11.145 E0.27946
G1 X28.960 Y-11.145 E0.07336
G1 X31.401 Y-8.704 E0.27946
G1 X30.495 Y-8.704 E0.07336
G1 X28.054 Y-11.145 E0.27946
G1 X27.148 Y-11.145 E0.07336
G1 X29.589 Y-8.704 E0.27946
G1 X28.682 Y-8.704 E0.07336
G1 X26.242 Y-11.145 E0.27946
G1 X25.336 Y-11.145 E0.07336
G1 X27.776 Y-8.704 E0.27946
G1 X26.870 Y-8.704 E0.07336
G1 X24.430 Y-11.145 E0.27946
G1 X23.524 Y-11.145 E0.07336
G1 X25.964 Y-8.704 E0.27946
G1 X25.058 Y-8.704 E0.07336
G1 X22.618 Y-11.145 E0.27946
G1 X21.712 Y-11.145 E0.07336
G1 X24.152 Y-8.704 E0.27946
G1 X23.246 Y-8.704 E0.07336
G1 X20.806 Y-11.145 E0.27946
G1 X19.899 Y-11.145 E0.07336
G1 X22.340 Y-8.704 E0.27946
G1 X21.434 Y-8.704 E0.07336
G1 X18.993 Y-11.145 E0.27946
G1 X18.087 Y-11.145 E0.07336
G1 X20.528 Y-8.704 E0.27946
G1 X19.622 Y-8.704 E0.07336
G1 X17.181 Y-11.145 E0.27946
G1 X16.275 Y-11.145 E0.07336
G1 X18.716 Y-8.704 E0.27946
G1 X17.810 Y-8.704 E0.07336
G1 X15.369 Y-11.145 E0.27946
G1 X14.463 Y-11.145 E0.07336
G1 X16.904 Y-8.704 E0.27946
G1 X15.998 Y-8.704 E0.07336
G1 X13.557 Y-11.145 E0.27946
G1 X12.651 Y-11.145 E0.07336
G1 X15.092 Y-8.704 E0.27946
G1 X14.186 Y-8.704 E0.07336
G1 X11.745 Y-11.145 E0.27946
G1 X10.839 Y-11.145 E0.07336
G1 X13.280 Y-8.704 E0.27946
G1 X12.374 Y-8.704 E0.07336
G1 X9.933 Y-11.145 E0.27946
G1 X9.027 Y-11.145 E0.07336
G1 X11.468 Y-8.704 E0.27946
G1 X10.562 Y-8.704 E0.07336
G1 X8.121 Y-11.145 E0.27946
G1 X7.215 Y-11.145 E0.07336
G1 X9.656 Y-8.704 E0.27946
G1 X8.749 Y-8.704 E0.07336
G1 X6.309 Y-11.145 E0.27946
G1 X5.403 Y-11.145 E0.07336
G1 X7.843 Y-8.704 E0.27946
G1 X6.937 Y-8.704 E0.07336
G1 X4.497 Y-11.145 E0.27946
G1 X3.591 Y-11.145 E0.07336
G1 X6.484 Y-8.251 E0.33133
G1 X6.484 Y-7.345 E0.07336
G1 X2.685 Y-11.145 E0.43508
G1 X1.779 Y-11.145 E0.07336
G1 X6.484 Y-6.439 E0.53882
G1 X6.484 Y-5.533 E0.07336
G1 X0.873 Y-11.145 E0.64256
G1 X-0.033 Y-11.145 E0.07336
G1 X6.484 Y-4.627 E0.74631
G1 X6.484 Y-3.721 E0.07336
G1 X-0.940 Y-11.145 E0.85005
G1 X-1.846 Y-11.145 E0.07336
G1 X5.878 Y-3.422 E0.88434
G1 X4.972 Y-3.422 E0.07336
G1 X-2.752 Y-11.145 E0.88434
G1 X-3.658 Y-11.145 E0.07336
G1 X4.066 Y-3.422 E0.88434
G1 X3.160 Y-3.422 E0.07336
G1 X-4.564 Y-11.145 E0.88434
G1 X-5.470 Y-11.145 E0.07336
G1 X2.254 Y-3.422 E0.88434
G1 X1.348 Y-3.422 E0.07336
G1 X-6.376 Y-11.145 E0.88434
G1 X-7.282 Y-11.145 E0.07336
G1 X0.442 Y-3.422 E0.88434
G1 X-0.464 Y-3.422 E0.07336
G1 X-8.188 Y-11.145 E0.88434
G1 X-9.094 Y-11.145 E0.07336
G1 X-1.370 Y-3.422 E0.88434
G1 X-2.277 Y-3.422 E0.07336
G1 X-10.000 Y-11.145 E0.88434
G1 X-10.906 Y-11.145 E0.07336
G1 X-3.183 Y-3.422 E0.88434
G1 X-4.089 Y-3.422 E0.07336
G1 X-11.812 Y-11.145 E0.88434
G1 X-12.718 Y-11.145 E0.07336
G1 X-4.995 Y-3.422 E0.88434
G1 X-5.901 Y-3.422 E0.07336
G1 X-13.624 Y-11.145 E0.88434
G1 X-14.530 Y-11.145 E0.07336
G1 X-6.807 Y-3.422 E0.88434
G1 X-7.713 Y-3.422 E0.07336
G1 X-15.436 Y-11.145 E0.88434
G1 X-16.342 Y-11.145 E0.07336
G1 X-8.619 Y-3.422 E0.88434
G1 X-9.525 Y-3.422 E0.07336
G1 X-17.248 Y-11.145 E0.88434
G1 X-18.154 Y-11.145 E0.07336
G1 X-10.431 Y-3.422 E0.88434
G1 X-11.337 Y-3.422 E0.07336
G1 X-19.060 Y-11.145 E0.88434
G1 X-19.966 Y-11.145 E0.07336
G1 X-12.243 Y-3.422 E0.88434
G1 X-13.149 Y-3.422 E0.07336
G1 X-20.872 Y-11.145 E0.88434
G1 X-21.779 Y-11.145 E0.07336
G1 X-14.055 Y-3.422 E0.88434
G1 X-14.961 Y-3.422 E0.07336
G1 X-22.685 Y-11.145 E0.88434
G1 X-23.591 Y-11.145 E0.07336
G1 X-15.867 Y-3.422 E0.88434
G1 X-16.773 Y-3.422 E0.07336
G1 X-24.497 Y-11.145 E0.88434
G1 X-25.403 Y-11.145 E0.07336
G1 X-17.679 Y-3.422 E0.88434
G1 X-18.585 Y-3.422 E0.07336
G1 X-26.309 Y-11.145 E0.88434
G1 X-27.215 Y-11.145 E0.07336
G1 X-19.491 Y-3.422 E0.88434
G1 X-20.397 Y-3.422 E0.07336
G1 X-28.121 Y-11.145 E0.88434
G1 X-29.027 Y-11.145 E0.07336
G1 X-21.303 Y-3.422 E0.88434
G1 X-22.209 Y-3.422 E0.07336
G1 X-29.933 Y-11.145 E0.88434
G1 X-30.674 Y-10.980 E0.06144
G1 X-23.116 Y-3.422 E0.86539
G1 X-24.022 Y-3.422 E0.07336
G1 X-30.674 Y-10.073 E0.76165
G1 X-30.674 Y-9.167 E0.07336
G1 X-24.928 Y-3.422 E0.65791
G1 X-25.834 Y-3.422 E0.07336
G1 X-30.674 Y-8.261 E0.55416
G1 X-30.674 Y-7.355 E0.07336
G1 X-26.740 Y-3.422 E0.45042
G1 X-27.646 Y-3.422 E0.07336
G1 X-30.674 Y-6.449 E0.34668
G1 X-30.674 Y-5.543 E0.07336
G1 X-28.552 Y-3.422 E0.24294
G1 X-29.458 Y-3.422 E0.07336
G1 X-30.674 Y-4.637 E0.13919
G1 X-30.674 Y-3.731 E0.07336
G1 X-30.364 Y-3.422 E0.03545
G1 X-30.568 Y-3.473 F15000.000
G1 X-30.890 Y-3.795 E0.03686 F960.000
G1 X-31.492 Y-3.453 E0.05609
G1 X-32.967 Y-4.928 E0.16889
G1 X-33.381 Y-3.453 F15000.000
G1 X-36.046 Y-6.118 E0.30511 F960.000
G1 X-36.491 Y-5.619 E0.05415
G1 X-34.325 Y-3.453 E0.24797
G1 X-35.270 Y-3.453 E0.07646
G1 X-36.996 Y-5.179 E0.19763
G1 X-37.637 Y-4.876 E0.05743
G1 X-36.214 Y-3.453 E0.16294
G1 X-37.158 Y-3.453 E0.07646
G1 X-38.384 Y-4.679 E0.14033
G1 X-39.263 Y-4.613 E0.07135
G1 X-38.103 Y-3.453 E0.13283
G1 X-39.047 Y-3.453 E0.07646
G1 X-40.207 Y-4.613 E0.13283
G1 X-41.152 Y-4.613 E0.07646
G1 X-39.991 Y-3.453 E0.13283
G1 X-40.936 Y-3.453 E0.07646
G1 X-42.096 Y-4.613 E0.13283
G1 X-43.040 Y-4.613 E0.07646
G1 X-41.880 Y-3.453 E0.13283
G1 X-42.825 Y-3.453 E0.07646
G1 X-43.985 Y-4.613 E0.13283
G1 X-44.929 Y-4.613 E0.07646
G1 X-43.769 Y-3.453 E0.13283
G1 X-44.713 Y-3.453 E0.07646
G1 X-45.873 Y-4.613 E0.13283
G1 X-46.818 Y-4.613 E0.07646
G1 X-45.658 Y-3.453 E0.13283
G1 X-46.602 Y-3.453 E0.07646
G1 X-46.914 Y-3.765 E0.03570
G1 X-35.699 Y-6.716 F15000.000
G1 X-32.436 Y-3.453 E0.37358 F960.000
G1 X-34.506 Y-6.468 F15000.000
G1 X-35.120 Y-7.082 E0.07030 F960.000
G1 E-3.50000 F1500.00000
G1 Z0.700 F15000.000
G1 X31.326 Y-11.497 F15000.000
G1 Z0.300 F15000.000
G1 E3.50000 F1500.00000
G1 X34.119 Y-8.704 E0.31971 F960.000
G1 X35.025 Y-8.704 E0.07336
G1 X31.326 Y-12.403 E0.42345
G1 X31.773 Y-12.862 E0.05188
G1 X35.931 Y-8.704 E0.47609
G1 X36.837 Y-8.704 E0.07336
G1 X32.679 Y-12.862 E0.47609
G1 X33.585 Y-12.862 E0.07336
G1 X37.743 Y-8.704 E0.47609
G1 X38.649 Y-8.704 E0.07336
G1 X34.491 Y-12.862 E0.47609
G1 X35.397 Y-12.862 E0.07336
G1 X39.555 Y-8.704 E0.47609
G1 X40.461 Y-8.704 E0.07336
G1 X36.303 Y-12.862 E0.47609
G1 X37.209 Y-12.862 E0.07336
G1 X41.367 Y-8.704 E0.47609
G1 X42.273 Y-8.704 E0.07336
G1 X38.115 Y-12.862 E0.47609
G1 X39.021 Y-12.862 E0.07336
G1 X43.179 Y-8.704 E0.47609
G1 X44.085 Y-8.704 E0.07336
G1 X39.927 Y-12.862 E0.47609
G1 X40.833 Y-12.862 E0.07336
G1 X44.991 Y-8.704 E0.47609
G1 X45.897 Y-8.704 E0.07336
G1 X41.739 Y-12.862 E0.47609
G1 X44.484 Y-11.929 F15000.000
G1 X43.551 Y-12.862 E0.10682 F960.000
G1 X42.645 Y-12.862 E0.07336
G1 X46.484 Y-9.023 E0.43957
G1 X46.484 Y-9.929 E0.07336
G1 X45.269 Y-11.145 E0.13920
G1 X46.175 Y-11.145 E0.07336
G1 X46.484 Y-10.835 E0.03546
G1 E-3.50000 F1500.00000
G1 Z0.700 F15000.000
G1 X29.805 Y3.949 F15000.000
G1 Z0.300 F15000.000
G1 E3.50000 F1500.00000
G1 X31.059 Y3.949 E0.09661 F720.000
G1 X31.059 Y3.981 E0.00252
G1 X47.298 Y3.981 E1.25149 F720.000
G1 X47.298 Y5.910 E0.14864
G1 X38.728 Y5.910 E0.66045
G1 X37.921 Y6.030 E0.06287
G1 X37.102 Y6.417 E0.06983
G1 X36.432 Y7.030 E0.06997
G1 X35.859 Y8.019 E0.08812
G1 X35.680 Y8.201 E0.01969
G1 X35.463 Y8.327 E0.01935
G1 X35.220 Y8.393 E0.01935
G1 X34.969 Y8.393 E0.01935
G1 X34.727 Y8.327 E0.01928
G1 X34.509 Y8.201 E0.01945
G1 X34.332 Y8.021 E0.01944
G1 X33.795 Y7.081 E0.08344
G1 X33.197 Y6.497 E0.06441
G1 X31.059 Y5.331 E0.18770
G1 X31.059 Y12.443 E0.54810
G1 X-30.941 Y12.443 E4.77806
G1 X-30.941 Y14.160 E0.13234
G1 X-44.870 Y14.160 E1.07343
G1 X-44.870 Y12.443 E0.13234
G1 X-46.870 Y12.443 E0.15413
G1 X-46.870 Y9.231 E0.24750
G1 X-6.870 Y9.231 E3.08262
G1 X-6.870 Y3.949 E0.40712
G1 X29.745 Y3.949 E2.82176
G1 X29.745 Y3.313 F15000.000
G1 X31.695 Y3.313 E0.15022 F720.000
G1 X31.695 Y3.346 E0.00252
G1 X47.934 Y3.346 E1.25149 F720.000
G1 X47.934 Y6.546 E0.24661
G1 X38.775 Y6.546 E0.70582
G1 X38.108 Y6.645 E0.05200
G1 X37.460 Y6.950 E0.05517
G1 X36.934 Y7.433 E0.05505
G1 X36.368 Y8.408 E0.08688
G1 X36.072 Y8.708 E0.03246
G1 X35.710 Y8.919 E0.03234
G1 X35.304 Y9.028 E0.03234
G1 X34.885 Y9.028 E0.03234
G1 X34.481 Y8.919 E0.03226
G1 X34.117 Y8.708 E0.03244
G1 X33.821 Y8.409 E0.03237
G1 X33.287 Y7.474 E0.08302
G1 X32.816 Y7.013 E0.05079
G1 X31.695 Y6.401 E0.09842
G1 X31.695 Y13.078 E0.51457
G1 X-30.305 Y13.078 E4.77806
G1 X-30.305 Y14.796 E0.13234
G1 X-45.505 Y14.796 E1.17140
G1 X-45.505 Y13.078 E0.13234
G1 X-47.505 Y13.078 E0.15413
G1 X-47.505 Y8.596 E0.34547
G1 X-7.505 Y8.596 E3.08262
G1 X-7.505 Y3.313 E0.40712
G1 X29.685 Y3.313 E2.86612
G1 X29.945 Y3.659 F15000.000
G1 X30.568 Y4.386 F15000.000
G1 X30.890 Y4.708 E0.03686 F960.000
G1 X31.492 Y4.366 E0.05609
G1 X32.967 Y5.841 E0.16889
G1 X34.506 Y7.380 F15000.000
G1 X35.120 Y7.994 E0.07030 F960.000
G1 X35.699 Y7.628 E0.05543
G1 X32.436 Y4.366 E0.37358
G1 X33.381 Y4.366 E0.07646
G1 X36.046 Y7.030 E0.30511
G1 X36.491 Y6.531 E0.05415
G1 X34.325 Y4.366 E0.24797
G1 X35.270 Y4.366 E0.07646
G1 X36.996 Y6.092 E0.19763
G1 X37.637 Y5.789 E0.05743
G1 X36.214 Y4.366 E0.16294
G1 X37.158 Y4.366 E0.07646
G1 X38.384 Y5.591 E0.14033
G1 X39.263 Y5.526 E0.07135
G1 X38.103 Y4.366 E0.13283
G1 X39.047 Y4.366 E0.07646
G1 X40.207 Y5.526 E0.13283
G1 X41.152 Y5.526 E0.07646
G1 X39.991 Y4.366 E0.13283
G1 X40.936 Y4.366 E0.07646
G1 X42.096 Y5.526 E0.13283
G1 X43.040 Y5.526 E0.07646
G1 X41.880 Y4.366 E0.13283
G1 X42.825 Y4.366 E0.07646
G1 X43.985 Y5.526 E0.13283
G1 X44.929 Y5.526 E0.07646
G1 X43.769 Y4.366 E0.13283
G1 X44.713 Y4.366 E0.07646
G1 X45.873 Y5.526 E0.13283
G1 X46.818 Y5.526 E0.07646
G1 X45.658 Y4.366 E0.13283
G1 X46.602 Y4.366 E0.07646
G1 X46.914 Y4.677 E0.03570
G1 X30.674 Y4.644 F15000.000
G1 X30.364 Y4.334 E0.03546 F960.000
G1 X29.458 Y4.334 E0.07336
G1 X30.674 Y5.550 E0.13920
G1 X30.674 Y6.456 E0.07336
G1 X28.552 Y4.334 E0.24294
G1 X27.646 Y4.334 E0.07336
G1 X30.674 Y7.362 E0.34669
G1 X30.674 Y8.268 E0.07336
G1 X26.740 Y4.334 E0.45043
G1 X25.834 Y4.334 E0.07336
G1 X30.673 Y9.174 E0.55417
G1 X30.673 Y10.080 E0.07336
G1 X24.928 Y4.334 E0.65791
G1 X24.022 Y4.334 E0.07336
G1 X30.673 Y10.986 E0.76166
G1 X30.673 Y11.892 E0.07336
G1 X23.115 Y4.334 E0.86540
G1 X22.209 Y4.334 E0.07336
G1 X29.933 Y12.057 E0.88434
G1 X29.027 Y12.057 E0.07336
G1 X21.303 Y4.334 E0.88434
G1 X20.397 Y4.334 E0.07336
G1 X28.121 Y12.057 E0.88434
G1 X27.215 Y12.057 E0.07336
G1 X19.491 Y4.334 E0.88434
G1 X18.585 Y4.334 E0.07336
G1 X26.309 Y12.057 E0.88434
G1 X25.403 Y12.057 E0.07336
G1 X17.679 Y4.334 E0.88434
G1 X16.773 Y4.334 E0.07336
G1 X24.497 Y12.057 E0.88434
G1 X23.591 Y12.057 E0.07336
G1 X15.867 Y4.334 E0.88434
G1 X14.961 Y4.334 E0.07336
G1 X22.685 Y12.057 E0.88434
G1 X21.778 Y12.057 E0.07336
G1 X14.055 Y4.334 E0.88434
G1 X13.149 Y4.334 E0.07336
G1 X20.872 Y12.057 E0.88434
G1 X19.966 Y12.057 E0.07336
G1 X12.243 Y4.334 E0.88434
G1 X11.337 Y4.334 E0.07336
G1 X19.060 Y12.057 E0.88434
G1 X18.154 Y12.057 E0.07336
G1 X10.431 Y4.334 E0.88434
G1 X9.525 Y4.334 E0.07336
G1 X17.248 Y12.057 E0.88434
G1 X16.342 Y12.057 E0.07336
G1 X8.619 Y4.334 E0.88434
G1 X7.713 Y4.334 E0.07336
G1 X15.436 Y12.057 E0.88434
G1 X14.530 Y12.057 E0.07336
G1 X6.807 Y4.334 E0.88434
G1 X5.901 Y4.334 E0.07336
G1 X13.624 Y12.057 E0.88434
G1 X12.718 Y12.057 E0.07336
G1 X4.995 Y4.334 E0.88434
G1 X4.089 Y4.334 E0.07336
G1 X11.812 Y12.057 E0.88434
G1 X10.906 Y12.057 E0.07336
G1 X3.183 Y4.334 E0.88434
G1 X2.276 Y4.334 E0.07336
G1 X10.000 Y12.057 E0.88434
G1 X9.094 Y12.057 E0.07336
G1 X1.370 Y4.334 E0.88434
G1 X0.464 Y4.334 E0.07336
G1 X8.188 Y12.057 E0.88434
G1 X7.282 Y12.057 E0.07336
G1 X-0.442 Y4.334 E0.88434
G1 X-1.348 Y4.334 E0.07336
G1 X6.376 Y12.057 E0.88434
G1 X5.470 Y12.057 E0.07336
G1 X-2.254 Y4.334 E0.88434
G1 X-3.160 Y4.334 E0.07336
G1 X4.564 Y12.057 E0.88434
G1 X3.658 Y12.057 E0.07336
G1 X-4.066 Y4.334 E0.88434
G1 X-4.972 Y4.334 E0.07336
G1 X2.752 Y12.057 E0.88434
G1 X1.846 Y12.057 E0.07336
G1 X-5.878 Y4.334 E0.88434
G1 X-6.484 Y4.634 E0.05477
G1 X0.939 Y12.057 E0.85004
G1 X0.033 Y12.057 E0.07336
G1 X-6.484 Y5.540 E0.74630
G1 X-6.484 Y6.446 E0.07336
G1 X-0.873 Y12.057 E0.64256
G1 X-1.779 Y12.057 E0.07336
G1 X-6.484 Y7.352 E0.53881
G1 X-6.484 Y8.258 E0.07336
G1 X-2.685 Y12.057 E0.43507
G1 X-3.591 Y12.057 E0.07336
G1 X-6.484 Y9.164 E0.33133
G1 X-6.937 Y9.617 F15000.000
G1 X-4.497 Y12.057 E0.27946 F960.000
G1 X-5.403 Y12.057 E0.07336
G1 X-7.844 Y9.617 E0.27946
G1 X-8.750 Y9.617 E0.07336
G1 X-6.309 Y12.057 E0.27946
G1 X-7.215 Y12.057 E0.07336
G1 X-9.656 Y9.617 E0.27946
G1 X-10.562 Y9.617 E0.07336
G1 X-8.121 Y12.057 E0.27946
G1 X-9.027 Y12.057 E0.07336
G1 X-11.468 Y9.617 E0.27946
