; generated by Slic3r 1.2.9 on 2018-05-31 at 15:07:10

; external perimeters extrusion width = 0.40mm
; perimeters extrusion width = 0.40mm
; infill extrusion width = 0.40mm
; solid infill extrusion width = 0.40mm
; top infill extrusion width = 0.40mm

M107
M83
T0
M116
G21 ; set units to millimeters
G90 ; use absolute coordinates
M83 ; use relative distances for extrusion
G1 E-3.50000 F1500.00000
G1 Z0.400 F15000.000
G1 X-25.540 Y-0.116 F15000.000
G1 Z0.300 F15000.000
G1 E3.50000 F1500.00000
G1 X-25.431 Y-24.139 E1.85138 F960.000
G1 X-25.395 Y-24.871 E0.05646
G1 X-25.349 Y-25.276 E0.03142
G1 X-25.258 Y-25.812 E0.04191
G1 X-25.167 Y-26.210 E0.03142
G1 X-25.016 Y-26.732 E0.04191
G1 X-24.882 Y-27.117 E0.03142
G1 X-24.674 Y-27.620 E0.04191
G1 X-24.497 Y-27.987 E0.03142
G1 X-24.234 Y-28.463 E0.04191
G1 X-24.017 Y-28.808 E0.03142
G1 X-23.702 Y-29.252 E0.04191
G1 X-23.448 Y-29.571 E0.03142
G1 X-23.086 Y-29.976 E0.04191
G1 X-22.797 Y-30.264 E0.03142
G1 X-22.392 Y-30.627 E0.04191
G1 X-22.073 Y-30.881 E0.03142
G1 X-21.629 Y-31.196 E0.04191
G1 X-21.284 Y-31.413 E0.03142
G1 X-20.808 Y-31.676 E0.04191
G1 X-20.441 Y-31.853 E0.03142
G1 X-19.955 Y-32.054 E0.04054
G1 X-19.582 Y-32.185 E0.03043
G1 X-19.043 Y-32.342 E0.04328
G1 X-18.633 Y-32.437 E0.03241
G1 X-18.097 Y-32.528 E0.04191
G1 X-17.692 Y-32.573 E0.03142
G1 X-17.060 Y-32.608 E0.04880
G1 X5.207 Y-33.319 E1.71684
G1 X17.074 Y-33.520 E0.91472
G1 X17.798 Y-33.491 E0.05583 F960.000
G1 X18.246 Y-33.445 E0.03470
G1 X18.800 Y-33.352 E0.04328
G1 X19.210 Y-33.260 E0.03241
G1 X19.733 Y-33.109 E0.04191
G1 X20.118 Y-32.974 E0.03142
G1 X20.620 Y-32.766 E0.04191
G1 X20.987 Y-32.589 E0.03142
G1 X21.463 Y-32.326 E0.04191
G1 X21.809 Y-32.109 E0.03142
G1 X22.252 Y-31.795 E0.04191
G1 X22.581 Y-31.532 E0.03241
G1 X22.998 Y-31.156 E0.04328
G1 X23.627 Y-30.484 E0.07095
G1 X23.881 Y-30.165 E0.03142
G1 X24.196 Y-29.722 E0.04191
G1 X24.413 Y-29.377 E0.03142
G1 X24.676 Y-28.901 E0.04191
G1 X24.853 Y-28.533 E0.03142
G1 X25.061 Y-28.031 E0.04191
G1 X25.196 Y-27.646 E0.03142
G1 X25.346 Y-27.123 E0.04191
G1 X25.437 Y-26.726 E0.03142
G1 X25.528 Y-26.190 E0.04191
G1 X25.574 Y-25.785 E0.03142
G1 X25.610 Y-25.036 E0.05773
G1 X25.610 Y-10.967 E1.08427
G1 X25.380 Y28.995 E3.07970
G1 X24.976 Y30.639 E0.13052
G1 X23.871 Y31.923 E0.13052
G1 X21.893 Y32.606 E0.16129
G1 X-0.649 Y33.523 E1.73862
G1 X-10.706 Y33.520 E0.77511
G1 X-22.132 Y33.023 E0.88137
G1 X-23.761 Y32.558 E0.13052
G1 X-25.001 Y31.405 E0.13052
G1 X-25.610 Y29.391 E0.16212
G1 X-25.610 Y15.326 E1.08393
G1 X-25.540 Y-0.056 E1.18544
G1 E-3.50000 F1500.00000
G1 Z0.700 F15000.000
G1 X-8.474 Y3.109 F15000.000
G1 Z0.300 F15000.000
G1 E3.50000 F1500.00000
G1 X-8.315 Y2.489 E0.04928 F600.000
G1 X-7.983 Y1.887 E0.05300
G1 X-7.512 Y1.385 E0.05301
G1 X-6.923 Y1.011 E0.05378
G1 X-6.229 Y0.801 E0.05587
G1 X-5.591 Y0.761 E0.04928 F600.000
G1 X-4.915 Y0.890 E0.05301
G1 X-4.293 Y1.183 E0.05301
G1 X-3.755 Y1.628 E0.05378
G1 X-3.341 Y2.223 E0.05587
G1 X-3.106 Y2.817 E0.04928
G1 X-3.019 Y3.500 E0.05301
G1 X-3.106 Y4.182 E0.05301
G1 X-3.359 Y4.821 E0.05301
G1 X-3.763 Y5.378 E0.05300
G1 X-4.293 Y5.816 E0.05300
G1 X-4.915 Y6.109 E0.05301
G1 X-5.591 Y6.238 E0.05301
G1 X-6.277 Y6.195 E0.05301
G1 X-6.932 Y5.982 E0.05301
G1 X-7.521 Y5.608 E0.05378
G1 X-8.006 Y5.070 E0.05587
G1 X-8.315 Y4.510 E0.04928
G1 X-8.488 Y3.834 E0.05378
G1 X-8.475 Y3.169 E0.05125
G1 X-7.840 Y3.195 F15000.000
G1 X-7.719 Y2.725 E0.03741 F600.000
G1 X-7.465 Y2.263 E0.04063
G1 X-7.104 Y1.879 E0.04063
G1 X-6.656 Y1.595 E0.04090
G1 X-6.116 Y1.431 E0.04349
G1 X-5.631 Y1.401 E0.03741 F600.000
G1 X-5.113 Y1.499 E0.04063
G1 X-4.636 Y1.724 E0.04063
G1 X-4.227 Y2.062 E0.04090
G1 X-3.905 Y2.525 E0.04349
G1 X-3.726 Y2.977 E0.03741
G1 X-3.660 Y3.500 E0.04063
G1 X-3.726 Y4.023 E0.04063
G1 X-3.920 Y4.513 E0.04063
G1 X-4.230 Y4.939 E0.04063
G1 X-4.636 Y5.275 E0.04063
G1 X-5.113 Y5.500 E0.04063
G1 X-5.631 Y5.599 E0.04063
G1 X-6.157 Y5.566 E0.04063
G1 X-6.659 Y5.403 E0.04063
G1 X-7.107 Y5.118 E0.04090
G1 X-7.485 Y4.699 E0.04349
G1 X-7.719 Y4.274 E0.03741
G1 X-7.851 Y3.760 E0.04090
G1 X-7.841 Y3.255 E0.03887
G1 X-8.146 Y2.938 F15000.000
G1 X-6.381 Y-1.265 F15000.000
G1 X-7.166 Y-1.520 E0.06363 F600.000
G1 X-7.868 Y-1.966 E0.06407
G1 X-8.444 Y-2.593 E0.06568
G1 X-8.826 Y-3.288 E0.06108
G1 X-9.031 Y-4.088 E0.06363
G1 X-9.031 Y-4.913 E0.06363
G1 X-8.826 Y-5.713 E0.06363
G1 X-8.428 Y-6.436 E0.06363
G1 X-7.863 Y-7.038 E0.06363
G1 X-7.161 Y-7.484 E0.06407
G1 X-6.347 Y-7.738 E0.06568
G1 X-5.557 Y-7.788 E0.06108 F600.000
G1 X-4.745 Y-7.633 E0.06363
G1 X-3.998 Y-7.282 E0.06363
G1 X-3.362 Y-6.755 E0.06363
G1 X-2.877 Y-6.087 E0.06363
G1 X-2.573 Y-5.320 E0.06363
G1 X-2.470 Y-4.500 E0.06363
G1 X-2.573 Y-3.681 E0.06363
G1 X-2.877 Y-2.914 E0.06363
G1 X-3.362 Y-2.246 E0.06363
G1 X-3.998 Y-1.719 E0.06363
G1 X-4.745 Y-1.368 E0.06363
G1 X-5.557 Y-1.213 E0.06363
G1 X-6.321 Y-1.261 E0.05901
G1 X-6.261 Y-1.894 F15000.000
G1 X-6.893 Y-2.100 E0.05125 F600.000
G1 X-7.456 Y-2.457 E0.05141
G1 X-7.924 Y-2.967 E0.05331
G1 X-8.230 Y-3.524 E0.04898
G1 X-8.396 Y-4.168 E0.05125
G1 X-8.396 Y-4.833 E0.05125
G1 X-8.230 Y-5.477 E0.05125
G1 X-7.910 Y-6.060 E0.05125
G1 X-7.455 Y-6.545 E0.05125
G1 X-6.891 Y-6.902 E0.05141
G1 X-6.231 Y-7.108 E0.05331
G1 X-5.597 Y-7.148 E0.04898 F600.000
G1 X-4.943 Y-7.024 E0.05125
G1 X-4.342 Y-6.741 E0.05125
G1 X-3.829 Y-6.317 E0.05125
G1 X-3.438 Y-5.779 E0.05125
G1 X-3.194 Y-5.160 E0.05125
G1 X-3.110 Y-4.500 E0.05125
G1 X-3.194 Y-3.841 E0.05125
G1 X-3.438 Y-3.222 E0.05125
G1 X-3.829 Y-2.684 E0.05125
G1 X-4.342 Y-2.260 E0.05125
G1 X-4.943 Y-1.977 E0.05125
G1 X-5.597 Y-1.852 E0.05125
G1 X-6.201 Y-1.890 E0.04663
G1 X-6.534 Y-1.603 F15000.000
G1 X-1.799 Y-0.426 F15000.000
G1 X-1.799 Y8.464 E0.68511 F720.000
G1 X-9.728 Y8.464 E0.61103
G1 X-9.728 Y-4.571 E1.00457
G1 X-9.702 Y-5.033 E0.03563
G1 X-9.629 Y-5.460 E0.03338
G1 X-9.509 Y-5.876 E0.03338
G1 X-9.344 Y-6.276 E0.03338
G1 X-9.134 Y-6.656 E0.03338
G1 X-8.883 Y-7.009 E0.03338
G1 X-8.595 Y-7.332 E0.03338
G1 X-8.272 Y-7.620 E0.03338
G1 X-7.918 Y-7.871 E0.03338
G1 X-7.539 Y-8.081 E0.03338
G1 X-7.154 Y-8.240 E0.03215
G1 X-6.721 Y-8.367 E0.03475
G1 X-6.296 Y-8.439 E0.03325
G1 X-5.854 Y-8.464 E0.03407
G1 X-5.239 Y-8.439 E0.04743
G1 X-4.802 Y-8.366 E0.03416 F720.000
G1 X-4.388 Y-8.246 E0.03325
G1 X-3.987 Y-8.081 E0.03338
G1 X-3.608 Y-7.871 E0.03338
G1 X-3.256 Y-7.621 E0.03325
G1 X-2.921 Y-7.320 E0.03475
G1 X-2.643 Y-7.009 E0.03215
G1 X-2.393 Y-6.656 E0.03338
G1 X-2.183 Y-6.276 E0.03338
G1 X-2.017 Y-5.876 E0.03338
G1 X-1.897 Y-5.460 E0.03338
G1 X-1.825 Y-5.033 E0.03338
G1 X-1.799 Y-4.571 E0.03563
G1 X-1.799 Y-0.486 E0.31484
G1 X-1.163 Y-0.486 F15000.000
G1 X-1.163 Y9.100 E0.73872 F720.000
G1 X-10.363 Y9.100 E0.70900
G1 X-10.363 Y-4.589 E1.05493
G1 X-10.334 Y-5.104 E0.03975
G1 X-10.250 Y-5.602 E0.03888
G1 X-10.110 Y-6.086 E0.03888
G1 X-9.917 Y-6.553 E0.03888
G1 X-9.673 Y-6.994 E0.03888
G1 X-9.381 Y-7.406 E0.03888
G1 X-9.045 Y-7.782 E0.03888
G1 X-8.669 Y-8.118 E0.03888
G1 X-8.257 Y-8.410 E0.03888
G1 X-7.816 Y-8.654 E0.03888
G1 X-7.365 Y-8.841 E0.03756
G1 X-6.864 Y-8.987 E0.04025
G1 X-6.367 Y-9.072 E0.03884
G1 X-5.859 Y-9.100 E0.03920
G1 X-5.174 Y-9.072 E0.05285
G1 X-4.662 Y-8.987 E0.04004 F720.000
G1 X-4.177 Y-8.847 E0.03884
G1 X-3.711 Y-8.654 E0.03888
G1 X-3.270 Y-8.410 E0.03888
G1 X-2.859 Y-8.119 E0.03884
G1 X-2.470 Y-7.769 E0.04025
G1 X-2.146 Y-7.406 E0.03756
G1 X-1.854 Y-6.994 E0.03888
G1 X-1.610 Y-6.553 E0.03888
G1 X-1.416 Y-6.086 E0.03888
G1 X-1.277 Y-5.602 E0.03888
G1 X-1.192 Y-5.104 E0.03888
G1 X-1.163 Y-4.589 E0.03975
G1 X-1.163 Y-0.546 E0.31159
G1 X-1.510 Y-0.286 F15000.000
G1 X-2.184 Y-1.603 F15000.000
G1 X-2.499 Y-1.918 E0.03601 F960.000
G1 X-3.351 Y-1.826 E0.06928
G1 X-2.184 Y-0.660 E0.13342
G1 X-2.184 Y0.284 E0.07631
G1 X-3.871 Y-1.403 E0.19290
G1 X-4.512 Y-1.101 E0.05735
G1 X-2.184 Y1.227 E0.26628
G1 X-2.443 Y1.912 E0.05923
G1 X-5.256 Y-0.901 E0.32185
G1 X-6.154 Y-0.856 E0.07272
G1 X-4.808 Y0.490 E0.15393
G1 X-5.843 Y0.399 E0.08399
G1 X-7.373 Y-1.131 E0.17507
G1 X-6.630 Y0.555 F15000.000
G1 X-9.094 Y-1.908 E0.28177 F960.000
G1 X-9.342 Y-1.214 E0.05969
G1 X-7.284 Y0.845 E0.23545
G1 X-7.830 Y1.242 E0.05463
G1 X-9.342 Y-0.270 E0.17299
G1 X-9.342 Y0.673 E0.07631
G1 X-8.283 Y1.733 E0.12116
G1 X-9.030 Y1.930 E0.06245
G1 X-9.342 Y1.617 E0.03577
G1 X-9.013 Y2.338 F15000.000
G1 X-9.100 Y3.059 E0.11765 F960.000
G1 X-9.108 Y3.865 E0.13041
G1 X-9.013 Y4.661 E0.12985
G1 X-6.845 Y6.466 F15000.000
G1 X-5.233 Y8.079 E0.18567 F960.000
G1 X-4.283 Y8.079 E0.07736
G1 X-5.738 Y6.624 E0.16755
G1 X-4.931 Y6.481 E0.06676
G1 X-3.333 Y8.079 E0.18398
G1 X-2.383 Y8.079 E0.07736
G1 X-4.277 Y6.185 E0.21806
G1 X-3.731 Y5.780 E0.05530
G1 X-2.184 Y7.328 E0.17818
G1 X-2.184 Y6.378 E0.07736
G1 X-3.282 Y5.280 E0.12640
G1 X-2.495 Y5.117 E0.06542
G1 X-2.184 Y5.428 E0.03582
G1 X-6.183 Y8.079 F15000.000
G1 X-9.204 Y5.058 E0.34793 F960.000
G1 X-9.342 Y5.869 E0.06704
G1 X-7.133 Y8.079 E0.25447
G1 X-8.083 Y8.079 F15000.000
G1 X-9.342 Y6.819 E0.14507 F960.000
G1 X-9.342 Y7.769 E0.07736
G1 X-9.033 Y8.079 E0.03566
G1 X-2.484 Y4.722 F15000.000
G1 X-2.409 Y3.536 E0.19248 F960.000
G1 X-2.483 Y2.293 E0.20170
G1 X-2.431 Y-2.326 F15000.000
G1 X-2.192 Y-3.574 E0.09793 F960.000
G1 X-2.136 Y-4.444 E0.06720
G1 X-2.137 Y-4.570 F15000.000
G1 X-2.234 Y-5.383 E0.06313 F960.000
G1 X-2.358 Y-5.757 E0.03036
G1 X-2.572 Y-6.259 E0.04207
G1 X-2.929 Y-6.781 E0.04872
G1 X-3.107 Y-7.000 E0.02179
G1 X-3.486 Y-7.334 E0.03892
G1 X-3.796 Y-7.572 E0.03010
G1 X-4.145 Y-7.753 E0.03029
G1 X-4.642 Y-7.963 E0.04154
G1 X-4.881 Y-8.020 E0.01892
G1 X-5.442 Y-8.109 E0.04383
G1 X-5.679 Y-8.118 F15000.000
G1 X-6.407 Y-8.075 E0.05625 F960.000
G1 X-7.034 Y-7.900 E0.05018
G1 X-7.385 Y-7.761 E0.02911
G1 X-7.723 Y-7.561 E0.03028
G1 X-8.086 Y-7.314 E0.03376
G1 X-8.335 Y-7.072 E0.02679
G1 X-8.711 Y-6.647 E0.04373
G1 X-9.016 Y-6.119 E0.04702
G1 X-9.177 Y-5.760 E0.03030
G1 X-9.280 Y-5.380 E0.03032
G1 X-9.369 Y-4.952 E0.03375
G1 X-9.369 Y-4.919 F15000.000
G1 X-9.379 Y-4.047 E0.06718 F960.000
G1 X-9.276 Y-3.228 E0.06368
G1 X-8.794 Y-2.532 E0.06521
G1 E-3.50000 F1500.00000
G1 Z0.700 F15000.000
G1 X-14.923 Y1.824 F15000.000
G1 Z0.300 F15000.000
G1 E3.50000 F1500.00000
G1 X-14.508 Y2.419 E0.05587 F600.000
G1 X-14.273 Y3.014 E0.04928
G1 X-14.187 Y3.696 E0.05301
G1 X-14.273 Y4.378 E0.05301
G1 X-14.526 Y5.018 E0.05301
G1 X-14.930 Y5.574 E0.05300
G1 X-15.460 Y6.013 E0.05300
G1 X-16.083 Y6.306 E0.05301
G1 X-16.758 Y6.434 E0.05301
G1 X-17.445 Y6.391 E0.05301
G1 X-18.099 Y6.179 E0.05301
G1 X-18.688 Y5.805 E0.05378
G1 X-19.174 Y5.266 E0.05587
G1 X-19.482 Y4.706 E0.04928
G1 X-19.655 Y4.030 E0.05378
G1 X-19.641 Y3.305 E0.05587
G1 X-19.482 Y2.686 E0.04928
G1 X-19.150 Y2.083 E0.05300
G1 X-18.680 Y1.582 E0.05301
G1 X-18.090 Y1.208 E0.05378
G1 X-17.397 Y0.998 E0.05587
G1 X-16.758 Y0.958 E0.04928 F600.000
G1 X-16.083 Y1.086 E0.05301
G1 X-15.460 Y1.379 E0.05301
G1 X-14.969 Y1.786 E0.04915
G1 X-15.395 Y2.259 F15000.000
G1 X-15.072 Y2.722 E0.04349 F600.000
G1 X-14.893 Y3.173 E0.03741
G1 X-14.827 Y3.696 E0.04063
G1 X-14.893 Y4.219 E0.04063
G1 X-15.088 Y4.709 E0.04063
G1 X-15.397 Y5.136 E0.04063
G1 X-15.804 Y5.472 E0.04063
G1 X-16.281 Y5.696 E0.04063
G1 X-16.798 Y5.795 E0.04063
G1 X-17.325 Y5.762 E0.04063
G1 X-17.826 Y5.599 E0.04063
G1 X-18.274 Y5.315 E0.04090
G1 X-18.652 Y4.896 E0.04349
G1 X-18.886 Y4.470 E0.03741
G1 X-19.018 Y3.956 E0.04090
G1 X-19.007 Y3.392 E0.04349
G1 X-18.886 Y2.922 E0.03741
G1 X-18.632 Y2.460 E0.04063
G1 X-18.271 Y2.075 E0.04063
G1 X-17.823 Y1.791 E0.04090
G1 X-17.283 Y1.627 E0.04349
G1 X-16.798 Y1.597 E0.03741 F600.000
G1 X-16.281 Y1.696 E0.04063
G1 X-15.804 Y1.920 E0.04063
G1 X-15.441 Y2.220 E0.03628
G1 X-15.001 Y2.189 F15000.000
G1 X-16.082 Y-1.139 F15000.000
G1 X-16.724 Y-1.017 E0.05037 F600.000
G1 X-17.548 Y-1.069 E0.06363
G1 X-18.333 Y-1.324 E0.06363
G1 X-19.035 Y-1.769 E0.06407
G1 X-19.611 Y-2.397 E0.06568
G1 X-19.993 Y-3.091 E0.06108
G1 X-20.198 Y-3.891 E0.06363
G1 X-20.198 Y-4.717 E0.06363
G1 X-19.993 Y-5.517 E0.06363
G1 X-19.595 Y-6.240 E0.06363
G1 X-19.030 Y-6.842 E0.06363
G1 X-18.328 Y-7.287 E0.06407
G1 X-17.515 Y-7.542 E0.06568
G1 X-16.724 Y-7.591 E0.06108 F600.000
G1 X-15.913 Y-7.437 E0.06363
G1 X-15.166 Y-7.085 E0.06363
G1 X-14.529 Y-6.559 E0.06363
G1 X-14.044 Y-5.891 E0.06363
G1 X-13.740 Y-5.123 E0.06363
G1 X-13.637 Y-4.304 E0.06363
G1 X-13.740 Y-3.485 E0.06363
G1 X-14.044 Y-2.717 E0.06363
G1 X-14.529 Y-2.049 E0.06363
G1 X-15.166 Y-1.523 E0.06363
G1 X-15.913 Y-1.171 E0.06363
G1 X-16.023 Y-1.150 E0.00864
G1 X-16.142 Y-1.775 F15000.000
G1 X-16.764 Y-1.656 E0.04880 F600.000
G1 X-17.428 Y-1.698 E0.05125
G1 X-18.060 Y-1.903 E0.05125
G1 X-18.623 Y-2.261 E0.05141
G1 X-19.091 Y-2.770 E0.05331
G1 X-19.397 Y-3.327 E0.04898
G1 X-19.563 Y-3.972 E0.05125
G1 X-19.563 Y-4.637 E0.05125
G1 X-19.397 Y-5.281 E0.05125
G1 X-19.077 Y-5.864 E0.05125
G1 X-18.622 Y-6.348 E0.05125
G1 X-18.059 Y-6.706 E0.05141
G1 X-17.398 Y-6.912 E0.05331
G1 X-16.764 Y-6.952 E0.04898 F600.000
G1 X-16.111 Y-6.827 E0.05125
G1 X-15.509 Y-6.544 E0.05125
G1 X-14.996 Y-6.120 E0.05125
G1 X-14.606 Y-5.582 E0.05125
G1 X-14.361 Y-4.964 E0.05125
G1 X-14.277 Y-4.304 E0.05125
G1 X-14.361 Y-3.644 E0.05125
G1 X-14.606 Y-3.026 E0.05125
G1 X-14.996 Y-2.488 E0.05125
G1 X-15.509 Y-2.064 E0.05125
G1 X-16.085 Y-1.793 E0.04908
G1 X-16.243 Y-1.388 F15000.000
G1 X-12.966 Y4.461 F15000.000
G1 X-12.966 Y8.660 E0.32366 F720.000
G1 X-20.895 Y8.660 E0.61103
G1 X-20.895 Y-4.375 E1.00457
G1 X-20.869 Y-4.837 E0.03563
G1 X-20.796 Y-5.264 E0.03338
G1 X-20.677 Y-5.680 E0.03338
G1 X-20.511 Y-6.080 E0.03338
G1 X-20.301 Y-6.459 E0.03338
G1 X-20.051 Y-6.812 E0.03338
G1 X-19.762 Y-7.135 E0.03338
G1 X-19.439 Y-7.424 E0.03338
G1 X-19.086 Y-7.675 E0.03338
G1 X-18.707 Y-7.884 E0.03338
G1 X-18.321 Y-8.044 E0.03215
G1 X-17.888 Y-8.170 E0.03475
G1 X-17.463 Y-8.243 E0.03325
G1 X-17.022 Y-8.267 E0.03407
G1 X-16.407 Y-8.242 E0.04743
G1 X-15.969 Y-8.169 E0.03416 F720.000
G1 X-15.555 Y-8.050 E0.03325
G1 X-15.155 Y-7.884 E0.03338
G1 X-14.775 Y-7.675 E0.03338
G1 X-14.424 Y-7.425 E0.03325
G1 X-14.088 Y-7.123 E0.03475
G1 X-13.811 Y-6.812 E0.03215
G1 X-13.560 Y-6.459 E0.03338
G1 X-13.350 Y-6.080 E0.03338
G1 X-13.185 Y-5.680 E0.03338
G1 X-13.065 Y-5.264 E0.03338
G1 X-12.992 Y-4.837 E0.03338
G1 X-12.966 Y-4.375 E0.03563
G1 X-12.966 Y4.401 E0.67629
G1 X-12.331 Y4.401 F15000.000
G1 X-12.331 Y9.296 E0.37726 F720.000
G1 X-21.531 Y9.296 E0.70900
G1 X-21.531 Y-4.393 E1.05493
G1 X-21.502 Y-4.908 E0.03975
G1 X-21.417 Y-5.405 E0.03888
G1 X-21.277 Y-5.890 E0.03888
G1 X-21.084 Y-6.356 E0.03888
G1 X-20.840 Y-6.798 E0.03888
G1 X-20.548 Y-7.209 E0.03888
G1 X-20.212 Y-7.586 E0.03888
G1 X-19.836 Y-7.922 E0.03888
G1 X-19.424 Y-8.214 E0.03888
G1 X-18.983 Y-8.458 E0.03888
G1 X-18.532 Y-8.644 E0.03756
G1 X-18.031 Y-8.791 E0.04025
G1 X-17.534 Y-8.875 E0.03884
G1 X-17.026 Y-8.904 E0.03920
G1 X-16.341 Y-8.876 E0.05285
G1 X-15.829 Y-8.790 E0.04004 F720.000
G1 X-15.345 Y-8.651 E0.03884
G1 X-14.878 Y-8.458 E0.03888
G1 X-14.437 Y-8.214 E0.03888
G1 X-14.026 Y-7.922 E0.03884
G1 X-13.638 Y-7.573 E0.04025
G1 X-13.313 Y-7.209 E0.03756
G1 X-13.021 Y-6.798 E0.03888
G1 X-12.777 Y-6.356 E0.03888
G1 X-12.584 Y-5.890 E0.03888
G1 X-12.444 Y-5.405 E0.03888
G1 X-12.359 Y-4.908 E0.03888
G1 X-12.331 Y-4.393 E0.03975
G1 X-12.331 Y4.341 E0.67304
G1 X-12.677 Y4.601 F15000.000
G1 X-13.651 Y4.919 F15000.000
G1 X-13.576 Y3.733 E0.19248 F960.000
G1 X-13.650 Y2.489 E0.20170
G1 X-13.352 Y5.624 F15000.000
G1 X-13.663 Y5.313 E0.03582 F960.000
G1 X-14.449 Y5.477 E0.06542
G1 X-13.352 Y6.574 E0.12640
G1 X-13.352 Y7.524 E0.07736
G1 X-14.899 Y5.977 E0.17818
G1 X-15.444 Y6.382 E0.05530
G1 X-13.550 Y8.275 E0.21806
G1 X-14.500 Y8.275 E0.07736
G1 X-16.098 Y6.677 E0.18398
G1 X-16.905 Y6.820 E0.06676
G1 X-15.450 Y8.275 E0.16755
G1 X-16.400 Y8.275 E0.07736
G1 X-18.012 Y6.663 E0.18567
G1 X-18.300 Y8.275 F15000.000
G1 X-20.510 Y6.065 E0.25447 F960.000
G1 X-20.371 Y5.254 E0.06704
G1 X-17.350 Y8.275 E0.34793
G1 X-19.250 Y8.275 F15000.000
G1 X-20.510 Y7.015 E0.14507 F960.000
G1 X-20.510 Y7.965 E0.07736
G1 X-20.200 Y8.275 E0.03566
G1 X-20.180 Y4.857 F15000.000
G1 X-20.275 Y4.061 E0.12985 F960.000
