; generated by Slic3r 1.2.9 on 2019-01-15 at 12:20:44

; external perimeters extrusion width = 0.40mm
; perimeters extrusion width = 0.40mm
; infill extrusion width = 0.40mm
; solid infill extrusion width = 0.40mm
; top infill extrusion width = 0.40mm

M107
M83
T0
M116
G21 ; set units to millimeters
G90 ; use absolute coordinates
M83 ; use relative distances for extrusion
G1 E-3.50000 F1500.00000
G1 Z0.400 F15000.000
G1 X11.085 Y0.000 F15000.000
G1 Z0.300 F15000.000
G1 E3.50000 F1500.00000
G1 X11.085 Y10.994 E0.84722 F960.000
G1 X10.966 Y12.595 E0.12380
G1 X10.863 Y13.203 E0.04749
G1 X10.526 Y14.511 E0.10412
G1 X10.337 Y15.060 E0.04475
G1 X9.831 Y16.218 E0.09735
G1 X9.548 Y16.743 E0.04599
G1 X8.836 Y17.840 E0.10075
G1 X8.470 Y18.312 E0.04608
G1 X7.588 Y19.277 E0.10075
G1 X7.149 Y19.684 E0.04608
G1 X6.121 Y20.491 E0.10075
G1 X5.607 Y20.828 E0.04733
G1 X4.419 Y21.471 E0.10412
G1 X3.884 Y21.707 E0.04508
G1 X2.691 Y22.122 E0.09735
G1 X2.115 Y22.271 E0.04582
G1 X0.827 Y22.494 E0.10075
G1 X0.231 Y22.547 E0.04608
G1 X-1.076 Y22.556 E0.10075
G1 X-1.687 Y22.509 E0.04721
G1 X-3.020 Y22.291 E0.10413
G1 X-3.591 Y22.149 E0.04534
G1 X-4.789 Y21.747 E0.09733
G1 X-5.331 Y21.514 E0.04549
G1 X-6.475 Y20.909 E0.09970
G1 X-6.987 Y20.581 E0.04691
G1 X-8.073 Y19.748 E0.10545
G1 X-8.521 Y19.341 E0.04667
G1 X-9.401 Y18.396 E0.09953
G1 X-9.768 Y17.932 E0.04559
G1 X-10.477 Y16.865 E0.09869
G1 X-11.086 Y14.852 E0.16211
G1 X-11.086 Y-14.852 E2.28912
G1 X-10.477 Y-16.865 E0.16211
G1 X-9.768 Y-17.932 E0.09869
G1 X-9.401 Y-18.396 E0.04559
G1 X-8.521 Y-19.341 E0.09953
G1 X-8.073 Y-19.748 E0.04667
G1 X-6.987 Y-20.581 E0.10545
G1 X-6.475 Y-20.909 E0.04691
G1 X-5.331 Y-21.514 E0.09970
G1 X-4.784 Y-21.749 E0.04588
G1 X-3.544 Y-22.163 E0.10073
G1 X-2.963 Y-22.305 E0.04608
G1 X-1.672 Y-22.511 E0.10075
G1 X-1.080 Y-22.556 E0.04575
G1 X0.183 Y-22.549 E0.09735
G1 X0.767 Y-22.499 E0.04521 F960.000
G1 X2.100 Y-22.274 E0.10413
G1 X2.694 Y-22.121 E0.04727
G1 X3.928 Y-21.690 E0.10075
G1 X4.474 Y-21.447 E0.04608
G1 X5.621 Y-20.820 E0.10075
G1 X6.121 Y-20.491 E0.04608
G1 X7.149 Y-19.684 E0.10075
G1 X7.588 Y-19.277 E0.04608
G1 X8.470 Y-18.312 E0.10075
G1 X8.836 Y-17.840 E0.04608
G1 X9.548 Y-16.743 E0.10075
G1 X9.831 Y-16.218 E0.04599
G1 X10.337 Y-15.060 E0.09735
G1 X10.526 Y-14.511 E0.04475
G1 X10.863 Y-13.203 E0.10412
G1 X10.966 Y-12.595 E0.04749
G1 X11.073 Y-11.292 E0.10076
G1 X11.085 Y-0.060 E0.86564
G1 E-3.50000 F1500.00000
G1 Z0.700 F15000.000
G1 X3.888 Y-8.983 F15000.000
G1 Z0.300 F15000.000
G1 E3.50000 F1500.00000
G1 X3.366 Y-8.709 E0.04539 F600.000
G1 X2.794 Y-8.568 E0.04539
G1 X2.205 Y-8.568 E0.04539
G1 X1.634 Y-8.709 E0.04539
G1 X1.112 Y-8.983 E0.04539
G1 X0.671 Y-9.373 E0.04539
G1 X0.331 Y-9.866 E0.04615
G1 X0.123 Y-10.450 E0.04775
G1 X0.057 Y-10.994 E0.04221
G1 X0.128 Y-11.578 E0.04539
G1 X0.337 Y-12.129 E0.04539
G1 X0.671 Y-12.614 E0.04539
G1 X1.112 Y-13.004 E0.04539
G1 X1.634 Y-13.278 E0.04539
G1 X2.205 Y-13.419 E0.04539
G1 X2.794 Y-13.419 E0.04539 F600.000
G1 X3.376 Y-13.276 E0.04615
G1 X3.919 Y-12.977 E0.04775
G1 X4.329 Y-12.614 E0.04221
G1 X4.663 Y-12.129 E0.04539
G1 X4.872 Y-11.578 E0.04539
G1 X4.943 Y-10.994 E0.04539
G1 X4.872 Y-10.409 E0.04539
G1 X4.663 Y-9.858 E0.04539
G1 X4.329 Y-9.373 E0.04539
G1 X3.933 Y-9.023 E0.04077
G1 X3.524 Y-9.510 F15000.000
G1 X3.139 Y-9.308 E0.03350 F600.000
G1 X2.717 Y-9.204 E0.03350
G1 X2.283 Y-9.204 E0.03350
G1 X1.861 Y-9.308 E0.03350
G1 X1.476 Y-9.510 E0.03350
G1 X1.150 Y-9.798 E0.03350
G1 X0.902 Y-10.159 E0.03377
G1 X0.745 Y-10.597 E0.03585
G1 X0.697 Y-10.994 E0.03081
G1 X0.749 Y-11.425 E0.03350
G1 X0.904 Y-11.831 E0.03350
G1 X1.150 Y-12.189 E0.03350
G1 X1.476 Y-12.477 E0.03350
G1 X1.861 Y-12.679 E0.03350
G1 X2.283 Y-12.783 E0.03350
G1 X2.717 Y-12.783 E0.03350 F600.000
G1 X3.143 Y-12.678 E0.03377
G1 X3.550 Y-12.454 E0.03585
G1 X3.850 Y-12.189 E0.03081
G1 X4.096 Y-11.831 E0.03350
G1 X4.251 Y-11.425 E0.03350
G1 X4.303 Y-10.994 E0.03350
G1 X4.251 Y-10.562 E0.03350
G1 X4.096 Y-10.156 E0.03350
G1 X3.850 Y-9.798 E0.03350
G1 X3.569 Y-9.550 E0.02887
G1 X3.540 Y-9.110 F15000.000
G1 E-3.50000 F1500.00000
G1 Z0.700 F15000.000
G1 X-4.583 Y-16.601 F15000.000
G1 Z0.300 F15000.000
G1 E3.50000 F1500.00000
G1 X-4.241 Y-16.863 E0.03324 F720.000
G1 X-3.242 Y-17.391 E0.08707
G1 X-2.156 Y-17.754 E0.08823
G1 X-1.025 Y-17.934 E0.08826
G1 X0.078 Y-17.928 E0.08498
G1 X1.249 Y-17.731 E0.09155 F720.000
G1 X2.328 Y-17.354 E0.08806
G1 X3.332 Y-16.805 E0.08822
G1 X4.233 Y-16.098 E0.08822
G1 X5.005 Y-15.253 E0.08822
G1 X5.629 Y-14.293 E0.08823
G1 X6.071 Y-13.283 E0.08501
G1 X6.367 Y-12.132 E0.09157
G1 X6.461 Y-10.994 E0.08803
G1 X6.367 Y-9.855 E0.08803
G1 X6.071 Y-8.704 E0.09157
G1 X5.629 Y-7.694 E0.08501
G1 X5.005 Y-6.734 E0.08823
G1 X4.233 Y-5.889 E0.08822
G1 X3.334 Y-5.184 E0.08805
G1 X2.289 Y-4.618 E0.09155
G1 X1.247 Y-4.256 E0.08499
G1 X0.119 Y-4.060 E0.08825
G1 X-1.024 Y-4.053 E0.08806
G1 X-2.196 Y-4.244 E0.09154
G1 X-3.241 Y-4.595 E0.08498
G1 X-4.241 Y-5.124 E0.08713
G1 X-5.195 Y-5.856 E0.09272
G1 X-5.965 Y-6.682 E0.08698
G1 X-6.464 Y-7.433 E0.06953
G1 X-6.464 Y-14.554 E0.54876
G1 X-5.965 Y-15.305 E0.06953
G1 X-5.195 Y-16.131 E0.08698
G1 X-4.630 Y-16.564 E0.05486
G1 X-5.017 Y-17.069 F15000.000
G1 X-4.585 Y-17.400 E0.04198 F720.000
G1 X-3.493 Y-17.978 E0.09521
G1 X-2.308 Y-18.374 E0.09629
G1 X-1.074 Y-18.570 E0.09632
G1 X0.133 Y-18.564 E0.09296
G1 X1.408 Y-18.349 E0.09966 F720.000
G1 X2.587 Y-17.937 E0.09624
G1 X3.683 Y-17.337 E0.09630
G1 X4.666 Y-16.566 E0.09630
G1 X5.510 Y-15.644 E0.09630
G1 X6.190 Y-14.596 E0.09631
G1 X6.673 Y-13.490 E0.09297
G1 X6.996 Y-12.238 E0.09966
G1 X7.099 Y-10.994 E0.09624
G1 X6.996 Y-9.749 E0.09624
G1 X6.673 Y-8.497 E0.09966
G1 X6.190 Y-7.391 E0.09297
G1 X5.510 Y-6.343 E0.09631
G1 X4.666 Y-5.421 E0.09630
G1 X3.684 Y-4.650 E0.09624
G1 X2.546 Y-4.035 E0.09966
G1 X1.407 Y-3.638 E0.09296
G1 X0.176 Y-3.425 E0.09631
G1 X-1.073 Y-3.417 E0.09625
G1 X-2.349 Y-3.625 E0.09966
G1 X-3.493 Y-4.009 E0.09295
G1 X-4.585 Y-4.587 E0.09523
G1 X-5.624 Y-5.384 E0.10093
G1 X-6.465 Y-6.287 E0.09507
G1 X-7.100 Y-7.241 E0.08834
G1 X-7.100 Y-14.746 E0.57837
G1 X-6.465 Y-15.700 E0.08834
G1 X-5.624 Y-16.603 E0.09507
G1 X-5.065 Y-17.032 E0.05433
G1 X-4.648 Y-16.915 F15000.000
G1 X-6.079 Y-8.412 F15000.000
G1 X-2.458 Y-4.792 E0.39812 F960.000
G1 X-1.267 Y-4.507 E0.09528
G1 X-6.079 Y-9.319 E0.52917
G1 X-6.079 Y-10.226 E0.07051
G1 X-0.295 Y-4.442 E0.63599
G1 X0.549 Y-4.505 E0.06583
G1 X-6.079 Y-11.133 E0.72884
G1 X-6.079 Y-12.040 E0.07051
G1 X1.313 Y-4.648 E0.81284
G1 X1.986 Y-4.882 E0.05538
G1 X-6.079 Y-12.947 E0.88680
G1 X-6.079 Y-13.854 E0.07051
G1 X2.603 Y-5.172 E0.95463
G1 X5.332 Y-9.698 F15000.000
G1 X5.830 Y-9.200 E0.05477 F960.000
G1 X5.612 Y-8.511 E0.05616
G1 X4.740 Y-9.383 E0.09591
G1 X4.305 Y-8.911 E0.04990
G1 X5.336 Y-7.880 E0.11343
G1 X4.989 Y-7.321 E0.05120
G1 X3.770 Y-8.539 E0.13397
G1 X3.121 Y-8.281 E0.05429
G1 X4.611 Y-6.791 E0.16379
G1 X4.171 Y-6.324 E0.04988
G1 X2.313 Y-8.183 E0.20436
G1 X1.148 Y-8.440 E0.09274
G1 X3.698 Y-5.890 E0.28039
G1 X3.190 Y-5.492 E0.05022
G1 X-5.987 Y-14.669 E1.00913
G1 X-5.612 Y-15.200 E0.05059
G1 X-0.055 Y-9.644 E0.61098
G1 X-0.328 Y-10.824 E0.09416
G1 X-5.167 Y-15.663 E0.53211
G1 X-4.695 Y-16.097 E0.04990
G1 X-0.224 Y-11.627 E0.49159
G1 X0.034 Y-12.276 E0.05430
G1 X-4.182 Y-16.491 E0.46351
G1 X-3.602 Y-16.818 E0.05175
G1 X0.404 Y-12.812 E0.44052
G1 X0.882 Y-13.241 E0.04993
G1 X-2.985 Y-17.109 E0.42525
G1 X-2.306 Y-17.336 E0.05572
G1 X1.461 Y-13.569 E0.41415
G1 X2.161 Y-13.776 E0.05677
G1 X-1.544 Y-17.481 E0.40745
G1 X-0.703 Y-17.547 E0.06564
G1 X3.055 Y-13.789 E0.41317
G1 X4.317 Y-15.248 F15000.000
G1 X3.611 Y-15.953 E0.07757 F960.000
G1 X5.723 Y-12.934 F15000.000
G1 X1.466 Y-17.192 E0.46812 F960.000
G1 X0.270 Y-17.480 E0.09562
G1 X5.474 Y-12.276 E0.57222
G1 E-3.50000 F1500.00000
G1 Z0.700 F15000.000
G1 X-4.588 Y-6.014 F15000.000
G1 Z0.300 F15000.000
G1 E3.50000 F1500.00000
G1 X-5.364 Y-6.790 E0.08530 F960.000
G1 X5.610 Y-10.071 F15000.000
G1 X5.702 Y-10.994 E0.15009 F960.000
G1 X5.610 Y-11.916 E0.15009
G1 E-3.50000 F1500.00000
G1 Z0.700 F15000.000
G1 X2.794 Y8.568 F15000.000
G1 Z0.300 F15000.000
G1 E3.50000 F1500.00000
G1 X3.376 Y8.711 E0.04615 F600.000
G1 X3.919 Y9.010 E0.04775
G1 X4.329 Y9.373 E0.04221
G1 X4.663 Y9.858 E0.04539
G1 X4.872 Y10.409 E0.04539
G1 X4.943 Y10.994 E0.04539
G1 X4.872 Y11.578 E0.04539
G1 X4.663 Y12.129 E0.04539
G1 X4.329 Y12.614 E0.04539
G1 X3.888 Y13.004 E0.04539
G1 X3.366 Y13.278 E0.04539
G1 X2.794 Y13.419 E0.04539
G1 X2.205 Y13.419 E0.04539
G1 X1.634 Y13.278 E0.04539
G1 X1.112 Y13.004 E0.04539
G1 X0.671 Y12.614 E0.04539
G1 X0.331 Y12.121 E0.04615
G1 X0.123 Y11.537 E0.04775
G1 X0.057 Y10.994 E0.04221
G1 X0.128 Y10.409 E0.04539
G1 X0.337 Y9.858 E0.04539
G1 X0.671 Y9.373 E0.04539
G1 X1.112 Y8.983 E0.04539
G1 X1.634 Y8.709 E0.04539
G1 X2.205 Y8.568 E0.04539
G1 X2.734 Y8.568 E0.04077 F600.000
G1 X2.717 Y9.204 F15000.000
G1 X3.143 Y9.309 E0.03377 F600.000
G1 X3.550 Y9.533 E0.03585
G1 X3.850 Y9.798 E0.03081
G1 X4.096 Y10.156 E0.03350
G1 X4.251 Y10.562 E0.03350
G1 X4.303 Y10.994 E0.03350
G1 X4.251 Y11.425 E0.03350
G1 X4.096 Y11.831 E0.03350
G1 X3.850 Y12.189 E0.03350
G1 X3.524 Y12.477 E0.03350
G1 X3.139 Y12.679 E0.03350
G1 X2.717 Y12.783 E0.03350
G1 X2.283 Y12.783 E0.03350
G1 X1.861 Y12.679 E0.03350
G1 X1.476 Y12.477 E0.03350
G1 X1.150 Y12.189 E0.03350
G1 X0.902 Y11.828 E0.03377
G1 X0.745 Y11.390 E0.03585
G1 X0.697 Y10.994 E0.03081
G1 X0.749 Y10.562 E0.03350
G1 X0.904 Y10.156 E0.03350
G1 X1.150 Y9.798 E0.03350
G1 X1.476 Y9.510 E0.03350
G1 X1.861 Y9.308 E0.03350
G1 X2.283 Y9.204 E0.03350
G1 X2.657 Y9.204 E0.02887 F600.000
G1 X2.970 Y8.894 F15000.000
G1 X0.838 Y4.187 F15000.000
G1 X1.249 Y4.256 E0.03212 F720.000
G1 X2.328 Y4.633 E0.08806
G1 X3.332 Y5.182 E0.08822
G1 X4.233 Y5.889 E0.08822
G1 X5.005 Y6.734 E0.08822
G1 X5.629 Y7.694 E0.08823
G1 X6.071 Y8.704 E0.08501
G1 X6.367 Y9.855 E0.09157
G1 X6.461 Y10.994 E0.08803
G1 X6.367 Y12.132 E0.08803
G1 X6.071 Y13.283 E0.09157
G1 X5.629 Y14.293 E0.08501
G1 X5.005 Y15.253 E0.08823
G1 X4.233 Y16.098 E0.08822
G1 X3.334 Y16.803 E0.08805
G1 X2.289 Y17.369 E0.09155
G1 X1.247 Y17.731 E0.08499
G1 X0.119 Y17.927 E0.08825
G1 X-1.024 Y17.934 E0.08806
G1 X-2.196 Y17.743 E0.09154
G1 X-3.241 Y17.392 E0.08498
G1 X-4.241 Y16.863 E0.08713
G1 X-5.195 Y16.131 E0.09272
G1 X-5.965 Y15.305 E0.08698
G1 X-6.464 Y14.554 E0.06953
G1 X-6.464 Y7.433 E0.54876
G1 X-5.965 Y6.682 E0.06953
G1 X-5.195 Y5.856 E0.08698
G1 X-4.241 Y5.124 E0.09272
G1 X-3.242 Y4.596 E0.08707
G1 X-2.156 Y4.233 E0.08823
G1 X-1.025 Y4.053 E0.08826
G1 X0.078 Y4.059 E0.08498
G1 X0.779 Y4.177 E0.05480 F720.000
G1 X0.884 Y3.550 F15000.000
G1 X1.408 Y3.638 E0.04090 F720.000
G1 X2.587 Y4.050 E0.09624
G1 X3.683 Y4.650 E0.09630
G1 X4.666 Y5.421 E0.09630
G1 X5.510 Y6.343 E0.09630
G1 X6.190 Y7.391 E0.09631
G1 X6.673 Y8.497 E0.09297
G1 X6.996 Y9.749 E0.09966
G1 X7.099 Y10.994 E0.09624
G1 X6.996 Y12.238 E0.09624
G1 X6.673 Y13.490 E0.09966
G1 X6.190 Y14.596 E0.09297
G1 X5.510 Y15.644 E0.09631
G1 X4.666 Y16.566 E0.09630
G1 X3.684 Y17.337 E0.09624
G1 X2.546 Y17.952 E0.09966
G1 X1.407 Y18.349 E0.09296
G1 X0.176 Y18.562 E0.09631
G1 X-1.073 Y18.570 E0.09625
G1 X-2.349 Y18.362 E0.09966
G1 X-3.493 Y17.978 E0.09295
G1 X-4.585 Y17.400 E0.09523
G1 X-5.624 Y16.603 E0.10093
G1 X-6.465 Y15.700 E0.09507
G1 X-7.100 Y14.746 E0.08834
G1 X-7.100 Y7.241 E0.57837
G1 X-6.465 Y6.287 E0.08834
G1 X-5.624 Y5.384 E0.09507
G1 X-4.585 Y4.587 E0.10093
G1 X-3.493 Y4.009 E0.09521
G1 X-2.308 Y3.613 E0.09629
G1 X-1.074 Y3.417 E0.09632
G1 X0.133 Y3.423 E0.09296
G1 X0.825 Y3.540 E0.05414 F720.000
G1 X1.024 Y3.925 F15000.000
G1 X3.611 Y6.034 F15000.000
G1 X4.317 Y6.739 E0.07757 F960.000
G1 X3.055 Y8.198 F15000.000
G1 X-0.703 Y4.441 E0.41317 F960.000
G1 X-1.544 Y4.506 E0.06564
G1 X2.161 Y8.211 E0.40745
G1 X1.461 Y8.418 E0.05677
G1 X-2.306 Y4.651 E0.41415
G1 X-2.985 Y4.879 E0.05572
G1 X0.882 Y8.746 E0.42525
G1 X0.404 Y9.175 E0.04993
G1 X-3.602 Y5.169 E0.44052
G1 X-4.182 Y5.496 E0.05175
G1 X0.034 Y9.711 E0.46351
G1 X-0.224 Y10.360 E0.05430
G1 X-4.695 Y5.890 E0.49159
G1 X-5.167 Y6.324 E0.04990
G1 X-0.328 Y11.163 E0.53211
G1 X-0.055 Y12.343 E0.09416
G1 X-5.612 Y6.787 E0.61098
G1 X-5.987 Y7.318 E0.05059
G1 X3.190 Y16.495 E1.00913
G1 X3.698 Y16.097 E0.05022
G1 X1.148 Y13.547 E0.28039
G1 X2.313 Y13.804 E0.09274
G1 X4.171 Y15.663 E0.20436
G1 X4.611 Y15.196 E0.04988
G1 X3.121 Y13.706 E0.16379
G1 X3.770 Y13.448 E0.05429
G1 X4.989 Y14.666 E0.13397
G1 X5.336 Y14.107 E0.05120
G1 X4.305 Y13.076 E0.11343
G1 X4.740 Y12.604 E0.04990
G1 X5.612 Y13.476 E0.09591
G1 X5.830 Y12.787 E0.05616
G1 X5.332 Y12.289 E0.05477
G1 X5.474 Y9.711 F15000.000
G1 X0.270 Y4.507 E0.57222 F960.000
G1 X1.466 Y4.795 E0.09562
G1 X5.723 Y9.053 E0.46812
G1 X2.603 Y16.815 F15000.000
G1 X-6.079 Y8.133 E0.95463 F960.000
G1 X-6.079 Y9.040 E0.07051
G1 X1.986 Y17.105 E0.88680
G1 X1.313 Y17.339 E0.05538
G1 X-6.079 Y9.947 E0.81284
G1 X-6.079 Y10.854 E0.07051
G1 X0.549 Y17.482 E0.72884
G1 X-0.295 Y17.545 E0.06583
G1 X-6.079 Y11.761 E0.63599
G1 X-6.079 Y12.668 E0.07051
G1 X-1.267 Y17.480 E0.52917
G1 X-2.458 Y17.195 E0.09528
G1 X-6.079 Y13.575 E0.39812
G1 X-5.364 Y15.197 F15000.000
G1 X-4.588 Y15.973 E0.08530 F960.000
G1 X5.610 Y11.916 F15000.000
G1 X5.702 Y10.994 E0.15009 F960.000
G1 X5.610 Y10.071 E0.15009
G1 E-3.50000 F1500.00000
G1 Z0.700 F15000.000
G1 X2.742 Y-8.997 F15000.000
G1 Z0.500 F15000.000
G1 E3.50000 F1500.00000
G1 X2.258 Y-8.997 E0.01400 F2400.000
G1 X1.787 Y-9.113 E0.01400
G1 X1.357 Y-9.338 E0.01400
G1 X0.994 Y-9.660 E0.01400
G1 X0.719 Y-10.059 E0.01400
G1 X0.547 Y-10.512 E0.01400
G1 X0.530 Y-10.652 E0.00408
G1 X0.488 Y-10.994 E0.00992
G1 X0.547 Y-11.475 E0.01400
G1 X0.719 Y-11.928 E0.01400
G1 X0.994 Y-12.327 E0.01400
G1 X1.357 Y-12.649 E0.01400
G1 X1.787 Y-12.874 E0.01400
G1 X2.258 Y-12.990 E0.01400
G1 X2.742 Y-12.990 E0.01400 F2400.000
G1 X3.213 Y-12.874 E0.01400
G1 X3.643 Y-12.649 E0.01400
G1 X4.006 Y-12.327 E0.01400
G1 X4.086 Y-12.211 E0.00408
G1 X4.281 Y-11.928 E0.00992
G1 X4.453 Y-11.475 E0.01400
G1 X4.512 Y-10.994 E0.01400
G1 X4.453 Y-10.512 E0.01400
G1 X4.281 Y-10.059 E0.01400
G1 X4.006 Y-9.660 E0.01400
G1 X3.643 Y-9.338 E0.01400
G1 X3.213 Y-9.113 E0.01400
G1 X2.801 Y-9.011 E0.01226
G1 X2.715 Y-9.358 F15000.000
G1 X2.301 Y-9.354 E0.01196 F2400.000
G1 X1.914 Y-9.449 E0.01149
G1 X1.562 Y-9.634 E0.01149
G1 X1.264 Y-9.898 E0.01149
G1 X1.037 Y-10.226 E0.01149
G1 X0.896 Y-10.598 E0.01149
G1 X0.848 Y-10.994 E0.01149
G1 X0.896 Y-11.389 E0.01149
G1 X1.037 Y-11.761 E0.01149
G1 X1.264 Y-12.089 E0.01149
G1 X1.562 Y-12.353 E0.01149
G1 X1.914 Y-12.538 E0.01149
G1 X2.301 Y-12.633 E0.01149
G1 X2.699 Y-12.633 E0.01149 F2400.000
G1 X3.086 Y-12.538 E0.01149
G1 X3.438 Y-12.353 E0.01149
G1 X3.736 Y-12.089 E0.01149
G1 X3.792 Y-12.008 E0.00282
G1 X3.963 Y-11.761 E0.00867
G1 X4.104 Y-11.389 E0.01149
G1 X4.152 Y-10.994 E0.01149
G1 X4.104 Y-10.598 E0.01149
G1 X3.963 Y-10.226 E0.01149
G1 X3.736 Y-9.898 E0.01149
G1 X3.438 Y-9.634 E0.01149
G1 X3.086 Y-9.449 E0.01149
G1 X2.774 Y-9.372 E0.00928
G1 X2.546 Y-8.995 F15000.000
G1 X0.591 Y-3.707 F15000.000
G1 X0.173 Y-3.634 E0.01227 F2400.000
G1 X-1.041 Y-3.623 E0.03503
G1 X-2.251 Y-3.813 E0.03534
G1 X-3.391 Y-4.192 E0.03470
G1 X-4.436 Y-4.739 E0.03403
G1 X-5.391 Y-5.455 E0.03446
G1 X-5.512 Y-5.563 E0.00466
G1 X-6.319 Y-6.437 E0.03435
G1 X-6.893 Y-7.303 E0.02999
G1 X-6.893 Y-14.684 E0.21303
G1 X-6.319 Y-15.550 E0.02999
G1 X-5.512 Y-16.425 E0.03435
G1 X-4.436 Y-17.248 E0.03911
G1 X-3.392 Y-17.794 E0.03400
G1 X-2.240 Y-18.176 E0.03504
G1 X-1.040 Y-18.364 E0.03506
G1 X0.086 Y-18.358 E0.03251
G1 X1.368 Y-18.144 E0.03751 F2400.000
G1 X2.513 Y-17.742 E0.03503
G1 X3.577 Y-17.158 E0.03503
G1 X4.531 Y-16.408 E0.03503
G1 X5.349 Y-15.511 E0.03503
G1 X6.010 Y-14.493 E0.03504
G1 X6.464 Y-13.455 E0.03269
G1 X6.791 Y-12.203 E0.03734
G1 X6.891 Y-10.994 E0.03503
G1 X6.791 Y-9.784 E0.03503
G1 X6.494 Y-8.605 E0.03510
G1 X6.010 Y-7.494 E0.03496
G1 X5.349 Y-6.476 E0.03504
G1 X4.531 Y-5.579 E0.03503
G1 X3.577 Y-4.829 E0.03503
G1 X2.507 Y-4.242 E0.03523
G1 X1.369 Y-3.843 E0.03481
G1 X0.650 Y-3.717 E0.02105
G1 X0.712 Y-3.366 F15000.000
