; generated by Slic3r 1.2.9 on 2019-01-15 at 12:06:15

; external perimeters extrusion width = 0.40mm
; perimeters extrusion width = 0.40mm
; infill extrusion width = 0.40mm
; solid infill extrusion width = 0.40mm
; top infill extrusion width = 0.40mm

M107
M83
T0
M116
G21 ; set units to millimeters
G90 ; use absolute coordinates
M83 ; use relative distances for extrusion
G1 E-3.50000 F1500.00000
G1 Z0.400 F15000.000
G1 X11.023 Y0.909 F15000.000
G1 Z0.300 F15000.000
G1 E3.50000 F1500.00000
G1 X10.966 Y1.602 E0.05355 F2400.000
G1 X10.863 Y2.210 E0.04749
G1 X10.526 Y3.518 E0.10412
G1 X10.337 Y4.067 E0.04475
G1 X9.831 Y5.224 E0.09735
G1 X9.548 Y5.750 E0.04599
G1 X8.836 Y6.846 E0.10075
G1 X8.470 Y7.319 E0.04608
G1 X7.588 Y8.284 E0.10075
G1 X7.149 Y8.690 E0.04608
G1 X6.121 Y9.497 E0.10075
G1 X5.607 Y9.834 E0.04733
G1 X4.419 Y10.477 E0.10412
G1 X3.884 Y10.713 E0.04508
G1 X2.691 Y11.129 E0.09735
G1 X2.115 Y11.278 E0.04582
G1 X0.827 Y11.501 E0.10075
G1 X0.231 Y11.554 E0.04608
G1 X-1.076 Y11.563 E0.10075
G1 X-1.687 Y11.515 E0.04721
G1 X-3.020 Y11.297 E0.10413
G1 X-3.591 Y11.156 E0.04534
G1 X-4.789 Y10.753 E0.09733
G1 X-5.331 Y10.521 E0.04549
G1 X-6.475 Y9.916 E0.09970
G1 X-6.987 Y9.587 E0.04691
G1 X-8.073 Y8.755 E0.10545
G1 X-8.521 Y8.347 E0.04667
G1 X-9.401 Y7.402 E0.09953
G1 X-9.768 Y6.938 E0.04559
G1 X-10.477 Y5.872 E0.09869
G1 X-11.086 Y3.858 E0.16211
G1 X-11.086 Y-3.858 E0.59468
G1 X-10.477 Y-5.872 E0.16211
G1 X-9.768 Y-6.938 E0.09869
G1 X-9.401 Y-7.402 E0.04559
G1 X-8.521 Y-8.347 E0.09953
G1 X-8.073 Y-8.755 E0.04667
G1 X-6.987 Y-9.587 E0.10545
G1 X-6.475 Y-9.916 E0.04691
G1 X-5.331 Y-10.521 E0.09970
G1 X-4.784 Y-10.755 E0.04588
G1 X-3.544 Y-11.169 E0.10073
G1 X-2.963 Y-11.312 E0.04608
G1 X-1.672 Y-11.517 E0.10075
G1 X-1.080 Y-11.563 E0.04575
G1 X0.183 Y-11.556 E0.09735
G1 X0.767 Y-11.505 E0.04521 F2400.000
G1 X2.100 Y-11.280 E0.10413
G1 X2.694 Y-11.128 E0.04727
G1 X3.928 Y-10.697 E0.10075
G1 X4.474 Y-10.454 E0.04608
G1 X5.621 Y-9.826 E0.10075
G1 X6.121 Y-9.497 E0.04608
G1 X7.149 Y-8.690 E0.10075
G1 X7.588 Y-8.284 E0.04608
G1 X8.470 Y-7.319 E0.10075
G1 X8.836 Y-6.846 E0.04608
G1 X9.548 Y-5.750 E0.10075
G1 X9.831 Y-5.224 E0.04599
G1 X10.337 Y-4.067 E0.09735
G1 X10.526 Y-3.518 E0.04475
G1 X10.863 Y-2.210 E0.10412
G1 X10.966 Y-1.602 E0.04749
G1 X11.073 Y-0.299 E0.10076
G1 X11.073 Y0.299 E0.04608
G1 X11.028 Y0.850 E0.04259
G1 E-3.50000 F1500.00000
G1 Z0.700 F15000.000
G1 X4.930 Y0.109 F15000.000
G1 Z0.300 F15000.000
G1 E3.50000 F1500.00000
G1 X4.872 Y0.585 E0.03691 F2400.000
G1 X4.663 Y1.135 E0.04539
G1 X4.329 Y1.620 E0.04539
G1 X3.888 Y2.011 E0.04539
G1 X3.366 Y2.284 E0.04539
G1 X2.794 Y2.425 E0.04539
G1 X2.205 Y2.425 E0.04539
G1 X1.634 Y2.284 E0.04539
G1 X1.112 Y2.011 E0.04539
G1 X0.671 Y1.620 E0.04539
G1 X0.331 Y1.127 E0.04615
G1 X0.123 Y0.544 E0.04775
G1 X0.057 Y-0.000 E0.04221
G1 X0.128 Y-0.585 E0.04539
G1 X0.337 Y-1.135 E0.04539
G1 X0.671 Y-1.620 E0.04539
G1 X1.112 Y-2.011 E0.04539
G1 X1.634 Y-2.284 E0.04539
G1 X2.205 Y-2.425 E0.04539
G1 X2.794 Y-2.425 E0.04539 F2400.000
G1 X3.376 Y-2.282 E0.04615
G1 X3.919 Y-1.983 E0.04775
G1 X4.329 Y-1.620 E0.04221
G1 X4.663 Y-1.135 E0.04539
G1 X4.872 Y-0.585 E0.04539
G1 X4.937 Y0.050 E0.04915
G1 X4.303 Y-0.000 F15000.000
G1 X4.251 Y0.431 E0.03350 F2400.000
G1 X4.096 Y0.838 E0.03350
G1 X3.850 Y1.196 E0.03350
G1 X3.524 Y1.484 E0.03350
G1 X3.139 Y1.686 E0.03350
G1 X2.717 Y1.790 E0.03350
G1 X2.283 Y1.790 E0.03350
G1 X1.861 Y1.686 E0.03350
G1 X1.476 Y1.484 E0.03350
G1 X1.150 Y1.196 E0.03350
G1 X0.902 Y0.835 E0.03377
G1 X0.745 Y0.397 E0.03585
G1 X0.697 Y-0.000 E0.03081
G1 X0.749 Y-0.431 E0.03350
G1 X0.904 Y-0.838 E0.03350
G1 X1.150 Y-1.196 E0.03350
G1 X1.476 Y-1.484 E0.03350
G1 X1.861 Y-1.686 E0.03350
G1 X2.283 Y-1.790 E0.03350
G1 X2.717 Y-1.790 E0.03350 F2400.000
G1 X3.143 Y-1.685 E0.03377
G1 X3.550 Y-1.461 E0.03585
G1 X3.850 Y-1.196 E0.03081
G1 X4.096 Y-0.838 E0.03350
G1 X4.251 Y-0.431 E0.03350
G1 X4.296 Y-0.060 E0.02887
G1 X4.641 Y0.214 F15000.000
G1 E-3.50000 F1500.00000
G1 Z0.700 F15000.000
G1 X-1.408 Y-6.880 F15000.000
G1 Z0.300 F15000.000
G1 E3.50000 F1500.00000
G1 X-1.025 Y-6.941 E0.02985 F2400.000
G1 X0.078 Y-6.935 E0.08498
G1 X1.249 Y-6.737 E0.09155 F2400.000
G1 X2.328 Y-6.361 E0.08806
G1 X3.332 Y-5.811 E0.08822
G1 X4.233 Y-5.105 E0.08822
G1 X5.005 Y-4.260 E0.08822
G1 X5.629 Y-3.300 E0.08823
G1 X6.071 Y-2.289 E0.08501
G1 X6.367 Y-1.138 E0.09157
G1 X6.461 Y-0.000 E0.08803
G1 X6.367 Y1.138 E0.08803
G1 X6.071 Y2.289 E0.09157
G1 X5.629 Y3.300 E0.08501
G1 X5.005 Y4.260 E0.08823
G1 X4.233 Y5.105 E0.08822
G1 X3.334 Y5.810 E0.08805
G1 X2.289 Y6.375 E0.09155
G1 X1.247 Y6.738 E0.08499
G1 X0.119 Y6.933 E0.08825
G1 X-1.024 Y6.941 E0.08806
G1 X-2.196 Y6.749 E0.09154
G1 X-3.241 Y6.398 E0.08498
G1 X-4.241 Y5.870 E0.08713
G1 X-5.195 Y5.138 E0.09272
G1 X-5.965 Y4.312 E0.08698
G1 X-6.464 Y3.560 E0.06953
G1 X-6.464 Y-3.560 E0.54876
G1 X-5.965 Y-4.312 E0.06953
G1 X-5.195 Y-5.138 E0.08698
G1 X-4.241 Y-5.870 E0.09272
G1 X-3.242 Y-6.398 E0.08707
G1 X-2.156 Y-6.761 E0.08823
G1 X-1.467 Y-6.871 E0.05379
G1 X-1.567 Y-7.498 F15000.000
G1 X-1.074 Y-7.577 E0.03848 F2400.000
G1 X0.133 Y-7.570 E0.09296
G1 X1.408 Y-7.355 E0.09966 F2400.000
G1 X2.587 Y-6.943 E0.09624
G1 X3.683 Y-6.344 E0.09630
G1 X4.666 Y-5.572 E0.09630
G1 X5.510 Y-4.650 E0.09630
G1 X6.190 Y-3.602 E0.09631
G1 X6.673 Y-2.497 E0.09297
G1 X6.996 Y-1.245 E0.09966
G1 X7.099 Y-0.000 E0.09624
G1 X6.996 Y1.245 E0.09624
G1 X6.673 Y2.497 E0.09966
G1 X6.190 Y3.602 E0.09297
G1 X5.510 Y4.650 E0.09631
G1 X4.666 Y5.572 E0.09630
G1 X3.684 Y6.343 E0.09624
G1 X2.546 Y6.959 E0.09966
G1 X1.407 Y7.355 E0.09296
G1 X0.176 Y7.568 E0.09631
G1 X-1.073 Y7.577 E0.09625
G1 X-2.349 Y7.368 E0.09966
G1 X-3.493 Y6.984 E0.09295
G1 X-4.585 Y6.407 E0.09523
G1 X-5.624 Y5.610 E0.10093
G1 X-6.465 Y4.707 E0.09507
G1 X-7.100 Y3.752 E0.08834
G1 X-7.100 Y-3.752 E0.57837
G1 X-6.465 Y-4.707 E0.08834
G1 X-5.624 Y-5.610 E0.09507
G1 X-4.585 Y-6.407 E0.10093
G1 X-3.493 Y-6.984 E0.09521
G1 X-2.308 Y-7.380 E0.09629
G1 X-1.626 Y-7.489 E0.05321
G1 X-1.315 Y-7.188 F15000.000
G1 X3.611 Y-4.960 F15000.000
G1 X4.317 Y-4.254 E0.07757 F2400.000
G1 X3.055 Y-2.795 F15000.000
G1 X-0.703 Y-6.553 E0.41317 F2400.000
G1 X-1.544 Y-6.488 E0.06564
G1 X2.161 Y-2.782 E0.40745
G1 X1.461 Y-2.576 E0.05677
G1 X-2.306 Y-6.342 E0.41415
G1 X-2.985 Y-6.115 E0.05572
G1 X0.882 Y-2.248 E0.42525
G1 X0.404 Y-1.819 E0.04993
G1 X-3.602 Y-5.825 E0.44052
G1 X-4.182 Y-5.497 E0.05175
G1 X0.034 Y-1.282 E0.46351
G1 X-0.224 Y-0.633 E0.05430
G1 X-4.695 Y-5.104 E0.49159
G1 X-5.167 Y-4.669 E0.04990
G1 X-0.328 Y0.170 E0.53211
G1 X-0.055 Y1.350 E0.09416
G1 X-5.612 Y-4.207 E0.61098
G1 X-5.987 Y-3.676 E0.05059
G1 X3.190 Y5.502 E1.00913
G1 X3.698 Y5.103 E0.05022
G1 X1.148 Y2.553 E0.28039
G1 X2.313 Y2.811 E0.09274
G1 X4.171 Y4.669 E0.20436
G1 X4.611 Y4.202 E0.04988
G1 X3.121 Y2.713 E0.16379
G1 X3.770 Y2.454 E0.05429
G1 X4.989 Y3.673 E0.13397
G1 X5.336 Y3.114 E0.05120
G1 X4.305 Y2.082 E0.11343
G1 X4.740 Y1.610 E0.04990
G1 X5.612 Y2.483 E0.09591
G1 X5.830 Y1.794 E0.05616
G1 X5.332 Y1.296 E0.05477
G1 X5.474 Y-1.283 F15000.000
G1 X0.270 Y-6.487 E0.57222 F2400.000
G1 X1.466 Y-6.198 E0.09562
G1 X5.723 Y-1.941 E0.46812
G1 X2.603 Y5.822 F15000.000
G1 X-6.079 Y-2.860 E0.95463 F2400.000
G1 X-6.079 Y-1.953 E0.07051
G1 X1.986 Y6.112 E0.88680
G1 X1.313 Y6.346 E0.05538
G1 X-6.079 Y-1.046 E0.81284
G1 X-6.079 Y-0.139 E0.07051
G1 X0.549 Y6.489 E0.72884
G1 X-0.295 Y6.551 E0.06583
G1 X-6.079 Y0.767 E0.63599
G1 X-6.079 Y1.674 E0.07051
G1 X-1.267 Y6.487 E0.52917
G1 X-2.458 Y6.202 E0.09528
G1 X-6.079 Y2.581 E0.39812
G1 X-5.364 Y4.203 F15000.000
G1 X-4.588 Y4.979 E0.08530 F2400.000
G1 X5.610 Y0.922 F15000.000
G1 X5.702 Y-0.000 E0.15009 F2400.000
G1 X5.610 Y-0.922 E0.15009
G1 E-3.50000 F1500.00000
G1 Z0.700 F15000.000
G1 X4.452 Y-0.483 F15000.000
G1 Z0.500 F15000.000
G1 E3.50000 F1500.00000
G1 X4.512 Y-0.000 E0.01406 F2400.000
G1 X4.453 Y0.481 E0.01400
G1 X4.281 Y0.935 E0.01400
G1 X4.006 Y1.334 E0.01400
G1 X3.643 Y1.655 E0.01400
G1 X3.213 Y1.881 E0.01400
G1 X2.742 Y1.997 E0.01400
G1 X2.258 Y1.997 E0.01400
G1 X1.787 Y1.881 E0.01400
G1 X1.357 Y1.655 E0.01400
G1 X0.994 Y1.334 E0.01400
G1 X0.719 Y0.935 E0.01400
G1 X0.547 Y0.481 E0.01400
G1 X0.530 Y0.341 E0.00408
G1 X0.488 Y0.000 E0.00992
G1 X0.547 Y-0.481 E0.01400
G1 X0.719 Y-0.935 E0.01400
G1 X0.994 Y-1.334 E0.01400
G1 X1.357 Y-1.655 E0.01400
G1 X1.787 Y-1.881 E0.01400
G1 X2.258 Y-1.997 E0.01400
G1 X2.742 Y-1.997 E0.01400 F2400.000
G1 X3.213 Y-1.881 E0.01400
G1 X3.643 Y-1.655 E0.01400
G1 X4.006 Y-1.334 E0.01400
G1 X4.281 Y-0.935 E0.01400
G1 X4.431 Y-0.539 E0.01220
G1 X4.097 Y-0.413 F15000.000
G1 X4.152 Y-0.000 E0.01202 F2400.000
G1 X4.104 Y0.395 E0.01149
G1 X3.963 Y0.768 E0.01149
G1 X3.736 Y1.095 E0.01149
G1 X3.438 Y1.359 E0.01149
G1 X3.086 Y1.544 E0.01149
G1 X2.699 Y1.640 E0.01149
G1 X2.301 Y1.640 E0.01149
G1 X1.914 Y1.544 E0.01149
G1 X1.562 Y1.359 E0.01149
G1 X1.264 Y1.095 E0.01149
G1 X1.037 Y0.768 E0.01149
G1 X0.896 Y0.395 E0.01149
G1 X0.884 Y0.298 E0.00282
G1 X0.848 Y0.000 E0.00867
G1 X0.896 Y-0.395 E0.01149
G1 X1.037 Y-0.768 E0.01149
G1 X1.264 Y-1.095 E0.01149
G1 X1.562 Y-1.359 E0.01149
G1 X1.914 Y-1.544 E0.01149
G1 X2.301 Y-1.640 E0.01149
G1 X2.699 Y-1.640 E0.01149 F2400.000
G1 X3.086 Y-1.544 E0.01149
G1 X3.438 Y-1.359 E0.01149
G1 X3.736 Y-1.095 E0.01149
G1 X3.963 Y-0.768 E0.01149
G1 X4.076 Y-0.469 E0.00922
G1 X4.477 Y-0.289 F15000.000
G1 X3.127 Y-6.411 F15000.000
G1 X3.577 Y-6.164 E0.01482 F2400.000
G1 X4.531 Y-5.414 E0.03503
G1 X5.349 Y-4.518 E0.03503
G1 X6.010 Y-3.499 E0.03504
G1 X6.494 Y-2.389 E0.03496
G1 X6.791 Y-1.210 E0.03510
G1 X6.891 Y-0.000 E0.03503
G1 X6.791 Y1.210 E0.03503
G1 X6.494 Y2.389 E0.03510
G1 X6.010 Y3.499 E0.03496
G1 X5.349 Y4.518 E0.03504
G1 X4.531 Y5.414 E0.03503
G1 X3.577 Y6.164 E0.03503
G1 X2.507 Y6.752 E0.03523
G1 X1.369 Y7.151 E0.03481
G1 X0.173 Y7.360 E0.03505
G1 X-1.041 Y7.371 E0.03503
G1 X-2.325 Y7.159 E0.03756
G1 X-3.391 Y6.801 E0.03246
G1 X-4.436 Y6.254 E0.03403
G1 X-5.391 Y5.538 E0.03446
G1 X-5.512 Y5.431 E0.00466
G1 X-6.319 Y4.556 E0.03435
G1 X-6.893 Y3.690 E0.02999
G1 X-6.893 Y-3.690 E0.21303
G1 X-6.319 Y-4.556 E0.02999
G1 X-5.512 Y-5.431 E0.03435
G1 X-4.436 Y-6.254 E0.03911
G1 X-3.392 Y-6.801 E0.03400
G1 X-2.240 Y-7.183 E0.03504
G1 X-1.040 Y-7.371 E0.03506
G1 X0.086 Y-7.365 E0.03251
G1 X1.368 Y-7.151 E0.03751 F2400.000
G1 X2.513 Y-6.749 E0.03503
G1 X3.075 Y-6.440 E0.01848
G1 X3.246 Y-6.753 F15000.000
G1 X3.775 Y-6.463 E0.01740 F2400.000
G1 X4.775 Y-5.677 E0.03673
G1 X5.633 Y-4.737 E0.03673
G1 X6.326 Y-3.669 E0.03673
G1 X6.834 Y-2.503 E0.03670
G1 X7.145 Y-1.268 E0.03675
G1 X7.249 Y-0.000 E0.03673
G1 X7.145 Y1.268 E0.03673
G1 X6.834 Y2.503 E0.03675
G1 X6.326 Y3.669 E0.03670
G1 X5.633 Y4.737 E0.03673
G1 X4.775 Y5.677 E0.03673
G1 X3.775 Y6.463 E0.03673
G1 X2.657 Y7.077 E0.03680
G1 X1.459 Y7.497 E0.03665
G1 X0.205 Y7.717 E0.03674
G1 X-1.067 Y7.728 E0.03673
G1 X-2.328 Y7.530 E0.03684
G1 X-2.432 Y7.500 E0.00311
G1 X-3.532 Y7.131 E0.03350
G1 X-4.627 Y6.557 E0.03568
G1 X-5.617 Y5.815 E0.03572
G1 X-5.762 Y5.686 E0.00560
G1 X-6.601 Y4.777 E0.03568
G1 X-7.250 Y3.798 E0.03392
G1 X-7.250 Y-3.798 E0.21924
G1 X-6.601 Y-4.777 E0.03392
G1 X-5.762 Y-5.686 E0.03568
G1 X-5.617 Y-5.815 E0.00560
G1 X-4.627 Y-6.557 E0.03572
G1 X-3.532 Y-7.131 E0.03566
G1 X-2.325 Y-7.531 E0.03673
G1 X-1.067 Y-7.728 E0.03674
G1 X0.094 Y-7.722 E0.03352
G1 X0.202 Y-7.717 E0.00311 F2400.000
G1 X1.459 Y-7.497 E0.03682
G1 X2.659 Y-7.076 E0.03673
G1 X3.194 Y-6.782 E0.01760
G1 X3.255 Y-6.353 F15000.000
G1 X4.189 Y-5.458 F15000.000
G1 X-5.957 Y4.688 E0.42114 F2400.000
G1 X-6.198 Y4.415 E0.01068
G1 X3.901 Y-5.684 E0.41921
G1 X3.614 Y-5.910 E0.01073
G1 X-6.403 Y4.107 E0.41577
G1 X-6.608 Y3.798 E0.01087
G1 X3.300 Y-6.110 E0.41126
G1 X2.969 Y-6.292 E0.01110
G1 X-6.685 Y3.362 E0.40072
G1 X-6.685 Y2.848 E0.01507
G1 X2.637 Y-6.474 E0.38696
G1 X2.281 Y-6.632 E0.01143
G1 X-6.685 Y2.335 E0.37219
G1 X-6.685 Y1.821 E0.01507
G1 X1.901 Y-6.765 E0.35641
G1 X1.521 Y-6.899 E0.01182
G1 X-6.685 Y1.308 E0.34063
G1 X-6.685 Y0.794 E0.01507
G1 X1.105 Y-6.996 E0.32334
G1 X0.665 Y-7.069 E0.01310
G1 X-6.685 Y0.281 E0.30507
G1 X-6.685 Y-0.233 E0.01507
G1 X0.224 Y-7.142 E0.28680
G1 X-0.272 Y-7.159 E0.01459
G1 X-6.685 Y-0.746 E0.26618
G1 X-6.685 Y-1.260 E0.01507
G1 X-0.783 Y-7.162 E0.24499
G1 X-1.361 Y-7.097 E0.01708
G1 X-6.685 Y-1.773 E0.22099
G1 X-6.685 Y-2.287 E0.01507
G1 X-1.970 Y-7.002 E0.19570
G1 X-2.705 Y-6.780 E0.02253
G1 X-6.685 Y-2.800 E0.16520
G1 X-6.685 Y-3.314 E0.01507
G1 X-3.581 Y-6.418 E0.12884
G1 X-5.124 Y-5.389 F15000.000
G1 X-5.733 Y-4.779 E0.02529 F2400.000
G1 X6.591 Y-1.184 F15000.000
G1 X4.577 Y0.829 E0.08357 F2400.000
G1 X4.708 Y0.185 E0.01930
G1 X6.492 Y-1.599 E0.07404
G1 X6.385 Y-2.006 E0.01235
G1 X4.676 Y-0.297 E0.07094
G1 X4.568 Y-0.702 E0.01232
G1 X6.279 Y-2.413 E0.07101
G1 X6.126 Y-2.774 E0.01150
G1 X4.412 Y-1.059 E0.07117
G1 X4.202 Y-1.363 E0.01084
G1 X5.970 Y-3.131 E0.07340
G1 X5.808 Y-3.482 E0.01135
G1 X3.947 Y-1.622 E0.07724
G1 X3.662 Y-1.850 E0.01072
G1 X5.606 Y-3.794 E0.08069
G1 X5.404 Y-4.105 E0.01090
G1 X3.325 Y-2.027 E0.08628
G1 X2.932 Y-2.148 E0.01206
G1 X5.202 Y-4.417 E0.09419
G1 X4.957 Y-4.686 E0.01067
G1 X2.476 Y-2.205 E0.10298
G1 X1.902 Y-2.144 E0.01694
G1 X4.712 Y-4.954 E0.11664
G1 X4.455 Y-5.211 E0.01066
G1 X-5.710 Y4.954 E0.42194
G1 X-5.453 Y5.211 E0.01066
G1 X0.340 Y-0.582 E0.24047
G1 X0.286 Y-0.015 E0.01674
G1 X-5.186 Y5.457 E0.22713
G1 X-4.895 Y5.680 E0.01075
G1 X0.342 Y0.443 E0.21736
G1 X0.477 Y0.821 E0.01179
G1 X-4.604 Y5.902 E0.21091
G1 X-4.306 Y6.118 E0.01080
G1 X0.655 Y1.156 E0.20593
G1 X0.868 Y1.458 E0.01082
G1 X-3.969 Y6.294 E0.20076
G1 X-3.632 Y6.471 E0.01117
G1 X1.140 Y1.699 E0.19807
G1 X1.446 Y1.907 E0.01085
G1 X-3.286 Y6.639 E0.19642
G1 X-2.902 Y6.768 E0.01190
G1 X1.787 Y2.079 E0.19464
G1 X2.199 Y2.180 E0.01245
G1 X-2.517 Y6.897 E0.19579
G1 X-2.104 Y6.997 E0.01249
G1 X2.688 Y2.205 E0.19891
G1 X3.316 Y2.090 E0.01873
G1 X-1.663 Y7.069 E0.20666
G1 X-1.222 Y7.142 E0.01312
G1 X6.630 Y-0.710 E0.32591
G1 X6.669 Y-0.235 E0.01397
G1 X-0.726 Y7.159 E0.30694
G1 X-0.208 Y7.155 E0.01521
G1 X6.652 Y0.296 E0.28471
G1 X6.605 Y0.855 E0.01648
G1 X0.359 Y7.102 E0.25929
G1 X0.981 Y6.993 E0.01855
G1 X6.479 Y1.495 E0.22822
G1 X6.297 Y2.190 E0.02111
G1 X1.705 Y6.783 E0.19061
G1 X2.595 Y6.406 F15000.000
G1 X5.931 Y3.071 E0.13843 F2400.000
G1 X4.710 Y4.804 F15000.000
G1 X4.129 Y5.386 E0.02414 F2400.000
G1 E-3.50000 F1500.00000
G1 Z0.900 F15000.000
G1 X3.213 Y1.881 F15000.000
G1 Z0.700 F15000.000
G1 E3.50000 F1500.00000
G1 X2.742 Y1.997 E0.01400 F2400.000
G1 X2.258 Y1.997 E0.01400
G1 X1.787 Y1.881 E0.01400
G1 X1.357 Y1.655 E0.01400
G1 X0.994 Y1.334 E0.01400
G1 X0.719 Y0.935 E0.01400
G1 X0.547 Y0.481 E0.01400
G1 X0.488 Y-0.000 E0.01400
G1 X0.547 Y-0.481 E0.01400
G1 X0.719 Y-0.935 E0.01400
G1 X0.994 Y-1.334 E0.01400
G1 X1.357 Y-1.655 E0.01400
G1 X1.787 Y-1.881 E0.01400
G1 X2.258 Y-1.997 E0.01400
G1 X2.742 Y-1.997 E0.01400 F2400.000
G1 X3.213 Y-1.881 E0.01400
G1 X3.643 Y-1.655 E0.01400
G1 X4.006 Y-1.334 E0.01400
G1 X4.281 Y-0.935 E0.01400
G1 X4.453 Y-0.481 E0.01400
G1 X4.512 Y-0.000 E0.01400
G1 X4.453 Y0.481 E0.01400
G1 X4.281 Y0.935 E0.01400
G1 X4.006 Y1.334 E0.01400
G1 X3.643 Y1.655 E0.01400
G1 X3.266 Y1.853 E0.01226
G1 X3.100 Y1.537 F15000.000
G1 X2.699 Y1.640 E0.01196 F2400.000
G1 X2.301 Y1.640 E0.01149
G1 X1.914 Y1.544 E0.01149
G1 X1.562 Y1.359 E0.01149
G1 X1.264 Y1.095 E0.01149
G1 X1.037 Y0.768 E0.01149
G1 X0.896 Y0.395 E0.01149
G1 X0.848 Y-0.000 E0.01149
G1 X0.896 Y-0.395 E0.01149
G1 X1.037 Y-0.768 E0.01149
G1 X1.264 Y-1.095 E0.01149
G1 X1.562 Y-1.359 E0.01149
G1 X1.914 Y-1.544 E0.01149
G1 X2.301 Y-1.640 E0.01149
G1 X2.699 Y-1.640 E0.01149 F2400.000
G1 X3.086 Y-1.544 E0.01149
G1 X3.438 Y-1.359 E0.01149
G1 X3.736 Y-1.095 E0.01149
G1 X3.963 Y-0.768 E0.01149
G1 X4.104 Y-0.395 E0.01149
G1 X4.152 Y-0.000 E0.01149
G1 X4.104 Y0.395 E0.01149
G1 X3.963 Y0.768 E0.01149
G1 X3.736 Y1.095 E0.01149
G1 X3.438 Y1.359 E0.01149
G1 X3.154 Y1.509 E0.00928
G1 X3.023 Y1.929 F15000.000
G1 E-3.50000 F1500.00000
G1 Z1.100 F15000.000
G1 X2.867 Y-6.554 F15000.000
G1 Z0.700 F15000.000
G1 E3.50000 F1500.00000
