; generated by Slic3r 1.2.9 on 2018-05-24 at 11:02:56

; external perimeters extrusion width = 0.40mm
; perimeters extrusion width = 0.40mm
; infill extrusion width = 0.40mm
; solid infill extrusion width = 0.40mm
; top infill extrusion width = 0.40mm

M107
M83
T0
M116
G21 ; set units to millimeters
G90 ; use absolute coordinates
M83 ; use relative distances for extrusion
G1 E-3.50000 F1500.00000
G1 Z0.400 F15000.000
G1 X0.001 Y-16.084 F15000.000
G1 Z0.300 F15000.000
G1 E3.50000 F1500.00000
G1 X18.017 Y-16.083 E1.38842 F960.000
G1 X18.491 Y-16.052 E0.03664 F960.000
G1 X19.238 Y-15.954 E0.05804
G1 X20.155 Y-15.708 E0.07314
G1 X20.866 Y-15.413 E0.05934
G1 X21.688 Y-14.939 E0.07314
G1 X22.299 Y-14.470 E0.05934
G1 X22.970 Y-13.799 E0.07314
G1 X23.439 Y-13.188 E0.05934
G1 X23.670 Y-12.848 E0.03172
G1 X34.670 Y5.452 E1.64547
G1 X34.913 Y5.934 E0.04158
G1 X35.208 Y6.645 E0.05934
G1 X35.454 Y7.562 E0.07314
G1 X35.555 Y8.329 E0.05959
G1 X35.586 Y8.803 E0.03665
G1 X35.586 Y9.497 E0.05344
G1 X35.555 Y9.971 E0.03665
G1 X35.454 Y10.738 E0.05959
G1 X35.208 Y11.655 E0.07314
G1 X34.913 Y12.366 E0.05934
G1 X34.439 Y13.188 E0.07314
G1 X33.970 Y13.799 E0.05934
G1 X33.299 Y14.470 E0.07314
G1 X32.688 Y14.939 E0.05934
G1 X31.866 Y15.413 E0.07314
G1 X31.155 Y15.708 E0.05934
G1 X30.238 Y15.954 E0.07314
G1 X29.471 Y16.055 E0.05959
G1 X28.997 Y16.086 E0.03665
G1 X-12.754 Y16.086 E3.21755
G1 X-13.229 Y16.055 E0.03665
G1 X-13.995 Y15.954 E0.05959
G1 X-14.912 Y15.708 E0.07314
G1 X-15.623 Y15.413 E0.05934
G1 X-16.445 Y14.939 E0.07315
G1 X-17.059 Y14.468 E0.05959
G1 X-17.416 Y14.154 E0.03665
G1 X-33.654 Y-2.084 E1.76973
G1 X-33.968 Y-2.441 E0.03665
G1 X-34.439 Y-3.055 E0.05959
G1 X-34.913 Y-3.877 E0.07314
G1 X-35.208 Y-4.588 E0.05934
G1 X-35.454 Y-5.505 E0.07314
G1 X-35.555 Y-6.271 E0.05959
G1 X-35.586 Y-6.746 E0.03665
G1 X-35.586 Y-9.497 E0.21199
G1 X-35.555 Y-9.971 E0.03665
G1 X-35.454 Y-10.738 E0.05959
G1 X-35.208 Y-11.655 E0.07314
G1 X-34.913 Y-12.366 E0.05934
G1 X-34.439 Y-13.188 E0.07314
G1 X-33.970 Y-13.799 E0.05934
G1 X-33.299 Y-14.470 E0.07315
G1 X-32.688 Y-14.939 E0.05934
G1 X-31.866 Y-15.413 E0.07314
G1 X-31.155 Y-15.708 E0.05934
G1 X-30.238 Y-15.954 E0.07314
G1 X-29.471 Y-16.055 E0.05959
G1 X-28.997 Y-16.086 E0.03667
G1 X-0.059 Y-16.084 E2.23008
G1 E-3.50000 F1500.00000
G1 Z0.700 F15000.000
G1 X-21.967 Y-9.042 F15000.000
G1 Z0.300 F15000.000
G1 E3.50000 F1500.00000
G1 X-21.901 Y-8.469 E0.04446 F600.000
G1 X-21.968 Y-7.956 E0.03989
G1 X-22.178 Y-7.448 E0.04232
G1 X-22.513 Y-7.013 E0.04232
G1 X-22.948 Y-6.678 E0.04232
G1 X-23.456 Y-6.468 E0.04232
G1 X-23.974 Y-6.400 E0.04028
G1 X-28.026 Y-6.400 E0.31230
G1 X-28.544 Y-6.468 E0.04028
G1 X-29.052 Y-6.678 E0.04232
G1 X-29.487 Y-7.013 E0.04232
G1 X-29.822 Y-7.448 E0.04232
G1 X-30.032 Y-7.956 E0.04232
G1 X-30.103 Y-8.500 E0.04232
G1 X-30.032 Y-9.044 E0.04232
G1 X-29.822 Y-9.552 E0.04232
G1 X-29.507 Y-9.962 E0.03989
G1 X-29.054 Y-10.321 E0.04446
G1 X-28.544 Y-10.532 E0.04253
G1 X-28.026 Y-10.600 E0.04028
G1 X-27.800 Y-10.600 E0.01743
G1 X-23.974 Y-10.600 E0.29487 F600.000
G1 X-23.456 Y-10.532 E0.04028
G1 X-22.948 Y-10.322 E0.04232
G1 X-22.513 Y-9.987 E0.04232
G1 X-22.178 Y-9.552 E0.04232
G1 X-21.990 Y-9.097 E0.03790
G1 X-21.587 Y-8.918 F15000.000
G1 E-3.50000 F1500.00000
G1 Z0.700 F15000.000
G1 X-28.986 Y-11.457 F15000.000
G1 Z0.300 F15000.000
G1 E3.50000 F1500.00000
G1 X-28.756 Y-11.464 E0.01771 F600.000
G1 X-28.695 Y-11.157 E0.02412 F600.000
G1 X-29.379 Y-10.874 E0.05709
G1 X-29.963 Y-10.412 E0.05736
G1 X-30.377 Y-9.872 E0.05240
G1 X-30.657 Y-9.195 E0.05650
G1 X-30.964 Y-9.256 E0.02412
G1 X-30.964 Y-9.432 E0.01357
G1 X-30.889 Y-10.006 E0.04462
G1 X-30.693 Y-10.478 E0.03934
G1 X-30.383 Y-10.883 E0.03934
G1 X-29.978 Y-11.193 E0.03934
G1 X-29.506 Y-11.389 E0.03934
G1 X-29.045 Y-11.449 E0.03583
G1 E-3.50000 F1500.00000
G1 Z0.700 F15000.000
G1 X19.964 Y-5.191 F15000.000
G1 Z0.300 F15000.000
G1 E3.50000 F1500.00000
G1 X19.964 Y6.836 E0.92682 F720.000
G1 X28.932 Y6.836 E0.69110
G1 X29.506 Y6.911 E0.04462
G1 X29.978 Y7.107 E0.03934
G1 X30.383 Y7.417 E0.03934
G1 X30.693 Y7.822 E0.03934
G1 X30.889 Y8.294 E0.03934
G1 X30.964 Y8.868 E0.04462
G1 X30.964 Y9.432 E0.04348
G1 X30.889 Y10.006 E0.04462
G1 X30.693 Y10.478 E0.03934
G1 X30.383 Y10.883 E0.03934
G1 X29.978 Y11.193 E0.03934
G1 X29.506 Y11.389 E0.03934
G1 X28.932 Y11.464 E0.04462
G1 X-12.689 Y11.464 E3.20759
G1 X-13.263 Y11.389 E0.04462
G1 X-13.735 Y11.193 E0.03934
G1 X-14.194 Y10.841 E0.04462
G1 X-30.341 Y-5.306 E1.75978
G1 X-30.693 Y-5.765 E0.04462
G1 X-30.889 Y-6.237 E0.03934
G1 X-30.964 Y-6.811 E0.04462
G1 X-30.964 Y-7.744 E0.07194
G1 X-30.657 Y-7.805 E0.02412
G1 X-30.377 Y-7.128 E0.05650
G1 X-29.941 Y-6.559 E0.05522
G1 X-29.372 Y-6.123 E0.05522
G1 X-28.710 Y-5.849 E0.05522
G1 X-28.068 Y-5.764 E0.04994
G1 X-23.932 Y-5.764 E0.31872
G1 X-23.290 Y-5.849 E0.04994
G1 X-22.628 Y-6.123 E0.05522
G1 X-22.059 Y-6.559 E0.05522
G1 X-21.623 Y-7.128 E0.05522
G1 X-21.349 Y-7.790 E0.05522
G1 X-21.260 Y-8.464 E0.05241
G1 X-21.346 Y-9.203 E0.05736
G1 X-21.623 Y-9.872 E0.05581
G1 X-22.059 Y-10.441 E0.05522
G1 X-22.628 Y-10.877 E0.05521
G1 X-23.304 Y-11.157 E0.05643
G1 X-23.243 Y-11.464 E0.02412
G1 X-3.759 Y-11.463 E1.50153
G1 X-3.698 Y-11.156 E0.02412 F720.000
G1 X-4.372 Y-10.877 E0.05622
G1 X-4.941 Y-10.441 E0.05522
G1 X-5.377 Y-9.872 E0.05521
G1 X-5.651 Y-9.210 E0.05522
G1 X-5.745 Y-8.500 E0.05522
G1 X-5.651 Y-7.790 E0.05521
G1 X-5.377 Y-7.128 E0.05521
G1 X-4.941 Y-6.559 E0.05522
G1 X-4.372 Y-6.123 E0.05522
G1 X-3.710 Y-5.849 E0.05522
G1 X-3.068 Y-5.764 E0.04994
G1 X1.068 Y-5.764 E0.31872
G1 X1.710 Y-5.849 E0.04994
G1 X2.372 Y-6.123 E0.05522
G1 X2.941 Y-6.559 E0.05522
G1 X3.377 Y-7.128 E0.05521
G1 X3.651 Y-7.790 E0.05522
G1 X3.745 Y-8.500 E0.05522
G1 X3.651 Y-9.210 E0.05522
G1 X3.377 Y-9.872 E0.05522
G1 X2.941 Y-10.441 E0.05522
G1 X2.372 Y-10.877 E0.05521
G1 X1.699 Y-11.156 E0.05615
G1 X1.760 Y-11.463 E0.02412
G1 X17.952 Y-11.462 E1.24784
G1 X18.506 Y-11.389 E0.04306
G1 X18.978 Y-11.193 E0.03934
G1 X19.383 Y-10.883 E0.03934
G1 X19.693 Y-10.478 E0.03934
G1 X19.889 Y-10.006 E0.03934
G1 X19.964 Y-9.432 E0.04462
G1 X19.964 Y-5.251 E0.32224
G1 X3.032 Y-7.956 F15000.000
G1 X2.822 Y-7.448 E0.04232 F600.000
G1 X2.487 Y-7.013 E0.04232
G1 X2.052 Y-6.678 E0.04232
G1 X1.544 Y-6.468 E0.04232
G1 X1.026 Y-6.400 E0.04028
G1 X-3.026 Y-6.400 E0.31230
G1 X-3.544 Y-6.468 E0.04028
G1 X-4.052 Y-6.678 E0.04232
G1 X-4.487 Y-7.013 E0.04232
G1 X-4.822 Y-7.448 E0.04232
G1 X-5.032 Y-7.956 E0.04232
G1 X-5.103 Y-8.500 E0.04232
G1 X-5.032 Y-9.044 E0.04232
G1 X-4.822 Y-9.552 E0.04232
G1 X-4.487 Y-9.987 E0.04232
G1 X-4.052 Y-10.322 E0.04232
G1 X-3.544 Y-10.532 E0.04232
G1 X-3.026 Y-10.600 E0.04028 F600.000
G1 X1.026 Y-10.600 E0.31230
G1 X1.544 Y-10.532 E0.04028
G1 X2.052 Y-10.322 E0.04232
G1 X2.487 Y-9.987 E0.04232
G1 X2.822 Y-9.552 E0.04232
G1 X3.032 Y-9.044 E0.04232
G1 X3.103 Y-8.500 E0.04232
G1 X3.040 Y-8.015 E0.03769
G1 X3.302 Y-7.661 F15000.000
G1 X3.040 Y-12.098 F15000.000
G1 X17.994 Y-12.097 E1.15244 F720.000
G1 X18.672 Y-12.008 E0.05272 F720.000
G1 X19.298 Y-11.749 E0.05224
G1 X19.836 Y-11.336 E0.05224
G1 X20.249 Y-10.798 E0.05224
G1 X20.508 Y-10.172 E0.05224
G1 X20.600 Y-9.474 E0.05428
G1 X20.600 Y6.200 E1.20791
G1 X28.974 Y6.200 E0.64533
G1 X29.672 Y6.292 E0.05428
G1 X30.298 Y6.551 E0.05224
G1 X30.836 Y6.964 E0.05224
G1 X31.249 Y7.502 E0.05224
G1 X31.508 Y8.128 E0.05224
G1 X31.600 Y8.826 E0.05428
G1 X31.600 Y9.474 E0.04990
G1 X31.508 Y10.172 E0.05428
G1 X31.249 Y10.798 E0.05224
G1 X30.836 Y11.336 E0.05224
G1 X30.298 Y11.749 E0.05224
G1 X29.672 Y12.008 E0.05224
G1 X28.974 Y12.100 E0.05428
G1 X-12.731 Y12.100 E3.21401
G1 X-13.429 Y12.008 E0.05428
G1 X-14.056 Y11.749 E0.05224
G1 X-14.614 Y11.320 E0.05428
G1 X-30.820 Y-4.886 E1.76620
G1 X-31.249 Y-5.444 E0.05428
G1 X-31.508 Y-6.071 E0.05224
G1 X-31.600 Y-6.769 E0.05428
G1 X-31.600 Y-9.474 E0.20846
G1 X-31.508 Y-10.172 E0.05428
G1 X-31.249 Y-10.798 E0.05224
G1 X-30.836 Y-11.336 E0.05224
G1 X-30.298 Y-11.749 E0.05224
G1 X-29.672 Y-12.008 E0.05224
G1 X-28.974 Y-12.100 E0.05427
G1 X2.980 Y-12.098 E2.46252
G1 X3.240 Y-11.752 F15000.000
G1 X1.414 Y-11.349 F15000.000
G1 X-3.413 Y-11.349 E0.78156 F960.000
G1 X-6.188 Y-11.078 F15000.000
G1 X-5.442 Y-10.332 E0.08242 F960.000
G1 X-5.792 Y-9.770 E0.05168
G1 X-7.099 Y-11.078 E0.14447
G1 X-8.010 Y-11.078 E0.07120
G1 X-6.037 Y-9.104 E0.21803
G1 X-6.123 Y-8.279 E0.06483
G1 X-8.922 Y-11.078 E0.30922
G1 X-9.833 Y-11.078 E0.07120
G1 X-5.845 Y-7.090 E0.44060
G1 X-20.971 Y-9.458 F15000.000
G1 X-0.434 Y11.079 E2.26908 F960.000
G1 X-1.346 Y11.079 E0.07120
G1 X-20.888 Y-8.463 E2.15923
G1 X-21.020 Y-7.684 E0.06175
G1 X-2.257 Y11.079 E2.07314
G1 X-3.168 Y11.079 E0.07120
G1 X-21.287 Y-7.040 E2.00194
G1 X-21.675 Y-6.516 E0.05090
G1 X-4.080 Y11.079 E1.94409
G1 X-4.991 Y11.079 E0.07120
G1 X-22.145 Y-6.076 E1.89541
G1 X-22.701 Y-5.720 E0.05155
G1 X-5.902 Y11.079 E1.85613
G1 X-6.813 Y11.079 E0.07120
G1 X-23.360 Y-5.468 E1.82821
G1 X-24.183 Y-5.379 E0.06465
G1 X-7.725 Y11.079 E1.81842
G1 X-8.636 Y11.079 E0.07120
G1 X-25.094 Y-5.379 E1.81842
G1 X-26.005 Y-5.379 E0.07120
G1 X-9.547 Y11.079 E1.81842
G1 X-10.459 Y11.079 E0.07120
G1 X-26.917 Y-5.379 E1.81842
G1 X-27.828 Y-5.379 E0.07120
G1 X-11.370 Y11.079 E1.81842
G1 X-12.281 Y11.079 E0.07120
G1 X-28.815 Y-5.455 E1.82684
G1 X-29.200 Y-4.928 E0.05095
G1 X-13.594 Y10.677 E1.72423
G1 X-21.681 Y-11.079 F15000.000
G1 X0.477 Y11.079 E2.44817 F960.000
G1 X1.388 Y11.079 E0.07120
G1 X-20.769 Y-11.078 E2.44816
G1 X-19.858 Y-11.078 E0.07120
G1 X2.300 Y11.079 E2.44816
G1 X3.211 Y11.079 E0.07120
G1 X-18.947 Y-11.078 E2.44815
G1 X-18.035 Y-11.078 E0.07120
G1 X4.122 Y11.079 E2.44814
G1 X5.033 Y11.079 E0.07120
G1 X-17.124 Y-11.078 E2.44814
G1 X-16.213 Y-11.078 E0.07120
G1 X5.945 Y11.079 E2.44813
G1 X6.856 Y11.079 E0.07120
G1 X-15.301 Y-11.078 E2.44813
G1 X-14.390 Y-11.078 E0.07120
G1 X7.767 Y11.079 E2.44812
G1 X8.679 Y11.079 E0.07120
G1 X-13.479 Y-11.078 E2.44812
G1 X-12.567 Y-11.078 E0.07120
G1 X9.590 Y11.079 E2.44811
G1 X10.501 Y11.079 E0.07120
G1 X-11.656 Y-11.078 E2.44810
G1 X-10.744 Y-11.078 E0.07120
G1 X11.412 Y11.079 E2.44810
G1 X12.324 Y11.079 E0.07120
G1 X-4.410 Y-5.655 E1.84887
G1 X-3.223 Y-5.379 E0.09520
G1 X13.235 Y11.079 E1.81842
G1 X14.146 Y11.079 E0.07120
G1 X-2.312 Y-5.379 E1.81842
G1 X-1.400 Y-5.379 E0.07120
G1 X15.058 Y11.079 E1.81842
G1 X15.969 Y11.079 E0.07120
G1 X-0.489 Y-5.379 E1.81842
G1 X0.422 Y-5.379 E0.07120
G1 X16.880 Y11.079 E1.81842
G1 X17.791 Y11.079 E0.07120
G1 X1.291 Y-5.422 E1.82313
G1 X2.019 Y-5.605 E0.05867
G1 X18.703 Y11.079 E1.84334
G1 X19.614 Y11.079 E0.07120
G1 X2.631 Y-5.904 E1.87645
G1 X3.147 Y-6.300 E0.05078
G1 X20.525 Y11.079 E1.92017
G1 X21.437 Y11.079 E0.07120
G1 X3.549 Y-6.808 E1.97636
G1 X3.864 Y-7.405 E0.05269
G1 X22.348 Y11.079 E2.04226
G1 X29.796 Y7.591 F15000.000
G1 X30.209 Y8.004 E0.04562 F960.000
G1 X30.579 Y9.286 E0.10422
G1 X28.514 Y7.221 E0.22813
G1 X27.603 Y7.221 E0.07120
G1 X30.479 Y10.097 E0.31775
G1 X30.118 Y10.647 E0.05141
G1 X26.692 Y7.221 E0.37853
G1 X25.780 Y7.221 E0.07120
G1 X29.555 Y10.996 E0.41709
G1 X28.727 Y11.079 E0.06504
G1 X24.869 Y7.221 E0.42626
G1 X23.958 Y7.221 E0.07120
G1 X27.816 Y11.079 E0.42626
G1 X26.904 Y11.079 E0.07120
G1 X23.046 Y7.221 E0.42626
G1 X22.135 Y7.221 E0.07120
G1 X25.993 Y11.079 E0.42626
G1 X25.082 Y11.079 E0.07120
G1 X21.224 Y7.221 E0.42626
G1 X20.313 Y7.221 E0.07120
G1 X24.170 Y11.079 E0.42626
G1 X23.259 Y11.079 E0.07120
G1 X4.066 Y-8.114 E2.12065
G1 X4.086 Y-9.006 E0.06968
G1 X19.579 Y6.487 E1.71185
G1 X19.579 Y5.576 E0.07120
G1 X3.575 Y-10.428 E1.76828
G1 X3.837 Y-11.077 E0.05469
G1 X19.579 Y4.665 E1.73932
G1 X19.579 Y3.754 E0.07120
G1 X4.748 Y-11.077 E1.63862
G1 X5.660 Y-11.077 E0.07120
G1 X19.579 Y2.842 E1.53793
G1 X19.579 Y1.931 E0.07120
G1 X6.571 Y-11.077 E1.43724
G1 X7.482 Y-11.077 E0.07120
G1 X19.579 Y1.020 E1.33654
G1 X19.579 Y0.108 E0.07120
G1 X8.394 Y-11.077 E1.23585
G1 X9.305 Y-11.077 E0.07120
G1 X19.579 Y-0.803 E1.13516
G1 X19.579 Y-1.714 E0.07120
G1 X10.216 Y-11.077 E1.03446
G1 X11.128 Y-11.077 E0.07120
G1 X19.579 Y-2.625 E0.93377
G1 X19.579 Y-3.537 E0.07120
G1 X12.039 Y-11.077 E0.83307
G1 X12.950 Y-11.077 E0.07120
G1 X19.579 Y-4.448 E0.73238
G1 X19.579 Y-5.359 E0.07120
G1 X13.862 Y-11.077 E0.63169
G1 X14.773 Y-11.077 E0.07120
G1 X19.579 Y-6.271 E0.53099
G1 X19.579 Y-7.182 E0.07120
G1 X15.684 Y-11.076 E0.43030
G1 X16.596 Y-11.076 E0.07120
G1 X19.579 Y-8.093 E0.32961
G1 X19.579 Y-9.005 E0.07120
G1 X17.507 Y-11.076 E0.22891
G1 X18.754 Y-10.741 E0.10090
G1 X19.241 Y-10.254 E0.05374
G1 X-23.590 Y-11.350 F15000.000
G1 X-28.409 Y-11.350 E0.78041 F960.000
G1 E-3.50000 F1500.00000
G1 Z0.700 F15000.000
G1 X-30.413 Y-6.325 F15000.000
G1 Z0.300 F15000.000
G1 E3.50000 F1500.00000
G1 X-30.201 Y-6.049 E0.05630 F960.000
G1 X-29.870 Y-5.718 E0.07576
G1 X-29.659 Y-5.540 E0.04476
G1 X-29.336 Y-5.324 E0.06292
G1 E-3.50000 F1500.00000
G1 Z0.700 F15000.000
G1 X-28.895 Y-6.389 F15000.000
G1 Z0.500 F15000.000
G1 E3.50000 F1500.00000
G1 X-29.156 Y-6.497 E0.00816 F3000.000
G1 X-29.635 Y-6.865 E0.01742
G1 X-30.003 Y-7.344 E0.01742
G1 X-30.234 Y-7.902 E0.01742
G1 X-30.312 Y-8.500 E0.01742
G1 X-30.234 Y-9.098 E0.01742
G1 X-30.003 Y-9.656 E0.01742
G1 X-29.635 Y-10.135 E0.01742
G1 X-29.156 Y-10.503 E0.01742
G1 X-28.598 Y-10.734 E0.01742
G1 X-28.040 Y-10.807 E0.01626
G1 X-27.467 Y-10.807 E0.01654
G1 X-23.960 Y-10.807 E0.10121 F3000.000
G1 X-23.402 Y-10.734 E0.01626
G1 X-22.844 Y-10.503 E0.01742
G1 X-22.365 Y-10.135 E0.01742
G1 X-21.997 Y-9.656 E0.01742
G1 X-21.766 Y-9.098 E0.01742
G1 X-21.688 Y-8.500 E0.01742
G1 X-21.766 Y-7.902 E0.01742
G1 X-21.997 Y-7.344 E0.01742
G1 X-22.365 Y-6.865 E0.01742
G1 X-22.844 Y-6.497 E0.01742
G1 X-23.402 Y-6.266 E0.01742
G1 X-23.960 Y-6.193 E0.01626
G1 X-28.040 Y-6.193 E0.11775
G1 X-28.598 Y-6.266 E0.01626
G1 X-28.839 Y-6.366 E0.00753
G1 X-28.703 Y-6.696 F15000.000
G1 X-28.976 Y-6.809 E0.00854 F3000.000
G1 X-29.380 Y-7.120 E0.01471
G1 X-29.691 Y-7.524 E0.01471
G1 X-29.886 Y-7.995 E0.01471
G1 X-29.952 Y-8.500 E0.01471
G1 X-29.886 Y-9.005 E0.01471
G1 X-29.691 Y-9.476 E0.01471
G1 X-29.380 Y-9.880 E0.01471
G1 X-28.976 Y-10.191 E0.01471
G1 X-28.505 Y-10.386 E0.01471
G1 X-28.016 Y-10.450 E0.01423
G1 X-27.467 Y-10.450 E0.01587
G1 X-23.984 Y-10.450 E0.10053 F3000.000
G1 X-23.495 Y-10.386 E0.01423
G1 X-23.024 Y-10.191 E0.01471
G1 X-22.620 Y-9.880 E0.01471
G1 X-22.309 Y-9.476 E0.01471
G1 X-22.114 Y-9.005 E0.01471
G1 X-22.048 Y-8.500 E0.01471
G1 X-22.114 Y-7.995 E0.01471
G1 X-22.309 Y-7.524 E0.01471
G1 X-22.620 Y-7.120 E0.01471
G1 X-23.024 Y-6.809 E0.01471
G1 X-23.495 Y-6.614 E0.01471
G1 X-23.984 Y-6.550 E0.01423
G1 X-28.016 Y-6.550 E0.11640
G1 X-28.505 Y-6.614 E0.01423
G1 X-28.647 Y-6.673 E0.00444
G1 X-28.937 Y-6.516 F15000.000
G1 E-3.50000 F1500.00000
G1 Z0.900 F15000.000
G1 X-5.312 Y-8.500 F15000.000
G1 Z0.500 F15000.000
G1 E3.50000 F1500.00000
G1 X-5.234 Y-9.098 E0.01742 F3000.000
G1 X-5.003 Y-9.656 E0.01742
G1 X-4.635 Y-10.135 E0.01742
G1 X-4.156 Y-10.503 E0.01742
G1 X-3.598 Y-10.734 E0.01742
G1 X-3.040 Y-10.807 E0.01626 F3000.000
G1 X1.040 Y-10.807 E0.11775
G1 X1.598 Y-10.734 E0.01626
G1 X2.156 Y-10.503 E0.01742
G1 X2.635 Y-10.135 E0.01742
G1 X3.003 Y-9.656 E0.01742
G1 X3.234 Y-9.098 E0.01742
G1 X3.312 Y-8.500 E0.01742
G1 X3.234 Y-7.902 E0.01742
G1 X3.003 Y-7.344 E0.01742
G1 X2.635 Y-6.865 E0.01742
G1 X2.156 Y-6.497 E0.01742
G1 X1.598 Y-6.266 E0.01742
G1 X1.040 Y-6.193 E0.01626
G1 X-3.040 Y-6.193 E0.11775
G1 X-3.598 Y-6.266 E0.01626
G1 X-4.156 Y-6.497 E0.01742
G1 X-4.635 Y-6.865 E0.01742
G1 X-5.003 Y-7.344 E0.01742
G1 X-5.234 Y-7.902 E0.01742
G1 X-5.304 Y-8.441 E0.01569
G1 X-4.950 Y-8.487 F15000.000
G1 X-4.886 Y-9.005 E0.01507 F3000.000
G1 X-4.691 Y-9.476 E0.01471
G1 X-4.380 Y-9.880 E0.01471
G1 X-3.976 Y-10.191 E0.01471
G1 X-3.505 Y-10.386 E0.01471
G1 X-3.016 Y-10.450 E0.01423 F3000.000
G1 X1.016 Y-10.450 E0.11640
G1 X1.505 Y-10.386 E0.01423
G1 X1.976 Y-10.191 E0.01471
G1 X2.380 Y-9.880 E0.01471
G1 X2.691 Y-9.476 E0.01471
G1 X2.886 Y-9.005 E0.01471
G1 X2.952 Y-8.500 E0.01471
G1 X2.886 Y-7.995 E0.01471
G1 X2.691 Y-7.524 E0.01471
G1 X2.380 Y-7.120 E0.01471
