; generated by Slic3r 1.2.9 on 2018-05-24 at 11:05:10

; external perimeters extrusion width = 0.40mm
; perimeters extrusion width = 0.40mm
; infill extrusion width = 0.40mm
; solid infill extrusion width = 0.40mm
; top infill extrusion width = 0.40mm

M107
M83
T0
M116
G21 ; set units to millimeters
G90 ; use absolute coordinates
M83 ; use relative distances for extrusion
G1 E-3.50000 F1500.00000
G1 Z0.400 F15000.000
G1 X16.086 Y-0.000 F15000.000
G1 Z0.300 F15000.000
G1 E3.50000 F1500.00000
G1 X16.086 Y18.450 E1.42186 F960.000
G1 X15.691 Y20.097 E0.13052
G1 X14.593 Y21.387 E0.13052
G1 X12.450 Y22.086 E0.17373
G1 X-12.450 Y22.086 E1.91893
G1 X-14.097 Y21.691 E0.13052
G1 X-15.387 Y20.593 E0.13052
G1 X-16.086 Y18.450 E0.17373
G1 X-16.086 Y-18.450 E2.84372
G1 X-15.691 Y-20.097 E0.13052
G1 X-14.593 Y-21.387 E0.13052
G1 X-12.450 Y-22.086 E0.17373
G1 X12.450 Y-22.086 E1.91893
G1 X14.097 Y-21.691 E0.13052 F960.000
G1 X15.387 Y-20.593 E0.13052
G1 X16.086 Y-18.450 E0.17373
G1 X16.086 Y-0.060 E1.41723
G1 E-3.50000 F1500.00000
G1 Z0.700 F15000.000
G1 X-6.678 Y9.448 F15000.000
G1 Z0.300 F15000.000
G1 E3.50000 F1500.00000
G1 X-6.468 Y9.956 E0.04232 F600.000
G1 X-6.400 Y10.474 E0.04028
G1 X-6.400 Y14.526 E0.31230
G1 X-6.468 Y15.044 E0.04028
G1 X-6.678 Y15.552 E0.04232
G1 X-7.013 Y15.987 E0.04232
G1 X-7.448 Y16.322 E0.04232
G1 X-7.956 Y16.532 E0.04232
G1 X-8.500 Y16.603 E0.04232
G1 X-9.044 Y16.532 E0.04232
G1 X-9.552 Y16.322 E0.04232
G1 X-9.987 Y15.987 E0.04232
G1 X-10.322 Y15.552 E0.04232
G1 X-10.532 Y15.044 E0.04232
G1 X-10.600 Y14.526 E0.04028
G1 X-10.600 Y10.474 E0.31230
G1 X-10.532 Y9.956 E0.04028
G1 X-10.322 Y9.448 E0.04232
G1 X-9.987 Y9.013 E0.04232
G1 X-9.550 Y8.677 E0.04253
G1 X-9.013 Y8.464 E0.04446
G1 X-8.500 Y8.397 E0.03989 F600.000
G1 X-7.956 Y8.468 E0.04232
G1 X-7.448 Y8.678 E0.04232
G1 X-7.013 Y9.013 E0.04232
G1 X-6.715 Y9.401 E0.03769
G1 X-6.279 Y9.466 F15000.000
G1 E-3.50000 F1500.00000
G1 Z0.700 F15000.000
G1 X-11.464 Y16.556 F15000.000
G1 Z0.300 F15000.000
G1 E3.50000 F1500.00000
G1 X-11.464 Y15.256 E0.10017 F600.000
G1 X-11.157 Y15.195 E0.02412
G1 X-10.877 Y15.872 E0.05650
G1 X-10.441 Y16.441 E0.05522 F600.000
G1 X-9.872 Y16.877 E0.05522
G1 X-9.195 Y17.157 E0.05650
G1 X-9.256 Y17.464 E0.02412
G1 X-11.464 Y17.464 E0.17019
G1 X-11.464 Y16.616 E0.06540
G1 X-8.500 Y-8.397 F15000.000
G1 X-9.044 Y-8.468 E0.04232 F600.000
G1 X-9.552 Y-8.678 E0.04232
G1 X-9.987 Y-9.013 E0.04232
G1 X-10.322 Y-9.448 E0.04232
G1 X-10.532 Y-9.956 E0.04232
G1 X-10.600 Y-10.474 E0.04028
G1 X-10.600 Y-14.526 E0.31230
G1 X-10.532 Y-15.044 E0.04028
G1 X-10.322 Y-15.552 E0.04232
G1 X-9.987 Y-15.987 E0.04232
G1 X-9.550 Y-16.323 E0.04253
G1 X-9.013 Y-16.536 E0.04446
G1 X-8.500 Y-16.603 E0.03989 F600.000
G1 X-7.956 Y-16.532 E0.04232
G1 X-7.448 Y-16.322 E0.04232
G1 X-7.013 Y-15.987 E0.04232
G1 X-6.678 Y-15.552 E0.04232
G1 X-6.468 Y-15.044 E0.04232
G1 X-6.400 Y-14.526 E0.04028
G1 X-6.400 Y-10.474 E0.31230
G1 X-6.468 Y-9.956 E0.04028
G1 X-6.678 Y-9.448 E0.04232
G1 X-6.993 Y-9.038 E0.03989
G1 X-7.446 Y-8.679 E0.04446
G1 X-7.956 Y-8.468 E0.04253
G1 X-8.441 Y-8.404 E0.03769
G1 X-8.715 Y-8.059 F15000.000
G1 E-3.50000 F1500.00000
G1 Z0.700 F15000.000
G1 X-11.345 Y-15.232 F15000.000
G1 Z0.300 F15000.000
G1 E3.50000 F1500.00000
G1 X-11.464 Y-15.256 E0.00938 F600.000
G1 X-11.464 Y-17.464 E0.17019
G1 X-9.237 Y-17.464 E0.17169
G1 X-9.177 Y-17.155 E0.02431 F600.000
G1 X-9.866 Y-16.882 E0.05710
G1 X-10.441 Y-16.441 E0.05581
G1 X-10.877 Y-15.872 E0.05522
G1 X-11.157 Y-15.195 E0.05650
G1 X-11.286 Y-15.221 E0.01011
G1 E-3.50000 F1500.00000
G1 Z0.700 F15000.000
G1 X-5.764 Y10.432 F15000.000
G1 Z0.300 F15000.000
G1 E3.50000 F1500.00000
G1 X-5.849 Y9.790 E0.04994 F720.000
G1 X-6.123 Y9.128 E0.05522
G1 X-6.559 Y8.559 E0.05522
G1 X-7.128 Y8.123 E0.05522
G1 X-7.790 Y7.849 E0.05522
G1 X-8.500 Y7.755 E0.05522
G1 X-9.174 Y7.844 E0.05240
G1 X-9.866 Y8.118 E0.05736
G1 X-10.441 Y8.559 E0.05581
G1 X-10.877 Y9.128 E0.05522
G1 X-11.157 Y9.805 E0.05650
G1 X-11.464 Y9.744 E0.02412
G1 X-11.464 Y-9.744 E1.50185
G1 X-11.157 Y-9.805 E0.02412
G1 X-10.877 Y-9.128 E0.05650
G1 X-10.441 Y-8.559 E0.05521
G1 X-9.872 Y-8.123 E0.05522
G1 X-9.210 Y-7.849 E0.05522
G1 X-8.500 Y-7.755 E0.05521
G1 X-7.790 Y-7.849 E0.05522
G1 X-7.121 Y-8.126 E0.05581
G1 X-6.537 Y-8.588 E0.05736
G1 X-6.123 Y-9.128 E0.05240
G1 X-5.849 Y-9.790 E0.05521
G1 X-5.764 Y-10.432 E0.04994
G1 X-5.764 Y-14.568 E0.31872
G1 X-5.849 Y-15.210 E0.04994
G1 X-6.123 Y-15.872 E0.05522
G1 X-6.559 Y-16.441 E0.05522
G1 X-7.128 Y-16.877 E0.05522
G1 X-7.805 Y-17.157 E0.05650
G1 X-7.744 Y-17.464 E0.02412
G1 X11.464 Y-17.464 E1.48030
G1 X11.464 Y17.464 E2.69180 F720.000
G1 X-7.744 Y17.464 E1.48030
G1 X-7.805 Y17.157 E0.02412
G1 X-7.128 Y16.877 E0.05650
G1 X-6.559 Y16.441 E0.05521
G1 X-6.123 Y15.872 E0.05522
G1 X-5.849 Y15.210 E0.05522
G1 X-5.764 Y14.568 E0.04994
G1 X-5.764 Y10.492 E0.31410
G1 E-3.50000 F1500.00000
G1 Z0.700 F15000.000
G1 X-12.100 Y10.492 F15000.000
G1 Z0.300 F15000.000
G1 E3.50000 F1500.00000
G1 X-12.100 Y-18.100 E2.20347 F720.000
G1 X11.750 Y-18.100 E1.83801
G1 X12.100 Y-18.100 E0.02697 F720.000
G1 X12.100 Y18.100 E2.78977
G1 X-12.100 Y18.100 E1.86499
G1 X-12.100 Y10.552 E0.58168
G1 X-11.754 Y10.292 F15000.000
G1 X-11.350 Y10.091 F15000.000
G1 X-11.350 Y14.909 E0.78028 F960.000
G1 X-10.681 Y16.941 F15000.000
G1 X-11.059 Y16.563 E0.04120 F960.000
G1 X-10.563 Y17.059 E0.05402
G1 X-6.451 Y16.775 F15000.000
G1 X-6.147 Y17.079 E0.03361 F960.000
G1 X-5.235 Y17.079 E0.07131
G1 X-6.025 Y16.289 E0.08738
G1 X-5.686 Y15.716 E0.05205
G1 X-4.323 Y17.079 E0.15072
G1 X-3.411 Y17.079 E0.07131
G1 X-5.454 Y15.036 E0.22591
G1 X-5.379 Y14.199 E0.06572
G1 X-2.499 Y17.079 E0.31848
G1 X-1.587 Y17.079 E0.07131
G1 X-5.379 Y13.287 E0.41933
G1 X-5.379 Y12.375 E0.07131
G1 X-0.675 Y17.079 E0.52018
G1 X0.237 Y17.079 E0.07131
G1 X-5.379 Y11.463 E0.62104
G1 X-5.379 Y10.551 E0.07131
G1 X1.149 Y17.079 E0.72189
G1 X2.061 Y17.079 E0.07131
G1 X-5.474 Y9.544 E0.83321
G1 E-3.50000 F1500.00000
G1 Z0.700 F15000.000
G1 X-10.488 Y8.178 F15000.000
G1 Z0.300 F15000.000
G1 E3.50000 F1500.00000
G1 X-11.079 Y7.587 E0.06537 F960.000
G1 X-11.079 Y6.675 E0.07131
G1 X-9.967 Y7.787 E0.12298
G1 X-9.314 Y7.528 E0.05494
G1 X-11.079 Y5.763 E0.19521
G1 X-11.079 Y4.851 E0.07131
G1 X-8.541 Y7.389 E0.28065
G1 X-7.544 Y7.474 E0.07824
G1 X-11.079 Y3.939 E0.39089
G1 X-11.079 Y3.027 E0.07131
G1 X2.973 Y17.079 E1.55390
G1 X3.885 Y17.079 E0.07131
G1 X-11.079 Y2.115 E1.65476
G1 X-11.079 Y1.203 E0.07131
G1 X4.797 Y17.079 E1.75561
G1 X5.709 Y17.079 E0.07131
G1 X-11.079 Y0.291 E1.85647
G1 X-11.079 Y-0.622 E0.07131
G1 X6.622 Y17.079 E1.95732
G1 X7.534 Y17.079 E0.07131
G1 X-11.079 Y-1.534 E2.05817
G1 X-11.079 Y-2.446 E0.07131
G1 X8.446 Y17.079 E2.15903
G1 X9.358 Y17.079 E0.07131
G1 X-11.079 Y-3.358 E2.25988
G1 X-11.079 Y-4.270 E0.07131
G1 X10.270 Y17.079 E2.36073
G1 X11.079 Y16.976 E0.06379
G1 X-11.079 Y-5.182 E2.45022
G1 X-11.079 Y-6.094 E0.07131
G1 X11.079 Y16.064 E2.45022
G1 X11.079 Y15.152 E0.07131
G1 X-11.079 Y-7.006 E2.45022
G1 X-11.079 Y-7.918 E0.07131
G1 X11.079 Y14.240 E2.45022
G1 X11.079 Y13.328 E0.07131
G1 X-9.899 Y-7.650 E2.31978
G1 X-8.713 Y-7.376 E0.09522
G1 X11.079 Y12.416 E2.18858
G1 X11.079 Y11.504 E0.07131
G1 X-7.889 Y-7.464 E2.09745
G1 X-7.224 Y-7.711 E0.05547
G1 X11.079 Y10.592 E2.02393
G1 X11.079 Y9.680 E0.07131
G1 X-6.665 Y-8.065 E1.96218
G1 X-6.188 Y-8.499 E0.05048
G1 X11.079 Y8.768 E1.90938
G1 X11.079 Y7.856 E0.07131
G1 X-5.796 Y-9.019 E1.86601
G1 X-5.529 Y-9.664 E0.05458
G1 X11.079 Y6.944 E1.83647
G1 X11.079 Y6.032 E0.07131
G1 X-5.391 Y-10.439 E1.82129
G1 X-5.379 Y-11.338 E0.07035
G1 X11.079 Y5.120 E1.81992
G1 X11.079 Y4.208 E0.07131
G1 X-5.379 Y-12.250 E1.81992
G1 X-5.379 Y-13.162 E0.07131
G1 X11.079 Y3.296 E1.81992
G1 X11.079 Y2.384 E0.07131
G1 X-5.379 Y-14.074 E1.81992
G1 X-5.417 Y-15.024 E0.07433
G1 X11.079 Y1.472 E1.82410
G1 X11.079 Y0.559 E0.07131
G1 X-5.980 Y-16.500 E1.88639
G1 X-5.647 Y-17.079 E0.05224
G1 X11.079 Y-0.353 E1.84961
G1 X11.079 Y-1.265 E0.07131
G1 X-4.735 Y-17.079 E1.74875
G1 X-3.823 Y-17.079 E0.07131
G1 X11.079 Y-2.177 E1.64790
G1 X11.079 Y-3.089 E0.07131
G1 X-2.911 Y-17.079 E1.54705
G1 X-1.999 Y-17.079 E0.07131
G1 X11.079 Y-4.001 E1.44619
G1 X11.079 Y-4.913 E0.07131
G1 X-1.087 Y-17.079 E1.34534
G1 X-0.175 Y-17.079 E0.07131
G1 X11.079 Y-5.825 E1.24449
G1 X11.079 Y-6.737 E0.07131
G1 X0.737 Y-17.079 E1.14363
G1 X1.649 Y-17.079 E0.07131
G1 X11.079 Y-7.649 E1.04278
G1 X11.079 Y-8.561 E0.07131
G1 X2.561 Y-17.079 E0.94193
G1 X3.473 Y-17.079 E0.07131
G1 X11.079 Y-9.473 E0.84107
G1 X11.079 Y-10.385 E0.07131
G1 X4.385 Y-17.079 E0.74022
G1 X5.297 Y-17.079 E0.07131
G1 X11.079 Y-11.297 E0.63936
G1 X11.079 Y-12.209 E0.07131
G1 X6.209 Y-17.079 E0.53851
G1 X7.121 Y-17.079 E0.07131
G1 X11.079 Y-13.121 E0.43766
G1 X11.079 Y-14.033 E0.07131
G1 X8.033 Y-17.079 E0.33680
G1 X8.945 Y-17.079 E0.07131
G1 X11.079 Y-14.945 E0.23595
G1 X11.079 Y-15.857 E0.07131
G1 X9.857 Y-17.079 E0.13510
G1 X10.769 Y-17.079 E0.07131
G1 X11.079 Y-16.769 E0.03424
G1 X-10.563 Y-16.789 F15000.000
G1 X-10.853 Y-17.079 E0.03157 F960.000
G1 X-11.350 Y-14.909 F15000.000
G1 X-11.350 Y-10.091 E0.78028 F960.000
G1 E-3.50000 F1500.00000
G1 Z0.700 F15000.000
G1 X-8.936 Y8.245 F15000.000
G1 Z0.500 F15000.000
G1 E3.50000 F1500.00000
G1 X-8.500 Y8.188 E0.01270 F3000.000
G1 X-7.902 Y8.266 E0.01742
G1 X-7.344 Y8.497 E0.01742
G1 X-6.865 Y8.865 E0.01742
G1 X-6.497 Y9.344 E0.01742
G1 X-6.266 Y9.902 E0.01742
G1 X-6.193 Y10.460 E0.01626
G1 X-6.193 Y14.540 E0.11775
G1 X-6.266 Y15.098 E0.01626
G1 X-6.497 Y15.656 E0.01742
G1 X-6.865 Y16.135 E0.01742
G1 X-7.344 Y16.503 E0.01742
G1 X-7.902 Y16.734 E0.01742
G1 X-8.500 Y16.812 E0.01742
G1 X-9.098 Y16.734 E0.01742
G1 X-9.656 Y16.503 E0.01742
G1 X-10.135 Y16.135 E0.01742
G1 X-10.503 Y15.656 E0.01742
G1 X-10.734 Y15.098 E0.01742
G1 X-10.807 Y14.540 E0.01626
G1 X-10.807 Y10.460 E0.11775
G1 X-10.734 Y9.902 E0.01626
G1 X-10.503 Y9.344 E0.01742
G1 X-10.135 Y8.865 E0.01742
G1 X-9.656 Y8.497 E0.01742
G1 X-9.098 Y8.266 E0.01742
G1 X-8.996 Y8.253 E0.00300
G1 X-8.949 Y8.607 F15000.000
G1 X-8.914 Y8.602 E0.00102 F3000.000
G1 X-8.500 Y8.548 E0.01205 F3000.000
G1 X-7.995 Y8.614 E0.01471
G1 X-7.524 Y8.809 E0.01471
G1 X-7.120 Y9.120 E0.01471
G1 X-6.809 Y9.524 E0.01471
G1 X-6.614 Y9.995 E0.01471
G1 X-6.550 Y10.484 E0.01423
G1 X-6.550 Y14.516 E0.11640
G1 X-6.614 Y15.005 E0.01423
G1 X-6.809 Y15.476 E0.01471
G1 X-7.120 Y15.880 E0.01471
G1 X-7.524 Y16.191 E0.01471
G1 X-7.995 Y16.386 E0.01471
G1 X-8.500 Y16.452 E0.01471
G1 X-9.005 Y16.386 E0.01471
G1 X-9.476 Y16.191 E0.01471
G1 X-9.880 Y15.880 E0.01471
G1 X-10.191 Y15.476 E0.01471
G1 X-10.386 Y15.005 E0.01471
G1 X-10.450 Y14.516 E0.01423
G1 X-10.450 Y10.484 E0.11640
G1 X-10.386 Y9.995 E0.01423
G1 X-10.191 Y9.524 E0.01471
G1 X-9.880 Y9.120 E0.01471
G1 X-9.476 Y8.809 E0.01471
G1 X-9.008 Y8.616 E0.01462
G1 X-8.938 Y8.573 F15000.000
G1 X-8.500 Y-8.188 F15000.000
G1 X-9.098 Y-8.266 E0.01742 F3000.000
G1 X-9.656 Y-8.497 E0.01742
G1 X-10.135 Y-8.865 E0.01742
G1 X-10.503 Y-9.344 E0.01742
G1 X-10.734 Y-9.902 E0.01742
G1 X-10.807 Y-10.460 E0.01626
G1 X-10.807 Y-14.540 E0.11775
G1 X-10.734 Y-15.098 E0.01626
G1 X-10.503 Y-15.656 E0.01742
G1 X-10.135 Y-16.135 E0.01742
G1 X-9.656 Y-16.503 E0.01742
G1 X-9.098 Y-16.734 E0.01742
G1 X-8.961 Y-16.752 E0.00401
G1 X-8.500 Y-16.812 E0.01341 F3000.000
G1 X-7.902 Y-16.734 E0.01742
G1 X-7.344 Y-16.503 E0.01742
G1 X-6.865 Y-16.135 E0.01742
G1 X-6.497 Y-15.656 E0.01742
G1 X-6.266 Y-15.098 E0.01742
G1 X-6.193 Y-14.540 E0.01626
G1 X-6.193 Y-10.460 E0.11775
G1 X-6.266 Y-9.902 E0.01626
G1 X-6.497 Y-9.344 E0.01742
G1 X-6.865 Y-8.865 E0.01742
G1 X-7.344 Y-8.497 E0.01742
G1 X-7.902 Y-8.266 E0.01742
G1 X-8.441 Y-8.196 E0.01569
G1 X-8.487 Y-8.550 F15000.000
G1 X-9.005 Y-8.614 E0.01507 F3000.000
G1 X-9.476 Y-8.809 E0.01471
G1 X-9.880 Y-9.120 E0.01471
G1 X-10.191 Y-9.524 E0.01471
G1 X-10.386 Y-9.995 E0.01471
G1 X-10.450 Y-10.484 E0.01423
G1 X-10.450 Y-14.516 E0.11640
G1 X-10.386 Y-15.005 E0.01423
G1 X-10.191 Y-15.476 E0.01471
G1 X-9.880 Y-15.880 E0.01471
G1 X-9.476 Y-16.191 E0.01471
G1 X-9.005 Y-16.386 E0.01471
G1 X-8.914 Y-16.398 E0.00266
G1 X-8.500 Y-16.452 E0.01205 F3000.000
G1 X-7.995 Y-16.386 E0.01471
G1 X-7.524 Y-16.191 E0.01471
G1 X-7.120 Y-15.880 E0.01471
G1 X-6.809 Y-15.476 E0.01471
G1 X-6.614 Y-15.005 E0.01471
G1 X-6.550 Y-14.516 E0.01423
G1 X-6.550 Y-10.484 E0.11640
G1 X-6.614 Y-9.995 E0.01423
G1 X-6.809 Y-9.524 E0.01471
G1 X-7.120 Y-9.120 E0.01471
G1 X-7.524 Y-8.809 E0.01471
G1 X-7.995 Y-8.614 E0.01471
G1 X-8.428 Y-8.557 E0.01260
G1 X-8.701 Y-8.211 F15000.000
G1 X11.893 Y2.292 F15000.000
G1 X11.893 Y17.893 E0.45030 F3600.000
G1 X-11.893 Y17.893 E0.68652
G1 X-11.893 Y-17.893 E1.03288
G1 X10.500 Y-17.893 E0.64632
G1 X11.893 Y-17.893 E0.04020 F3600.000
G1 X11.893 Y2.232 E0.58085
G1 X12.250 Y2.232 F15000.000
G1 X12.250 Y18.250 E0.46234 F3600.000
G1 X-12.250 Y18.250 E0.70714
G1 X-12.250 Y-18.250 E1.05349
G1 X10.500 Y-18.250 E0.65663
G1 X12.250 Y-18.250 E0.05051 F3600.000
G1 X12.250 Y2.172 E0.58942
G1 X11.904 Y2.432 F15000.000
G1 X11.494 Y17.685 F15000.000
G1 X11.685 Y17.494 E0.00785 F4800.000
G1 X11.685 Y16.986 E0.01472
G1 X10.986 Y17.685 E0.02867
G1 X10.479 Y17.685 E0.01472
G1 X11.685 Y16.479 E0.04948
G1 X11.685 Y15.971 E0.01472
G1 X9.971 Y17.685 E0.07030
G1 X9.464 Y17.685 E0.01472
G1 X11.685 Y15.464 E0.09111
G1 X11.685 Y14.956 E0.01472
G1 X8.956 Y17.685 E0.11193
G1 X8.449 Y17.685 E0.01472
G1 X11.685 Y14.449 E0.13274
G1 X11.685 Y13.941 E0.01472
G1 X7.941 Y17.685 E0.15356
G1 X7.434 Y17.685 E0.01472
G1 X11.685 Y13.434 E0.17437
G1 X11.685 Y12.927 E0.01472
G1 X6.927 Y17.685 E0.19519
G1 X6.419 Y17.685 E0.01472
G1 X11.685 Y12.419 E0.21600
G1 X11.685 Y11.912 E0.01472
G1 X5.912 Y17.685 E0.23682
G1 X5.404 Y17.685 E0.01472
G1 X11.685 Y11.404 E0.25763
G1 X11.685 Y10.897 E0.01472
G1 X4.897 Y17.685 E0.27845
G1 X4.389 Y17.685 E0.01472
G1 X11.685 Y10.389 E0.29926
G1 X11.685 Y9.882 E0.01472
G1 X3.882 Y17.685 E0.32008
G1 X3.374 Y17.685 E0.01472
G1 X11.685 Y9.374 E0.34089
G1 X11.685 Y8.867 E0.01472
G1 X2.867 Y17.685 E0.36171
G1 X2.359 Y17.685 E0.01472
G1 X11.685 Y8.359 E0.38252
G1 X11.685 Y7.852 E0.01472
G1 X1.852 Y17.685 E0.40334
G1 X1.344 Y17.685 E0.01472
G1 X11.685 Y7.344 E0.42415
G1 X11.685 Y6.837 E0.01472
G1 X0.837 Y17.685 E0.44497
G1 X0.330 Y17.685 E0.01472
G1 X11.685 Y6.330 E0.46578
G1 X11.685 Y5.822 E0.01472
G1 X-0.178 Y17.685 E0.48660
G1 X-0.685 Y17.685 E0.01472
G1 X11.685 Y5.315 E0.50741
G1 X11.685 Y4.807 E0.01472
G1 X-1.193 Y17.685 E0.52823
G1 X-1.700 Y17.685 E0.01472
G1 X11.685 Y4.300 E0.54904
G1 X11.685 Y3.792 E0.01472
G1 X-2.208 Y17.685 E0.56986
G1 X-2.715 Y17.685 E0.01472
G1 X11.685 Y3.285 E0.59067
G1 X11.685 Y2.777 E0.01472
G1 X-3.223 Y17.685 E0.61149
G1 X-3.730 Y17.685 E0.01472
G1 X11.685 Y2.270 E0.63230
G1 X11.685 Y1.762 E0.01472
G1 X-4.238 Y17.685 E0.65312
G1 X-4.745 Y17.685 E0.01472
G1 X11.685 Y1.255 E0.67393
G1 X11.685 Y0.748 E0.01472
G1 X-5.252 Y17.685 E0.69475
G1 X-5.760 Y17.685 E0.01472
G1 X11.685 Y0.240 E0.71556
G1 X11.685 Y-0.267 E0.01472
G1 X-6.267 Y17.685 E0.73638
G1 X-6.775 Y17.685 E0.01472
G1 X11.685 Y-0.775 E0.75719
G1 X11.685 Y-1.282 E0.01472
G1 X-7.282 Y17.685 E0.77800
G1 X-7.790 Y17.685 E0.01472
G1 X11.685 Y-1.790 E0.79882
G1 X11.685 Y-2.297 E0.01472
G1 X-6.212 Y15.599 E0.73408
G1 X-6.020 Y14.901 E0.02101
G1 X11.685 Y-2.805 E0.72624
G1 X11.685 Y-3.312 E0.01472
G1 X-5.985 Y14.358 E0.72480
G1 X-5.985 Y13.851 E0.01472
G1 X11.685 Y-3.820 E0.72480
G1 X11.685 Y-4.327 E0.01472
G1 X-5.985 Y13.343 E0.72480
G1 X-5.985 Y12.836 E0.01472
G1 X11.685 Y-4.835 E0.72480
G1 X11.685 Y-5.342 E0.01472
G1 X-5.985 Y12.328 E0.72480
G1 X-5.985 Y11.821 E0.01472
G1 X11.685 Y-5.849 E0.72480
G1 X11.685 Y-6.357 E0.01472
G1 X-5.985 Y11.313 E0.72480
G1 X-5.985 Y10.806 E0.01472
G1 X11.685 Y-6.864 E0.72480
G1 X11.685 Y-7.372 E0.01472
G1 X-6.011 Y10.324 E0.72584
G1 X-6.075 Y9.881 E0.01298
G1 X11.685 Y-7.879 E0.72849
G1 X11.685 Y-8.387 E0.01472
G1 X-6.224 Y9.522 E0.73459
G1 X-6.395 Y9.186 E0.01094
G1 X11.685 Y-8.894 E0.74161
G1 X11.685 Y-9.402 E0.01472
G1 X-6.615 Y8.899 E0.75065
G1 X-6.865 Y8.641 E0.01041
