; generated by Slic3r 1.2.9 on 2018-05-24 at 11:01:12

; external perimeters extrusion width = 0.40mm
; perimeters extrusion width = 0.40mm
; infill extrusion width = 0.40mm
; solid infill extrusion width = 0.40mm
; top infill extrusion width = 0.40mm

M107
M83
T0
M116
G21 ; set units to millimeters
G90 ; use absolute coordinates
M83 ; use relative distances for extrusion
G1 E-3.50000 F1500.00000
G1 Z0.400 F15000.000
G1 X-0.000 Y16.086 F15000.000
G1 Z0.300 F15000.000
G1 E3.50000 F1500.00000
G1 X-25.997 Y16.086 E2.00345 F960.000
G1 X-26.471 Y16.055 E0.03665
G1 X-27.497 Y15.920 E0.07971
G1 X-28.414 Y15.674 E0.07314
G1 X-29.366 Y15.279 E0.07946
G1 X-30.188 Y14.805 E0.07314
G1 X-31.006 Y14.177 E0.07946
G1 X-31.677 Y13.506 E0.07314
G1 X-32.305 Y12.688 E0.07946
G1 X-32.779 Y11.866 E0.07314
G1 X-33.174 Y10.914 E0.07946
G1 X-33.420 Y9.997 E0.07314
G1 X-33.555 Y8.971 E0.07971
G1 X-33.586 Y8.497 E0.03665
G1 X-33.586 Y-8.497 E1.30961
G1 X-33.555 Y-8.971 E0.03665
G1 X-33.420 Y-9.997 E0.07971
G1 X-33.174 Y-10.914 E0.07314
G1 X-32.779 Y-11.866 E0.07946
G1 X-32.305 Y-12.688 E0.07314
G1 X-31.677 Y-13.506 E0.07946
G1 X-31.006 Y-14.177 E0.07314
G1 X-30.188 Y-14.805 E0.07946
G1 X-29.366 Y-15.279 E0.07314
G1 X-28.414 Y-15.674 E0.07946
G1 X-27.497 Y-15.920 E0.07314
G1 X-26.471 Y-16.055 E0.07971
G1 X-25.997 Y-16.086 E0.03665
G1 X25.997 Y-16.086 E4.00690
G1 X26.471 Y-16.055 E0.03665
G1 X27.497 Y-15.920 E0.07971 F960.000
G1 X28.414 Y-15.674 E0.07314
G1 X29.366 Y-15.279 E0.07946
G1 X30.188 Y-14.805 E0.07314
G1 X31.006 Y-14.177 E0.07946
G1 X31.677 Y-13.506 E0.07314
G1 X32.305 Y-12.688 E0.07946
G1 X32.779 Y-11.866 E0.07314
G1 X33.174 Y-10.914 E0.07946
G1 X33.420 Y-9.997 E0.07314
G1 X33.555 Y-8.971 E0.07971
G1 X33.586 Y-8.497 E0.03665
G1 X33.586 Y8.497 E1.30961
G1 X33.555 Y8.971 E0.03665
G1 X33.420 Y9.997 E0.07971
G1 X33.174 Y10.914 E0.07314
G1 X32.779 Y11.866 E0.07946
G1 X32.305 Y12.688 E0.07314
G1 X31.677 Y13.506 E0.07946
G1 X31.006 Y14.177 E0.07314
G1 X30.188 Y14.805 E0.07946
G1 X29.366 Y15.279 E0.07314
G1 X28.414 Y15.674 E0.07946
G1 X27.497 Y15.920 E0.07314
G1 X26.471 Y16.055 E0.07971
G1 X25.997 Y16.086 E0.03665
G1 X0.060 Y16.086 E1.99883
G1 E-3.50000 F1500.00000
G1 Z0.700 F15000.000
G1 X0.060 Y-6.400 F15000.000
G1 Z0.300 F15000.000
G1 E3.50000 F1500.00000
G1 X-0.544 Y-6.468 E0.04688 F600.000
G1 X-1.052 Y-6.678 E0.04232
G1 X-1.487 Y-7.013 E0.04232
G1 X-1.822 Y-7.448 E0.04232
G1 X-2.032 Y-7.956 E0.04232
G1 X-2.099 Y-8.469 E0.03989
G1 X-2.033 Y-9.042 E0.04446
G1 X-1.822 Y-9.552 E0.04253
G1 X-1.487 Y-9.987 E0.04232
G1 X-1.052 Y-10.322 E0.04232
G1 X-0.544 Y-10.532 E0.04232
G1 X-0.026 Y-10.600 E0.04028
G1 X4.026 Y-10.600 E0.31230 F600.000
G1 X4.544 Y-10.532 E0.04028
G1 X5.052 Y-10.322 E0.04232
G1 X5.487 Y-9.987 E0.04232
G1 X5.822 Y-9.552 E0.04232
G1 X6.032 Y-9.044 E0.04232
G1 X6.103 Y-8.500 E0.04232
G1 X6.032 Y-7.956 E0.04232
G1 X5.822 Y-7.448 E0.04232
G1 X5.487 Y-7.013 E0.04232
G1 X5.052 Y-6.678 E0.04232
G1 X4.544 Y-6.468 E0.04232
G1 X4.026 Y-6.400 E0.04028
G1 X0.120 Y-6.400 E0.30103
G1 X-0.165 Y-6.070 F15000.000
G1 X-18.897 Y-8.500 F15000.000
G1 X-18.968 Y-7.956 E0.04232 F600.000
G1 X-19.178 Y-7.448 E0.04232
G1 X-19.513 Y-7.013 E0.04232
G1 X-19.948 Y-6.678 E0.04232
G1 X-20.456 Y-6.468 E0.04232
G1 X-20.974 Y-6.400 E0.04028
G1 X-25.026 Y-6.400 E0.31230
G1 X-25.544 Y-6.468 E0.04028
G1 X-26.052 Y-6.678 E0.04232
G1 X-26.487 Y-7.013 E0.04232
G1 X-26.822 Y-7.448 E0.04232
G1 X-27.032 Y-7.956 E0.04232
G1 X-27.099 Y-8.469 E0.03989
G1 X-27.033 Y-9.042 E0.04446
G1 X-26.822 Y-9.552 E0.04253
G1 X-26.487 Y-9.987 E0.04232
G1 X-26.052 Y-10.322 E0.04232
G1 X-25.544 Y-10.532 E0.04232
G1 X-25.026 Y-10.600 E0.04028
G1 X-20.974 Y-10.600 E0.31230 F600.000
G1 X-20.456 Y-10.532 E0.04028
G1 X-19.948 Y-10.322 E0.04232
G1 X-19.513 Y-9.987 E0.04232
G1 X-19.178 Y-9.552 E0.04232
G1 X-18.968 Y-9.044 E0.04232
G1 X-18.904 Y-8.559 E0.03769
G1 X-18.559 Y-8.285 F15000.000
G1 X-20.244 Y-11.464 F15000.000
G1 X-0.756 Y-11.464 E1.50185 F720.000
G1 X-0.695 Y-11.157 E0.02412
G1 X-1.372 Y-10.877 E0.05650
G1 X-1.941 Y-10.441 E0.05522
G1 X-2.377 Y-9.872 E0.05522
G1 X-2.654 Y-9.203 E0.05581
G1 X-2.740 Y-8.464 E0.05736
G1 X-2.651 Y-7.790 E0.05241
G1 X-2.377 Y-7.128 E0.05521
G1 X-1.941 Y-6.559 E0.05522
G1 X-1.372 Y-6.123 E0.05522
G1 X-0.710 Y-5.849 E0.05522
G1 X-0.068 Y-5.764 E0.04994
G1 X4.068 Y-5.764 E0.31872
G1 X4.710 Y-5.849 E0.04994
G1 X5.372 Y-6.123 E0.05522
G1 X5.941 Y-6.559 E0.05522
G1 X6.377 Y-7.128 E0.05521
G1 X6.651 Y-7.790 E0.05522
G1 X6.745 Y-8.500 E0.05522
G1 X6.651 Y-9.210 E0.05522
G1 X6.377 Y-9.872 E0.05522
G1 X5.941 Y-10.441 E0.05522
G1 X5.372 Y-10.877 E0.05522
G1 X4.695 Y-11.157 E0.05650
G1 X4.756 Y-11.464 E0.02412
G1 X25.932 Y-11.464 E1.63195
G1 X26.765 Y-11.355 E0.06473
G1 X27.478 Y-11.059 E0.05946
G1 X28.090 Y-10.590 E0.05946
G1 X28.559 Y-9.978 E0.05946
G1 X28.855 Y-9.265 E0.05946
G1 X28.964 Y-8.432 E0.06473
G1 X28.964 Y8.432 E1.29965
G1 X28.855 Y9.265 E0.06473
G1 X28.559 Y9.978 E0.05946
G1 X28.090 Y10.590 E0.05946
G1 X27.478 Y11.059 E0.05946
G1 X26.765 Y11.355 E0.05946
G1 X25.932 Y11.464 E0.06473
G1 X-25.932 Y11.464 E3.99694
G1 X-26.765 Y11.355 E0.06473
G1 X-27.478 Y11.059 E0.05946
G1 X-28.090 Y10.590 E0.05946
G1 X-28.559 Y9.978 E0.05946
G1 X-28.855 Y9.265 E0.05946
G1 X-28.964 Y8.432 E0.06473
G1 X-28.964 Y-8.432 E1.29965
G1 X-28.855 Y-9.265 E0.06473
G1 X-28.559 Y-9.978 E0.05946
G1 X-28.090 Y-10.590 E0.05946
G1 X-27.478 Y-11.059 E0.05946
G1 X-26.765 Y-11.355 E0.05946
G1 X-25.932 Y-11.464 E0.06473
G1 X-25.756 Y-11.464 E0.01357
G1 X-25.695 Y-11.157 E0.02412
G1 X-26.372 Y-10.877 E0.05650 F720.000
G1 X-26.941 Y-10.441 E0.05522
G1 X-27.377 Y-9.872 E0.05522
G1 X-27.654 Y-9.203 E0.05581
G1 X-27.740 Y-8.464 E0.05736
G1 X-27.651 Y-7.790 E0.05240
G1 X-27.377 Y-7.128 E0.05522
G1 X-26.941 Y-6.559 E0.05522
G1 X-26.372 Y-6.123 E0.05521
G1 X-25.710 Y-5.849 E0.05522
G1 X-25.068 Y-5.764 E0.04994
G1 X-20.932 Y-5.764 E0.31872
G1 X-20.290 Y-5.849 E0.04994
G1 X-19.628 Y-6.123 E0.05522
G1 X-19.059 Y-6.559 E0.05522
G1 X-18.623 Y-7.128 E0.05522
G1 X-18.349 Y-7.790 E0.05521
G1 X-18.255 Y-8.500 E0.05522
G1 X-18.349 Y-9.210 E0.05522
G1 X-18.623 Y-9.872 E0.05522
G1 X-19.059 Y-10.441 E0.05522
G1 X-19.628 Y-10.877 E0.05522
G1 X-20.305 Y-11.157 E0.05650
G1 X-20.256 Y-11.406 E0.01950
G1 X-20.256 Y-12.100 F15000.000
G1 X25.974 Y-12.100 E3.56270 F720.000
G1 X26.931 Y-11.974 E0.07439
G1 X27.798 Y-11.615 E0.07236 F720.000
G1 X28.543 Y-11.043 E0.07236
G1 X29.115 Y-10.298 E0.07236
G1 X29.474 Y-9.431 E0.07236
G1 X29.600 Y-8.474 E0.07439
G1 X29.600 Y8.474 E1.30607
G1 X29.474 Y9.431 E0.07439
G1 X29.115 Y10.298 E0.07236
G1 X28.543 Y11.043 E0.07236
G1 X27.798 Y11.615 E0.07236
G1 X26.931 Y11.974 E0.07236
G1 X25.974 Y12.100 E0.07439
G1 X-25.974 Y12.100 E4.00336
G1 X-26.931 Y11.974 E0.07439
G1 X-27.798 Y11.615 E0.07236
G1 X-28.543 Y11.043 E0.07236
G1 X-29.115 Y10.298 E0.07236
G1 X-29.474 Y9.431 E0.07236
G1 X-29.600 Y8.474 E0.07439
G1 X-29.600 Y-8.474 E1.30607
G1 X-29.474 Y-9.431 E0.07439
G1 X-29.115 Y-10.298 E0.07236
G1 X-28.543 Y-11.043 E0.07236
G1 X-27.798 Y-11.615 E0.07236
G1 X-26.931 Y-11.974 E0.07236
G1 X-25.974 Y-12.100 E0.07439
G1 X-20.316 Y-12.100 E0.43604
G1 X-20.056 Y-11.754 F15000.000
G1 X-20.591 Y-11.350 F15000.000
G1 X-25.409 Y-11.350 E0.78028 F960.000
G1 X-26.788 Y-10.981 F15000.000
G1 X-27.268 Y-10.697 E0.04302 F960.000
G1 X-27.826 Y-10.139 E0.06079
G1 X-27.812 Y-10.130 F15000.000
G1 X-28.065 Y-9.692 E0.08199 F960.000
G1 X-28.194 Y-9.379 E0.05486
G1 X-28.270 Y-9.108 E0.04553
G1 X-28.350 Y-8.423 E0.11168
G1 X-28.278 Y-7.297 E0.18277
G1 X-27.947 Y9.962 F15000.000
G1 X-27.462 Y10.447 E0.05318 F960.000
G1 X-25.952 Y11.054 F15000.000
G1 X-28.554 Y8.452 E0.28471 F960.000
G1 X-28.579 Y7.525 E0.07180
G1 X-25.025 Y11.079 E0.38894
G1 X-24.122 Y11.079 E0.06984
G1 X-28.579 Y6.622 E0.48771
G1 X-28.579 Y5.720 E0.06984
G1 X-23.220 Y11.079 E0.58649
G1 X-22.317 Y11.079 E0.06984
G1 X-28.579 Y4.817 E0.68527
G1 X-28.579 Y3.915 E0.06984
G1 X-21.415 Y11.079 E0.78404
G1 X-20.512 Y11.079 E0.06984
G1 X-28.579 Y3.012 E0.88282
G1 X-28.579 Y2.109 E0.06984
G1 X-19.609 Y11.079 E0.98159
G1 X-18.707 Y11.079 E0.06984
G1 X-28.579 Y1.207 E1.08037
G1 X-28.579 Y0.304 E0.06984
G1 X-17.804 Y11.079 E1.17914
G1 X-16.902 Y11.079 E0.06984
G1 X-28.579 Y-0.598 E1.27792
G1 X-28.579 Y-1.501 E0.06984
G1 X-15.999 Y11.079 E1.37669
G1 X-15.096 Y11.079 E0.06984
G1 X-28.579 Y-2.404 E1.47547
G1 X-28.579 Y-3.306 E0.06984
G1 X-14.194 Y11.079 E1.57425
G1 X-13.291 Y11.079 E0.06984
G1 X-28.579 Y-4.209 E1.67302
G1 X-28.579 Y-5.111 E0.06984
G1 X-12.389 Y11.079 E1.77180
G1 X-11.486 Y11.079 E0.06984
G1 X-28.579 Y-6.014 E1.87057
G1 X-28.551 Y-6.889 E0.06771
G1 X-10.583 Y11.079 E1.96629
G1 X-9.681 Y11.079 E0.06984
G1 X-26.417 Y-5.658 E1.83158
G1 X-25.236 Y-5.379 E0.09393
G1 X-8.778 Y11.079 E1.80107
G1 X-7.876 Y11.079 E0.06984
G1 X-24.334 Y-5.379 E1.80107
G1 X-23.431 Y-5.379 E0.06984
G1 X-6.973 Y11.079 E1.80107
G1 X-6.070 Y11.079 E0.06984
G1 X-22.528 Y-5.379 E1.80107
G1 X-21.626 Y-5.379 E0.06984
G1 X-5.168 Y11.079 E1.80107
G1 X-4.265 Y11.079 E0.06984
G1 X-20.759 Y-5.415 E1.80502
G1 X-20.027 Y-5.585 E0.05818
G1 X-3.363 Y11.079 E1.82366
G1 X-2.460 Y11.079 E0.06984
G1 X-19.411 Y-5.872 E1.85503
G1 X-18.900 Y-6.264 E0.04981
G1 X-1.557 Y11.079 E1.89791
G1 X-0.655 Y11.079 E0.06984
G1 X-18.490 Y-6.757 E1.95184
G1 X-18.165 Y-7.334 E0.05128
G1 X0.248 Y11.079 E2.01503
G1 X1.150 Y11.079 E0.06984
G1 X-17.947 Y-8.018 E2.08989
G1 X-17.897 Y-8.871 E0.06608
G1 X2.053 Y11.079 E2.18318
G1 X2.956 Y11.079 E0.06984
G1 X-18.240 Y-10.117 E2.31958
G1 X-18.300 Y-11.079 E0.07458
G1 X3.858 Y11.079 E2.42485
G1 X4.761 Y11.079 E0.06984
G1 X-17.397 Y-11.079 E2.42485
G1 X-16.495 Y-11.079 E0.06984
G1 X5.663 Y11.079 E2.42485
G1 X6.566 Y11.079 E0.06984
G1 X-15.592 Y-11.079 E2.42485
G1 X-14.689 Y-11.079 E0.06984
G1 X7.469 Y11.079 E2.42485
G1 X8.371 Y11.079 E0.06984
G1 X-13.787 Y-11.079 E2.42485
G1 X-12.884 Y-11.079 E0.06984
G1 X9.274 Y11.079 E2.42485
G1 X10.176 Y11.079 E0.06984
G1 X-11.982 Y-11.079 E2.42485
G1 X-11.079 Y-11.079 E0.06984
G1 X11.079 Y11.079 E2.42485
G1 X11.982 Y11.079 E0.06984
G1 X-10.176 Y-11.079 E2.42485
G1 X-9.274 Y-11.079 E0.06984
G1 X12.884 Y11.079 E2.42485
G1 X13.787 Y11.079 E0.06984
G1 X-8.371 Y-11.079 E2.42485
G1 X-7.469 Y-11.079 E0.06984
G1 X14.689 Y11.079 E2.42485
G1 X15.592 Y11.079 E0.06984
G1 X-0.961 Y-5.474 E1.81151
G1 X0.037 Y-5.379 E0.07758
G1 X16.495 Y11.079 E1.80107
G1 X17.397 Y11.079 E0.06984
G1 X0.939 Y-5.379 E1.80107
G1 X1.842 Y-5.379 E0.06984
G1 X18.300 Y11.079 E1.80107
G1 X19.202 Y11.079 E0.06984
G1 X2.744 Y-5.379 E1.80107
G1 X3.647 Y-5.379 E0.06984
G1 X20.105 Y11.079 E1.80107
G1 X21.007 Y11.079 E0.06984
G1 X4.482 Y-5.447 E1.80849
G1 X5.166 Y-5.665 E0.05557
G1 X21.910 Y11.079 E1.83240
G1 X22.813 Y11.079 E0.06984
G1 X5.743 Y-5.990 E1.86798
G1 X6.236 Y-6.400 E0.04960
G1 X23.715 Y11.079 E1.91283
G1 X24.618 Y11.079 E0.06984
G1 X6.628 Y-6.911 E1.96872
G1 X6.915 Y-7.527 E0.05257
G1 X25.520 Y11.079 E2.03613
G1 X26.378 Y11.034 E0.06642
G1 X7.085 Y-8.259 E2.11129
G1 X7.062 Y-9.185 E0.07164
G1 X27.093 Y10.846 E2.19209
G1 X27.655 Y10.506 E0.05085
G1 X6.070 Y-11.079 E2.36213
G1 X6.973 Y-11.079 E0.06984
G1 X28.093 Y10.041 E2.31130
G1 X28.405 Y9.451 E0.05168
G1 X7.876 Y-11.079 E2.24668
G1 X8.778 Y-11.079 E0.06984
G1 X28.557 Y8.700 E2.16450
G1 X28.579 Y7.819 E0.06816
G1 X9.681 Y-11.079 E2.06813
G1 X10.583 Y-11.079 E0.06984
G1 X28.579 Y6.917 E1.96935
G1 X28.579 Y6.014 E0.06984
G1 X11.486 Y-11.079 E1.87058
G1 X12.389 Y-11.079 E0.06984
G1 X28.579 Y5.111 E1.77180
G1 X28.579 Y4.209 E0.06984
G1 X13.291 Y-11.079 E1.67303
G1 X14.194 Y-11.079 E0.06984
G1 X28.579 Y3.306 E1.57425
G1 X28.579 Y2.404 E0.06984
G1 X15.096 Y-11.079 E1.47548
G1 X15.999 Y-11.079 E0.06985
G1 X28.579 Y1.501 E1.37670
G1 X28.579 Y0.599 E0.06984
G1 X16.901 Y-11.079 E1.27792
G1 X17.804 Y-11.079 E0.06984
G1 X28.579 Y-0.304 E1.17915
G1 X28.579 Y-1.207 E0.06984
G1 X18.707 Y-11.079 E1.08037
G1 X19.609 Y-11.079 E0.06984
G1 X28.579 Y-2.109 E0.98160
G1 X28.579 Y-3.012 E0.06984
G1 X20.512 Y-11.079 E0.88282
G1 X21.414 Y-11.079 E0.06984
G1 X28.579 Y-3.914 E0.78405
G1 X28.579 Y-4.817 E0.06984
G1 X22.317 Y-11.079 E0.68527
G1 X23.220 Y-11.079 E0.06984
G1 X28.579 Y-5.720 E0.58650
G1 X28.579 Y-6.622 E0.06984
G1 X24.122 Y-11.079 E0.48772
G1 X25.025 Y-11.079 E0.06984
G1 X28.579 Y-7.525 E0.38894
G1 X28.554 Y-8.452 E0.07180
G1 X25.952 Y-11.054 E0.28472
G1 X27.461 Y-10.448 F15000.000
G1 X27.948 Y-9.961 E0.05323 F960.000
G1 X-2.340 Y-10.464 F15000.000
G1 X-2.956 Y-11.079 E0.06732 F960.000
G1 X-3.858 Y-11.079 E0.06984
G1 X-2.721 Y-9.941 E0.12449
G1 X-2.985 Y-9.303 E0.05346
G1 X-4.761 Y-11.079 E0.19433
G1 X-5.663 Y-11.079 E0.06984
G1 X-3.106 Y-8.522 E0.27983
G1 X-3.026 Y-7.539 E0.07634
G1 X-6.566 Y-11.079 E0.38744
G1 X-0.409 Y-11.350 F15000.000
G1 X4.409 Y-11.350 E0.78028 F960.000
G1 E-3.50000 F1500.00000
G1 Z0.700 F15000.000
G1 X4.333 Y-10.769 F15000.000
G1 Z0.500 F15000.000
G1 E3.50000 F1500.00000
G1 X4.598 Y-10.734 E0.00774 F3000.000
G1 X5.156 Y-10.503 E0.01742
G1 X5.635 Y-10.135 E0.01742
G1 X6.003 Y-9.656 E0.01742
G1 X6.234 Y-9.098 E0.01742
G1 X6.312 Y-8.500 E0.01742
G1 X6.234 Y-7.902 E0.01742
G1 X6.003 Y-7.344 E0.01742
G1 X5.635 Y-6.865 E0.01742
G1 X5.156 Y-6.497 E0.01742
G1 X4.598 Y-6.266 E0.01742
G1 X4.040 Y-6.193 E0.01626
G1 X-0.040 Y-6.193 E0.11775
G1 X-0.598 Y-6.266 E0.01626
G1 X-1.156 Y-6.497 E0.01742
G1 X-1.635 Y-6.865 E0.01742
G1 X-2.003 Y-7.344 E0.01742
G1 X-2.234 Y-7.902 E0.01742
G1 X-2.312 Y-8.500 E0.01742
G1 X-2.234 Y-9.098 E0.01742
G1 X-2.003 Y-9.656 E0.01742
G1 X-1.635 Y-10.135 E0.01742
G1 X-1.156 Y-10.503 E0.01742
G1 X-0.598 Y-10.734 E0.01742
G1 X-0.040 Y-10.807 E0.01626
G1 X4.040 Y-10.807 E0.11775 F3000.000
G1 X4.273 Y-10.776 E0.00679
G1 X4.227 Y-10.422 F15000.000
G1 X4.505 Y-10.386 E0.00811 F3000.000
G1 X4.976 Y-10.191 E0.01471
G1 X5.380 Y-9.880 E0.01471
G1 X5.691 Y-9.476 E0.01471
G1 X5.886 Y-9.005 E0.01471
G1 X5.952 Y-8.500 E0.01471
G1 X5.886 Y-7.995 E0.01471
G1 X5.691 Y-7.524 E0.01471
G1 X5.380 Y-7.120 E0.01471
G1 X4.976 Y-6.809 E0.01471
G1 X4.505 Y-6.614 E0.01471
G1 X4.016 Y-6.550 E0.01423
G1 X-0.016 Y-6.550 E0.11640
G1 X-0.505 Y-6.614 E0.01423
G1 X-0.976 Y-6.809 E0.01471
G1 X-1.380 Y-7.120 E0.01471
G1 X-1.691 Y-7.524 E0.01471
G1 X-1.886 Y-7.995 E0.01471
G1 X-1.952 Y-8.500 E0.01471
G1 X-1.886 Y-9.005 E0.01471
G1 X-1.691 Y-9.476 E0.01471
G1 X-1.380 Y-9.880 E0.01471
G1 X-0.976 Y-10.191 E0.01471
G1 X-0.505 Y-10.386 E0.01471
G1 X-0.016 Y-10.450 E0.01423
G1 X4.016 Y-10.450 E0.11640 F3000.000
G1 X4.167 Y-10.430 E0.00439
G1 X4.398 Y-10.645 F15000.000
G1 E-3.50000 F1500.00000
G1 Z0.900 F15000.000
G1 X-18.688 Y-8.500 F15000.000
G1 Z0.500 F15000.000
G1 E3.50000 F1500.00000
G1 X-18.766 Y-7.902 E0.01742 F3000.000
G1 X-18.997 Y-7.344 E0.01742
G1 X-19.365 Y-6.865 E0.01742
G1 X-19.844 Y-6.497 E0.01742
G1 X-20.402 Y-6.266 E0.01742
G1 X-20.960 Y-6.193 E0.01626
G1 X-25.040 Y-6.193 E0.11775
G1 X-25.598 Y-6.266 E0.01626
G1 X-26.156 Y-6.497 E0.01742
G1 X-26.635 Y-6.865 E0.01742
G1 X-27.003 Y-7.344 E0.01742
G1 X-27.234 Y-7.902 E0.01742
G1 X-27.312 Y-8.500 E0.01742
G1 X-27.234 Y-9.098 E0.01742
G1 X-27.003 Y-9.656 E0.01742
G1 X-26.635 Y-10.135 E0.01742
G1 X-26.156 Y-10.503 E0.01742
G1 X-25.598 Y-10.734 E0.01742
G1 X-25.040 Y-10.807 E0.01626
G1 X-20.960 Y-10.807 E0.11775 F3000.000
G1 X-20.402 Y-10.734 E0.01626
G1 X-19.844 Y-10.503 E0.01742
G1 X-19.365 Y-10.135 E0.01742
G1 X-18.997 Y-9.656 E0.01742
G1 X-18.766 Y-9.098 E0.01742
G1 X-18.696 Y-8.559 E0.01569
G1 X-19.050 Y-8.513 F15000.000
G1 X-19.114 Y-7.995 E0.01507 F3000.000
G1 X-19.309 Y-7.524 E0.01471
G1 X-19.620 Y-7.120 E0.01471
G1 X-20.024 Y-6.809 E0.01471
G1 X-20.495 Y-6.614 E0.01471
G1 X-20.984 Y-6.550 E0.01423
G1 X-25.016 Y-6.550 E0.11640
G1 X-25.505 Y-6.614 E0.01423
G1 X-25.976 Y-6.809 E0.01471
G1 X-26.380 Y-7.120 E0.01471
G1 X-26.691 Y-7.524 E0.01471
G1 X-26.886 Y-7.995 E0.01471
G1 X-26.952 Y-8.500 E0.01471
G1 X-26.886 Y-9.005 E0.01471
G1 X-26.691 Y-9.476 E0.01471
G1 X-26.380 Y-9.880 E0.01471
G1 X-25.976 Y-10.191 E0.01471
G1 X-25.505 Y-10.386 E0.01471
G1 X-25.016 Y-10.450 E0.01423
G1 X-20.984 Y-10.450 E0.11640 F3000.000
G1 X-20.495 Y-10.386 E0.01423
