; generated by Slic3r 1.2.9 on 2018-05-25 at 12:53:06

; external perimeters extrusion width = 0.40mm
; perimeters extrusion width = 0.40mm
; infill extrusion width = 0.40mm
; solid infill extrusion width = 0.40mm
; top infill extrusion width = 0.40mm

M107
M83
T0
M116
G21 ; set units to millimeters
G90 ; use absolute coordinates
M83 ; use relative distances for extrusion
G1 E-3.50000 F1500.00000
G1 Z0.400 F15000.000
G1 X39.036 Y-22.537 F15000.000
G1 Z0.300 F15000.000
G1 E3.50000 F1500.00000
G1 X59.685 Y13.228 E3.18271 F960.000
G1 X60.167 Y14.852 E0.13052
G1 X59.685 Y16.864 E0.15944
G1 X40.099 Y50.789 E3.01894
G1 X38.933 Y52.018 E0.13052
G1 X36.950 Y52.607 E0.15944
G1 X-36.950 Y52.607 E5.69514
G1 X-38.597 Y52.213 E0.13052
G1 X-40.099 Y50.789 E0.15944
G1 X-59.685 Y16.864 E3.01894
G1 X-60.167 Y15.240 E0.13052
G1 X-59.685 Y13.228 E0.15944
G1 X-22.735 Y-50.771 E5.69514
G1 X-21.570 Y-52.000 E0.13052
G1 X-19.587 Y-52.589 E0.15944
G1 X19.587 Y-52.589 E3.01894
G1 X21.234 Y-52.194 E0.13052 F960.000
G1 X22.735 Y-50.771 E0.15944
G1 X39.006 Y-22.589 E2.50781
G1 E-3.50000 F1500.00000
G1 Z0.700 F15000.000
G1 X-35.964 Y39.858 F15000.000
G1 Z0.300 F15000.000
G1 E3.50000 F1500.00000
G1 X-35.964 Y33.450 E0.49383 F720.000
G1 X-32.571 Y30.057 E0.36983
G1 X-29.336 Y30.057 E0.24934
G1 X-29.336 Y31.986 E0.14864
G1 X-32.036 Y31.986 E0.20808 F720.000
G1 X-32.036 Y47.986 E1.23305
G1 X-35.964 Y47.986 E0.30277
G1 X-35.964 Y39.918 E0.62173
G1 X-36.600 Y39.918 F15000.000
G1 X-36.600 Y33.187 E0.51874 F720.000
G1 X-32.834 Y29.421 E0.41041
G1 X-28.700 Y29.421 E0.31861
G1 X-28.700 Y32.621 E0.24661
G1 X-31.400 Y32.621 E0.20808 F720.000
G1 X-31.400 Y48.621 E1.23305
G1 X-36.600 Y48.621 E0.40074
G1 X-36.600 Y39.978 E0.66609
G1 X-36.254 Y39.718 F15000.000
G1 E-3.50000 F1500.00000
G1 Z0.700 F15000.000
G1 X-50.889 Y12.632 F15000.000
G1 Z0.300 F15000.000
G1 E3.50000 F1500.00000
G1 X-39.370 Y19.283 E1.02511 F720.000
G1 X-38.020 Y16.945 E0.20808 F720.000
G1 X-36.349 Y17.909 E0.14864
G1 X-37.967 Y20.711 E0.24934
G1 X-42.602 Y21.953 E0.36983
G1 X-55.190 Y14.685 E1.12018
G1 X-53.226 Y11.283 E0.30277
G1 X-50.941 Y12.602 E0.20332
G1 X-50.623 Y12.052 F15000.000
G1 X-39.602 Y18.415 E0.98075 F720.000
G1 X-38.252 Y16.076 E0.20808 F720.000
G1 X-35.481 Y17.676 E0.24661
G1 X-37.548 Y21.257 E0.31861
G1 X-42.692 Y22.635 E0.41041
G1 X-56.059 Y14.918 E1.18945
G1 X-53.459 Y10.415 E0.40074
G1 X-50.675 Y12.022 E0.24768
G1 X-50.623 Y12.452 F15000.000
G1 E-3.50000 F1500.00000
G1 Z0.700 F15000.000
G1 X-20.712 Y3.060 F15000.000
G1 Z0.300 F15000.000
G1 E3.50000 F1500.00000
G1 X-12.503 Y-11.159 E1.26529 F720.000
G1 X-11.910 Y-12.186 E0.09139 F720.000
G1 X-9.574 Y-10.837 E0.20789
G1 X-8.399 Y-10.052 E0.10891
G1 X-7.311 Y-9.097 E0.11154
G1 X-6.515 Y-8.188 E0.09314
G1 X-5.143 Y-10.564 E0.21145
G1 X-0.657 Y-10.564 E0.34577
G1 X1.721 Y-6.446 E0.36643
G1 X2.839 Y-6.862 E0.09194
G1 X3.256 Y-7.050 E0.03521
G1 X3.675 Y-7.274 E0.03666
G1 X12.049 Y-12.109 E0.74516
G1 X20.861 Y3.154 E1.35816
G1 X17.663 Y4.854 E0.27913
G1 X16.488 Y5.391 E0.09955
G1 X15.228 Y5.793 E0.10195
G1 X14.642 Y5.905 E0.04596
G1 X16.037 Y8.321 E0.21501
G1 X13.793 Y12.207 E0.34577
G1 X9.536 Y12.207 E0.32813
G1 X9.536 Y22.669 E0.80625
G1 X7.125 Y22.389 E0.18699
G1 X5.837 Y22.079 E0.10216
G1 X4.594 Y21.617 E0.10216
G1 X3.419 Y21.011 E0.10186
G1 X2.324 Y20.267 E0.10204
G1 X1.355 Y19.424 E0.09897
G1 X-1.073 Y17.119 E0.25802
G1 X-3.547 Y14.923 E0.25496
G1 X-6.094 Y12.811 E0.25496
G1 X-8.709 Y10.784 E0.25496
G1 X-11.391 Y8.847 E0.25496
G1 X-14.136 Y7.000 E0.25496
G1 X-16.941 Y5.246 E0.25496
G1 X-20.660 Y3.090 E0.33134
G1 X-19.845 Y2.828 F15000.000
G1 X-11.953 Y-10.841 E1.21639 F720.000
G1 X-11.678 Y-11.318 E0.04241 F720.000
G1 X-9.910 Y-10.297 E0.15729
G1 X-8.787 Y-9.547 E0.10409
G1 X-7.762 Y-8.647 E0.10510
G1 X-6.872 Y-7.631 E0.10409
G1 X-6.434 Y-7.058 E0.05561
G1 X-4.776 Y-9.929 E0.25544
G1 X-1.024 Y-9.929 E0.28921
G1 X0.853 Y-6.679 E0.28921
G1 X-0.053 Y-5.110 E0.13957
G1 X3.081 Y-6.273 E0.25761
G1 X3.537 Y-6.479 E0.03853
G1 X3.984 Y-6.718 E0.03908
G1 X11.816 Y-11.240 E0.69698
G1 X19.981 Y2.902 E1.25845
G1 X17.381 Y4.284 E0.22693
G1 X16.258 Y4.797 E0.09514
G1 X15.071 Y5.176 E0.09607
G1 X13.644 Y5.449 E0.11192
G1 X15.303 Y8.321 E0.25563
G1 X13.426 Y11.571 E0.28921
G1 X9.674 Y11.571 E0.28921
G1 X9.183 Y10.721 E0.07567
G1 X8.900 Y10.797 E0.02255
G1 X8.900 Y21.955 E0.85992
G1 X7.237 Y21.762 E0.12903
G1 X6.022 Y21.470 E0.09627
G1 X4.852 Y21.034 E0.09627
G1 X3.745 Y20.463 E0.09598
G1 X2.712 Y19.763 E0.09616
G1 X1.782 Y18.954 E0.09497
G1 X-0.643 Y16.651 E0.25778
G1 X-3.133 Y14.440 E0.25660
G1 X-5.696 Y12.315 E0.25660
G1 X-8.328 Y10.275 E0.25660
G1 X-11.027 Y8.325 E0.25660
G1 X-13.790 Y6.467 E0.25660
G1 X-16.613 Y4.701 E0.25660
G1 X-19.793 Y2.858 E0.28326
G1 X-20.191 Y2.628 F15000.000
G1 E-3.50000 F1500.00000
G1 Z0.700 F15000.000
G1 X-1.878 Y-15.978 F15000.000
G1 Z0.300 F15000.000
G1 E3.50000 F1500.00000
G1 X-2.317 Y-16.508 E0.05300 F600.000
G1 X-2.610 Y-17.131 E0.05300
G1 X-2.738 Y-17.806 E0.05300
G1 X-2.695 Y-18.493 E0.05300
G1 X-2.483 Y-19.147 E0.05301
G1 X-2.114 Y-19.728 E0.05301
G1 X-1.613 Y-20.198 E0.05301
G1 X-1.010 Y-20.530 E0.05300
G1 X-0.344 Y-20.701 E0.05301
G1 X0.344 Y-20.701 E0.05300 F600.000
G1 X1.010 Y-20.530 E0.05301
G1 X1.613 Y-20.198 E0.05300
G1 X2.114 Y-19.728 E0.05301
G1 X2.483 Y-19.147 E0.05301
G1 X2.695 Y-18.493 E0.05300
G1 X2.738 Y-17.806 E0.05300
G1 X2.610 Y-17.131 E0.05300
G1 X2.317 Y-16.508 E0.05300
G1 X1.878 Y-15.978 E0.05300
G1 X1.322 Y-15.574 E0.05301
G1 X0.682 Y-15.321 E0.05301
G1 X-0.000 Y-15.235 E0.05300
G1 X-0.682 Y-15.321 E0.05300
G1 X-1.322 Y-15.574 E0.05300
G1 X-1.830 Y-15.943 E0.04838
G1 X-1.440 Y-16.445 F15000.000
G1 X-1.776 Y-16.852 E0.04063 F600.000
G1 X-2.000 Y-17.329 E0.04063
G1 X-2.099 Y-17.846 E0.04063
G1 X-2.066 Y-18.373 E0.04063
G1 X-1.903 Y-18.874 E0.04063
G1 X-1.621 Y-19.319 E0.04063
G1 X-1.236 Y-19.680 E0.04063
G1 X-0.774 Y-19.934 E0.04063
G1 X-0.264 Y-20.065 E0.04063
G1 X0.264 Y-20.065 E0.04063 F600.000
G1 X0.774 Y-19.934 E0.04063
G1 X1.236 Y-19.680 E0.04063
G1 X1.621 Y-19.319 E0.04063
G1 X1.903 Y-18.874 E0.04063
G1 X2.066 Y-18.373 E0.04063
G1 X2.099 Y-17.846 E0.04063
G1 X2.000 Y-17.329 E0.04063
G1 X1.776 Y-16.852 E0.04063
G1 X1.440 Y-16.445 E0.04063
G1 X1.013 Y-16.135 E0.04063
G1 X0.523 Y-15.941 E0.04063
G1 X-0.000 Y-15.875 E0.04063
G1 X-0.523 Y-15.941 E0.04063
G1 X-1.013 Y-16.135 E0.04063
G1 X-1.391 Y-16.410 E0.03601
G1 X-1.827 Y-16.346 F15000.000
G1 E-3.50000 F1500.00000
G1 Z0.700 F15000.000
G1 X18.579 Y14.174 F15000.000
G1 Z0.300 F15000.000
G1 E3.50000 F1500.00000
G1 X19.207 Y13.895 E0.05300 F600.000
G1 X19.851 Y13.786 E0.05031 F600.000
G1 X20.564 Y13.835 E0.05507
G1 X21.220 Y14.064 E0.05357
G1 X21.793 Y14.444 E0.05301
G1 X22.253 Y14.956 E0.05300
G1 X22.572 Y15.565 E0.05301
G1 X22.729 Y16.235 E0.05301
G1 X22.714 Y16.922 E0.05300
G1 X22.529 Y17.585 E0.05300
G1 X22.186 Y18.180 E0.05301
G1 X21.704 Y18.672 E0.05301
G1 X21.116 Y19.028 E0.05301
G1 X20.458 Y19.227 E0.05300
G1 X19.770 Y19.256 E0.05301
G1 X19.098 Y19.113 E0.05300
G1 X18.482 Y18.807 E0.05301
G1 X17.961 Y18.357 E0.05300
G1 X17.568 Y17.793 E0.05300
G1 X17.326 Y17.141 E0.05358
G1 X17.262 Y16.429 E0.05507
G1 X17.357 Y15.784 E0.05031
G1 X17.624 Y15.150 E0.05300
G1 X18.040 Y14.602 E0.05301
G1 X18.532 Y14.212 E0.04838
G1 X18.910 Y14.722 F15000.000
G1 X19.392 Y14.508 E0.04063 F600.000
G1 X19.882 Y14.425 E0.03830 F600.000
G1 X20.435 Y14.463 E0.04270
G1 X20.935 Y14.638 E0.04083
G1 X21.374 Y14.929 E0.04063
G1 X21.727 Y15.321 E0.04063
G1 X21.971 Y15.788 E0.04063
G1 X22.092 Y16.302 E0.04063
G1 X22.081 Y16.829 E0.04063
G1 X21.939 Y17.336 E0.04063
G1 X21.675 Y17.793 E0.04063
G1 X21.306 Y18.170 E0.04063
G1 X20.855 Y18.443 E0.04063
G1 X20.351 Y18.595 E0.04063
G1 X19.824 Y18.617 E0.04063
G1 X19.308 Y18.508 E0.04063
G1 X18.836 Y18.273 E0.04063
G1 X18.437 Y17.929 E0.04063
G1 X18.136 Y17.496 E0.04063
G1 X17.951 Y16.999 E0.04083
G1 X17.902 Y16.448 E0.04269
G1 X17.974 Y15.956 E0.03830
G1 X18.179 Y15.470 E0.04063
G1 X18.497 Y15.050 E0.04063
G1 X18.863 Y14.760 E0.03600
G1 X18.919 Y14.323 F15000.000
G1 E-3.50000 F1500.00000
G1 Z0.700 F15000.000
G1 X-17.257 Y16.464 F15000.000
G1 Z0.300 F15000.000
G1 E3.50000 F1500.00000
G1 X-17.329 Y17.148 E0.05300 F600.000
G1 X-17.568 Y17.793 E0.05300
G1 X-17.961 Y18.357 E0.05301
G1 X-18.482 Y18.807 E0.05300
G1 X-19.098 Y19.113 E0.05301
G1 X-19.770 Y19.256 E0.05300
G1 X-20.458 Y19.227 E0.05300
G1 X-21.116 Y19.028 E0.05301
G1 X-21.704 Y18.672 E0.05300
G1 X-22.186 Y18.180 E0.05300
G1 X-22.529 Y17.585 E0.05301
G1 X-22.714 Y16.922 E0.05301
G1 X-22.729 Y16.235 E0.05300
G1 X-22.572 Y15.565 E0.05301
G1 X-22.253 Y14.956 E0.05301
G1 X-21.793 Y14.444 E0.05300
G1 X-21.220 Y14.064 E0.05301
G1 X-20.570 Y13.838 E0.05301
G1 X-19.885 Y13.780 E0.05300 F600.000
G1 X-19.207 Y13.895 E0.05300
G1 X-18.579 Y14.174 E0.05301
G1 X-18.040 Y14.602 E0.05300
G1 X-17.624 Y15.150 E0.05301
G1 X-17.357 Y15.784 E0.05300
G1 X-17.266 Y16.405 E0.04838
G1 X-17.897 Y16.477 F15000.000
G1 X-17.952 Y17.002 E0.04063 F600.000
G1 X-18.136 Y17.496 E0.04063
G1 X-18.437 Y17.929 E0.04063
G1 X-18.836 Y18.273 E0.04063
G1 X-19.308 Y18.508 E0.04063
G1 X-19.824 Y18.617 E0.04063
G1 X-20.351 Y18.595 E0.04063
G1 X-20.855 Y18.443 E0.04063
G1 X-21.306 Y18.170 E0.04063
G1 X-21.675 Y17.793 E0.04063
G1 X-21.939 Y17.336 E0.04063
G1 X-22.081 Y16.829 E0.04063
G1 X-22.092 Y16.302 E0.04063
G1 X-21.971 Y15.788 E0.04063
G1 X-21.727 Y15.321 E0.04063
G1 X-21.374 Y14.929 E0.04063
G1 X-20.935 Y14.638 E0.04063
G1 X-20.437 Y14.464 E0.04063
G1 X-19.912 Y14.420 E0.04063 F600.000
G1 X-19.392 Y14.508 E0.04063
G1 X-18.910 Y14.722 E0.04063
G1 X-18.497 Y15.050 E0.04063
G1 X-18.179 Y15.470 E0.04063
G1 X-17.974 Y15.956 E0.04063
G1 X-17.906 Y16.418 E0.03601
G1 X-17.555 Y16.685 F15000.000
G1 E-3.50000 F1500.00000
G1 Z0.700 F15000.000
G1 X-28.456 Y17.021 F15000.000
G1 Z0.300 F15000.000
G1 E3.50000 F1500.00000
G1 X-28.536 Y17.654 E0.04914 F600.000
G1 X-28.771 Y18.247 E0.04914
G1 X-29.146 Y18.763 E0.04914
G1 X-29.637 Y19.169 E0.04914
G1 X-30.214 Y19.441 E0.04914
G1 X-30.840 Y19.560 E0.04914
G1 X-31.477 Y19.520 E0.04914
G1 X-32.083 Y19.323 E0.04914
G1 X-32.622 Y18.982 E0.04914
G1 X-33.058 Y18.517 E0.04914
G1 X-33.365 Y17.958 E0.04914
G1 X-33.524 Y17.340 E0.04914
G1 X-33.524 Y16.703 E0.04914
G1 X-33.365 Y16.085 E0.04914
G1 X-33.058 Y15.526 E0.04914
G1 X-32.622 Y15.061 E0.04914
G1 X-32.083 Y14.720 E0.04914
G1 X-31.477 Y14.523 E0.04914
G1 X-30.840 Y14.483 E0.04914 F600.000
G1 X-30.214 Y14.602 E0.04914
G1 X-29.637 Y14.874 E0.04914
G1 X-29.146 Y15.280 E0.04914
G1 X-28.771 Y15.796 E0.04914
G1 X-28.536 Y16.389 E0.04914
G1 X-28.464 Y16.962 E0.04452
G1 X-29.097 Y17.021 F15000.000
G1 X-29.157 Y17.495 E0.03676 F600.000
G1 X-29.332 Y17.938 E0.03677
G1 X-29.613 Y18.324 E0.03677
G1 X-29.980 Y18.628 E0.03676
G1 X-30.412 Y18.831 E0.03677
G1 X-30.880 Y18.921 E0.03676
G1 X-31.357 Y18.891 E0.03677
G1 X-31.810 Y18.744 E0.03677
G1 X-32.213 Y18.488 E0.03677
G1 X-32.540 Y18.140 E0.03677
G1 X-32.770 Y17.722 E0.03676
G1 X-32.888 Y17.260 E0.03677
G1 X-32.888 Y16.783 E0.03677
G1 X-32.770 Y16.321 E0.03677
G1 X-32.540 Y15.903 E0.03677
G1 X-32.213 Y15.555 E0.03677
G1 X-31.810 Y15.299 E0.03676
G1 X-31.357 Y15.152 E0.03677
G1 X-30.881 Y15.122 E0.03676 F600.000
G1 X-30.412 Y15.211 E0.03677
G1 X-29.980 Y15.415 E0.03676
G1 X-29.613 Y15.719 E0.03677
G1 X-29.332 Y16.105 E0.03677
G1 X-29.157 Y16.548 E0.03676
G1 X-29.104 Y16.962 E0.03214
G1 X-28.759 Y17.236 F15000.000
G1 X0.249 Y31.986 F15000.000
G1 X-13.964 Y31.986 E1.09535 F720.000
G1 X-13.964 Y29.986 E0.15413
G1 X-27.257 Y29.986 E1.02439
G1 X-28.236 Y28.916 E0.11179
G1 X-29.873 Y26.791 E0.20669
G1 X-30.980 Y25.185 E0.15034
G1 X-32.012 Y23.503 E0.15203
G1 X-32.952 Y21.769 E0.15202
G1 X-33.789 Y20.007 E0.15034
G1 X-34.811 Y17.528 E0.20669
G1 X-35.248 Y16.144 E0.11179
G1 X-28.602 Y4.633 E1.02439
G1 X-30.334 Y3.633 E0.15413
G1 X-16.370 Y-20.554 E2.15234
G1 X-14.638 Y-19.554 E0.15413
G1 X-7.991 Y-31.066 E1.02439
G1 X-6.575 Y-31.379 E0.11180
G1 X-3.917 Y-31.734 E0.20669
G1 X-1.972 Y-31.890 E0.15034
G1 X-0.000 Y-31.943 E0.15203
G1 X1.972 Y-31.890 E0.15203
G1 X3.917 Y-31.734 E0.15034 F720.000
G1 X6.575 Y-31.379 E0.20669
G1 X7.991 Y-31.066 E0.11179
G1 X14.638 Y-19.554 E1.02439
G1 X16.370 Y-20.554 E0.15413
G1 X30.334 Y3.633 E2.15234
G1 X28.602 Y4.633 E0.15413
G1 X35.248 Y16.144 E1.02439
G1 X34.812 Y17.525 E0.11158
G1 X33.796 Y19.993 E0.20565
G1 X32.948 Y21.777 E0.15223
G1 X32.006 Y23.513 E0.15224
G1 X30.986 Y25.176 E0.15033
G1 X29.865 Y26.802 E0.15223
G1 X28.234 Y28.918 E0.20585
G1 X27.257 Y29.986 E0.11159
G1 X13.964 Y29.986 E1.02439
G1 X13.964 Y31.986 E0.15413
G1 X0.309 Y31.986 E1.05237
G1 X0.309 Y32.621 F15000.000
G1 X-14.600 Y32.621 E1.14895 F720.000
G1 X-14.600 Y30.621 E0.15413
G1 X-27.537 Y30.621 E0.99698
G1 X-28.723 Y29.325 E0.13544
G1 X-30.387 Y27.166 E0.21006
G1 X-31.513 Y25.532 E0.15294
G1 X-32.562 Y23.821 E0.15464
G1 X-33.519 Y22.057 E0.15464
G1 X-34.371 Y20.265 E0.15294
G1 X-35.409 Y17.745 E0.21006
G1 X-35.939 Y16.069 E0.13544
G1 X-29.470 Y4.865 E0.99698
G1 X-31.202 Y3.865 E0.15413
G1 X-16.602 Y-21.423 E2.25031
G1 X-14.870 Y-20.423 E0.15413
G1 X-8.402 Y-31.626 E0.99698
G1 X-6.686 Y-32.005 E0.13545
G1 X-3.984 Y-32.366 E0.21005
G1 X-2.006 Y-32.525 E0.15294
G1 X-0.000 Y-32.578 E0.15464
G1 X2.006 Y-32.525 E0.15464
G1 X3.984 Y-32.366 E0.15294 F720.000
G1 X6.686 Y-32.005 E0.21006
G1 X8.402 Y-31.626 E0.13544
G1 X14.870 Y-20.423 E0.99698
G1 X16.602 Y-21.423 E0.15413
G1 X31.202 Y3.865 E2.25031
G1 X29.470 Y4.865 E0.15413
G1 X35.939 Y16.069 E0.99698
G1 X35.410 Y17.742 E0.13522
G1 X34.378 Y20.250 E0.20902
G1 X33.515 Y22.065 E0.15485
G1 X32.557 Y23.831 E0.15485
G1 X31.519 Y25.522 E0.15293
G1 X30.379 Y27.177 E0.15484
G1 X28.721 Y29.327 E0.20922
G1 X27.537 Y30.621 E0.13523
G1 X14.600 Y30.621 E0.99698
G1 X14.600 Y32.621 E0.15413
G1 X0.369 Y32.621 E1.09673
G1 X0.109 Y32.275 F15000.000
G1 E-3.50000 F1500.00000
G1 Z0.700 F15000.000
G1 X-6.214 Y-38.757 F15000.000
G1 Z0.300 F15000.000
G1 E3.50000 F1500.00000
G1 X-5.396 Y-35.704 E0.24358 F720.000
G1 X-7.014 Y-32.902 E0.24934
G1 X-8.684 Y-33.866 E0.14864
G1 X-7.334 Y-36.204 E0.20808
G1 X-21.190 Y-44.204 E1.23305
G1 X-19.226 Y-47.607 E0.30277
G1 X-6.638 Y-40.339 E1.12018
G1 X-6.230 Y-38.815 E0.12162 F720.000
G1 X-5.616 Y-38.979 F15000.000
G1 X-4.714 Y-35.614 E0.26850 F720.000
G1 X-6.781 Y-32.033 E0.31861
G1 X-9.552 Y-33.633 E0.24661
G1 X-8.202 Y-35.972 E0.20808
G1 X-22.059 Y-43.972 E1.23305
G1 X-19.459 Y-48.475 E0.40074
G1 X-6.092 Y-40.758 E1.18945
G1 X-5.631 Y-39.037 E0.13729 F720.000
G1 X-5.898 Y-38.696 F15000.000
G1 E-3.50000 F1500.00000
G1 Z0.700 F15000.000
G1 X5.739 Y-36.983 F15000.000
G1 Z0.300 F15000.000
G1 E3.50000 F1500.00000
G1 X6.638 Y-40.339 E0.26777 F720.000
G1 X19.226 Y-47.607 E1.12018
G1 X21.190 Y-44.204 E0.30277
G1 X7.334 Y-36.204 E1.23305 F720.000
G1 X8.684 Y-33.866 E0.20808
G1 X7.014 Y-32.902 E0.14864
G1 X5.396 Y-35.704 E0.24934
G1 X5.723 Y-36.925 E0.09744
G1 X5.109 Y-37.089 F15000.000
G1 X6.092 Y-40.758 E0.29268 F720.000
G1 X19.459 Y-48.475 E1.18945
G1 X22.059 Y-43.972 E0.40074
G1 X8.202 Y-35.972 E1.23305 F720.000
G1 X9.552 Y-33.633 E0.20808
G1 X6.781 Y-32.033 E0.24661
G1 X4.714 Y-35.614 E0.31861
G1 X5.094 Y-37.032 E0.11310
G1 X5.496 Y-37.193 F15000.000
G1 E-3.50000 F1500.00000
G1 Z0.700 F15000.000
G1 X53.085 Y15.901 F15000.000
G1 Z0.300 F15000.000
G1 E3.50000 F1500.00000
G1 X42.602 Y21.953 E0.93281 F720.000
G1 X37.967 Y20.711 E0.36983
G1 X36.349 Y17.909 E0.24934
G1 X38.020 Y16.945 E0.14864
G1 X39.370 Y19.283 E0.20808
G1 X53.226 Y11.283 E1.23305
G1 X55.190 Y14.685 E0.30277
G1 X53.137 Y15.871 E0.18275 F720.000
G1 X53.455 Y16.421 F15000.000
G1 X42.692 Y22.635 E0.95772 F720.000
G1 X37.548 Y21.257 E0.41041
G1 X35.481 Y17.676 E0.31861
G1 X38.252 Y16.076 E0.24661
G1 X39.602 Y18.415 E0.20808
G1 X53.459 Y10.415 E1.23305
G1 X56.059 Y14.918 E0.40074
G1 X53.507 Y16.391 E0.22711 F720.000
G1 X53.108 Y16.221 F15000.000
G1 E-3.50000 F1500.00000
G1 Z0.700 F15000.000
G1 X32.036 Y41.239 F15000.000
G1 Z0.300 F15000.000
G1 E3.50000 F1500.00000
G1 X32.036 Y31.986 E0.71308 F720.000
G1 X29.336 Y31.986 E0.20808
G1 X29.336 Y30.057 E0.14864
