; generated by Slic3r 1.2.9 on 2018-05-23 at 16:39:27

; external perimeters extrusion width = 0.40mm
; perimeters extrusion width = 0.40mm
; infill extrusion width = 0.40mm
; solid infill extrusion width = 0.40mm
; top infill extrusion width = 0.40mm

M107
M83
T0
M116
G21 ; set units to millimeters
G90 ; use absolute coordinates
M83 ; use relative distances for extrusion
G1 E-3.50000 F1500.00000
G1 Z0.400 F15000.000
G1 X20.287 Y35.139 F15000.000
G1 Z0.300 F15000.000
G1 E3.50000 F1500.00000
G1 X-16.228 Y56.221 E3.24945 F960.000
G1 X-17.852 Y56.703 E0.13052
G1 X-19.864 Y56.221 E0.15944
G1 X-47.789 Y40.099 E2.48501
G1 X-49.018 Y38.933 E0.13052
G1 X-49.607 Y36.950 E0.15944
G1 X-49.607 Y-36.950 E5.69514
G1 X-49.213 Y-38.597 E0.13052
G1 X-47.789 Y-40.099 E0.15944
G1 X-19.864 Y-56.221 E2.48501
G1 X-18.240 Y-56.703 E0.13052
G1 X-16.246 Y-56.231 E0.15795
G1 X-9.551 Y-52.415 E0.59388 F960.000
G1 X47.773 Y-19.270 E5.10301
G1 X49.001 Y-18.104 E0.13052
G1 X49.589 Y-16.123 E0.15925
G1 X49.589 Y16.123 E2.48501
G1 X49.194 Y17.770 E0.13052
G1 X47.771 Y19.271 E0.15944
G1 X20.339 Y35.109 E2.44107
G1 E-3.50000 F1500.00000
G1 Z0.700 F15000.000
G1 X-20.546 Y38.914 F15000.000
G1 Z0.300 F15000.000
G1 E3.50000 F1500.00000
G1 X-14.283 Y49.762 E0.96536 F720.000
G1 X-17.685 Y51.726 E0.30277
G1 X-24.953 Y39.138 E1.12018
G1 X-23.711 Y34.503 E0.36983
G1 X-20.909 Y32.885 E0.24934
G1 X-19.945 Y34.556 E0.14864
G1 X-22.283 Y35.906 E0.20808 F720.000
G1 X-20.576 Y38.862 E0.26306
G1 X-20.026 Y38.544 F15000.000
G1 X-13.415 Y49.995 E1.01897 F720.000
G1 X-17.918 Y52.595 E0.40074
G1 X-25.635 Y39.228 E1.18945
G1 X-24.257 Y34.084 E0.41041
G1 X-20.676 Y32.017 E0.31861
G1 X-19.076 Y34.788 E0.24661
G1 X-21.415 Y36.138 E0.20808 F720.000
G1 X-20.056 Y38.492 E0.20945
G1 X-20.226 Y38.890 F15000.000
G1 E-3.50000 F1500.00000
G1 Z0.700 F15000.000
G1 X-42.064 Y35.964 F15000.000
G1 Z0.300 F15000.000
G1 E3.50000 F1500.00000
G1 X-44.986 Y35.964 E0.22518 F720.000
G1 X-44.986 Y32.036 E0.30277
G1 X-28.986 Y32.036 E1.23305
G1 X-28.986 Y29.336 E0.20808
G1 X-27.057 Y29.336 E0.14864
G1 X-27.057 Y32.571 E0.24934
G1 X-30.450 Y35.964 E0.36983 F720.000
G1 X-42.004 Y35.964 E0.89038
G1 X-42.004 Y36.600 F15000.000
G1 X-45.621 Y36.600 E0.27879 F720.000
G1 X-45.621 Y31.400 E0.40074
G1 X-29.621 Y31.400 E1.23305
G1 X-29.621 Y28.700 E0.20808
G1 X-26.421 Y28.700 E0.24661
G1 X-26.421 Y32.834 E0.31861
G1 X-30.187 Y36.600 E0.41041 F720.000
G1 X-41.944 Y36.600 E0.90604
G1 X-42.204 Y36.254 F15000.000
G1 E-3.50000 F1500.00000
G1 Z0.700 F15000.000
G1 X-12.002 Y-6.714 F15000.000
G1 Z0.300 F15000.000
G1 E3.50000 F1500.00000
G1 X-11.040 Y-7.888 E0.11700 F720.000
G1 X-10.792 Y-8.263 E0.03459
G1 E-3.50000 F1500.00000
G1 Z0.700 F15000.000
G1 X4.283 Y-5.716 F15000.000
G1 Z0.300 F15000.000
G1 E3.50000 F1500.00000
G1 X6.157 Y-6.492 E0.15638 F720.000
G1 E-3.50000 F1500.00000
G1 Z0.700 F15000.000
G1 X-23.634 Y23.697 F15000.000
G1 Z0.300 F15000.000
G1 E3.50000 F1500.00000
G1 X-23.354 Y24.083 E0.03677 F600.000
G1 X-23.178 Y24.527 E0.03676
G1 X-23.118 Y25.000 E0.03677
G1 X-23.178 Y25.473 E0.03676
G1 X-23.354 Y25.917 E0.03676
G1 X-23.634 Y26.303 E0.03677
G1 X-24.002 Y26.607 E0.03676
G1 X-24.433 Y26.810 E0.03677
G1 X-24.902 Y26.899 E0.03677
G1 X-25.378 Y26.869 E0.03677
G1 X-25.832 Y26.722 E0.03676
G1 X-26.235 Y26.466 E0.03677
G1 X-26.561 Y26.119 E0.03676
G1 X-26.791 Y25.701 E0.03676
G1 X-26.910 Y25.239 E0.03677
G1 X-26.910 Y24.761 E0.03677
G1 X-26.791 Y24.299 E0.03676
G1 X-26.561 Y23.881 E0.03677
G1 X-26.235 Y23.534 E0.03677
G1 X-25.832 Y23.278 E0.03677
G1 X-25.378 Y23.131 E0.03677
G1 X-24.902 Y23.101 E0.03676 F600.000
G1 X-24.433 Y23.190 E0.03677
G1 X-24.002 Y23.393 E0.03676
G1 X-23.680 Y23.659 E0.03214
G1 X-23.241 Y23.622 F15000.000
G1 X-19.915 Y21.379 F15000.000
G1 X-20.099 Y21.075 E0.02732 F600.000
G1 X-20.297 Y20.417 E0.05300
G1 X-20.326 Y19.730 E0.05300
G1 X-20.183 Y19.057 E0.05300
G1 X-19.877 Y18.441 E0.05301
G1 X-19.428 Y17.920 E0.05301
G1 X-18.863 Y17.528 E0.05300
G1 X-18.219 Y17.288 E0.05300
G1 X-17.535 Y17.216 E0.05301 F600.000
G1 X-16.854 Y17.317 E0.05300
G1 X-16.220 Y17.583 E0.05300
G1 X-15.672 Y17.999 E0.05301
G1 X-15.245 Y18.538 E0.05301
G1 X-14.965 Y19.166 E0.05300
G1 X-14.851 Y19.844 E0.05301
G1 X-14.908 Y20.530 E0.05301
G1 X-15.134 Y21.179 E0.05300
G1 X-15.515 Y21.752 E0.05301
G1 X-16.026 Y22.212 E0.05300
G1 X-16.636 Y22.531 E0.05300
G1 X-17.305 Y22.688 E0.05301
G1 X-17.993 Y22.674 E0.05301
G1 X-18.655 Y22.489 E0.05300
G1 X-19.251 Y22.145 E0.05301
G1 X-19.742 Y21.664 E0.05300
G1 X-19.884 Y21.430 E0.02106
G1 X-19.340 Y21.101 F15000.000
G1 X-19.513 Y20.815 E0.02576 F600.000
G1 X-19.666 Y20.310 E0.04063
G1 X-19.688 Y19.783 E0.04063
G1 X-19.578 Y19.268 E0.04063
G1 X-19.344 Y18.795 E0.04063
G1 X-18.999 Y18.396 E0.04063
G1 X-18.566 Y18.095 E0.04063
G1 X-18.072 Y17.912 E0.04063
G1 X-17.548 Y17.857 E0.04063 F600.000
G1 X-17.026 Y17.934 E0.04063
G1 X-16.540 Y18.138 E0.04063
G1 X-16.120 Y18.457 E0.04063
G1 X-15.793 Y18.870 E0.04063
G1 X-15.579 Y19.351 E0.04063
G1 X-15.491 Y19.871 E0.04063
G1 X-15.535 Y20.397 E0.04063
G1 X-15.708 Y20.894 E0.04063
G1 X-16.000 Y21.334 E0.04063
G1 X-16.392 Y21.686 E0.04063
G1 X-16.859 Y21.931 E0.04063
G1 X-17.372 Y22.051 E0.04063
G1 X-17.899 Y22.040 E0.04063
G1 X-18.407 Y21.898 E0.04063
G1 X-18.864 Y21.635 E0.04063
G1 X-19.240 Y21.266 E0.04063
G1 X-19.309 Y21.152 E0.01024
G1 X-19.674 Y21.108 F15000.000
G1 E-3.50000 F1500.00000
G1 Z0.700 F15000.000
G1 X-19.189 Y8.583 F15000.000
G1 Z0.300 F15000.000
G1 E3.50000 F1500.00000
G1 X-24.962 Y8.527 E0.44495 F720.000
G1 X-25.085 Y-8.601 E1.32006
G1 X-20.320 Y-8.584 E0.36723
G1 X-18.636 Y-8.278 E0.13187
G1 X-18.870 Y-8.683 E0.03600
G1 X-16.626 Y-12.568 E0.34577
G1 X-12.140 Y-12.568 E0.34577
G1 X-10.456 Y-9.652 E0.25950
G1 X-9.918 Y-10.368 E0.06902
G1 X-9.282 Y-11.387 E0.09260
G1 X-4.073 Y-20.681 E0.82105 F720.000
G1 X10.978 Y-12.085 E1.33574
G1 X7.699 Y-6.726 E0.48423
G1 X7.457 Y-6.586 E0.02150
G1 X9.965 Y-4.078 E0.27331
G1 X8.804 Y0.255 E0.34577
G1 X5.628 Y1.106 E0.25336
G1 X10.928 Y10.286 E0.81687
G1 X9.032 Y11.380 E0.16869
G1 X5.861 Y12.145 E0.25140
G1 X3.187 Y12.074 E0.20612
G1 X1.164 Y11.531 E0.16146
G1 X-5.691 Y9.865 E0.54364
G1 X-5.914 Y9.832 E0.01741
G1 X-6.883 Y9.799 E0.07473
G1 X-8.012 Y9.633 E0.08791
G1 X-8.950 Y9.385 E0.07473
G1 X-14.074 Y8.631 E0.39918
G1 X-19.129 Y8.583 E0.38957
G1 X-19.123 Y7.948 F15000.000
G1 X-24.331 Y7.898 E0.40140 F720.000
G1 X-24.445 Y-7.963 E1.22238
G1 X-20.378 Y-7.949 E0.31339
G1 X-18.314 Y-7.573 E0.16166
G1 X-17.639 Y-7.313 E0.05580
G1 X-17.463 Y-7.518 E0.02078
G1 X-18.136 Y-8.683 E0.10363
G1 X-16.259 Y-11.932 E0.28921
G1 X-12.507 Y-11.932 E0.28921
G1 X-10.526 Y-8.501 E0.30533
G1 X-9.393 Y-10.008 E0.14525
G1 X-8.735 Y-11.063 E0.09587
G1 X-3.831 Y-19.811 E0.77282 F720.000
G1 X10.094 Y-11.858 E1.23587
G1 X7.241 Y-7.195 E0.42129
G1 X6.422 Y-6.722 E0.07288
G1 X9.256 Y-3.888 E0.30887
G1 X8.285 Y-0.264 E0.28921
G1 X4.663 Y0.707 E0.28892
G1 X10.060 Y10.053 E0.83173
G1 X8.794 Y10.784 E0.11263
G1 X5.794 Y11.508 E0.23784
G1 X3.279 Y11.440 E0.19384
G1 X1.321 Y10.916 E0.15624
G1 X-5.569 Y9.240 E0.54648
G1 X-5.857 Y9.198 E0.02242
G1 X-6.826 Y9.165 E0.07473
G1 X-7.884 Y9.009 E0.08241
G1 X-8.822 Y8.762 E0.07473
G1 X-14.025 Y7.996 E0.40527
G1 X-19.063 Y7.948 E0.38829
G1 X-19.326 Y8.292 F15000.000
G1 E-3.50000 F1500.00000
G1 Z0.700 F15000.000
G1 X-17.464 Y-17.175 F15000.000
G1 Z0.300 F15000.000
G1 E3.50000 F1500.00000
G1 X-18.148 Y-17.247 E0.05300 F600.000
G1 X-18.793 Y-17.487 E0.05301
G1 X-19.357 Y-17.880 E0.05300
G1 X-19.807 Y-18.400 E0.05300
G1 X-20.113 Y-19.016 E0.05301
G1 X-20.256 Y-19.689 E0.05300
G1 X-20.227 Y-20.376 E0.05300
G1 X-20.028 Y-21.035 E0.05301
G1 X-19.672 Y-21.623 E0.05301
G1 X-19.180 Y-22.104 E0.05301
G1 X-18.585 Y-22.448 E0.05300
G1 X-17.922 Y-22.633 E0.05301
G1 X-17.235 Y-22.647 E0.05301 F600.000
G1 X-16.565 Y-22.490 E0.05300
G1 X-15.956 Y-22.172 E0.05300
G1 X-15.444 Y-21.711 E0.05301
G1 X-15.064 Y-21.139 E0.05300
G1 X-14.838 Y-20.489 E0.05300
G1 X-14.780 Y-19.804 E0.05301
G1 X-14.895 Y-19.126 E0.05300
G1 X-15.174 Y-18.497 E0.05301
G1 X-15.602 Y-17.958 E0.05300
G1 X-16.150 Y-17.542 E0.05300
G1 X-16.784 Y-17.276 E0.05301
G1 X-17.405 Y-17.184 E0.04838
G1 X-17.477 Y-17.816 F15000.000
G1 X-18.002 Y-17.871 E0.04063 F600.000
G1 X-18.496 Y-18.055 E0.04063
G1 X-18.929 Y-18.356 E0.04063
G1 X-19.273 Y-18.755 E0.04063
G1 X-19.508 Y-19.227 E0.04063
G1 X-19.617 Y-19.743 E0.04063
G1 X-19.595 Y-20.269 E0.04063
G1 X-19.443 Y-20.774 E0.04063
G1 X-19.170 Y-21.225 E0.04063
G1 X-18.793 Y-21.594 E0.04063
G1 X-18.336 Y-21.857 E0.04063
G1 X-17.829 Y-21.999 E0.04063
G1 X-17.302 Y-22.010 E0.04063 F600.000
G1 X-16.788 Y-21.890 E0.04063
G1 X-16.321 Y-21.646 E0.04063
G1 X-15.929 Y-21.293 E0.04063
G1 X-15.638 Y-20.854 E0.04063
G1 X-15.464 Y-20.356 E0.04063
G1 X-15.420 Y-19.831 E0.04063
G1 X-15.508 Y-19.311 E0.04063
G1 X-15.722 Y-18.829 E0.04063
G1 X-16.050 Y-18.416 E0.04063
G1 X-16.470 Y-18.097 E0.04063
G1 X-16.956 Y-17.893 E0.04063
G1 X-17.418 Y-17.825 E0.03600
G1 X-17.685 Y-17.474 F15000.000
G1 E-3.50000 F1500.00000
G1 Z0.700 F15000.000
G1 X14.645 Y-1.363 F15000.000
G1 Z0.300 F15000.000
G1 E3.50000 F1500.00000
G1 X15.049 Y-1.919 E0.05300 F600.000
G1 X15.579 Y-2.357 E0.05301
G1 X16.201 Y-2.650 E0.05300
G1 X16.842 Y-2.773 E0.05031 F600.000
G1 X17.556 Y-2.738 E0.05507
G1 X18.217 Y-2.523 E0.05358
G1 X18.798 Y-2.155 E0.05300
G1 X19.269 Y-1.654 E0.05301
G1 X19.583 Y-1.081 E0.05031
G1 X19.771 Y-0.392 E0.05507
G1 X19.771 Y0.303 E0.05357
G1 X19.600 Y0.969 E0.05300
G1 X19.269 Y1.572 E0.05300
G1 X18.798 Y2.073 E0.05301
G1 X18.247 Y2.423 E0.05031
G1 X17.564 Y2.656 E0.05564
G1 X16.842 Y2.691 E0.05564
G1 X16.201 Y2.569 E0.05031
G1 X15.579 Y2.276 E0.05300
G1 X15.049 Y1.838 E0.05301
G1 X14.645 Y1.281 E0.05300
G1 X14.391 Y0.642 E0.05300
G1 X14.305 Y-0.041 E0.05301
G1 X14.391 Y-0.723 E0.05301
G1 X14.622 Y-1.307 E0.04838
G1 X15.206 Y-1.054 F15000.000
G1 X15.516 Y-1.480 E0.04063 F600.000
G1 X15.922 Y-1.816 E0.04063
G1 X16.399 Y-2.041 E0.04063
G1 X16.887 Y-2.134 E0.03830 F600.000
G1 X17.441 Y-2.107 E0.04269
G1 X17.945 Y-1.944 E0.04083
G1 X18.390 Y-1.661 E0.04063
G1 X18.751 Y-1.277 E0.04063
G1 X18.990 Y-0.841 E0.03830
G1 X19.136 Y-0.307 E0.04269
G1 X19.136 Y0.223 E0.04083
G1 X19.005 Y0.734 E0.04063
G1 X18.751 Y1.196 E0.04063
G1 X18.390 Y1.580 E0.04063
G1 X17.970 Y1.846 E0.03830
G1 X17.443 Y2.026 E0.04290
G1 X16.887 Y2.053 E0.04290
G1 X16.399 Y1.960 E0.03830
G1 X15.922 Y1.735 E0.04063
G1 X15.516 Y1.399 E0.04063
G1 X15.206 Y0.973 E0.04063
G1 X15.012 Y0.482 E0.04063
G1 X14.946 Y-0.041 E0.04063
G1 X15.012 Y-0.564 E0.04063
G1 X15.184 Y-0.998 E0.03600
G1 X15.013 Y-1.404 F15000.000
G1 X9.288 Y17.678 F15000.000
G1 X-6.633 Y26.870 E1.41679 F720.000
G1 X-7.633 Y25.138 E0.15413
G1 X-18.672 Y31.511 E0.98233
G1 X-20.132 Y30.908 E0.12174
G1 X-22.174 Y29.877 E0.17628
G1 X-23.816 Y28.929 E0.14612
G1 X-25.573 Y27.779 E0.16188
G1 X-25.480 Y27.500 E0.02263
G1 X-24.862 Y27.539 E0.04776
G1 X-24.235 Y27.419 E0.04914
G1 X-23.658 Y27.148 E0.04914
G1 X-23.167 Y26.741 E0.04914
G1 X-22.792 Y26.225 E0.04914
G1 X-22.558 Y25.633 E0.04914
G1 X-22.478 Y25.000 E0.04914
G1 X-22.558 Y24.367 E0.04914
G1 X-22.792 Y23.774 E0.04914
G1 X-23.167 Y23.259 E0.04914
G1 X-23.658 Y22.852 E0.04914
G1 X-24.235 Y22.581 E0.04914
G1 X-24.862 Y22.461 E0.04914
G1 X-25.498 Y22.501 E0.04914
G1 X-26.105 Y22.698 E0.04914
G1 X-26.643 Y23.040 E0.04914
G1 X-26.986 Y23.405 E0.03860
G1 X-26.986 Y13.964 E0.72755
G1 X-28.986 Y13.964 E0.15413
G1 X-28.986 Y-13.964 E2.15234
G1 X-26.986 Y-13.964 E0.15413
G1 X-26.986 Y-26.711 E0.98233
G1 X-25.734 Y-27.673 E0.12169
G1 X-23.834 Y-28.918 E0.17505
G1 X-22.159 Y-29.885 E0.14903
G1 X-20.131 Y-30.908 E0.17505
G1 X-18.672 Y-31.511 E0.12169
G1 X-7.633 Y-25.138 E0.98233
G1 X-6.633 Y-26.870 E0.15413 F720.000
G1 X17.554 Y-12.906 E2.15234
G1 X16.554 Y-11.173 E0.15413
G1 X27.593 Y-4.800 E0.98233
G1 X27.800 Y-3.234 E0.12172
G1 X27.929 Y-0.956 E0.17583
G1 X27.929 Y0.965 E0.14804
G1 X27.800 Y3.235 E0.17522
G1 X27.593 Y4.800 E0.12170
G1 X16.554 Y11.173 E0.98233
G1 X17.554 Y12.906 E0.15413
G1 X9.340 Y17.648 E0.73093
G1 X9.658 Y18.198 F15000.000
G1 X-6.865 Y27.738 E1.47039 F720.000
G1 X-7.865 Y26.006 E0.15413
G1 X-18.625 Y32.218 E0.95748
G1 X-20.236 Y31.552 E0.13437
G1 X-20.245 Y31.562 E0.00104
G1 X-22.476 Y30.437 E0.19254
G1 X-24.149 Y29.471 E0.14887
G1 X-26.243 Y28.099 E0.19291
G1 X-26.239 Y28.087 E0.00104
G1 X-27.621 Y27.024 E0.13437
G1 X-27.621 Y14.600 E0.95748
G1 X-29.621 Y14.600 E0.15413
G1 X-29.621 Y-14.600 E2.25031
G1 X-27.621 Y-14.600 E0.15413
G1 X-27.621 Y-27.024 E0.95748
G1 X-26.239 Y-28.087 E0.13437
G1 X-26.243 Y-28.099 E0.00103
G1 X-24.167 Y-29.460 E0.19127
G1 X-22.461 Y-30.445 E0.15180
G1 X-20.245 Y-31.562 E0.19127
G1 X-20.236 Y-31.552 E0.00103
G1 X-18.625 Y-32.218 E0.13437
G1 X-7.865 Y-26.006 E0.95748
G1 X-6.865 Y-27.738 E0.15413 F720.000
G1 X18.423 Y-13.138 E2.25031
G1 X17.423 Y-11.406 E0.15413
G1 X28.182 Y-5.194 E0.95748
G1 X28.411 Y-3.465 E0.13437
G1 X28.424 Y-3.463 E0.00104
G1 X28.565 Y-0.974 E0.19208
G1 X28.564 Y0.983 E0.15080
G1 X28.424 Y3.463 E0.19144
G1 X28.411 Y3.465 E0.00103
G1 X28.182 Y5.194 E0.13437
G1 X17.423 Y11.406 E0.95748
G1 X18.423 Y13.138 E0.15413
G1 X9.710 Y18.168 E0.77529
G1 X9.312 Y17.998 F15000.000
G1 E-3.50000 F1500.00000
G1 Z0.700 F15000.000
G1 X-32.202 Y-35.964 F15000.000
G1 Z0.300 F15000.000
G1 E3.50000 F1500.00000
G1 X-30.450 Y-35.964 E0.13499 F720.000
G1 X-27.057 Y-32.571 E0.36983
G1 X-27.057 Y-29.336 E0.24934 F720.000
G1 X-28.986 Y-29.336 E0.14864
G1 X-28.986 Y-32.036 E0.20808
G1 X-44.986 Y-32.036 E1.23305
G1 X-44.986 Y-35.964 E0.30277
G1 X-32.262 Y-35.964 E0.98057
G1 X-32.262 Y-36.600 F15000.000
G1 X-30.187 Y-36.600 E0.15990 F720.000
G1 X-26.421 Y-32.834 E0.41041
G1 X-26.421 Y-28.700 E0.31861 F720.000
G1 X-29.621 Y-28.700 E0.24661
G1 X-29.621 Y-31.400 E0.20808
G1 X-45.621 Y-31.400 E1.23305
G1 X-45.621 Y-36.600 E0.40074
G1 X-32.322 Y-36.600 E1.02493
G1 X-32.062 Y-36.254 F15000.000
G1 E-3.50000 F1500.00000
G1 Z0.700 F15000.000
G1 X-19.182 Y-41.276 F15000.000
G1 Z0.300 F15000.000
G1 E3.50000 F1500.00000
G1 X-22.283 Y-35.906 E0.47788 F720.000
G1 X-19.945 Y-34.556 E0.20808
G1 X-20.909 Y-32.885 E0.14864
G1 X-23.711 Y-34.503 E0.24934
G1 X-24.953 Y-39.138 E0.36983
G1 X-17.685 Y-51.726 E1.12018
G1 X-14.283 Y-49.762 E0.30277
G1 X-19.152 Y-41.328 E0.75054 F720.000
G1 X-18.602 Y-41.010 F15000.000
G1 X-21.415 Y-36.138 E0.43352 F720.000
G1 X-19.076 Y-34.788 E0.20808
G1 X-20.676 Y-32.017 E0.24661
G1 X-24.257 Y-34.084 E0.31861
G1 X-25.635 Y-39.228 E0.41041
G1 X-17.918 Y-52.595 E1.18945
G1 X-13.415 Y-49.995 E0.40074
G1 X-18.572 Y-41.062 E0.79490 F720.000
G1 X-19.002 Y-41.010 F15000.000
G1 E-3.50000 F1500.00000
G1 Z0.700 F15000.000
G1 X35.962 Y-8.647 F15000.000
G1 Z0.300 F15000.000
G1 E3.50000 F1500.00000
G1 X41.204 Y-17.726 E0.80797 F720.000
G1 X44.607 Y-15.762 E0.30277
G1 X37.339 Y-3.174 E1.12018 F720.000
G1 X32.704 Y-1.932 E0.36983
G1 X29.902 Y-3.550 E0.24934
G1 X30.866 Y-5.220 E0.14864
G1 X33.204 Y-3.870 E0.20808
G1 X35.932 Y-8.595 E0.42046
G1 X35.382 Y-8.913 F15000.000
G1 X40.972 Y-18.595 E0.86158 F720.000
G1 X45.475 Y-15.995 E0.40074
G1 X37.758 Y-2.628 E1.18945 F720.000
G1 X32.614 Y-1.250 E0.41041
G1 X29.033 Y-3.317 E0.31861
G1 X30.633 Y-6.088 E0.24661
G1 X32.972 Y-4.738 E0.20808
G1 X35.352 Y-8.861 E0.36685
G1 X35.782 Y-8.913 F15000.000
G1 E-3.50000 F1500.00000
G1 Z0.700 F15000.000
G1 X42.460 Y12.043 F15000.000
G1 Z0.300 F15000.000
G1 E3.50000 F1500.00000
G1 X44.607 Y15.762 E0.33096 F720.000
G1 X41.204 Y17.726 E0.30277
G1 X33.204 Y3.870 E1.23305
G1 X30.866 Y5.220 E0.20808
G1 X29.902 Y3.550 E0.14864
G1 X32.704 Y1.932 E0.24934
G1 X37.339 Y3.174 E0.36983
G1 X42.430 Y11.991 E0.78459 F720.000
G1 X42.980 Y11.673 F15000.000
G1 X45.475 Y15.995 E0.38457 F720.000
G1 X40.972 Y18.595 E0.40074
G1 X32.972 Y4.738 E1.23305
G1 X30.633 Y6.088 E0.20808
G1 X29.033 Y3.317 E0.24661
G1 X32.614 Y1.250 E0.31861
G1 X37.758 Y2.628 E0.41041
G1 X42.950 Y11.621 E0.80026 F720.000
G1 X42.780 Y12.019 F15000.000
G1 X42.595 Y13.219 F15000.000
G1 X34.435 Y5.059 E0.98188 F960.000
G1 X32.985 Y3.609 F15000.000
G1 X32.065 Y2.689 E0.11069 F960.000
