; generated by Slic3r 1.2.9 on 2018-05-23 at 15:24:44

; external perimeters extrusion width = 0.40mm
; perimeters extrusion width = 0.40mm
; infill extrusion width = 0.40mm
; solid infill extrusion width = 0.40mm
; top infill extrusion width = 0.40mm

M107
M83
T0
M116
G21 ; set units to millimeters
G90 ; use absolute coordinates
M83 ; use relative distances for extrusion
G1 E-3.50000 F1500.00000
G1 Z0.400 F15000.000
G1 X21.401 Y-0.521 F15000.000
G1 Z0.300 F15000.000
G1 E3.50000 F1500.00000
G1 X21.783 Y15.185 E1.21078 F960.000
G1 X21.783 Y35.085 E1.53360
G1 X21.388 Y36.732 E0.13052
G1 X20.290 Y38.022 E0.13052
G1 X18.449 Y38.708 E0.15146
G1 X-3.945 Y40.573 E1.73178
G1 X-14.147 Y40.586 E0.78620
G1 X-15.794 Y40.191 E0.13052
G1 X-17.304 Y38.754 E0.16063
G1 X-21.304 Y31.754 E0.62132
G1 X-21.783 Y29.950 E0.14383
G1 X-21.783 Y-29.950 E4.61622
G1 X-21.304 Y-31.754 E0.14383
G1 X-17.304 Y-38.754 E0.62132
G1 X-16.144 Y-39.988 E0.13052
G1 X-14.147 Y-40.586 E0.16063
G1 X-4.196 Y-40.585 E0.76686
G1 X16.935 Y-40.290 E1.62869 F960.000
G1 X18.577 Y-39.873 E0.13052
G1 X19.851 Y-38.757 E0.13052
G1 X20.519 Y-36.743 E0.16349
G1 X21.400 Y-0.581 E2.78770
G1 E-3.50000 F1500.00000
G1 Z0.700 F15000.000
G1 X-5.233 Y33.787 F15000.000
G1 Z0.300 F15000.000
G1 E3.50000 F1500.00000
G1 X-5.233 Y35.964 E0.16781 F600.000
G1 X-13.161 Y35.964 E0.61103 F600.000
G1 X-13.161 Y32.036 E0.30277
G1 X-5.233 Y32.036 E0.61103
G1 X-5.233 Y33.727 E0.13034
G1 X-4.597 Y33.727 F15000.000
G1 X-4.597 Y36.600 E0.22142 F600.000
G1 X-13.797 Y36.600 E0.70900 F600.000
G1 X-13.797 Y31.400 E0.40074
G1 X-4.597 Y31.400 E0.70900
G1 X-4.597 Y33.667 E0.17470
G1 X-4.943 Y33.927 F15000.000
G1 X-5.618 Y32.731 F15000.000
G1 X-5.928 Y32.421 E0.03641 F960.000
G1 X-6.897 Y32.421 E0.08061
G1 X-5.618 Y33.700 E0.15040
G1 X-5.618 Y34.670 E0.08061
G1 X-7.867 Y32.421 E0.26440
G1 X-8.837 Y32.421 E0.08061
G1 X-5.679 Y35.579 E0.37126
G1 X-6.648 Y35.579 E0.08061
G1 X-9.806 Y32.421 E0.37126
G1 X-10.776 Y32.421 E0.08061
G1 X-7.618 Y35.579 E0.37126
G1 X-8.588 Y35.579 E0.08061
G1 X-11.746 Y32.421 E0.37126
G1 X-12.715 Y32.421 E0.08061
G1 X-9.557 Y35.579 E0.37126
G1 X-10.527 Y35.579 E0.08061
G1 X-12.776 Y33.330 E0.26440
G1 X-12.776 Y34.300 E0.08061
G1 X-11.497 Y35.579 E0.15040
G1 X-12.466 Y35.579 E0.08061
G1 X-12.776 Y35.269 E0.03641
G1 E-3.50000 F1500.00000
G1 Z0.700 F15000.000
G1 X-8.319 Y28.779 F15000.000
G1 Z0.300 F15000.000
G1 E3.50000 F1500.00000
G1 X-8.727 Y28.443 E0.04075 F600.000
G1 X-9.040 Y28.013 E0.04098
G1 X-9.238 Y27.489 E0.04322
G1 X-9.300 Y27.000 E0.03797
G1 X-9.234 Y26.476 E0.04074
G1 X-9.039 Y25.984 E0.04072
G1 X-8.749 Y25.586 E0.03800
G1 X-8.321 Y25.222 E0.04325
G1 X-7.840 Y24.998 E0.04090
G1 X-7.355 Y24.905 E0.03802 F600.000
G1 X-6.794 Y24.936 E0.04329
G1 X-6.290 Y25.103 E0.04093
G1 X-5.846 Y25.389 E0.04074
G1 X-5.488 Y25.776 E0.04062
G1 X-5.250 Y26.209 E0.03807
G1 X-5.110 Y26.752 E0.04322
G1 X-5.110 Y27.246 E0.03809
G1 X-5.236 Y27.758 E0.04060
G1 X-5.487 Y28.223 E0.04073
G1 X-5.846 Y28.611 E0.04074
G1 X-6.292 Y28.898 E0.04092
G1 X-6.828 Y29.068 E0.04331
G1 X-7.320 Y29.099 E0.03803
G1 X-7.839 Y29.002 E0.04068
G1 X-8.264 Y28.804 E0.03612
G1 X-8.680 Y28.950 F15000.000
G1 E-3.50000 F1500.00000
G1 Z0.700 F15000.000
G1 X4.161 Y2.002 F15000.000
G1 Z0.300 F15000.000
G1 E3.50000 F1500.00000
G1 X3.681 Y1.779 E0.04075 F600.000
G1 X3.273 Y1.443 E0.04075
G1 X2.960 Y1.013 E0.04098
G1 X2.762 Y0.489 E0.04322
G1 X2.700 Y-0.000 E0.03797
G1 X2.766 Y-0.524 E0.04074
G1 X2.961 Y-1.016 E0.04072
G1 X3.251 Y-1.414 E0.03800
G1 X3.679 Y-1.778 E0.04325
G1 X4.160 Y-2.002 E0.04090
G1 X4.645 Y-2.095 E0.03802 F600.000
G1 X5.206 Y-2.064 E0.04329
G1 X5.710 Y-1.897 E0.04093
G1 X6.154 Y-1.611 E0.04074
G1 X6.512 Y-1.224 E0.04062
G1 X6.750 Y-0.791 E0.03807
G1 X6.890 Y-0.248 E0.04322
G1 X6.890 Y0.246 E0.03809
G1 X6.764 Y0.758 E0.04060
G1 X6.513 Y1.223 E0.04073
G1 X6.154 Y1.611 E0.04074
G1 X5.708 Y1.898 E0.04092
G1 X5.172 Y2.068 E0.04331
G1 X4.680 Y2.099 E0.03803
G1 X4.220 Y2.013 E0.03605
G1 X3.853 Y2.259 F15000.000
G1 E-3.50000 F1500.00000
G1 Z0.700 F15000.000
G1 X6.345 Y-2.503 F15000.000
G1 Z0.300 F15000.000
G1 E3.50000 F1500.00000
G1 X6.247 Y-2.549 E0.00830 F600.000
G1 X5.687 Y-3.013 E0.05608
G1 X5.259 Y-3.601 E0.05608
G1 X4.991 Y-4.278 E0.05608
G1 X4.900 Y-5.000 E0.05608
G1 X4.991 Y-5.722 E0.05608
G1 X5.259 Y-6.399 E0.05608
G1 X5.687 Y-6.987 E0.05608
G1 X6.249 Y-7.452 E0.05621
G1 X6.932 Y-7.766 E0.05796
G1 X7.621 Y-7.897 E0.05402 F600.000
G1 X8.347 Y-7.852 E0.05608
G1 X9.039 Y-7.627 E0.05608
G1 X9.655 Y-7.236 E0.05621
G1 X10.165 Y-6.683 E0.05796
G1 X10.502 Y-6.069 E0.05402
G1 X10.683 Y-5.364 E0.05608
G1 X10.683 Y-4.636 E0.05608
G1 X10.502 Y-3.931 E0.05608
G1 X10.152 Y-3.294 E0.05608
G1 X9.654 Y-2.763 E0.05608
G1 X9.039 Y-2.373 E0.05608
G1 X8.347 Y-2.148 E0.05608
G1 X7.621 Y-2.103 E0.05608
G1 X6.906 Y-2.239 E0.05608
G1 X6.399 Y-2.477 E0.04316
G1 X6.256 Y-2.441 F15000.000
G1 E-3.50000 F1500.00000
G1 Z0.700 F15000.000
G1 X-6.292 Y-25.102 F15000.000
G1 Z0.300 F15000.000
G1 E3.50000 F1500.00000
G1 X-6.828 Y-24.932 E0.04331 F600.000
G1 X-7.320 Y-24.901 E0.03803
G1 X-7.839 Y-24.998 E0.04068
G1 X-8.319 Y-25.221 E0.04075
G1 X-8.727 Y-25.557 E0.04075
G1 X-9.040 Y-25.987 E0.04098
G1 X-9.238 Y-26.511 E0.04322
G1 X-9.300 Y-27.000 E0.03797
G1 X-9.234 Y-27.524 E0.04074
G1 X-9.039 Y-28.016 E0.04072
G1 X-8.749 Y-28.414 E0.03800
G1 X-8.321 Y-28.778 E0.04325
G1 X-7.840 Y-29.002 E0.04090
G1 X-7.355 Y-29.095 E0.03802 F600.000
G1 X-6.794 Y-29.064 E0.04329
G1 X-6.290 Y-28.897 E0.04093
G1 X-5.846 Y-28.611 E0.04074
G1 X-5.488 Y-28.224 E0.04062
G1 X-5.250 Y-27.791 E0.03807
G1 X-5.110 Y-27.248 E0.04322
G1 X-5.110 Y-26.754 E0.03809
G1 X-5.236 Y-26.242 E0.04060
G1 X-5.487 Y-25.777 E0.04073
G1 X-5.846 Y-25.389 E0.04074
G1 X-6.242 Y-25.134 E0.03630
G1 X-6.343 Y-24.705 F15000.000
G1 X-8.739 Y-2.401 F15000.000
G1 X-8.157 Y-2.211 E0.04721 F600.000
G1 X-7.635 Y-1.880 E0.04764
G1 X-7.209 Y-1.417 E0.04847
G1 X-6.925 Y-0.900 E0.04549
G1 X-6.772 Y-0.306 E0.04721
G1 X-6.772 Y0.306 E0.04721
G1 X-6.925 Y0.900 E0.04721
G1 X-7.220 Y1.436 E0.04721
G1 X-7.639 Y1.883 E0.04721
G1 X-8.157 Y2.211 E0.04721
G1 X-8.739 Y2.401 E0.04721
G1 X-9.350 Y2.439 E0.04721
G1 X-9.952 Y2.324 E0.04721
G1 X-10.512 Y2.061 E0.04764
G1 X-10.992 Y1.655 E0.04847
G1 X-11.339 Y1.177 E0.04549
G1 X-11.564 Y0.608 E0.04721
G1 X-11.641 Y0.000 E0.04721
G1 X-11.564 Y-0.608 E0.04721
G1 X-11.339 Y-1.177 E0.04721
G1 X-10.979 Y-1.673 E0.04721
G1 X-10.502 Y-2.067 E0.04764
G1 X-9.930 Y-2.328 E0.04847
G1 X-9.350 Y-2.439 E0.04549 F600.000
G1 X-8.799 Y-2.404 E0.04259
G1 X-8.859 Y-1.771 F15000.000
G1 X-8.429 Y-1.632 E0.03483 F600.000
G1 X-8.046 Y-1.388 E0.03498
G1 X-7.729 Y-1.043 E0.03609
G1 X-7.520 Y-0.664 E0.03338
G1 X-7.408 Y-0.226 E0.03483
G1 X-7.408 Y0.226 E0.03483
G1 X-7.520 Y0.664 E0.03483
G1 X-7.738 Y1.060 E0.03483
G1 X-8.048 Y1.389 E0.03483
G1 X-8.429 Y1.632 E0.03483
G1 X-8.859 Y1.771 E0.03483
G1 X-9.310 Y1.800 E0.03483
G1 X-9.754 Y1.715 E0.03483
G1 X-10.165 Y1.522 E0.03498
G1 X-10.523 Y1.219 E0.03609
G1 X-10.777 Y0.869 E0.03338
G1 X-10.944 Y0.448 E0.03483
G1 X-11.000 Y0.000 E0.03483
G1 X-10.944 Y-0.448 E0.03483
G1 X-10.777 Y-0.869 E0.03483
G1 X-10.512 Y-1.234 E0.03483
G1 X-10.162 Y-1.524 E0.03498
G1 X-9.736 Y-1.718 E0.03609
G1 X-9.310 Y-1.800 E0.03338 F600.000
G1 X-8.919 Y-1.775 E0.03021
G1 X-8.585 Y-2.063 F15000.000
G1 X-3.535 Y-3.888 F15000.000
G1 X-3.632 Y-4.135 E0.02044 F600.000
G1 X-3.740 Y-5.001 E0.06725
G1 X-3.631 Y-5.872 E0.06767
G1 X-3.302 Y-6.709 E0.06929
G1 X-2.779 Y-7.427 E0.06847
G1 X-2.093 Y-7.994 E0.06857
G1 X-1.288 Y-8.372 E0.06852
G1 X-0.443 Y-8.533 E0.06627 F600.000
G1 X0.472 Y-8.480 E0.07062
G1 X1.321 Y-8.202 E0.06890
G1 X2.071 Y-7.722 E0.06858
G1 X2.676 Y-7.073 E0.06841
G1 X3.091 Y-6.318 E0.06636
G1 X3.319 Y-5.432 E0.07052
G1 X3.319 Y-4.571 E0.06640
G1 X3.103 Y-3.710 E0.06837
G1 X2.676 Y-2.926 E0.06884
G1 X2.046 Y-2.259 E0.07069
G1 X1.320 Y-1.798 E0.06633
G1 X0.472 Y-1.520 E0.06877
G1 X-0.443 Y-1.467 E0.07062
G1 X-1.288 Y-1.629 E0.06627
G1 X-2.093 Y-2.006 E0.06852
G1 X-2.779 Y-2.573 E0.06858
G1 X-3.299 Y-3.288 E0.06813
G1 X-3.513 Y-3.833 E0.04512
G1 X-2.922 Y-4.065 F15000.000
G1 X-3.011 Y-4.293 E0.01891 F600.000
G1 X-3.100 Y-5.001 E0.05497
G1 X-3.010 Y-5.714 E0.05538
G1 X-2.740 Y-6.401 E0.05686
G1 X-2.312 Y-6.988 E0.05602
G1 X-1.750 Y-7.453 E0.05619
G1 X-1.090 Y-7.762 E0.05617
G1 X-0.401 Y-7.894 E0.05407 F600.000
G1 X0.352 Y-7.851 E0.05818
G1 X1.047 Y-7.623 E0.05630
G1 X1.661 Y-7.230 E0.05618
G1 X2.157 Y-6.697 E0.05612
G1 X2.495 Y-6.082 E0.05410
G1 X2.684 Y-5.352 E0.05815
G1 X2.684 Y-4.649 E0.05412
G1 X2.506 Y-3.943 E0.05610
G1 X2.157 Y-3.302 E0.05627
G1 X1.639 Y-2.753 E0.05820
G1 X1.046 Y-2.377 E0.05409
G1 X0.352 Y-2.149 E0.05625
G1 X-0.401 Y-2.106 E0.05818
G1 X-1.090 Y-2.238 E0.05407
G1 X-1.750 Y-2.547 E0.05617
G1 X-2.312 Y-3.012 E0.05620
G1 X-2.738 Y-3.596 E0.05567
G1 X-2.900 Y-4.009 E0.03421
G1 X-3.164 Y-4.101 F15000.000
G1 X-6.014 Y24.525 F15000.000
G1 X-6.675 Y24.306 E0.05369 F720.000
G1 X-7.398 Y24.267 E0.05582
G1 X-8.037 Y24.388 E0.05010
G1 X-8.667 Y24.682 E0.05361
G1 X-9.218 Y25.150 E0.05572
G1 X-9.600 Y25.675 E0.05002
G1 X-9.854 Y26.316 E0.05309
G1 X-9.941 Y27.000 E0.05314
G1 X-9.860 Y27.643 E0.04996
G1 X-9.605 Y28.319 E0.05565
G1 X-9.133 Y28.964 E0.06161
G1 X-17.161 Y28.964 E0.61869
G1 X-17.161 Y-28.964 E4.46431
G1 X-9.135 Y-28.964 E0.61856
G1 X-9.600 Y-28.325 E0.06095
G1 X-9.854 Y-27.684 E0.05309 F720.000
G1 X-9.941 Y-27.000 E0.05314
G1 X-9.860 Y-26.357 E0.04996
G1 X-9.605 Y-25.681 E0.05565
G1 X-9.193 Y-25.117 E0.05382
G1 X-8.660 Y-24.679 E0.05316
G1 X-8.035 Y-24.387 E0.05316
G1 X-7.359 Y-24.262 E0.05296
G1 X-6.710 Y-24.302 E0.05012
G1 X-6.019 Y-24.521 E0.05585
G1 X-5.434 Y-24.898 E0.05366
G1 X-4.966 Y-25.405 E0.05315
G1 X-4.638 Y-26.012 E0.05315
G1 X-4.474 Y-26.676 E0.05277
G1 X-4.474 Y-27.329 E0.05028
G1 X-4.654 Y-28.027 E0.05560
G1 X-4.968 Y-28.598 E0.05022
G1 X-5.307 Y-28.964 E0.03843
G1 X10.767 Y-28.964 E1.23878
G1 X10.767 Y-6.967 E1.69525
G1 X10.066 Y-7.728 E0.07977
G1 X9.312 Y-8.207 E0.06882
G1 X8.467 Y-8.481 E0.06846
G1 X7.580 Y-8.537 E0.06846
G1 X6.737 Y-8.376 E0.06616
G1 X5.908 Y-7.995 E0.07034
G1 X5.220 Y-7.426 E0.06882
G1 X4.697 Y-6.707 E0.06846
G1 X4.370 Y-5.881 E0.06846
G1 X4.259 Y-5.000 E0.06846
G1 X4.370 Y-4.119 E0.06846
G1 X4.697 Y-3.293 E0.06846
G1 X5.124 Y-2.705 E0.05598
G1 X4.602 Y-2.733 E0.04035
G1 X3.963 Y-2.612 E0.05010
G1 X3.333 Y-2.318 E0.05361
G1 X2.782 Y-1.850 E0.05572
G1 X2.400 Y-1.325 E0.05002
G1 X2.146 Y-0.684 E0.05309
G1 X2.059 Y-0.000 E0.05314
G1 X2.140 Y0.643 E0.04996
G1 X2.395 Y1.319 E0.05565
G1 X2.807 Y1.883 E0.05383
G1 X3.340 Y2.321 E0.05316
G1 X3.965 Y2.613 E0.05316
G1 X4.641 Y2.738 E0.05296
G1 X5.290 Y2.698 E0.05012
G1 X5.981 Y2.479 E0.05585
G1 X6.566 Y2.102 E0.05366
G1 X7.034 Y1.595 E0.05315
G1 X7.362 Y0.988 E0.05315
G1 X7.526 Y0.324 E0.05277
G1 X7.526 Y-0.329 E0.05028
G1 X7.346 Y-1.027 E0.05560
G1 X7.050 Y-1.564 E0.04722
G1 X7.580 Y-1.463 E0.04159
G1 X8.467 Y-1.519 E0.06846
G1 X9.312 Y-1.793 E0.06846
G1 X10.062 Y-2.269 E0.06846
G1 X10.767 Y-3.021 E0.07942
G1 X10.767 Y28.964 E2.46494
G1 X-5.307 Y28.964 E1.23878
G1 X-4.966 Y28.595 E0.03874
G1 X-4.638 Y27.988 E0.05315
G1 X-4.474 Y27.324 E0.05277
G1 X-4.474 Y26.671 E0.05028
G1 X-4.654 Y25.973 E0.05560
G1 X-4.968 Y25.402 E0.05022
G1 X-5.434 Y24.898 E0.05284
G1 X-5.963 Y24.557 E0.04853
G1 E-3.50000 F1500.00000
G1 Z0.700 F15000.000
G1 X-5.963 Y29.600 F15000.000
G1 Z0.300 F15000.000
G1 E3.50000 F1500.00000
G1 X-17.797 Y29.600 E0.91196 F720.000
G1 X-17.797 Y-29.600 E4.56228
G1 X11.403 Y-29.600 E2.25031
G1 X11.403 Y29.600 E4.56228
G1 X-5.903 Y29.600 E1.33373 F720.000
G1 X-6.163 Y29.254 F15000.000
G1 X-4.326 Y28.120 F15000.000
G1 X-3.867 Y28.579 E0.05008 F960.000
G1 X-2.967 Y28.579 E0.06944
G1 X-4.129 Y27.417 E0.12683
G1 X-4.089 Y26.557 E0.06637
G1 X-2.067 Y28.579 E0.22059
G1 X10.382 Y23.929 F15000.000
G1 X-16.776 Y-3.229 E2.96336 F960.000
G1 X-16.776 Y-2.329 E0.06944
G1 X10.382 Y24.829 E2.96336
G1 X10.382 Y25.728 E0.06944
G1 X-16.776 Y-1.429 E2.96336
G1 X-16.776 Y-0.529 E0.06944
G1 X10.382 Y26.628 E2.96336
G1 X10.382 Y27.528 E0.06944
G1 X-16.776 Y0.370 E2.96336
G1 X-16.776 Y1.270 E0.06944
G1 X10.382 Y28.428 E2.96336
G1 X9.633 Y28.579 E0.05898
G1 X-16.776 Y2.170 E2.88159
G1 X-16.776 Y3.070 E0.06944
G1 X8.733 Y28.579 E2.78339
G1 X7.833 Y28.579 E0.06944
G1 X-16.776 Y3.970 E2.68519
G1 X-16.776 Y4.870 E0.06944
G1 X6.933 Y28.579 E2.58699
G1 X6.033 Y28.579 E0.06944
G1 X-16.776 Y5.770 E2.48879
G1 X-16.776 Y6.670 E0.06944
G1 X5.133 Y28.579 E2.39059
G1 X4.233 Y28.579 E0.06944
G1 X-16.776 Y7.570 E2.29239
G1 X-16.776 Y8.470 E0.06944
G1 X3.333 Y28.579 E2.19419
G1 X2.433 Y28.579 E0.06944
G1 X-16.776 Y9.370 E2.09599
G1 X-16.776 Y10.270 E0.06944
G1 X1.533 Y28.579 E1.99779
G1 X0.633 Y28.579 E0.06944
G1 X-16.776 Y11.170 E1.89959
G1 X-16.776 Y12.070 E0.06944
G1 X-0.267 Y28.579 E1.80139
G1 X-1.167 Y28.579 E0.06944
G1 X-16.776 Y12.970 E1.70319
G1 X-16.776 Y13.870 E0.06944
G1 X-6.737 Y23.909 E1.09541
G1 X-7.608 Y23.938 E0.06727
G1 X-16.776 Y14.770 E1.00033
G1 X-16.776 Y15.670 E0.06944
G1 X-8.308 Y24.138 E0.92403
G1 X-8.900 Y24.446 E0.05148
G1 X-16.776 Y16.570 E0.85945
G1 X-16.776 Y17.470 E0.06944
G1 X-9.386 Y24.860 E0.80635
G1 X-9.783 Y25.363 E0.04944
G1 X-16.776 Y18.370 E0.76305
G1 X-16.776 Y19.270 E0.06944
G1 X-10.085 Y25.961 E0.73013
G1 X-10.272 Y26.674 E0.05685
G1 X-16.776 Y20.170 E0.70968
G1 X-16.776 Y21.070 E0.06944
G1 X-10.275 Y27.570 E0.70931
G1 X-10.167 Y28.579 E0.07828
G1 X-16.776 Y21.970 E0.72118
G1 X-16.776 Y22.870 E0.06944
G1 X-11.067 Y28.579 E0.62298
G1 X-11.967 Y28.579 E0.06944
G1 X-16.776 Y23.770 E0.52478
G1 X-16.776 Y24.669 E0.06944
G1 X-12.867 Y28.579 E0.42658
G1 X-13.767 Y28.579 E0.06944
G1 X-16.776 Y25.569 E0.32838
G1 X-16.776 Y26.469 E0.06944
G1 X-14.666 Y28.579 E0.23018
G1 X-15.566 Y28.579 E0.06944
G1 X-16.776 Y27.369 E0.13198
G1 X-16.776 Y28.269 E0.06944
G1 X-16.466 Y28.579 E0.03378
G1 X-9.890 Y2.757 F15000.000
G1 X10.382 Y23.029 E2.21199 F960.000
G1 X10.382 Y22.129 E0.06944
G1 X-8.955 Y2.792 E2.10992
G1 X-8.240 Y2.607 E0.05696
G1 X10.382 Y21.229 E2.03194
G1 X10.382 Y20.329 E0.06944
G1 X-7.657 Y2.290 E1.96831
G1 X-7.176 Y1.871 E0.04922
G1 X10.382 Y19.429 E1.91582
G1 X10.382 Y18.529 E0.06944
G1 X-6.791 Y1.356 E1.87383
G1 X-6.514 Y0.733 E0.05262
G1 X10.382 Y17.629 E1.84364
G1 X10.382 Y16.729 E0.06944
G1 X-6.387 Y-0.040 E1.82976
G1 X-6.537 Y-1.090 E0.08180
G1 X10.382 Y15.829 E1.84609
G1 X10.382 Y9.529 F15000.000
G1 X3.866 Y3.014 E0.71094 F960.000
G1 X4.856 Y3.103 E0.07663
G1 X10.382 Y8.629 E0.60301
G1 X10.382 Y7.729 E0.06944
G1 X5.615 Y2.963 E0.52011
G1 X6.253 Y2.700 E0.05320
G1 X10.382 Y6.829 E0.45053
G1 X10.382 Y5.929 E0.06944
G1 X6.794 Y2.341 E0.39153
G1 X7.226 Y1.874 E0.04914
G1 X10.382 Y5.029 E0.34434
G1 X10.382 Y4.129 E0.06944
G1 X7.569 Y1.316 E0.30699
G1 X7.811 Y0.658 E0.05407
G1 X10.382 Y3.229 E0.28053
G1 X10.382 Y2.329 E0.06944
G1 X7.911 Y-0.141 E0.26957
G1 X7.850 Y-1.102 E0.07430
G1 X10.382 Y1.429 E0.27624
G1 X10.382 Y0.530 E0.06944
G1 X8.644 Y-1.208 E0.18961
G1 X9.324 Y-1.429 E0.05511
G1 X10.382 Y-0.370 E0.11549
G1 X10.382 Y-1.270 E0.06944
G1 X9.889 Y-1.764 E0.05383
G1 E-3.50000 F1500.00000
G1 Z0.700 F15000.000
G1 X3.900 Y-6.852 F15000.000
G1 Z0.300 F15000.000
G1 E3.50000 F1500.00000
G1 X-16.776 Y-27.528 E2.25610 F960.000
G1 X-16.776 Y-28.428 E0.06944
G1 X4.564 Y-7.088 E2.32853
G1 X4.943 Y-7.610 E0.04971
G1 X-16.027 Y-28.579 E2.28809
G1 X-15.127 Y-28.579 E0.06944
G1 X5.426 Y-8.026 E2.24267
G1 X5.958 Y-8.394 E0.04990
G1 X-14.227 Y-28.579 E2.20249
G1 X-10.085 Y-28.037 F15000.000
G1 X-10.627 Y-28.579 E0.05909 F960.000
G1 X-11.527 Y-28.579 E0.06944
G1 X-10.272 Y-27.324 E0.13689
G1 X-10.275 Y-26.427 E0.06922
G1 X-12.427 Y-28.579 E0.23478
G1 X-13.327 Y-28.579 E0.06944
G1 X6.575 Y-8.677 E2.17159
G1 X7.300 Y-8.852 E0.05753
G1 X-7.766 Y-23.918 E1.64387
G1 X-6.863 Y-23.915 E0.06967
G1 X8.157 Y-8.896 E1.63884
G1 X9.279 Y-8.673 E0.08826
G1 X-6.157 Y-24.109 E1.68432
G1 X-5.565 Y-24.417 E0.05150
G1 X10.382 Y-8.470 E1.74005
G1 X10.382 Y-9.370 E0.06944
G1 X-5.062 Y-24.814 E1.68523
G1 X-4.642 Y-25.294 E0.04920
G1 X10.382 Y-10.270 E1.63933
G1 X10.382 Y-11.170 E0.06944
