; generated by Slic3r 1.2.9 on 2018-05-25 at 17:23:26

; external perimeters extrusion width = 0.40mm
; perimeters extrusion width = 0.40mm
; infill extrusion width = 0.40mm
; solid infill extrusion width = 0.40mm
; top infill extrusion width = 0.40mm

M107
M83
T0
M116
G21 ; set units to millimeters
G90 ; use absolute coordinates
M83 ; use relative distances for extrusion
G1 E-3.50000 F1500.00000
G1 Z0.400 F15000.000
G1 X21.254 Y-0.780 F15000.000
G1 Z0.300 F15000.000
G1 E3.50000 F1500.00000
G1 X21.844 Y15.350 E1.24391 F960.000
G1 X21.844 Y35.250 E1.53360
G1 X21.449 Y36.897 E0.13052
G1 X20.351 Y38.187 E0.13052
G1 X18.482 Y38.876 E0.15354
G1 X-4.034 Y40.575 E1.74016
G1 X-14.208 Y40.586 E0.78404
G1 X-15.855 Y40.191 E0.13052
G1 X-17.365 Y38.754 E0.16063
G1 X-21.365 Y31.754 E0.62132
G1 X-21.844 Y29.950 E0.14383
G1 X-21.844 Y-29.950 E4.61622
G1 X-21.365 Y-31.754 E0.14383
G1 X-17.365 Y-38.754 E0.62132
G1 X-16.205 Y-39.988 E0.13052
G1 X-14.208 Y-40.586 E0.16063
G1 X-4.262 Y-40.585 E0.76654
G1 X16.346 Y-40.321 E1.58823 F960.000
G1 X17.987 Y-39.906 E0.13052
G1 X19.263 Y-38.791 E0.13052
G1 X19.932 Y-36.819 E0.16050
G1 X21.252 Y-0.840 E2.77464
G1 E-3.50000 F1500.00000
G1 Z0.700 F15000.000
G1 X-11.308 Y32.036 F15000.000
G1 Z0.300 F15000.000
G1 E3.50000 F1500.00000
G1 X-5.294 Y32.036 E0.46347 F600.000
G1 X-5.294 Y35.964 E0.30277
G1 X-13.223 Y35.964 E0.61103 F600.000
G1 X-13.223 Y32.036 E0.30277
G1 X-11.368 Y32.036 E0.14294
G1 X-11.368 Y31.400 F15000.000
G1 X-4.658 Y31.400 E0.51707 F600.000
G1 X-4.658 Y36.600 E0.40074
G1 X-13.858 Y36.600 E0.70900 F600.000
G1 X-13.858 Y31.400 E0.40074
G1 X-11.428 Y31.400 E0.18730
G1 X-11.168 Y31.746 F15000.000
G1 X-12.837 Y35.269 F15000.000
G1 X-12.527 Y35.579 E0.03641 F960.000
G1 X-11.558 Y35.579 E0.08061
G1 X-12.837 Y34.300 E0.15040
G1 X-12.837 Y33.330 E0.08061
G1 X-10.588 Y35.579 E0.26440
G1 X-9.618 Y35.579 E0.08061
G1 X-12.776 Y32.421 E0.37126
G1 X-11.807 Y32.421 E0.08061
G1 X-8.649 Y35.579 E0.37126
G1 X-7.679 Y35.579 E0.08061
G1 X-10.837 Y32.421 E0.37126
G1 X-9.867 Y32.421 E0.08061
G1 X-6.710 Y35.579 E0.37126
G1 X-5.740 Y35.579 E0.08061
G1 X-8.898 Y32.421 E0.37126
G1 X-7.928 Y32.421 E0.08061
G1 X-5.679 Y34.670 E0.26440
G1 X-5.679 Y33.700 E0.08061
G1 X-6.958 Y32.421 E0.15040
G1 X-5.989 Y32.421 E0.08061
G1 X-5.679 Y32.731 E0.03641
G1 E-3.50000 F1500.00000
G1 Z0.700 F15000.000
G1 X-6.844 Y29.054 F15000.000
G1 Z0.300 F15000.000
G1 E3.50000 F1500.00000
G1 X-7.382 Y29.099 E0.04154 F600.000
G1 X-7.900 Y29.002 E0.04068
G1 X-8.380 Y28.779 E0.04075
G1 X-8.788 Y28.443 E0.04075
G1 X-9.101 Y28.013 E0.04098
G1 X-9.300 Y27.489 E0.04322
G1 X-9.361 Y27.000 E0.03797
G1 X-9.295 Y26.476 E0.04074
G1 X-9.100 Y25.984 E0.04072
G1 X-8.810 Y25.586 E0.03800
G1 X-8.382 Y25.222 E0.04325
G1 X-7.901 Y24.998 E0.04090
G1 X-7.416 Y24.905 E0.03802 F600.000
G1 X-6.856 Y24.936 E0.04329
G1 X-6.351 Y25.103 E0.04093
G1 X-5.907 Y25.389 E0.04074
G1 X-5.549 Y25.776 E0.04062
G1 X-5.311 Y26.209 E0.03807
G1 X-5.171 Y26.752 E0.04322
G1 X-5.171 Y27.246 E0.03809
G1 X-5.297 Y27.758 E0.04060
G1 X-5.548 Y28.223 E0.04073
G1 X-5.907 Y28.611 E0.04074
G1 X-6.353 Y28.898 E0.04092
G1 X-6.787 Y29.036 E0.03508
G1 X-6.987 Y29.428 F15000.000
G1 E-3.50000 F1500.00000
G1 Z0.700 F15000.000
G1 X4.100 Y2.002 F15000.000
G1 Z0.300 F15000.000
G1 E3.50000 F1500.00000
G1 X3.620 Y1.779 E0.04075 F600.000
G1 X3.212 Y1.443 E0.04075
G1 X2.899 Y1.013 E0.04098
G1 X2.700 Y0.489 E0.04322
G1 X2.639 Y-0.000 E0.03797
G1 X2.705 Y-0.524 E0.04074
G1 X2.900 Y-1.016 E0.04072
G1 X3.190 Y-1.414 E0.03800
G1 X3.618 Y-1.778 E0.04325
G1 X4.099 Y-2.002 E0.04090
G1 X4.584 Y-2.095 E0.03802 F600.000
G1 X5.144 Y-2.064 E0.04329
G1 X5.649 Y-1.897 E0.04093
G1 X6.093 Y-1.611 E0.04074
G1 X6.451 Y-1.224 E0.04062
G1 X6.689 Y-0.791 E0.03807
G1 X6.829 Y-0.248 E0.04322
G1 X6.829 Y0.246 E0.03809
G1 X6.703 Y0.758 E0.04060
G1 X6.452 Y1.223 E0.04073
G1 X6.093 Y1.611 E0.04074
G1 X5.647 Y1.898 E0.04092
G1 X5.111 Y2.068 E0.04331
G1 X4.618 Y2.099 E0.03803
G1 X4.159 Y2.013 E0.03605
G1 X3.792 Y2.259 F15000.000
G1 E-3.50000 F1500.00000
G1 Z0.700 F15000.000
G1 X6.284 Y-2.503 F15000.000
G1 Z0.300 F15000.000
G1 E3.50000 F1500.00000
G1 X6.186 Y-2.549 E0.00830 F600.000
G1 X5.626 Y-3.013 E0.05608
G1 X5.198 Y-3.601 E0.05608
G1 X4.930 Y-4.278 E0.05608
G1 X4.839 Y-5.000 E0.05608
G1 X4.930 Y-5.722 E0.05608
G1 X5.198 Y-6.399 E0.05608
G1 X5.626 Y-6.987 E0.05608
G1 X6.188 Y-7.452 E0.05621
G1 X6.871 Y-7.766 E0.05796
G1 X7.560 Y-7.897 E0.05402 F600.000
G1 X8.286 Y-7.852 E0.05608
G1 X8.978 Y-7.627 E0.05608
G1 X9.594 Y-7.236 E0.05621
G1 X10.103 Y-6.683 E0.05796
G1 X10.441 Y-6.069 E0.05402
G1 X10.622 Y-5.364 E0.05608
G1 X10.622 Y-4.636 E0.05608
G1 X10.441 Y-3.931 E0.05608
G1 X10.091 Y-3.294 E0.05608
G1 X9.592 Y-2.763 E0.05608
G1 X8.978 Y-2.373 E0.05608
G1 X8.286 Y-2.148 E0.05608
G1 X7.560 Y-2.103 E0.05608
G1 X6.845 Y-2.239 E0.05608
G1 X6.338 Y-2.477 E0.04316
G1 X6.195 Y-2.441 F15000.000
G1 E-3.50000 F1500.00000
G1 Z0.700 F15000.000
G1 X-6.353 Y-25.102 F15000.000
G1 Z0.300 F15000.000
G1 E3.50000 F1500.00000
G1 X-6.889 Y-24.932 E0.04331 F600.000
G1 X-7.382 Y-24.901 E0.03803
G1 X-7.900 Y-24.998 E0.04068
G1 X-8.380 Y-25.221 E0.04075
G1 X-8.788 Y-25.557 E0.04075
G1 X-9.101 Y-25.987 E0.04098
G1 X-9.300 Y-26.511 E0.04322
G1 X-9.361 Y-27.000 E0.03797
G1 X-9.295 Y-27.524 E0.04074
G1 X-9.100 Y-28.016 E0.04072
G1 X-8.810 Y-28.414 E0.03800
G1 X-8.382 Y-28.778 E0.04325
G1 X-7.901 Y-29.002 E0.04090
G1 X-7.416 Y-29.095 E0.03802 F600.000
G1 X-6.856 Y-29.064 E0.04329
G1 X-6.351 Y-28.897 E0.04093
G1 X-5.907 Y-28.611 E0.04074
G1 X-5.549 Y-28.224 E0.04062
G1 X-5.311 Y-27.791 E0.03807
G1 X-5.171 Y-27.248 E0.04322
G1 X-5.171 Y-26.754 E0.03809
G1 X-5.297 Y-26.242 E0.04060
G1 X-5.548 Y-25.777 E0.04073
G1 X-5.907 Y-25.389 E0.04074
G1 X-6.303 Y-25.134 E0.03630
G1 X-6.405 Y-24.705 F15000.000
G1 X-8.800 Y-2.401 F15000.000
G1 X-8.218 Y-2.211 E0.04721 F600.000
G1 X-7.696 Y-1.880 E0.04764
G1 X-7.270 Y-1.417 E0.04847
G1 X-6.986 Y-0.900 E0.04549
G1 X-6.834 Y-0.306 E0.04721
G1 X-6.834 Y0.306 E0.04721
G1 X-6.986 Y0.900 E0.04721
G1 X-7.281 Y1.436 E0.04721
G1 X-7.700 Y1.883 E0.04721
G1 X-8.218 Y2.211 E0.04721
G1 X-8.800 Y2.401 E0.04721
G1 X-9.412 Y2.439 E0.04721
G1 X-10.013 Y2.324 E0.04721
G1 X-10.573 Y2.061 E0.04764
G1 X-11.053 Y1.655 E0.04847
G1 X-11.400 Y1.177 E0.04549
G1 X-11.625 Y0.608 E0.04721
G1 X-11.702 Y0.000 E0.04721
G1 X-11.625 Y-0.608 E0.04721
G1 X-11.400 Y-1.177 E0.04721
G1 X-11.040 Y-1.673 E0.04721
G1 X-10.563 Y-2.067 E0.04764
G1 X-9.991 Y-2.328 E0.04847
G1 X-9.412 Y-2.439 E0.04549 F600.000
G1 X-8.860 Y-2.404 E0.04259
G1 X-8.920 Y-1.771 F15000.000
G1 X-8.490 Y-1.632 E0.03483 F600.000
G1 X-8.107 Y-1.388 E0.03498
G1 X-7.790 Y-1.043 E0.03609
G1 X-7.582 Y-0.664 E0.03338
G1 X-7.469 Y-0.226 E0.03483
G1 X-7.469 Y0.226 E0.03483
G1 X-7.582 Y0.664 E0.03483
G1 X-7.799 Y1.060 E0.03483
G1 X-8.109 Y1.389 E0.03483
G1 X-8.490 Y1.632 E0.03483
G1 X-8.920 Y1.771 E0.03483
G1 X-9.371 Y1.800 E0.03483
G1 X-9.815 Y1.715 E0.03483
G1 X-10.226 Y1.522 E0.03498
G1 X-10.584 Y1.219 E0.03609
G1 X-10.838 Y0.869 E0.03338
G1 X-11.005 Y0.448 E0.03483
G1 X-11.061 Y0.000 E0.03483
G1 X-11.005 Y-0.448 E0.03483
G1 X-10.838 Y-0.869 E0.03483
G1 X-10.573 Y-1.234 E0.03483
G1 X-10.223 Y-1.524 E0.03498
G1 X-9.797 Y-1.718 E0.03609
G1 X-9.371 Y-1.800 E0.03338 F600.000
G1 X-8.980 Y-1.775 E0.03021
G1 X-8.646 Y-2.063 F15000.000
G1 X-3.596 Y-3.888 F15000.000
G1 X-3.693 Y-4.135 E0.02044 F600.000
G1 X-3.802 Y-5.001 E0.06725
G1 X-3.692 Y-5.872 E0.06767
G1 X-3.363 Y-6.709 E0.06929
G1 X-2.840 Y-7.427 E0.06847
G1 X-2.154 Y-7.994 E0.06857
G1 X-1.349 Y-8.372 E0.06852
G1 X-0.504 Y-8.533 E0.06627 F600.000
G1 X0.411 Y-8.480 E0.07062
G1 X1.260 Y-8.202 E0.06890
G1 X2.010 Y-7.722 E0.06858
G1 X2.615 Y-7.073 E0.06841
G1 X3.030 Y-6.318 E0.06636
G1 X3.258 Y-5.432 E0.07052
G1 X3.258 Y-4.571 E0.06640
G1 X3.042 Y-3.710 E0.06837
G1 X2.615 Y-2.926 E0.06884
G1 X1.985 Y-2.259 E0.07069
G1 X1.258 Y-1.798 E0.06633
G1 X0.411 Y-1.520 E0.06877
G1 X-0.504 Y-1.467 E0.07062
G1 X-1.349 Y-1.629 E0.06627
G1 X-2.154 Y-2.006 E0.06852
G1 X-2.840 Y-2.573 E0.06858
G1 X-3.361 Y-3.288 E0.06813
G1 X-3.574 Y-3.833 E0.04512
G1 X-2.983 Y-4.065 F15000.000
G1 X-3.073 Y-4.293 E0.01891 F600.000
G1 X-3.161 Y-5.001 E0.05497
G1 X-3.072 Y-5.714 E0.05538
G1 X-2.801 Y-6.401 E0.05686
G1 X-2.374 Y-6.988 E0.05602
G1 X-1.811 Y-7.453 E0.05619
G1 X-1.152 Y-7.762 E0.05617
G1 X-0.462 Y-7.894 E0.05407 F600.000
G1 X0.291 Y-7.851 E0.05818
G1 X0.985 Y-7.623 E0.05630
G1 X1.600 Y-7.230 E0.05618
G1 X2.096 Y-6.697 E0.05612
G1 X2.434 Y-6.082 E0.05410
G1 X2.623 Y-5.352 E0.05815
G1 X2.623 Y-4.649 E0.05412
G1 X2.445 Y-3.943 E0.05610
G1 X2.096 Y-3.302 E0.05627
G1 X1.578 Y-2.753 E0.05820
G1 X0.985 Y-2.377 E0.05409
G1 X0.291 Y-2.149 E0.05625
G1 X-0.462 Y-2.106 E0.05818
G1 X-1.152 Y-2.238 E0.05407
G1 X-1.811 Y-2.547 E0.05617
G1 X-2.374 Y-3.012 E0.05620
G1 X-2.799 Y-3.596 E0.05567
G1 X-2.961 Y-4.009 E0.03421
G1 X-3.226 Y-4.101 F15000.000
G1 E-3.50000 F1500.00000
G1 Z0.700 F15000.000
G1 X10.706 Y0.406 F15000.000
G1 Z0.300 F15000.000
G1 E3.50000 F1500.00000
G1 X10.706 Y28.964 E2.20084 F720.000
G1 X-5.368 Y28.964 E1.23878
G1 X-5.027 Y28.595 E0.03874
G1 X-4.699 Y27.988 E0.05315
G1 X-4.535 Y27.324 E0.05277
G1 X-4.535 Y26.671 E0.05028
G1 X-4.716 Y25.973 E0.05560
G1 X-5.029 Y25.402 E0.05022
G1 X-5.495 Y24.898 E0.05284
G1 X-6.075 Y24.525 E0.05315
G1 X-6.736 Y24.306 E0.05369
G1 X-7.459 Y24.267 E0.05582
G1 X-8.098 Y24.388 E0.05010
G1 X-8.728 Y24.682 E0.05361
G1 X-9.279 Y25.150 E0.05572
G1 X-9.661 Y25.675 E0.05002
G1 X-9.915 Y26.316 E0.05309
G1 X-10.002 Y27.000 E0.05314
G1 X-9.921 Y27.643 E0.04996
G1 X-9.666 Y28.319 E0.05565
G1 X-9.194 Y28.964 E0.06161
G1 X-17.223 Y28.964 E0.61869
G1 X-17.223 Y-28.964 E4.46431
G1 X-9.196 Y-28.964 E0.61856
G1 X-9.661 Y-28.325 E0.06095
G1 X-9.915 Y-27.684 E0.05309 F720.000
G1 X-10.002 Y-27.000 E0.05314
G1 X-9.921 Y-26.357 E0.04996
G1 X-9.666 Y-25.681 E0.05565
G1 X-9.254 Y-25.117 E0.05382
G1 X-8.721 Y-24.679 E0.05316
G1 X-8.096 Y-24.387 E0.05316
G1 X-7.420 Y-24.262 E0.05296
G1 X-6.771 Y-24.302 E0.05012
G1 X-6.080 Y-24.521 E0.05585
G1 X-5.495 Y-24.898 E0.05366
G1 X-5.027 Y-25.405 E0.05315
G1 X-4.699 Y-26.012 E0.05315
G1 X-4.535 Y-26.676 E0.05277
G1 X-4.535 Y-27.329 E0.05028
G1 X-4.716 Y-28.027 E0.05560
G1 X-5.029 Y-28.598 E0.05022
G1 X-5.368 Y-28.964 E0.03843
G1 X10.706 Y-28.964 E1.23878
G1 X10.706 Y-6.967 E1.69525
G1 X10.005 Y-7.728 E0.07977
G1 X9.251 Y-8.207 E0.06882
G1 X8.406 Y-8.481 E0.06846
G1 X7.519 Y-8.537 E0.06846
G1 X6.676 Y-8.376 E0.06616
G1 X5.847 Y-7.995 E0.07034
G1 X5.159 Y-7.426 E0.06882
G1 X4.636 Y-6.707 E0.06846
G1 X4.309 Y-5.881 E0.06846
G1 X4.198 Y-5.000 E0.06846
G1 X4.309 Y-4.119 E0.06846
G1 X4.636 Y-3.293 E0.06846
G1 X5.063 Y-2.705 E0.05598
G1 X4.541 Y-2.733 E0.04035
G1 X3.902 Y-2.612 E0.05010
G1 X3.272 Y-2.318 E0.05361
G1 X2.721 Y-1.850 E0.05572
G1 X2.339 Y-1.325 E0.05002
G1 X2.085 Y-0.684 E0.05309
G1 X1.998 Y-0.000 E0.05314
G1 X2.079 Y0.643 E0.04996
G1 X2.334 Y1.319 E0.05565
G1 X2.746 Y1.883 E0.05383
G1 X3.279 Y2.321 E0.05316
G1 X3.904 Y2.613 E0.05316
G1 X4.580 Y2.738 E0.05296
G1 X5.229 Y2.698 E0.05012
G1 X5.920 Y2.479 E0.05585
G1 X6.505 Y2.102 E0.05366
G1 X6.973 Y1.595 E0.05315
G1 X7.301 Y0.988 E0.05315
G1 X7.465 Y0.324 E0.05277
G1 X7.465 Y-0.329 E0.05028
G1 X7.284 Y-1.027 E0.05560
G1 X6.989 Y-1.564 E0.04722
G1 X7.519 Y-1.463 E0.04159
G1 X8.406 Y-1.519 E0.06846
G1 X9.251 Y-1.793 E0.06846
G1 X10.001 Y-2.269 E0.06846
G1 X10.706 Y-3.021 E0.07942
G1 X10.706 Y0.346 E0.25948
G1 X11.342 Y0.346 F15000.000
G1 X11.342 Y29.600 E2.25444 F720.000
G1 X-17.858 Y29.600 E2.25031 F720.000
G1 X-17.858 Y-29.600 E4.56228
G1 X11.342 Y-29.600 E2.25031
G1 X11.342 Y0.286 E2.30321
G1 X10.995 Y0.546 F15000.000
G1 X10.436 Y-3.224 F15000.000
G1 X10.892 Y-3.876 E0.06130 F960.000
G1 X10.982 Y-4.596 E0.05594
G1 X10.982 Y-5.404 E0.06227
G1 X10.894 Y-6.102 E0.05424
G1 X10.822 Y-6.232 E0.01146
G1 X10.453 Y-6.746 E0.04874
G1 E-3.50000 F1500.00000
G1 Z0.700 F15000.000
G1 X3.963 Y-5.819 F15000.000
G1 Z0.300 F15000.000
G1 E3.50000 F1500.00000
G1 X3.882 Y-5.506 E0.02493 F960.000
G1 X3.750 Y-5.372 E0.01449
G1 X3.728 Y-4.981 E0.03019
G1 X3.754 Y-4.563 E0.03230
G1 X3.760 Y-4.562 F15000.000
G1 X3.727 Y-3.931 E0.10233 F960.000
G1 X3.794 Y-2.912 E0.16545
G1 X3.704 Y-2.889 F15000.000
G1 X3.040 Y-2.726 E0.05269 F960.000
G1 X3.023 Y-2.861 E0.01049
G1 X3.067 Y-3.060 E0.01568
G1 X3.195 Y-2.873 F15000.000
G1 X2.428 Y-2.135 E0.08202 F960.000
G1 X2.201 Y-1.878 E0.02643
G1 X2.207 Y-1.748 E0.01000
G1 X2.130 Y-1.608 E0.01235
G1 X2.390 Y-1.935 F15000.000
G1 X2.139 Y-1.860 E0.02017 F960.000
G1 X1.530 Y-1.572 E0.05198
G1 X3.885 Y-5.062 F15000.000
G1 X3.382 Y-6.300 E0.10298 F960.000
G1 X3.839 Y-6.852 F15000.000
G1 X-16.837 Y-27.528 E2.25610 F960.000
G1 X-16.837 Y-28.428 E0.06944
G1 X4.503 Y-7.088 E2.32853
G1 X4.882 Y-7.610 E0.04971
G1 X-16.088 Y-28.579 E2.28809
G1 X-15.188 Y-28.579 E0.06944
G1 X5.365 Y-8.026 E2.24267
G1 X5.897 Y-8.394 E0.04990
G1 X-14.288 Y-28.579 E2.20249
G1 X-10.146 Y-28.037 F15000.000
G1 X-10.688 Y-28.579 E0.05909 F960.000
G1 X-11.588 Y-28.579 E0.06944
G1 X-10.333 Y-27.324 E0.13689
G1 X-10.336 Y-26.427 E0.06922
G1 X-12.488 Y-28.579 E0.23478
G1 X-13.388 Y-28.579 E0.06944
G1 X6.514 Y-8.677 E2.17159
G1 X7.239 Y-8.852 E0.05753
G1 X-7.827 Y-23.918 E1.64387
G1 X-6.924 Y-23.915 E0.06967
G1 X8.095 Y-8.896 E1.63884
G1 X9.218 Y-8.673 E0.08826
G1 X-6.218 Y-24.109 E1.68432
G1 X-5.626 Y-24.417 E0.05150
G1 X10.321 Y-8.470 E1.74005
G1 X10.321 Y-9.370 E0.06944
G1 X-5.124 Y-24.814 E1.68523
G1 X-4.703 Y-25.294 E0.04920
G1 X10.321 Y-10.270 E1.63933
G1 X10.321 Y-11.170 E0.06944
G1 X-4.388 Y-25.879 E1.60493
G1 X-4.191 Y-26.582 E0.05633
G1 X10.321 Y-12.070 E1.58345
G1 X10.321 Y-12.970 E0.06944
G1 X-4.150 Y-27.440 E1.57896
G1 X-4.388 Y-28.579 E0.08975
G1 X10.321 Y-13.870 E1.60499
G1 X10.321 Y-14.770 E0.06944
G1 X-3.488 Y-28.579 E1.50679
G1 X-2.588 Y-28.579 E0.06944
G1 X10.321 Y-15.670 E1.40859
G1 X10.321 Y-16.570 E0.06944
G1 X-1.688 Y-28.579 E1.31039
G1 X-0.788 Y-28.579 E0.06944
G1 X10.321 Y-17.470 E1.21219
G1 X10.321 Y-18.370 E0.06944
G1 X0.112 Y-28.579 E1.11399
G1 X1.012 Y-28.579 E0.06944
G1 X10.321 Y-19.270 E1.01579
G1 X10.321 Y-20.170 E0.06944
G1 X1.911 Y-28.579 E0.91759
G1 X2.811 Y-28.579 E0.06944
G1 X10.321 Y-21.070 E0.81939
G1 X10.321 Y-21.970 E0.06944
G1 X3.711 Y-28.579 E0.72119
G1 X4.611 Y-28.579 E0.06944
G1 X10.321 Y-22.870 E0.62299
G1 X10.321 Y-23.769 E0.06944
G1 X5.511 Y-28.579 E0.52479
G1 X6.411 Y-28.579 E0.06944
G1 X10.321 Y-24.669 E0.42659
G1 X10.321 Y-25.569 E0.06944
G1 X7.311 Y-28.579 E0.32839
G1 X8.211 Y-28.579 E0.06944
G1 X10.321 Y-26.469 E0.23019
G1 X10.321 Y-27.369 E0.06944
G1 X9.111 Y-28.579 E0.13199
G1 X10.011 Y-28.579 E0.06944
G1 X10.321 Y-28.269 E0.03379
G1 X1.070 Y-8.721 F15000.000
G1 X-16.837 Y-26.628 E1.95399 F960.000
G1 X-16.837 Y-25.728 E0.06944
G1 X-0.007 Y-8.898 E1.83644
G1 X-0.845 Y-8.837 E0.06486
G1 X-16.837 Y-24.828 E1.74495
G1 X-16.837 Y-23.929 E0.06944
G1 X-1.558 Y-8.650 E1.66714
G1 X-2.171 Y-8.363 E0.05221
G1 X-16.837 Y-23.029 E1.60029
G1 X-16.837 Y-22.129 E0.06944
G1 X-2.689 Y-7.981 E1.54377
G1 X-3.160 Y-7.552 E0.04915
G1 X-16.837 Y-21.229 E1.49237
G1 X-16.837 Y-20.329 E0.06944
G1 X-3.539 Y-7.031 E1.45099
G1 X-3.843 Y-6.434 E0.05165
G1 X-16.837 Y-19.429 E1.41791
G1 X-16.837 Y-18.529 E0.06944
G1 X-4.078 Y-5.769 E1.39224
G1 X-4.178 Y-4.970 E0.06218
G1 X-16.837 Y-17.629 E1.38130
G1 X-16.837 Y-16.729 E0.06944
G1 X-4.079 Y-3.971 E1.39210
G1 X-3.354 Y-2.346 F15000.000
G1 X10.321 Y11.329 E1.49217 F960.000
G1 X10.321 Y10.429 E0.06944
G1 X-1.309 Y-1.200 E1.26895
G1 X-0.308 Y-1.100 E0.07756
G1 X1.712 Y0.920 E0.22041
G1 X1.633 Y-0.059 E0.07576
G1 X0.508 Y-1.183 E0.12270
G1 X-3.089 Y-2.080 F15000.000
G1 X-16.837 Y-15.829 E1.50017 F960.000
G1 X-16.837 Y-14.929 E0.06944
G1 X10.321 Y12.229 E2.96336
G1 X10.321 Y13.129 E0.06944
G1 X-16.837 Y-14.029 E2.96336
G1 X-16.837 Y-13.129 E0.06944
G1 X10.321 Y14.029 E2.96336
G1 X10.321 Y14.929 E0.06944
G1 X-16.837 Y-12.229 E2.96336
G1 X-16.837 Y-11.329 E0.06944
G1 X-8.155 Y-2.647 E0.94735
G1 X-9.231 Y-2.823 E0.08409
G1 X-16.837 Y-10.429 E0.82999
G1 X-16.837 Y-9.529 E0.06944
G1 X-10.003 Y-2.695 E0.74568
