; generated by Slic3r 1.2.9 on 2016-10-28 at 10:08:45

; external perimeters extrusion width = 0.50mm
; perimeters extrusion width = 0.50mm
; infill extrusion width = 0.50mm
; solid infill extrusion width = 0.50mm
; top infill extrusion width = 0.50mm

M107
;Basic settings: Layer height: {layer_height} Walls: {wall_thickness} Fill: {fill_density}
;Print time: {print_time}
;Filament used: {filament_amount}m {filament_weight}g
;Filament cost: {filament_cost}
;M190 S{print_bed_temperature} ;Uncomment to add your own bed temperature line
;M109 S{print_temperature} ;Uncomment to add your own temperature line
G21        ;metric values
G90        ;absolute positioning
M83
G10 P0 S200
T0
M116


G21 ; set units to millimeters
G90 ; use absolute coordinates
M83 ; use relative distances for extrusion
G1 E-3.20000 F3000.00000
G1 Z0.400 F9000.000
G1 X15.273 Y-8.818 F9000.000
G1 Z0.300 F9000.000
G1 E3.20000 F3000.00000
G1 X21.364 Y1.732 E1.11771 F1200.000
G1 X21.781 Y2.813 E0.10631
G1 X23.773 Y12.063 E0.86812
G1 X23.924 Y13.112 E0.09728
G1 X23.924 Y14.088 E0.08948
G1 X23.825 Y14.838 E0.06945
G1 X23.573 Y15.780 E0.08947
G1 X23.283 Y16.479 E0.06945
G1 X22.795 Y17.324 E0.08947
G1 X22.334 Y17.924 E0.06945
G1 X21.645 Y18.614 E0.08948
G1 X21.044 Y19.075 E0.06945
G1 X20.200 Y19.562 E0.08947
G1 X19.216 Y19.957 E0.09728
G1 X10.209 Y22.856 E0.86812
G1 X9.064 Y23.036 E0.10631
G1 X-9.064 Y23.036 E1.66333
G1 X-10.209 Y22.856 E0.10631
G1 X-19.216 Y19.957 E0.86812
G1 X-20.200 Y19.562 E0.09728
G1 X-21.044 Y19.075 E0.08947
G1 X-21.645 Y18.614 E0.06945
G1 X-22.334 Y17.924 E0.08948
G1 X-22.795 Y17.324 E0.06945
G1 X-23.283 Y16.479 E0.08947
G1 X-23.455 Y16.063 E0.04131
G1 X-23.573 Y15.780 E0.02814
G1 X-23.825 Y14.838 E0.08947
G1 X-23.924 Y14.088 E0.06945
G1 X-23.924 Y13.112 E0.08947
G1 X-23.773 Y12.063 E0.09728
G1 X-21.781 Y2.813 E0.86812
G1 X-21.364 Y1.732 E0.10631
G1 X-12.300 Y-13.968 E1.66333
G1 X-11.572 Y-14.869 E0.10631
G1 X-4.557 Y-21.220 E0.86812
G1 X-3.724 Y-21.875 E0.09728
G1 X-2.879 Y-22.362 E0.08948
G1 X-2.180 Y-22.652 E0.06945
G1 X-1.238 Y-22.904 E0.08947
G1 X-0.488 Y-23.003 E0.06945
G1 X0.488 Y-23.003 E0.08947
G1 X0.792 Y-22.963 E0.02814
G1 X1.238 Y-22.904 E0.04131 F1200.000
G1 X2.180 Y-22.652 E0.08947
G1 X2.879 Y-22.362 E0.06945
G1 X3.724 Y-21.875 E0.08948
G1 X4.557 Y-21.220 E0.09728
G1 X11.572 Y-14.869 E0.86812
G1 X12.300 Y-13.968 E0.10631
G1 X15.243 Y-8.870 E0.54011
G1 E-3.20000 F3000.00000
G1 Z0.700 F9000.000
G1 X2.154 Y1.446 F9000.000
G1 Z0.300 F9000.000
G1 E3.20000 F3000.00000
G1 X2.638 Y2.077 E0.07295 F900.000
G1 X2.942 Y2.812 E0.07295
G1 X3.046 Y3.600 E0.07295
G1 X2.942 Y4.388 E0.07295
G1 X2.638 Y5.123 E0.07295
G1 X2.154 Y5.754 E0.07295
G1 X1.523 Y6.238 E0.07295
G1 X0.788 Y6.542 E0.07295
G1 X-0.000 Y6.646 E0.07295
G1 X-0.788 Y6.542 E0.07295
G1 X-1.523 Y6.238 E0.07295
G1 X-2.154 Y5.754 E0.07295
G1 X-2.638 Y5.123 E0.07295
G1 X-2.851 Y4.608 E0.05111
G1 X-2.942 Y4.388 E0.02184
G1 X-3.046 Y3.600 E0.07295
G1 X-2.942 Y2.812 E0.07295
G1 X-2.638 Y2.077 E0.07295
G1 X-2.154 Y1.446 E0.07295
G1 X-1.523 Y0.962 E0.07295
G1 X-0.788 Y0.658 E0.07295
G1 X-0.310 Y0.595 E0.04426
G1 X0.000 Y0.554 E0.02869 F900.000
G1 X0.788 Y0.658 E0.07295
G1 X1.523 Y0.962 E0.07295
G1 X2.106 Y1.410 E0.06745
G1 X1.629 Y1.971 F9000.000
G1 X1.995 Y2.448 E0.05518 F900.000
G1 X2.225 Y3.004 E0.05518
G1 X2.304 Y3.600 E0.05518
G1 X2.225 Y4.196 E0.05518
G1 X1.995 Y4.752 E0.05518
G1 X1.629 Y5.229 E0.05518
G1 X1.152 Y5.595 E0.05518
G1 X0.596 Y5.825 E0.05518
G1 X-0.000 Y5.904 E0.05518
G1 X-0.596 Y5.825 E0.05518
G1 X-1.152 Y5.595 E0.05518
G1 X-1.629 Y5.229 E0.05518
G1 X-1.995 Y4.752 E0.05518
G1 X-2.171 Y4.327 E0.04223
G1 X-2.225 Y4.196 E0.01295
G1 X-2.304 Y3.600 E0.05518
G1 X-2.225 Y3.004 E0.05518
G1 X-1.995 Y2.448 E0.05518
G1 X-1.629 Y1.971 E0.05518
G1 X-1.152 Y1.605 E0.05518
G1 X-0.596 Y1.375 E0.05518
G1 X-0.214 Y1.324 E0.03538
G1 X-0.000 Y1.296 E0.01981 F900.000
G1 X0.596 Y1.375 E0.05518
G1 X1.152 Y1.605 E0.05518
G1 X1.581 Y1.934 E0.04968
G1 X2.020 Y1.884 F9000.000
G1 X-9.583 Y-8.931 F9000.000
G1 X-8.409 Y-10.964 E0.21546 F900.000
G1 X-6.122 Y-10.964 E0.20978
G1 X-5.049 Y-11.106 E0.09929
G1 X-3.977 Y-11.550 E0.10649
G1 X-3.056 Y-12.256 E0.10649
G1 X-2.350 Y-13.177 E0.10649
G1 X-1.966 Y-14.103 E0.09191
G1 X-1.523 Y-13.762 E0.05129
G1 X-0.788 Y-13.458 E0.07295
G1 X0.000 Y-13.354 E0.07295
G1 X0.788 Y-13.458 E0.07295
G1 X1.523 Y-13.762 E0.07295
G1 X1.966 Y-14.103 E0.05129
G1 X2.350 Y-13.177 E0.09191
G1 X3.056 Y-12.256 E0.10649 F900.000
G1 X3.977 Y-11.550 E0.10649
G1 X5.049 Y-11.106 E0.10649
G1 X6.122 Y-10.964 E0.09929
G1 X8.409 Y-10.964 E0.20978
G1 X10.850 Y-6.736 E0.44801
G1 X7.889 Y-6.736 E0.27168
G1 X5.386 Y-2.400 E0.45933
G1 X7.889 Y1.936 E0.45933
G1 X12.895 Y1.936 E0.45933
G1 X14.376 Y-0.629 E0.27168
G1 X16.817 Y3.600 E0.44801
G1 X15.687 Y5.558 E0.20740
G1 X15.382 Y6.212 E0.06624
G1 X15.182 Y6.960 E0.07101
G1 X15.112 Y7.757 E0.07341
G1 X15.260 Y8.881 E0.10408
G1 X15.704 Y9.954 E0.10649
G1 X16.314 Y10.748 E0.09191
G1 X15.798 Y10.962 E0.05129
G1 X15.167 Y11.446 E0.07295
G1 X14.683 Y12.077 E0.07295
G1 X14.378 Y12.812 E0.07295
G1 X14.275 Y13.600 E0.07295
G1 X14.348 Y14.154 E0.05129
G1 X13.354 Y14.024 E0.09191
G1 X12.204 Y14.175 E0.10649
G1 X11.132 Y14.619 E0.10649
G1 X10.211 Y15.326 E0.10649
G1 X9.552 Y16.184 E0.09929
G1 X8.409 Y18.164 E0.20978
G1 X3.526 Y18.164 E0.44801
G1 X5.006 Y15.600 E0.27168
G1 X2.503 Y11.264 E0.45933
G1 X-2.503 Y11.264 E0.45933
G1 X-5.006 Y15.600 E0.45933
G1 X-3.526 Y18.164 E0.27168
G1 X-8.409 Y18.164 E0.44801
G1 X-9.552 Y16.184 E0.20978
G1 X-10.211 Y15.326 E0.09929
G1 X-11.132 Y14.619 E0.10649
G1 X-12.204 Y14.175 E0.10649
G1 X-13.354 Y14.024 E0.10649
G1 X-14.348 Y14.154 E0.09191
G1 X-14.275 Y13.600 E0.05129
G1 X-14.378 Y12.812 E0.07295
G1 X-14.683 Y12.077 E0.07295
G1 X-15.167 Y11.446 E0.07295
G1 X-15.798 Y10.962 E0.07295
G1 X-16.314 Y10.748 E0.05129
G1 X-15.704 Y9.954 E0.09191
G1 X-15.260 Y8.881 E0.10649
G1 X-15.110 Y7.738 E0.10577
G1 X-15.227 Y6.760 E0.09042
G1 X-15.320 Y6.414 E0.03286
G1 X-15.687 Y5.558 E0.08550
G1 X-16.817 Y3.600 E0.20740
G1 X-14.376 Y-0.629 E0.44801
G1 X-12.895 Y1.936 E0.27168
G1 X-7.889 Y1.936 E0.45933
G1 X-5.386 Y-2.400 E0.45933
G1 X-7.889 Y-6.736 E0.45933
G1 X-10.850 Y-6.736 E0.27168
G1 X-9.613 Y-8.879 E0.22704
G1 X-10.250 Y-9.246 F9000.000
G1 X-8.833 Y-11.700 E0.25994 F900.000
G1 X-6.171 Y-11.700 E0.24433
G1 X-5.241 Y-11.822 E0.08598
G1 X-4.348 Y-12.192 E0.08871
G1 X-3.581 Y-12.781 E0.08871
G1 X-2.992 Y-13.548 E0.08871
G1 X-2.622 Y-14.441 E0.08871
G1 X-2.500 Y-15.371 E0.08598
G1 X-2.500 Y-15.538 E0.01540
G1 X-2.145 Y-15.609 E0.03323
G1 X-1.995 Y-15.248 E0.03585
G1 X-1.629 Y-14.771 E0.05518
G1 X-1.152 Y-14.405 E0.05518
G1 X-0.596 Y-14.175 E0.05518
G1 X0.000 Y-14.096 E0.05518
G1 X0.596 Y-14.175 E0.05518
G1 X1.152 Y-14.405 E0.05518
G1 X1.629 Y-14.771 E0.05518
G1 X1.995 Y-15.248 E0.05518
G1 X2.145 Y-15.609 E0.03585
G1 X2.500 Y-15.538 E0.03323
G1 X2.500 Y-15.371 E0.01540 F900.000
G1 X2.622 Y-14.441 E0.08598
G1 X2.992 Y-13.548 E0.08871
G1 X3.581 Y-12.781 E0.08871
G1 X4.348 Y-12.192 E0.08871
G1 X5.241 Y-11.822 E0.08871
G1 X6.171 Y-11.700 E0.08598
G1 X8.833 Y-11.700 E0.24433
G1 X12.124 Y-6.000 E0.60388
G1 X8.314 Y-6.000 E0.34962
G1 X6.235 Y-2.400 E0.38140
G1 X8.314 Y1.200 E0.38140
G1 X12.471 Y1.200 E0.38140
G1 X14.376 Y-2.100 E0.34962
G1 X17.667 Y3.600 E0.60388
G1 X16.340 Y5.898 E0.24342
G1 X16.076 Y6.465 E0.05739
G1 X15.909 Y7.088 E0.05920
G1 X15.852 Y7.741 E0.06011
G1 X15.977 Y8.689 E0.08780
G1 X16.347 Y9.583 E0.08871
G1 X16.935 Y10.350 E0.08871
G1 X17.679 Y10.920 E0.08598
G1 X17.824 Y11.004 E0.01540
G1 X17.708 Y11.347 E0.03323
G1 X17.321 Y11.296 E0.03585
G1 X16.724 Y11.375 E0.05518
G1 X16.169 Y11.605 E0.05518
G1 X15.691 Y11.971 E0.05518
G1 X15.325 Y12.448 E0.05518
G1 X15.095 Y13.004 E0.05518
G1 X15.017 Y13.600 E0.05518
G1 X15.095 Y14.196 E0.05518
G1 X15.325 Y14.752 E0.05518
G1 X15.563 Y15.062 E0.03585
G1 X15.324 Y15.334 E0.03323
G1 X15.179 Y15.250 E0.01540
G1 X14.313 Y14.892 E0.08598
G1 X13.354 Y14.765 E0.08871
G1 X12.396 Y14.892 E0.08871
G1 X11.503 Y15.262 E0.08871
G1 X10.735 Y15.850 E0.08871
G1 X10.165 Y16.594 E0.08598
G1 X8.833 Y18.900 E0.24433
G1 X2.252 Y18.900 E0.60388
G1 X4.157 Y15.600 E0.34962
G1 X2.078 Y12.000 E0.38140
G1 X-2.078 Y12.000 E0.38140
G1 X-4.157 Y15.600 E0.38140
G1 X-2.252 Y18.900 E0.34962
G1 X-8.833 Y18.900 E0.60388
G1 X-10.165 Y16.594 E0.24433
G1 X-10.735 Y15.850 E0.08598
G1 X-11.503 Y15.262 E0.08871
G1 X-12.396 Y14.892 E0.08871
G1 X-13.354 Y14.765 E0.08871
G1 X-14.313 Y14.892 E0.08871
G1 X-15.179 Y15.250 E0.08599
G1 X-15.324 Y15.334 E0.01540
G1 X-15.563 Y15.062 E0.03323
G1 X-15.325 Y14.752 E0.03585
G1 X-15.095 Y14.196 E0.05518
G1 X-15.017 Y13.600 E0.05518
G1 X-15.095 Y13.004 E0.05518
G1 X-15.325 Y12.448 E0.05518
G1 X-15.691 Y11.971 E0.05518
G1 X-16.169 Y11.605 E0.05518
G1 X-16.724 Y11.375 E0.05518
G1 X-17.321 Y11.296 E0.05518
G1 X-17.708 Y11.347 E0.03585
G1 X-17.824 Y11.004 E0.03323
G1 X-17.679 Y10.920 E0.01540
G1 X-16.935 Y10.350 E0.08598
G1 X-16.347 Y9.583 E0.08871
G1 X-15.977 Y8.689 E0.08871
G1 X-15.851 Y7.734 E0.08840
G1 X-15.951 Y6.900 E0.07711
G1 X-16.018 Y6.651 E0.02362
G1 X-16.245 Y6.102 E0.05450
G1 X-16.340 Y5.898 E0.02070
G1 X-17.667 Y3.600 E0.24342
G1 X-14.376 Y-2.100 E0.60388
G1 X-12.471 Y1.200 E0.34962
G1 X-8.314 Y1.200 E0.38140
G1 X-6.235 Y-2.400 E0.38140
G1 X-8.314 Y-6.000 E0.38140
G1 X-12.124 Y-6.000 E0.34962
G1 X-10.280 Y-9.195 E0.33844
G1 X-9.850 Y-9.246 F9000.000
G1 E-3.20000 F3000.00000
G1 Z0.700 F9000.000
G1 X2.459 Y-15.954 F9000.000
G1 Z0.300 F9000.000
G1 E3.20000 F3000.00000
G1 X2.316 Y-17.021 E0.09869 F900.000
G1 X2.077 Y-17.599 E0.05743
G1 X1.696 Y-18.096 E0.05743
G1 X1.252 Y-18.439 E0.05148
G1 X1.140 Y-18.503 E0.01186
G1 X0.621 Y-18.716 E0.05148
G1 X0.000 Y-18.798 E0.05743
G1 X-0.557 Y-18.727 E0.05148
G1 X-0.681 Y-18.693 E0.01186
G1 X-1.199 Y-18.477 E0.05148
G1 X-1.696 Y-18.096 E0.05743
G1 X-2.077 Y-17.599 E0.05743
G1 X-2.316 Y-17.021 E0.05743
G1 X-2.459 Y-15.954 E0.09869
G1 E-3.20000 F3000.00000
G1 Z0.700 F9000.000
G1 X-12.529 Y-5.600 F9000.000
G1 Z0.300 F9000.000
G1 E3.20000 F3000.00000
G1 X-14.232 Y-2.650 E0.31253 F900.000
G1 E-3.20000 F3000.00000
G1 Z0.700 F9000.000
G1 X-18.164 Y11.248 F9000.000
G1 Z0.300 F9000.000
G1 E3.20000 F3000.00000
G1 X-19.016 Y11.904 E0.09869 F900.000
G1 X-19.397 Y12.401 E0.05743
G1 X-19.637 Y12.979 E0.05743
G1 X-19.718 Y13.600 E0.05743
G1 X-19.647 Y14.157 E0.05148
G1 X-19.614 Y14.281 E0.01186
G1 X-19.397 Y14.799 E0.05148
G1 X-19.057 Y15.245 E0.05148
G1 X-18.966 Y15.337 E0.01186
G1 X-18.519 Y15.677 E0.05148
G1 X-17.941 Y15.916 E0.05743
G1 X-17.321 Y15.998 E0.05743
G1 X-16.700 Y15.916 E0.05743
G1 X-15.705 Y15.506 E0.09869
G1 E-3.20000 F3000.00000
G1 Z0.700 F9000.000
G1 X-1.703 Y19.050 F9000.000
G1 Z0.300 F9000.000
G1 E3.20000 F3000.00000
G1 X1.703 Y19.050 E0.31253 F900.000
G1 E-3.20000 F3000.00000
G1 Z0.700 F9000.000
G1 X15.705 Y15.506 F9000.000
G1 Z0.300 F9000.000
G1 E3.20000 F3000.00000
G1 X16.700 Y15.916 E0.09869 F900.000
G1 X17.321 Y15.998 E0.05743
G1 X17.941 Y15.916 E0.05743
G1 X18.460 Y15.703 E0.05148
G1 X18.572 Y15.639 E0.01186
G1 X19.016 Y15.296 E0.05148
G1 X19.399 Y14.800 E0.05745
G1 X19.637 Y14.221 E0.05745
G1 X19.712 Y13.665 E0.05148
G1 X19.712 Y13.535 E0.01186
G1 X19.637 Y12.979 E0.05148
G1 X19.397 Y12.401 E0.05743
G1 X19.016 Y11.904 E0.05743
G1 X18.164 Y11.248 E0.09869
G1 E-3.20000 F3000.00000
G1 Z0.700 F9000.000
G1 X14.232 Y-2.650 F9000.000
G1 Z0.300 F9000.000
G1 E3.20000 F3000.00000
G1 X12.529 Y-5.600 E0.31253 F900.000
G1 X8.029 Y-7.185 F9000.000
G1 X4.404 Y-10.809 E0.47818 F900.000
G1 X5.730 Y-10.541 E0.12620
G1 X9.086 Y-7.185 E0.44281
G1 X9.703 Y-7.626 E0.07075
G1 X6.814 Y-10.515 E0.38125
G1 X7.872 Y-10.515 E0.09869
G1 X8.258 Y-10.128 E0.05103
G1 X7.430 Y-6.725 F9000.000
G1 X1.031 Y-13.124 E0.84427 F900.000
G1 X0.157 Y-12.941 E0.08336
G1 X7.043 Y-6.055 E0.90857
G1 X6.656 Y-5.384 E0.07225
G1 X-0.967 Y-13.006 E1.00570
G1 X-2.007 Y-12.989 E0.09708
G1 X6.269 Y-4.713 E1.09189
G1 X5.882 Y-4.043 E0.07225
G1 X-2.466 Y-12.390 E1.10140
G1 X-2.969 Y-11.836 E0.06987
G1 X5.494 Y-3.372 E1.11670
G1 X5.107 Y-2.701 E0.07225
G1 X-3.568 Y-11.377 E1.14459
G1 X-4.251 Y-11.002 E0.07269
G1 X5.303 Y-1.448 E1.26049
G1 X6.748 Y1.055 F9000.000
G1 X-4.999 Y-10.692 E1.54983 F900.000
G1 X-5.922 Y-10.557 E0.08700
G1 X15.409 Y10.774 E2.81430
G1 X14.829 Y11.252 E0.07010
G1 X-6.938 Y-10.515 E2.87188
G1 X-7.996 Y-10.515 E0.09869
G1 X14.370 Y11.850 E2.95085
G1 X14.040 Y12.579 E0.07459
G1 X-8.522 Y-9.984 E2.97687
G1 X-8.909 Y-9.313 E0.07225
G1 X0.556 Y0.152 E1.24887
G1 X-0.472 Y0.182 E0.09593
G1 X-9.297 Y-8.642 E1.16434
G1 X-9.684 Y-7.972 E0.07225
G1 X-8.897 Y-7.185 E0.10384
G1 X-5.629 Y-3.917 F9000.000
G1 X-1.283 Y0.429 E0.57334 F900.000
G1 X-1.960 Y0.810 E0.07244
G1 X-5.020 Y-2.250 E0.40376
G1 X-5.407 Y-1.579 E0.07225
G1 X-2.528 Y1.299 E0.37983
G1 X-2.987 Y1.898 E0.07039
G1 X-5.794 Y-0.909 E0.37031
G1 X-6.181 Y-0.238 E0.07225
G1 X-3.305 Y2.638 E0.37953
G1 X-3.471 Y3.530 E0.08464
G1 X-6.569 Y0.432 E0.40874
G1 X-6.956 Y1.103 E0.07225
G1 X-3.379 Y4.680 E0.47196
G1 X-1.080 Y6.979 F9000.000
G1 X8.743 Y16.802 E1.29603 F900.000
G1 X8.356 Y17.472 E0.07225
G1 X4.486 Y13.603 E0.51051
G1 X5.447 Y15.621 F9000.000
G1 X7.541 Y17.715 E0.27626 F900.000
G1 X6.483 Y17.715 E0.09869
G1 X5.060 Y16.292 E0.18778
G1 X4.672 Y16.963 E0.07225
G1 X5.425 Y17.715 E0.09930
G1 X9.130 Y16.131 F9000.000
G1 X0.070 Y7.071 E1.19542 F900.000
G1 X0.962 Y6.905 E0.08464
G1 X9.576 Y15.519 E1.13651
G1 X10.065 Y14.950 E0.06998
G1 X1.702 Y6.587 E1.10339
G1 X2.301 Y6.128 E0.07039
G1 X10.664 Y14.491 E1.10339
G1 X11.332 Y14.102 E0.07217
G1 X2.790 Y5.560 E1.12703
G1 X3.171 Y4.883 E0.07244
G1 X12.080 Y13.792 E1.17537
G1 X12.984 Y13.638 E0.08558
G1 X3.418 Y4.072 E1.26221
G1 X3.448 Y3.044 E0.09593
G1 X13.860 Y13.456 E1.37376
G1 X14.817 Y9.124 F9000.000
G1 X8.078 Y2.385 E0.88918 F900.000
G1 X9.136 Y2.385 E0.09869
G1 X14.661 Y7.910 E0.72898
G1 X14.756 Y6.948 E0.09022
G1 X10.193 Y2.385 E0.60201
G1 X11.251 Y2.385 E0.09869
G1 X14.986 Y6.120 E0.49277
G1 X15.325 Y5.401 E0.07415
G1 X12.309 Y2.385 E0.39792
G1 X13.191 Y2.209 E0.08387
G1 X15.712 Y4.730 E0.33270
G1 X16.099 Y4.060 E0.07225
G1 X13.578 Y1.538 E0.33270
G1 X13.965 Y0.867 E0.07225
G1 X15.484 Y2.386 E0.20035
G1 X1.699 Y10.815 F9000.000
G1 X-7.343 Y1.774 E1.19291 F900.000
G1 X-7.790 Y2.385 E0.07062
G1 X0.641 Y10.815 E1.11229
G1 X-0.417 Y10.815 E0.09869
G1 X-8.848 Y2.385 E1.11229
G1 X-9.905 Y2.385 E0.09869
G1 X-1.475 Y10.815 E1.11229
G1 X-2.533 Y10.815 E0.09869
G1 X-10.963 Y2.385 E1.11229
G1 X-12.021 Y2.385 E0.09869
G1 X-3.024 Y11.382 E1.18707
G1 X-3.411 Y12.053 E0.07225
G1 X-14.717 Y0.746 E1.49172
G1 X-15.104 Y1.417 E0.07225
G1 X-3.798 Y12.723 E1.49172
G1 X-4.185 Y13.394 E0.07225
G1 X-15.492 Y2.088 E1.49172
G1 X-15.879 Y2.758 E0.07225
G1 X-4.573 Y14.065 E1.49172
G1 X-4.960 Y14.735 E0.07225
G1 X-16.266 Y3.429 E1.49172
G1 X-15.059 Y5.693 F9000.000
G1 X-5.347 Y15.406 E1.28143 F900.000
G1 X-4.859 Y16.952 F9000.000
G1 X-14.714 Y7.096 E1.30033 F900.000
G1 X-14.729 Y8.140 E0.09737
G1 X-5.153 Y17.715 E1.26335
G1 X-6.211 Y17.715 E0.09869
G1 X-14.890 Y9.036 E1.14507
G1 X-15.200 Y9.784 E0.07553
G1 X-10.785 Y14.199 E0.58244
G1 X-12.363 Y13.679 F9000.000
G1 X-14.228 Y11.814 E0.24609 F900.000
G1 X-13.845 Y13.255 E0.13907
G1 X-13.492 Y13.608 E0.04659
G1 X-9.082 Y15.902 F9000.000
G1 X-7.269 Y17.715 E0.23919 F900.000
G1 E-3.20000 F3000.00000
G1 Z0.700 F9000.000
G1 X-3.673 Y15.639 F9000.000
G1 Z0.600 F9000.000
G1 E3.20000 F3000.00000
G1 X-3.695 Y15.600 E0.00244 F1800.000
G1 X-1.848 Y12.400 E0.20076
G1 X1.848 Y12.400 E0.20076 F1800.000
G1 X3.695 Y15.600 E0.20076
G1 X1.848 Y18.800 E0.20076
G1 X-1.848 Y18.800 E0.20076
G1 X-3.643 Y15.691 E0.19507
G1 X-3.717 Y15.639 F9000.000
G1 X-15.483 Y14.092 F9000.000
G1 X-15.673 Y14.551 E0.02699 F1800.000
G1 X-15.975 Y14.945 E0.02699
G1 X-16.369 Y15.248 E0.02699
G1 X-16.828 Y15.438 E0.02699
G1 X-17.321 Y15.503 E0.02699
G1 X-17.813 Y15.438 E0.02699
G1 X-18.272 Y15.248 E0.02699
G1 X-18.666 Y14.945 E0.02699
G1 X-18.968 Y14.551 E0.02699
G1 X-19.158 Y14.092 E0.02699
G1 X-19.223 Y13.600 E0.02699
G1 X-19.158 Y13.108 E0.02699
