; generated by Slic3r 1.2.9 on 2016-10-24 at 11:39:38

; external perimeters extrusion width = 0.50mm
; perimeters extrusion width = 0.50mm
; infill extrusion width = 0.50mm
; solid infill extrusion width = 0.50mm
; top infill extrusion width = 0.50mm

M107
;Basic settings: Layer height: {layer_height} Walls: {wall_thickness} Fill: {fill_density}
;Print time: {print_time}
;Filament used: {filament_amount}m {filament_weight}g
;Filament cost: {filament_cost}
;M190 S{print_bed_temperature} ;Uncomment to add your own bed temperature line
;M109 S{print_temperature} ;Uncomment to add your own temperature line
G21        ;metric values
G90        ;absolute positioning
M83
G10 P0 S200
T0
M116


G21 ; set units to millimeters
G90 ; use absolute coordinates
M83 ; use relative distances for extrusion
G1 E-3.20000 F3000.00000
G1 Z0.400 F9000.000
G1 X21.778 Y-18.256 F9000.000
G1 Z0.300 F9000.000
G1 E3.20000 F3000.00000
G1 X33.044 Y-4.817 E1.60904 F1200.000
G1 X33.477 Y-4.201 E0.06902
G1 X33.768 Y-3.658 E0.05661
G1 X35.269 Y-0.203 E0.34557
G1 X35.467 Y0.381 E0.05661
G1 X35.538 Y0.667 E0.02705
G1 X35.637 Y1.276 E0.05661
G1 X35.935 Y5.031 E0.34557
G1 X35.932 Y5.648 E0.05661
G1 X35.907 Y5.942 E0.02705
G1 X35.803 Y6.550 E0.05661
G1 X34.865 Y10.197 E0.34557
G1 X34.663 Y10.780 E0.05661
G1 X34.543 Y11.050 E0.02705
G1 X34.248 Y11.591 E0.05661
G1 X32.176 Y14.737 E0.34557
G1 X31.795 Y15.222 E0.05661
G1 X31.595 Y15.438 E0.02705
G1 X31.139 Y15.855 E0.05660
G1 X28.159 Y18.157 E0.34557
G1 X3.985 Y34.812 E2.69343
G1 X3.487 Y35.101 E0.05284
G1 X0.409 Y36.584 E0.31341
G1 X-0.380 Y36.860 E0.07675
G1 X-1.024 Y37.007 E0.06057
G1 X-1.855 Y37.100 E0.07675
G1 X-5.271 Y37.100 E0.31341
G1 X-6.102 Y37.007 E0.07675
G1 X-6.746 Y36.860 E0.06057
G1 X-7.535 Y36.584 E0.07675
G1 X-10.613 Y35.101 E0.31341
G1 X-11.321 Y34.656 E0.07675
G1 X-11.837 Y34.245 E0.06057
G1 X-12.242 Y33.871 E0.05052
G1 X-31.770 Y12.911 E2.62844
G1 X-34.087 Y10.023 E0.33973
G1 X-34.532 Y9.314 E0.07675
G1 X-34.819 Y8.720 E0.06057
G1 X-35.095 Y7.930 E0.07675
G1 X-35.855 Y4.600 E0.31341
G1 X-35.949 Y3.768 E0.07675
G1 X-35.949 Y3.108 E0.06057
G1 X-35.855 Y2.277 E0.07675
G1 X-35.095 Y-1.053 E0.31341
G1 X-34.819 Y-1.843 E0.07675
G1 X-34.532 Y-2.438 E0.06057
G1 X-34.198 Y-3.000 E0.05999
G1 X-14.663 Y-30.130 E3.06740
G1 X-14.371 Y-30.488 E0.04237
G1 X-11.810 Y-33.249 E0.34557
G1 X-11.354 Y-33.665 E0.05660
G1 X-11.121 Y-33.846 E0.02705
G1 X-10.603 Y-34.181 E0.05661
G1 X-7.284 Y-35.962 E0.34557
G1 X-6.718 Y-36.207 E0.05660
G1 X-6.439 Y-36.302 E0.02705
G1 X-5.840 Y-36.451 E0.05661
G1 X-2.123 Y-37.058 E0.34557
G1 X-1.508 Y-37.106 E0.05661
G1 X-1.213 Y-37.105 E0.02705
G1 X-0.599 Y-37.052 E0.05660 F1200.000
G1 X3.114 Y-36.418 E0.34557
G1 X3.712 Y-36.265 E0.05661
G1 X3.990 Y-36.168 E0.02705
G1 X4.554 Y-35.918 E0.05661
G1 X7.860 Y-34.113 E0.34557
G1 X8.375 Y-33.774 E0.05661
G1 X8.607 Y-33.592 E0.02705
G1 X9.059 Y-33.173 E0.05661
G1 X11.705 Y-30.272 E0.36021
G1 X21.739 Y-18.302 E1.43307
G1 E-3.20000 F3000.00000
G1 Z0.700 F9000.000
G1 X0.837 Y-1.064 F9000.000
G1 Z0.300 F9000.000
G1 E3.20000 F3000.00000
G1 X1.543 Y-0.069 E0.11189 F900.000
G1 X1.957 Y0.979 E0.10333
G1 X2.105 Y2.146 E0.10798
G1 X1.957 Y3.314 E0.10798
G1 X1.524 Y4.408 E0.10798
G1 X0.832 Y5.360 E0.10798
G1 X-0.075 Y6.110 E0.10798
G1 X-1.139 Y6.611 E0.10798
G1 X-2.295 Y6.832 E0.10798
G1 X-3.470 Y6.758 E0.10798
G1 X-4.589 Y6.394 E0.10798
G1 X-5.583 Y5.764 E0.10798
G1 X-6.389 Y4.906 E0.10798
G1 X-6.931 Y3.919 E0.10333
G1 X-7.248 Y2.741 E0.11189
G1 X-7.248 Y1.558 E0.10860
G1 X-6.968 Y0.467 E0.10333
G1 X-6.393 Y-0.609 E0.11189
G1 X-5.583 Y-1.471 E0.10860
G1 X-4.584 Y-2.106 E0.10860
G1 X-3.419 Y-2.469 E0.11189
G1 X-2.295 Y-2.540 E0.10333 F900.000
G1 X-1.139 Y-2.319 E0.10798
G1 X-0.075 Y-1.818 E0.10798
G1 X0.791 Y-1.102 E0.10310
G1 X0.294 Y-0.559 F9000.000
G1 X0.891 Y0.285 E0.09484 F900.000
G1 X1.239 Y1.163 E0.08668
G1 X1.363 Y2.146 E0.09093
G1 X1.239 Y3.129 E0.09093
G1 X0.874 Y4.051 E0.09093
G1 X0.292 Y4.853 E0.09093
G1 X-0.472 Y5.484 E0.09093
G1 X-1.369 Y5.906 E0.09093
G1 X-2.342 Y6.092 E0.09093
G1 X-3.331 Y6.030 E0.09093
G1 X-4.274 Y5.723 E0.09093
G1 X-5.110 Y5.192 E0.09093
G1 X-5.789 Y4.470 E0.09093
G1 X-6.244 Y3.642 E0.08668
G1 X-6.513 Y2.644 E0.09484
G1 X-6.513 Y1.651 E0.09115
G1 X-6.278 Y0.736 E0.08668
G1 X-5.790 Y-0.176 E0.09484
G1 X-5.110 Y-0.900 E0.09115
G1 X-4.272 Y-1.432 E0.09115
G1 X-3.285 Y-1.740 E0.09484
G1 X-2.342 Y-1.800 E0.08668 F900.000
G1 X-1.369 Y-1.614 E0.09093
G1 X-0.472 Y-1.192 E0.09093
G1 X0.247 Y-0.597 E0.08564
G1 X0.687 Y-0.631 F9000.000
G1 E-3.20000 F3000.00000
G1 Z0.700 F9000.000
G1 X-6.311 Y6.535 F9000.000
G1 Z0.300 F9000.000
G1 E3.20000 F3000.00000
G1 X-7.808 Y4.659 E0.22023 F900.000
G1 X-8.381 Y2.146 E0.23647
G1 X-7.808 Y-0.367 E0.23647
G1 X-6.201 Y-2.382 E0.23647
G1 X-3.879 Y-3.500 E0.23647
G1 X-1.302 Y-3.500 E0.23647
G1 X1.020 Y-2.382 E0.23647
G1 X2.627 Y-0.367 E0.23647 F900.000
G1 X3.201 Y2.146 E0.23647
G1 X2.627 Y4.659 E0.23647
G1 X1.020 Y6.674 E0.23647
G1 X-1.302 Y7.792 E0.23647
G1 X-3.879 Y7.792 E0.23647
G1 X-6.201 Y6.674 E0.23647
G1 X-6.274 Y6.582 E0.01073
G1 X-6.909 Y6.965 F9000.000
G1 X-8.250 Y5.285 E0.19726 F900.000
G1 X-9.111 Y5.844 E0.09422
G1 X-9.464 Y5.966 E0.03428
G1 X-10.591 Y5.999 E0.10339
G1 X-9.863 Y5.139 E0.10339
G1 X-9.547 Y4.939 E0.03428
G1 X-8.573 Y4.614 E0.09422
G1 X-9.051 Y2.518 E0.19726
G1 X-10.070 Y2.648 E0.09422
G1 X-10.441 Y2.605 E0.03428
G1 X-11.470 Y2.146 E0.10339
G1 X-10.441 Y1.687 E0.10339
G1 X-10.070 Y1.644 E0.03428
G1 X-9.051 Y1.774 E0.09422
G1 X-8.573 Y-0.322 E0.19726
G1 X-9.547 Y-0.647 E0.09422
G1 X-9.863 Y-0.847 E0.03428
G1 X-10.591 Y-1.707 E0.10339
G1 X-9.464 Y-1.674 E0.10339
G1 X-9.111 Y-1.552 E0.03428
G1 X-8.250 Y-0.992 E0.09422
G1 X-6.909 Y-2.673 E0.19726
G1 X-7.646 Y-3.388 E0.09422
G1 X-7.844 Y-3.705 E0.03428
G1 X-8.127 Y-4.796 E0.10339
G1 X-7.126 Y-4.278 E0.10339
G1 X-6.861 Y-4.015 E0.03428
G1 X-6.328 Y-3.137 E0.09422
G1 X-4.391 Y-4.070 E0.19726
G1 X-4.744 Y-5.034 E0.09422
G1 X-4.785 Y-5.405 E0.03428
G1 X-4.566 Y-6.511 E0.10339
G1 X-3.906 Y-5.632 E0.10082
G1 X-3.765 Y-5.254 E0.03707
G1 X-3.665 Y-4.235 E0.09388
G1 X-1.515 Y-4.235 E0.19726
G1 X-1.415 Y-5.258 E0.09422
G1 X-1.291 Y-5.610 E0.03428
G1 X-0.614 Y-6.511 E0.10339
G1 X-0.396 Y-5.405 E0.10339
G1 X-0.436 Y-5.034 E0.03428 F900.000
G1 X-0.790 Y-4.070 E0.09422
G1 X1.147 Y-3.137 E0.19726
G1 X1.681 Y-4.015 E0.09422
G1 X1.946 Y-4.278 E0.03428
G1 X2.946 Y-4.796 E0.10339
G1 X2.663 Y-3.705 E0.10339
G1 X2.466 Y-3.388 E0.03428
G1 X1.729 Y-2.673 E0.09422
G1 X3.069 Y-0.992 E0.19726
G1 X3.931 Y-1.552 E0.09422
G1 X4.284 Y-1.674 E0.03428
G1 X5.410 Y-1.707 E0.10339
G1 X4.682 Y-0.847 E0.10339
G1 X4.366 Y-0.647 E0.03428
G1 X3.392 Y-0.322 E0.09422
G1 X3.871 Y1.774 E0.19726
G1 X4.889 Y1.644 E0.09422
G1 X5.260 Y1.687 E0.03428
G1 X6.289 Y2.146 E0.10339
G1 X5.260 Y2.605 E0.10339
G1 X4.889 Y2.648 E0.03428
G1 X3.871 Y2.518 E0.09422
G1 X3.392 Y4.614 E0.19726
G1 X4.366 Y4.939 E0.09422
G1 X4.682 Y5.139 E0.03428
G1 X5.410 Y5.999 E0.10339
G1 X4.284 Y5.966 E0.10339
G1 X3.931 Y5.844 E0.03428
G1 X3.069 Y5.285 E0.09422
G1 X1.729 Y6.965 E0.19726
G1 X2.466 Y7.681 E0.09422
G1 X2.663 Y7.998 E0.03428
G1 X2.946 Y9.089 E0.10339
G1 X1.946 Y8.570 E0.10339
G1 X1.681 Y8.307 E0.03428
G1 X1.147 Y7.429 E0.09422
G1 X-0.790 Y8.362 E0.19726
G1 X-0.436 Y9.326 E0.09422
G1 X-0.396 Y9.698 E0.03428
G1 X-0.614 Y10.803 E0.10339
G1 X-1.291 Y9.902 E0.10339
G1 X-1.415 Y9.550 E0.03428
G1 X-1.515 Y8.528 E0.09422
G1 X-3.665 Y8.528 E0.19726
G1 X-3.765 Y9.550 E0.09422
G1 X-3.890 Y9.902 E0.03428
G1 X-4.566 Y10.803 E0.10339
G1 X-4.785 Y9.698 E0.10339
G1 X-4.744 Y9.326 E0.03428
G1 X-4.391 Y8.362 E0.09422
G1 X-6.328 Y7.429 E0.19726
G1 X-6.861 Y8.307 E0.09422
G1 X-7.126 Y8.570 E0.03428
G1 X-8.127 Y9.089 E0.10339
G1 X-7.844 Y7.998 E0.10339
G1 X-7.646 Y7.681 E0.03428
G1 X-6.952 Y7.007 E0.08872
G1 X-6.605 Y6.706 F9000.000
G1 X-5.952 Y6.141 F9000.000
G1 X-6.768 Y5.198 E0.11440 F600.000
G1 X-7.294 Y4.412 E0.08685
G1 X-7.413 Y4.094 E0.03106
G1 X-7.735 Y2.790 E0.12328
G1 X-7.808 Y2.146 E0.05945
G1 X-7.731 Y1.482 E0.06136
G1 X-7.444 Y0.299 E0.11167 F600.000
G1 X-7.291 Y-0.117 E0.04072
G1 X-6.774 Y-0.899 E0.08599
G1 X-5.936 Y-1.867 E0.11742
G1 X-5.853 Y-1.945 E0.01048
G1 X-4.796 Y-2.532 E0.11088
G1 X-3.752 Y-2.946 E0.10304
G1 X-3.496 Y-2.982 E0.02376
G1 X-2.279 Y-3.021 E0.11171
G1 X-1.429 Y-2.942 E0.07834
G1 X-0.970 Y-2.789 E0.04441
G1 X0.177 Y-2.243 E0.11651
G1 X0.663 Y-1.933 E0.05289
G1 X1.183 Y-1.404 E0.06803
G1 X1.991 Y-0.332 E0.12321
G1 X2.117 Y-0.121 E0.02257
G1 X2.423 Y0.873 E0.09538
G1 X2.647 Y2.146 E0.11862
G1 X2.423 Y3.419 E0.11863
G1 X2.117 Y4.413 E0.09538
G1 X1.985 Y4.640 E0.02413
G1 X1.195 Y5.681 E0.11987
G1 X0.663 Y6.226 E0.06985
G1 X0.177 Y6.535 E0.05289
G1 X-1.000 Y7.093 E0.11950
G1 X-1.429 Y7.234 E0.04141
G1 X-2.279 Y7.313 E0.07835
G1 X-3.549 Y7.273 E0.11656
G1 X-3.754 Y7.243 E0.01898
G1 X-4.804 Y6.820 E0.10393
G1 X-5.853 Y6.237 E0.11005
G1 X-5.911 Y6.185 E0.00718
G1 E-3.20000 F3000.00000
G1 Z0.700 F9000.000
G1 X-18.542 Y4.589 F9000.000
G1 Z0.300 F9000.000
G1 E3.20000 F3000.00000
G1 X-18.977 Y5.700 E0.10950 F900.000
G1 X-19.669 Y6.652 E0.10798
G1 X-20.576 Y7.403 E0.10798
G1 X-21.641 Y7.904 E0.10798
G1 X-22.797 Y8.124 E0.10798
G1 X-23.971 Y8.050 E0.10798
G1 X-25.091 Y7.687 E0.10798
G1 X-26.084 Y7.056 E0.10798
G1 X-26.890 Y6.198 E0.10798
G1 X-27.433 Y5.211 E0.10333
G1 X-27.750 Y4.034 E0.11189
G1 X-27.750 Y2.850 E0.10860
G1 X-27.470 Y1.759 E0.10333
G1 X-26.895 Y0.684 E0.11189
G1 X-26.084 Y-0.179 E0.10860
G1 X-25.085 Y-0.813 E0.10860
G1 X-23.921 Y-1.177 E0.11189
G1 X-22.797 Y-1.247 E0.10333 F900.000
G1 X-21.641 Y-1.027 E0.10798
G1 X-20.576 Y-0.526 E0.10798
G1 X-19.664 Y0.229 E0.10860
G1 X-18.959 Y1.224 E0.11189
G1 X-18.544 Y2.271 E0.10333
G1 X-18.397 Y3.438 E0.10798
G1 X-18.534 Y4.530 E0.10091
G1 X-19.262 Y4.422 F9000.000
G1 X-19.627 Y5.343 E0.09093 F900.000
G1 X-20.210 Y6.145 E0.09093
G1 X-20.973 Y6.777 E0.09093
G1 X-21.870 Y7.198 E0.09093
G1 X-22.843 Y7.384 E0.09093
G1 X-23.832 Y7.322 E0.09093
G1 X-24.775 Y7.016 E0.09093
G1 X-25.612 Y6.485 E0.09093
G1 X-26.290 Y5.762 E0.09093
G1 X-26.745 Y4.934 E0.08668
G1 X-27.014 Y3.936 E0.09484
G1 X-27.014 Y2.943 E0.09115
G1 X-26.779 Y2.028 E0.08668
G1 X-26.292 Y1.116 E0.09484
G1 X-25.612 Y0.392 E0.09115
G1 X-24.773 Y-0.140 E0.09115
G1 X-23.786 Y-0.448 E0.09484
G1 X-22.843 Y-0.507 E0.08668 F900.000
G1 X-21.870 Y-0.322 E0.09093
G1 X-20.973 Y0.100 E0.09093
G1 X-20.208 Y0.734 E0.09115
G1 X-19.610 Y1.577 E0.09484
G1 X-19.262 Y2.455 E0.08668
G1 X-19.138 Y3.438 E0.09093
G1 X-19.255 Y4.362 E0.08542
G1 X-18.988 Y4.713 F9000.000
G1 E-3.20000 F3000.00000
G1 Z0.700 F9000.000
G1 X-24.010 Y9.084 F9000.000
G1 Z0.300 F9000.000
G1 E3.20000 F3000.00000
G1 X-24.380 Y9.084 E0.03397 F900.000
G1 X-26.702 Y7.966 E0.23647
G1 X-28.309 Y5.951 E0.23647
G1 X-28.883 Y3.438 E0.23647
G1 X-28.309 Y0.926 E0.23647
G1 X-26.702 Y-1.089 E0.23647
G1 X-24.380 Y-2.208 E0.23647
G1 X-21.803 Y-2.208 E0.23647
G1 X-19.481 Y-1.089 E0.23647
G1 X-17.874 Y0.926 E0.23647 F900.000
G1 X-17.300 Y3.438 E0.23647
G1 X-17.874 Y5.951 E0.23647
G1 X-19.481 Y7.966 E0.23647
G1 X-21.803 Y9.084 E0.23647
G1 X-23.950 Y9.084 E0.19699
G1 X-23.950 Y9.820 F9000.000
G1 X-24.167 Y9.820 E0.01988 F900.000
G1 X-24.266 Y10.842 E0.09422
G1 X-24.391 Y11.194 E0.03428
G1 X-25.068 Y12.095 E0.10339
G1 X-25.286 Y10.990 E0.10339
G1 X-25.245 Y10.619 E0.03428
G1 X-24.892 Y9.654 E0.09422
G1 X-26.829 Y8.722 E0.19726
G1 X-27.362 Y9.599 E0.09422
G1 X-27.627 Y9.862 E0.03428
G1 X-28.628 Y10.381 E0.10339
G1 X-28.345 Y9.290 E0.10339
G1 X-28.148 Y8.973 E0.03428
G1 X-27.411 Y8.258 E0.09422
G1 X-28.751 Y6.577 E0.19726
G1 X-29.612 Y7.136 E0.09422
G1 X-29.966 Y7.258 E0.03428
G1 X-31.092 Y7.291 E0.10339
G1 X-30.364 Y6.431 E0.10339
G1 X-30.048 Y6.231 E0.03428
G1 X-29.074 Y5.906 E0.09422
G1 X-29.552 Y3.810 E0.19726
G1 X-30.571 Y3.941 E0.09422
G1 X-30.942 Y3.897 E0.03428
G1 X-31.971 Y3.438 E0.10339
G1 X-30.942 Y2.979 E0.10339
G1 X-30.571 Y2.936 E0.03428
G1 X-29.552 Y3.066 E0.09422
G1 X-29.074 Y0.970 E0.19726
G1 X-30.048 Y0.646 E0.09422
G1 X-30.364 Y0.446 E0.03428
G1 X-31.092 Y-0.414 E0.10339
G1 X-29.966 Y-0.381 E0.10339
G1 X-29.612 Y-0.259 E0.03428
G1 X-28.751 Y0.300 E0.09422
G1 X-27.411 Y-1.381 E0.19726
G1 X-28.148 Y-2.096 E0.09422
G1 X-28.345 Y-2.413 E0.03428
G1 X-28.628 Y-3.504 E0.10339
G1 X-27.627 Y-2.986 E0.10339
G1 X-27.362 Y-2.722 E0.03428
G1 X-26.829 Y-1.845 E0.09422
G1 X-24.892 Y-2.778 E0.19726
G1 X-25.245 Y-3.742 E0.09422
G1 X-25.286 Y-4.113 E0.03428
G1 X-25.068 Y-5.219 E0.10339
G1 X-24.408 Y-4.340 E0.10082
G1 X-24.266 Y-3.962 E0.03707
G1 X-24.167 Y-2.943 E0.09388
G1 X-22.017 Y-2.943 E0.19726
G1 X-21.917 Y-3.965 E0.09422
G1 X-21.792 Y-4.318 E0.03428
G1 X-21.116 Y-5.219 E0.10339
G1 X-20.897 Y-4.113 E0.10339
G1 X-20.938 Y-3.742 E0.03428 F900.000
G1 X-21.291 Y-2.778 E0.09422
G1 X-19.354 Y-1.845 E0.19726
G1 X-18.821 Y-2.722 E0.09422
G1 X-18.556 Y-2.986 E0.03428
G1 X-17.555 Y-3.504 E0.10339
G1 X-17.838 Y-2.413 E0.10339
G1 X-18.036 Y-2.096 E0.03428
G1 X-18.773 Y-1.381 E0.09422
G1 X-17.432 Y0.300 E0.19726
G1 X-16.571 Y-0.259 E0.09422
G1 X-16.218 Y-0.381 E0.03428
G1 X-15.091 Y-0.414 E0.10339
G1 X-15.819 Y0.446 E0.10339
G1 X-16.135 Y0.646 E0.03428
G1 X-17.109 Y0.970 E0.09422
G1 X-16.631 Y3.066 E0.19726
G1 X-15.612 Y2.936 E0.09422
G1 X-15.241 Y2.979 E0.03428
G1 X-14.212 Y3.438 E0.10339
G1 X-15.241 Y3.897 E0.10339
G1 X-15.612 Y3.941 E0.03428
G1 X-16.631 Y3.810 E0.09422
G1 X-17.109 Y5.906 E0.19726
G1 X-16.135 Y6.231 E0.09422
G1 X-15.819 Y6.431 E0.03428
G1 X-15.091 Y7.291 E0.10339
G1 X-16.218 Y7.258 E0.10339
G1 X-16.571 Y7.136 E0.03428
G1 X-17.432 Y6.577 E0.09422
G1 X-18.773 Y8.258 E0.19726
G1 X-18.036 Y8.973 E0.09422
G1 X-17.838 Y9.290 E0.03428
G1 X-17.555 Y10.381 E0.10339
G1 X-18.556 Y9.862 E0.10339
G1 X-18.821 Y9.599 E0.03428
G1 X-19.354 Y8.722 E0.09422
G1 X-21.291 Y9.654 E0.19726
G1 X-20.938 Y10.619 E0.09422
G1 X-20.897 Y10.990 E0.03428
G1 X-21.116 Y12.095 E0.10339
G1 X-21.792 Y11.194 E0.10339
G1 X-21.917 Y10.842 E0.03428
G1 X-22.017 Y9.820 E0.09422
G1 X-23.890 Y9.820 E0.17188
G1 X-24.058 Y9.632 F9000.000
G1 X-23.851 Y8.572 F9000.000
G1 X-24.255 Y8.535 E0.03724 F600.000
G1 X-25.281 Y8.124 E0.10148
G1 X-26.354 Y7.530 E0.11250
G1 X-27.286 Y6.469 E0.12954
G1 X-27.796 Y5.704 E0.08435
G1 X-27.914 Y5.387 E0.03106
G1 X-28.236 Y4.082 E0.12328
G1 X-28.309 Y3.438 E0.05945
G1 X-28.232 Y2.774 E0.06136
G1 X-27.945 Y1.591 E0.11167 F600.000
G1 X-27.792 Y1.175 E0.04072
G1 X-27.275 Y0.393 E0.08599
G1 X-26.437 Y-0.575 E0.11742
G1 X-26.354 Y-0.653 E0.01048
G1 X-25.298 Y-1.240 E0.11088
G1 X-24.254 Y-1.653 E0.10304
G1 X-23.997 Y-1.690 E0.02376
G1 X-22.780 Y-1.728 E0.11171
G1 X-21.930 Y-1.650 E0.07834
G1 X-21.471 Y-1.496 E0.04441
G1 X-20.297 Y-0.935 E0.11937
G1 X-19.838 Y-0.641 E0.05003
G1 X-19.299 Y-0.089 E0.07078
G1 X-18.510 Y0.960 E0.12046
G1 X-18.385 Y1.172 E0.02257
G1 X-18.078 Y2.165 E0.09538
G1 X-17.857 Y3.417 E0.11665
G1 X-18.078 Y4.712 E0.12050
G1 X-18.385 Y5.705 E0.09538
G1 X-18.537 Y5.963 E0.02746
G1 X-19.325 Y6.995 E0.11918
G1 X-19.838 Y7.518 E0.06721
G1 X-20.325 Y7.827 E0.05289
G1 X-21.471 Y8.373 E0.11651
G1 X-21.930 Y8.527 E0.04441
G1 X-22.780 Y8.605 E0.07835
G1 X-23.791 Y8.573 E0.09274
G1 E-3.20000 F3000.00000
G1 Z0.700 F9000.000
G1 X-7.366 Y21.644 F9000.000
G1 Z0.300 F9000.000
G1 E3.20000 F3000.00000
G1 X-6.556 Y20.781 E0.10860 F900.000
G1 X-5.556 Y20.147 E0.10860
G1 X-4.392 Y19.783 E0.11189
G1 X-3.268 Y19.713 E0.10333 F900.000
G1 X-2.112 Y19.933 E0.10798
G1 X-1.047 Y20.434 E0.10798
G1 X-0.135 Y21.189 E0.10860
G1 X0.570 Y22.184 E0.11189
G1 X0.985 Y23.231 E0.10333
G1 X1.132 Y24.398 E0.10798
G1 X0.985 Y25.566 E0.10798
G1 X0.551 Y26.660 E0.10798
G1 X-0.140 Y27.612 E0.10798
G1 X-1.047 Y28.363 E0.10798
G1 X-2.112 Y28.864 E0.10798
G1 X-3.268 Y29.084 E0.10798
G1 X-4.443 Y29.010 E0.10798
G1 X-5.562 Y28.647 E0.10798
G1 X-6.556 Y28.016 E0.10798
G1 X-7.361 Y27.158 E0.10798
G1 X-7.904 Y26.171 E0.10333
G1 X-8.221 Y24.994 E0.11189
G1 X-8.221 Y23.810 E0.10860
G1 X-7.941 Y22.719 E0.10333
G1 X-7.394 Y21.697 E0.10639
G1 X-6.763 Y22.076 F9000.000
G1 X-6.083 Y21.352 E0.09115 F900.000
G1 X-5.244 Y20.820 E0.09115
G1 X-4.258 Y20.512 E0.09484
