; generated by Slic3r 1.2.9 on 2016-10-05 at 16:30:27

; external perimeters extrusion width = 0.50mm
; perimeters extrusion width = 0.50mm
; infill extrusion width = 0.50mm
; solid infill extrusion width = 0.50mm
; top infill extrusion width = 0.50mm

M107
;Basic settings: Layer height: {layer_height} Walls: {wall_thickness} Fill: {fill_density}
;Print time: {print_time}
;Filament used: {filament_amount}m {filament_weight}g
;Filament cost: {filament_cost}
;M190 S{print_bed_temperature} ;Uncomment to add your own bed temperature line
;M109 S{print_temperature} ;Uncomment to add your own temperature line
G21        ;metric values
G90        ;absolute positioning
M83
G10 P0 S200
T0
M116


G21 ; set units to millimeters
G90 ; use absolute coordinates
M83 ; use relative distances for extrusion
G1 E-3.20000 F3000.00000
G1 Z0.400 F9000.000
G1 X7.528 Y42.004 F9000.000
G1 Z0.300 F9000.000
G1 E3.20000 F3000.00000
G1 X6.370 Y42.207 E0.10789 F1200.000
G1 X4.412 Y42.456 E0.18107
G1 X2.256 Y42.625 E0.19842
G1 X0.095 Y42.684 E0.19842
G1 X-2.067 Y42.634 E0.19842
G1 X-4.224 Y42.475 E0.19842
G1 X-6.370 Y42.207 E0.19842
G1 X-8.500 Y41.830 E0.19842
G1 X-10.607 Y41.346 E0.19842
G1 X-12.688 Y40.755 E0.19843
G1 X-14.913 Y39.995 E0.21578
G1 X-16.920 Y39.188 E0.19843
G1 X-18.883 Y38.281 E0.19842
G1 X-20.798 Y37.275 E0.19842
G1 X-22.659 Y36.174 E0.19842
G1 X-24.462 Y34.980 E0.19842
G1 X-26.202 Y33.696 E0.19843
G1 X-27.875 Y32.325 E0.19842
G1 X-29.477 Y30.872 E0.19842
G1 X-31.003 Y29.340 E0.19842
G1 X-32.449 Y27.732 E0.19842
G1 X-33.812 Y26.053 E0.19842
G1 X-35.088 Y24.307 E0.19842
G1 X-36.274 Y22.498 E0.19842
G1 X-37.275 Y20.798 E0.18106
G1 X-38.144 Y19.145 E0.17134
G1 X-38.364 Y18.713 E0.04444
G1 X-39.188 Y16.920 E0.18106
G1 X-39.995 Y14.913 E0.19842
G1 X-40.699 Y12.868 E0.19842
G1 X-41.298 Y10.791 E0.19842
G1 X-41.792 Y8.685 E0.19842
G1 X-42.178 Y6.557 E0.19842
G1 X-42.456 Y4.412 E0.19842
G1 X-42.625 Y2.256 E0.19842
G1 X-42.684 Y0.095 E0.19842
G1 X-42.634 Y-2.067 E0.19842
G1 X-42.475 Y-4.224 E0.19842
G1 X-42.207 Y-6.370 E0.19842
G1 X-41.830 Y-8.500 E0.19842
G1 X-41.346 Y-10.607 E0.19842
G1 X-40.755 Y-12.688 E0.19842
G1 X-39.995 Y-14.913 E0.21578
G1 X-39.188 Y-16.920 E0.19842
G1 X-38.281 Y-18.883 E0.19842
G1 X-37.275 Y-20.798 E0.19842
G1 X-36.174 Y-22.659 E0.19842
G1 X-34.980 Y-24.462 E0.19842
G1 X-33.696 Y-26.202 E0.19842
G1 X-32.325 Y-27.875 E0.19842
G1 X-30.872 Y-29.477 E0.19842
G1 X-29.340 Y-31.003 E0.19842
G1 X-27.732 Y-32.449 E0.19842
G1 X-26.053 Y-33.812 E0.19842
G1 X-24.307 Y-35.088 E0.19842
G1 X-22.498 Y-36.274 E0.19842
G1 X-20.632 Y-37.367 E0.19842
G1 X-18.713 Y-38.364 E0.19842
G1 X-16.746 Y-39.262 E0.19842
G1 X-14.736 Y-40.060 E0.19842
G1 X-12.688 Y-40.755 E0.19842
G1 X-10.607 Y-41.346 E0.19842
G1 X-8.500 Y-41.830 E0.19842
G1 X-6.370 Y-42.207 E0.19842
G1 X-4.224 Y-42.475 E0.19842
G1 X-2.067 Y-42.634 E0.19842
G1 X-0.095 Y-42.684 E0.18106
G1 X1.772 Y-42.642 E0.17134
G1 X2.256 Y-42.625 E0.04444 F1200.000
G1 X4.412 Y-42.456 E0.19842
G1 X6.557 Y-42.178 E0.19842
G1 X8.685 Y-41.792 E0.19842
G1 X10.791 Y-41.298 E0.19842
G1 X12.868 Y-40.699 E0.19842
G1 X14.736 Y-40.060 E0.18106
G1 X16.746 Y-39.262 E0.19842
G1 X18.713 Y-38.364 E0.19842
G1 X20.632 Y-37.367 E0.19842
G1 X22.498 Y-36.274 E0.19842
G1 X24.060 Y-35.250 E0.17134
G1 X24.462 Y-34.980 E0.04444
G1 X26.202 Y-33.696 E0.19842
G1 X27.875 Y-32.325 E0.19842
G1 X29.477 Y-30.872 E0.19842
G1 X30.872 Y-29.477 E0.18106
G1 X32.326 Y-27.875 E0.19842
G1 X33.696 Y-26.202 E0.19842
G1 X34.980 Y-24.462 E0.19843
G1 X36.174 Y-22.659 E0.19842
G1 X37.275 Y-20.798 E0.19842
G1 X38.364 Y-18.713 E0.21578
G1 X39.188 Y-16.920 E0.18107
G1 X39.995 Y-14.913 E0.19842
G1 X40.699 Y-12.868 E0.19842
G1 X41.298 Y-10.791 E0.19842
G1 X41.792 Y-8.685 E0.19842
G1 X42.178 Y-6.557 E0.19842
G1 X42.456 Y-4.412 E0.19842
G1 X42.625 Y-2.256 E0.19842
G1 X42.684 Y-0.095 E0.19842
G1 X42.634 Y2.067 E0.19843
G1 X42.475 Y4.224 E0.19842
G1 X42.244 Y6.077 E0.17135
G1 X42.178 Y6.557 E0.04444
G1 X41.792 Y8.685 E0.19842
G1 X41.298 Y10.791 E0.19842
G1 X40.699 Y12.868 E0.19842
G1 X39.995 Y14.913 E0.19842
G1 X39.188 Y16.920 E0.19842
G1 X38.281 Y18.883 E0.19842
G1 X37.367 Y20.632 E0.18107
G1 X36.274 Y22.498 E0.19842
G1 X35.088 Y24.307 E0.19842
G1 X33.696 Y26.202 E0.21578
G1 X32.449 Y27.732 E0.18106
G1 X31.003 Y29.340 E0.19842
G1 X29.477 Y30.872 E0.19842
G1 X27.875 Y32.325 E0.19842
G1 X26.202 Y33.696 E0.19842
G1 X24.462 Y34.980 E0.19842
G1 X22.498 Y36.274 E0.21578
G1 X20.632 Y37.367 E0.19842
G1 X18.883 Y38.281 E0.18106
G1 X16.920 Y39.188 E0.19842
G1 X14.913 Y39.995 E0.19842
G1 X12.868 Y40.699 E0.19842
G1 X10.791 Y41.298 E0.19842
G1 X8.685 Y41.792 E0.19842
G1 X7.587 Y41.993 E0.10238
G1 E-3.20000 F3000.00000
G1 Z0.700 F9000.000
G1 X-30.233 Y7.916 F9000.000
G1 Z0.300 F9000.000
G1 E3.20000 F3000.00000
G1 X-30.811 Y4.824 E0.28856 F900.000
G1 X-31.041 Y3.009 E0.16789
G1 X-31.164 Y1.183 E0.16789
G1 X-31.179 Y-0.647 E0.16789
G1 X-31.088 Y-2.474 E0.16789
G1 X-30.889 Y-4.293 E0.16789
G1 X-30.584 Y-6.098 E0.16789
G1 X-30.174 Y-7.881 E0.16791
G1 X-29.656 Y-9.647 E0.16880
G1 X-29.044 Y-11.360 E0.16696
G1 X-28.327 Y-13.044 E0.16789
G1 X-27.513 Y-14.683 E0.16789
G1 X-26.605 Y-16.271 E0.16789
G1 X-25.605 Y-17.804 E0.16789
G1 X-24.517 Y-19.275 E0.16789
G1 X-23.344 Y-20.679 E0.16791
G1 X-22.084 Y-22.020 E0.16880
G1 X-19.807 Y-24.175 E0.28763
G1 X-7.949 Y-7.854 E1.85095
G1 X-7.478 Y-8.320 E0.06085
G1 X-6.597 Y-9.035 E0.10406
G1 X-5.647 Y-9.657 E0.10418
G1 X-5.012 Y-9.986 E0.06555
G1 X-16.871 Y-26.308 E1.85103
G1 X-14.109 Y-27.812 E0.28856
G1 X-12.454 Y-28.592 E0.16789
G1 X-10.755 Y-29.273 E0.16789
G1 X-9.020 Y-29.853 E0.16789
G1 X-7.253 Y-30.331 E0.16789
G1 X-5.462 Y-30.704 E0.16789
G1 X-3.652 Y-30.972 E0.16791
G1 X-1.819 Y-31.133 E0.16880
G1 X0.000 Y-31.186 E0.16696
G1 X1.829 Y-31.132 E0.16789
G1 X3.652 Y-30.972 E0.16789
G1 X5.462 Y-30.704 E0.16789
G1 X7.253 Y-30.331 E0.16789
G1 X9.020 Y-29.853 E0.16789
G1 X10.755 Y-29.273 E0.16789
G1 X12.454 Y-28.592 E0.16789
G1 X14.109 Y-27.812 E0.16789
G1 X16.871 Y-26.308 E0.28856
G1 X5.012 Y-9.986 E1.85103
G1 X5.647 Y-9.657 E0.06555
G1 X6.597 Y-9.035 E0.10418
G1 X7.478 Y-8.320 E0.10406
G1 X7.949 Y-7.854 E0.06085
G1 X19.807 Y-24.175 E1.85105
G1 X22.124 Y-21.980 E0.29281
G1 X23.405 Y-20.610 E0.17213
G1 X24.602 Y-19.165 E0.17213
G1 X25.710 Y-17.651 E0.17213
G1 X26.725 Y-16.074 E0.17213
G1 X27.643 Y-14.438 E0.17213
G1 X28.461 Y-12.749 E0.17213
G1 X29.176 Y-11.015 E0.17213
G1 X29.786 Y-9.241 E0.17213
G1 X30.287 Y-7.433 E0.17213
G1 X30.680 Y-5.598 E0.17213
G1 X30.961 Y-3.744 E0.17213
G1 X31.130 Y-1.875 E0.17213
G1 X31.186 Y0.003 E0.17243
G1 X31.107 Y2.223 E0.20376
G1 X30.870 Y4.434 E0.20406
G1 X30.242 Y7.918 E0.32484
G1 X11.046 Y1.681 E1.85183
G1 X10.937 Y2.352 E0.06235
G1 X10.642 Y3.449 E0.10419
G1 X10.238 Y4.510 E0.10419
G1 X9.925 Y5.133 E0.06395
G1 X29.112 Y11.367 E1.85102
G1 X27.762 Y14.207 E0.28856
G1 X26.881 Y15.811 E0.16789
G1 X25.907 Y17.361 E0.16789
G1 X24.844 Y18.850 E0.16789
G1 X23.696 Y20.275 E0.16791
G1 X22.459 Y21.637 E0.16880
G1 X21.159 Y22.910 E0.16696
G1 X19.779 Y24.112 E0.16789
G1 X18.331 Y25.230 E0.16789
G1 X16.819 Y26.262 E0.16789
G1 X15.250 Y27.203 E0.16789
G1 X13.629 Y28.051 E0.16789
G1 X11.960 Y28.802 E0.16789
G1 X10.250 Y29.454 E0.16789
G1 X8.505 Y30.004 E0.16789
G1 X6.731 Y30.451 E0.16789
G1 X4.933 Y30.793 E0.16789
G1 X1.814 Y31.200 E0.28856
G1 X1.814 Y11.024 E1.85115
G1 X1.177 Y11.124 E0.05916
G1 X0.044 Y11.186 E0.10418
G1 X-1.090 Y11.133 E0.10418
G1 X-1.814 Y11.025 E0.06715
G1 X-1.814 Y31.200 E1.85107
G1 X-4.933 Y30.793 E0.28857
G1 X-6.731 Y30.451 E0.16789
G1 X-8.505 Y30.004 E0.16789
G1 X-10.251 Y29.453 E0.16794
G1 X-11.967 Y28.799 E0.16853
G1 X-13.629 Y28.050 E0.16723
G1 X-15.244 Y27.207 E0.16718
G1 X-16.819 Y26.262 E0.16856
G1 X-18.331 Y25.230 E0.16792
G1 X-19.787 Y24.105 E0.16880
G1 X-21.159 Y22.910 E0.16696
G1 X-22.466 Y21.630 E0.16789
G1 X-23.696 Y20.275 E0.16789
G1 X-24.844 Y18.850 E0.16789
G1 X-25.907 Y17.361 E0.16789
G1 X-26.881 Y15.811 E0.16789
G1 X-27.762 Y14.207 E0.16789
G1 X-29.112 Y11.367 E0.28856
G1 X-9.925 Y5.133 E1.85102
G1 X-10.238 Y4.510 E0.06395
G1 X-10.642 Y3.449 E0.10418
G1 X-10.937 Y2.352 E0.10419
G1 X-11.046 Y1.681 E0.06235
G1 X-30.176 Y7.897 E1.84554
G1 X-28.088 Y11.808 F9000.000
G1 X-9.947 Y5.913 E1.75015 F900.000
G1 X-9.119 Y7.088 E0.13187
G1 X-8.414 Y7.912 E0.09948
G1 X-7.635 Y8.666 E0.09948
G1 X-6.789 Y9.344 E0.09948
G1 X-5.883 Y9.939 E0.09948
G1 X-4.925 Y10.447 E0.09948
G1 X-3.923 Y10.863 E0.09948
G1 X-2.550 Y11.287 E0.13187
G1 X-2.550 Y30.362 E1.75015
G1 X-4.817 Y30.067 E0.20973
G1 X-6.572 Y29.733 E0.16393
G1 X-8.304 Y29.296 E0.16393
G1 X-10.009 Y28.758 E0.16397
G1 X-11.685 Y28.119 E0.16456
G1 X-13.307 Y27.388 E0.16328
G1 X-14.884 Y26.565 E0.16322
G1 X-16.423 Y25.642 E0.16459
G1 X-17.898 Y24.635 E0.16394
G1 X-19.320 Y23.536 E0.16484
G1 X-20.660 Y22.369 E0.16301
G1 X-21.936 Y21.119 E0.16393
G1 X-23.137 Y19.796 E0.16393
G1 X-24.258 Y18.405 E0.16393
G1 X-25.296 Y16.951 E0.16393
G1 X-26.247 Y15.438 E0.16393
G1 X-27.107 Y13.872 E0.16393
G1 X-28.062 Y11.862 E0.20422
G1 X-28.228 Y11.433 F9000.000
G1 X-29.664 Y6.957 F9000.000
G1 X-30.084 Y4.710 E0.20973 F900.000
G1 X-30.308 Y2.938 E0.16393
G1 X-30.428 Y1.155 E0.16393
G1 X-30.444 Y-0.632 E0.16393
G1 X-30.354 Y-2.416 E0.16393
G1 X-30.160 Y-4.192 E0.16393
G1 X-29.862 Y-5.954 E0.16393
G1 X-29.462 Y-7.695 E0.16393
G1 X-28.956 Y-9.419 E0.16484
G1 X-28.358 Y-11.092 E0.16301
G1 X-27.659 Y-12.736 E0.16393
G1 X-26.864 Y-14.336 E0.16393
G1 X-25.977 Y-15.887 E0.16393
G1 X-25.001 Y-17.383 E0.16393
G1 X-23.938 Y-18.820 E0.16393
G1 X-22.793 Y-20.191 E0.16393
G1 X-21.562 Y-21.500 E0.16484
G1 X-19.909 Y-23.065 E0.20881
G1 X-8.697 Y-7.633 E1.75015
G1 X-9.559 Y-6.482 E0.13187
G1 X-10.125 Y-5.557 E0.09948
G1 X-10.601 Y-4.583 E0.09948
G1 X-10.984 Y-3.569 E0.09948
G1 X-11.271 Y-2.523 E0.09948
G1 X-11.457 Y-1.455 E0.09948
G1 X-11.543 Y-0.374 E0.09948
G1 X-11.523 Y1.063 E0.13187
G1 X-29.607 Y6.939 E1.74464
G1 X-30.054 Y7.048 F9000.000
G1 E-3.20000 F3000.00000
G1 Z0.700 F9000.000
G1 X-4.571 Y-10.630 F9000.000
G1 Z0.300 F9000.000
G1 E3.20000 F3000.00000
G1 X-15.783 Y-26.062 E1.75015 F900.000
G1 X-13.776 Y-27.156 E0.20973
G1 X-12.160 Y-27.917 E0.16393
G1 X-10.501 Y-28.582 E0.16393
G1 X-8.807 Y-29.149 E0.16393
G1 X-7.082 Y-29.615 E0.16393
G1 X-5.333 Y-29.980 E0.16393
G1 X-3.566 Y-30.241 E0.16393
G1 X-1.776 Y-30.398 E0.16484
G1 X0.000 Y-30.450 E0.16301
G1 X1.786 Y-30.398 E0.16393
G1 X3.566 Y-30.241 E0.16393
G1 X5.333 Y-29.980 E0.16393
G1 X7.082 Y-29.615 E0.16393
G1 X8.807 Y-29.149 E0.16393
G1 X10.501 Y-28.582 E0.16393
G1 X12.160 Y-27.917 E0.16393
G1 X13.776 Y-27.156 E0.16393
G1 X15.783 Y-26.062 E0.20973
G1 X4.571 Y-10.630 E1.75015
G1 X3.211 Y-11.094 E0.13187
G1 X2.156 Y-11.346 E0.09948
G1 X1.083 Y-11.499 E0.09948
G1 X-0.000 Y-11.550 E0.09948
G1 X-1.083 Y-11.499 E0.09948
G1 X-2.156 Y-11.346 E0.09948
G1 X-3.211 Y-11.094 E0.09948
G1 X-4.515 Y-10.650 E0.12637
G1 X-4.917 Y-10.429 F9000.000
G1 X-4.156 Y-9.580 F9000.000
G1 X-3.346 Y-9.900 E0.07985 F900.000
G1 X-2.267 Y-10.201 E0.10284
G1 X-1.160 Y-10.385 E0.10290
G1 X-0.040 Y-10.450 E0.10296 F900.000
G1 X1.160 Y-10.385 E0.11024
G1 X2.267 Y-10.201 E0.10297
G1 X3.346 Y-9.900 E0.10284
G1 X4.333 Y-9.509 E0.09738
G1 X5.275 Y-9.021 E0.09732
G1 X6.162 Y-8.440 E0.09732
G1 X6.986 Y-7.772 E0.09728
G1 X7.683 Y-7.082 E0.09003
G1 X8.410 Y-6.203 E0.10460
G1 X9.019 Y-5.279 E0.10156
G1 X9.527 Y-4.296 E0.10151
G1 X9.927 Y-3.265 E0.10151
G1 X10.217 Y-2.197 E0.10151
G1 X10.392 Y-1.105 E0.10151
G1 X10.451 Y-0.001 E0.10143
G1 X10.387 Y1.149 E0.10568
G1 X10.217 Y2.197 E0.09741
G1 X9.942 Y3.222 E0.09733
G1 X9.564 Y4.213 E0.09733
G1 X9.087 Y5.161 E0.09733
G1 X8.517 Y6.056 E0.09738
G1 X7.820 Y6.933 E0.10284
G1 X7.031 Y7.731 E0.10290
G1 X6.162 Y8.440 E0.10290
G1 X5.222 Y9.052 E0.10298
G1 X4.148 Y9.591 E0.11017
G1 X3.173 Y9.956 E0.09555
G1 X2.148 Y10.227 E0.09731
G1 X1.100 Y10.392 E0.09732
G1 X0.041 Y10.450 E0.09732
G1 X-1.019 Y10.400 E0.09732
G1 X-2.068 Y10.243 E0.09732
G1 X-3.096 Y9.980 E0.09737
G1 X-4.148 Y9.591 E0.10289
G1 X-5.222 Y9.052 E0.11024
G1 X-6.162 Y8.440 E0.10298
G1 X-7.031 Y7.731 E0.10290
G1 X-7.820 Y6.933 E0.10290
G1 X-8.517 Y6.056 E0.10284
G1 X-9.087 Y5.161 E0.09738
G1 X-9.564 Y4.213 E0.09733
G1 X-9.942 Y3.222 E0.09733
G1 X-10.217 Y2.197 E0.09733
G1 X-10.387 Y1.150 E0.09733
G1 X-10.450 Y0.091 E0.09739
G1 X-10.400 Y-1.029 E0.10285
G1 X-10.230 Y-2.138 E0.10289
G1 X-9.942 Y-3.222 E0.10290
G1 X-9.539 Y-4.269 E0.10301
G1 X-8.984 Y-5.334 E0.11013
G1 X-8.410 Y-6.204 E0.09562
G1 X-7.683 Y-7.082 E0.10457
G1 X-6.986 Y-7.772 E0.09003
G1 X-6.162 Y-8.440 E0.09728
G1 X-5.275 Y-9.021 E0.09732
G1 X-4.211 Y-9.558 E0.10929
G1 X-4.109 Y-9.977 F9000.000
G1 E-3.20000 F3000.00000
G1 Z0.700 F9000.000
G1 X9.947 Y5.913 F9000.000
G1 Z0.300 F9000.000
G1 E3.20000 F3000.00000
G1 X28.088 Y11.808 E1.75014 F900.000
G1 X27.107 Y13.872 E0.20973
G1 X26.247 Y15.438 E0.16393
G1 X25.296 Y16.951 E0.16393
G1 X24.258 Y18.405 E0.16393
G1 X23.137 Y19.796 E0.16393
G1 X21.929 Y21.126 E0.16484
G1 X20.660 Y22.369 E0.16301
G1 X19.312 Y23.543 E0.16393
G1 X17.898 Y24.635 E0.16393
G1 X16.423 Y25.642 E0.16393
G1 X14.890 Y26.561 E0.16393
G1 X13.307 Y27.389 E0.16393
G1 X11.678 Y28.122 E0.16393
G1 X10.008 Y28.758 E0.16393
G1 X8.304 Y29.296 E0.16393
G1 X6.572 Y29.733 E0.16393
G1 X4.817 Y30.067 E0.16393
G1 X2.550 Y30.362 E0.20973
G1 X2.550 Y11.287 E1.75014
G1 X3.923 Y10.863 E0.13187
G1 X4.925 Y10.447 E0.09948
G1 X5.883 Y9.939 E0.09948
G1 X6.789 Y9.344 E0.09948
G1 X7.635 Y8.666 E0.09948
G1 X8.414 Y7.912 E0.09948
G1 X9.119 Y7.088 E0.09948
G1 X9.912 Y5.962 E0.12637
G1 X10.107 Y5.547 F9000.000
G1 X11.516 Y1.061 F9000.000
G1 X11.550 Y0.006 E0.09678 F900.000
G1 X11.473 Y-1.325 E0.12234
G1 X11.245 Y-2.632 E0.12176
G1 X10.869 Y-3.905 E0.12176
G1 X10.349 Y-5.126 E0.12176
G1 X9.693 Y-6.279 E0.12176
G1 X8.699 Y-7.635 E0.15426
G1 X19.910 Y-23.065 E1.74985
G1 X21.601 Y-21.461 E0.21387
G1 X22.853 Y-20.124 E0.16806
G1 X24.021 Y-18.713 E0.16807
G1 X25.103 Y-17.235 E0.16807
G1 X26.094 Y-15.694 E0.16806
G1 X26.991 Y-14.097 E0.16807
G1 X27.789 Y-12.449 E0.16806
G1 X28.488 Y-10.755 E0.16807
G1 X29.083 Y-9.023 E0.16806
G1 X29.573 Y-7.258 E0.16807
G1 X29.956 Y-5.466 E0.16807
G1 X30.230 Y-3.655 E0.16806
G1 X30.395 Y-1.831 E0.16807
G1 X30.450 Y0.001 E0.16818
G1 X30.373 Y2.170 E0.19913
G1 X30.141 Y4.329 E0.19924
G1 X29.667 Y6.958 E0.24509
G1 X11.573 Y1.079 E1.74557
G1 X11.119 Y1.010 F9000.000
G1 E-3.20000 F3000.00000
G1 Z0.700 F9000.000
G1 X37.679 Y3.053 F9000.000
G1 Z0.300 F9000.000
G1 E3.20000 F3000.00000
G1 X37.620 Y3.826 E0.07109 F900.000
G1 X37.378 Y5.726 E0.17578
G1 X37.040 Y7.612 E0.17578
G1 X36.607 Y9.478 E0.17578
G1 X36.080 Y11.320 E0.17578
G1 X35.460 Y13.133 E0.17578
G1 X34.749 Y14.912 E0.17578
G1 X33.950 Y16.653 E0.17578
G1 X33.063 Y18.351 E0.17578
G1 X32.091 Y20.002 E0.17578
G1 X31.036 Y21.602 E0.17578
G1 X29.902 Y23.146 E0.17578
G1 X28.692 Y24.631 E0.17578
G1 X27.407 Y26.053 E0.17578
G1 X26.053 Y27.407 E0.17578
G1 X24.631 Y28.692 E0.17578
G1 X23.146 Y29.902 E0.17578
G1 X21.602 Y31.036 E0.17578
G1 X20.002 Y32.091 E0.17578
G1 X18.351 Y33.063 E0.17578
G1 X16.653 Y33.950 E0.17578
G1 X14.912 Y34.749 E0.17578
G1 X13.133 Y35.460 E0.17578
G1 X11.320 Y36.080 E0.17578
G1 X9.478 Y36.607 E0.17578
G1 X7.612 Y37.040 E0.17578
G1 X5.726 Y37.378 E0.17578
G1 X3.826 Y37.620 E0.17578
G1 X1.915 Y37.765 E0.17578
G1 X-0.000 Y37.814 E0.17578
G1 X-1.915 Y37.765 E0.17578
G1 X-3.826 Y37.620 E0.17578
G1 X-5.726 Y37.378 E0.17578
G1 X-7.612 Y37.040 E0.17578
G1 X-9.478 Y36.607 E0.17578
G1 X-11.320 Y36.080 E0.17578
G1 X-13.133 Y35.460 E0.17578
G1 X-14.912 Y34.749 E0.17578
G1 X-16.653 Y33.950 E0.17578
G1 X-18.351 Y33.063 E0.17578
G1 X-20.002 Y32.091 E0.17578
G1 X-21.602 Y31.036 E0.17578
G1 X-23.146 Y29.902 E0.17578
G1 X-24.631 Y28.692 E0.17578
G1 X-26.053 Y27.407 E0.17578
G1 X-27.407 Y26.053 E0.17578
G1 X-28.692 Y24.631 E0.17578
G1 X-29.902 Y23.146 E0.17578
G1 X-31.036 Y21.602 E0.17578
G1 X-32.091 Y20.002 E0.17578
G1 X-33.063 Y18.351 E0.17578
G1 X-33.950 Y16.653 E0.17578
G1 X-34.749 Y14.912 E0.17578
G1 X-35.460 Y13.133 E0.17578
G1 X-36.080 Y11.320 E0.17578
G1 X-36.607 Y9.478 E0.17578
