; generated by Slic3r 1.2.9 on 2016-12-24 at 17:28:35

; external perimeters extrusion width = 0.50mm
; perimeters extrusion width = 0.50mm
; infill extrusion width = 0.50mm
; solid infill extrusion width = 0.50mm
; top infill extrusion width = 0.50mm

M107
;Basic settings: Layer height: {layer_height} Walls: {wall_thickness} Fill: {fill_density}
;Print time: {print_time}
;Filament used: {filament_amount}m {filament_weight}g
;Filament cost: {filament_cost}
;M190 S{print_bed_temperature} ;Uncomment to add your own bed temperature line
;M109 S{print_temperature} ;Uncomment to add your own temperature line
G21        ;metric values
G90        ;absolute positioning
M83
G10 P0 S200
T0
M116


G21 ; set units to millimeters
G90 ; use absolute coordinates
M83 ; use relative distances for extrusion
G1 E-3.20000 F3000.00000
G1 Z0.400 F9000.000
G1 X18.105 Y0.791 F9000.000
G1 Z0.300 F9000.000
G1 E3.20000 F3000.00000
G1 X18.051 Y1.725 E0.08584 F1200.000
G1 X17.835 Y3.278 E0.14387
G1 X17.485 Y4.806 E0.14387
G1 X17.101 Y6.029 E0.11763
G1 X16.513 Y7.492 E0.14467
G1 X16.293 Y7.950 E0.04658
G1 X15.667 Y9.132 E0.12276
G1 X14.819 Y10.452 E0.14388
G1 X13.861 Y11.693 E0.14388
G1 X12.799 Y12.847 E0.14388
G1 X11.641 Y13.905 E0.14388
G1 X10.579 Y14.727 E0.12328
G1 X10.161 Y15.016 E0.04658
G1 X9.259 Y15.590 E0.09812
G1 X8.818 Y15.842 E0.04658
G1 X7.683 Y16.426 E0.11710
G1 X6.236 Y17.029 E0.14388
G1 X4.741 Y17.504 E0.14388
G1 X3.388 Y17.813 E0.12731
G1 X2.888 Y17.900 E0.04658
G1 X1.828 Y18.040 E0.09812
G1 X1.322 Y18.083 E0.04658
G1 X-0.091 Y18.134 E0.12974
G1 X-1.657 Y18.058 E0.14387
G1 X-3.211 Y17.848 E0.14388
G1 X-4.432 Y17.581 E0.11468
G1 X-4.923 Y17.451 E0.04658
G1 X-5.943 Y17.130 E0.09812
G1 X-6.421 Y16.958 E0.04658
G1 X-7.683 Y16.426 E0.12570
G1 X-9.074 Y15.701 E0.14388
G1 X-10.396 Y14.858 E0.14388
G1 X-11.427 Y14.076 E0.11872
G1 X-11.818 Y13.752 E0.04658
G1 X-12.968 Y12.674 E0.14467
G1 X-13.861 Y11.693 E0.12167
G1 X-14.819 Y10.452 E0.14388
G1 X-15.667 Y9.132 E0.14388
G1 X-16.293 Y7.950 E0.12275
G1 X-16.513 Y7.492 E0.04658
G1 X-17.101 Y6.029 E0.14468
G1 X-17.485 Y4.806 E0.11763
G1 X-17.835 Y3.278 E0.14387
G1 X-18.051 Y1.725 E0.14387
G1 X-18.124 Y0.345 E0.12678
G1 X-18.132 Y-0.159 E0.04617
G1 X-18.051 Y-1.725 E0.14387
G1 X-17.835 Y-3.278 E0.14387
G1 X-17.485 Y-4.806 E0.14387
G1 X-17.005 Y-6.299 E0.14388
G1 X-16.513 Y-7.492 E0.11843
G1 X-15.799 Y-8.899 E0.14468
G1 X-14.966 Y-10.238 E0.14468
G1 X-14.020 Y-11.499 E0.14468
G1 X-13.741 Y-11.829 E0.03971
G1 X-12.799 Y-12.847 E0.12721
G1 X-11.641 Y-13.905 E0.14388
G1 X-10.396 Y-14.858 E0.14388
G1 X-9.259 Y-15.590 E0.12409
G1 X-8.818 Y-15.842 E0.04658
G1 X-7.870 Y-16.336 E0.09812
G1 X-7.409 Y-16.548 E0.04658
G1 X-6.236 Y-17.028 E0.11630
G1 X-4.741 Y-17.503 E0.14388
G1 X-3.211 Y-17.848 E0.14388
G1 X-1.828 Y-18.040 E0.12812
G1 X-1.322 Y-18.083 E0.04658
G1 X-0.254 Y-18.130 E0.09812
G1 X0.254 Y-18.130 E0.04658
G1 X1.657 Y-18.058 E0.12893 F1200.000
G1 X2.888 Y-17.900 E0.11388
G1 X3.388 Y-17.813 E0.04658
G1 X4.432 Y-17.581 E0.09812
G1 X4.923 Y-17.451 E0.04658
G1 X6.236 Y-17.028 E0.12651
G1 X7.409 Y-16.548 E0.11630
G1 X7.870 Y-16.336 E0.04658
G1 X9.074 Y-15.701 E0.12489
G1 X10.396 Y-14.858 E0.14388
G1 X11.641 Y-13.905 E0.14388
G1 X12.607 Y-13.030 E0.11952
G1 X12.968 Y-12.674 E0.04658
G1 X14.020 Y-11.499 E0.14467
G1 X14.819 Y-10.452 E0.12086
G1 X15.541 Y-9.336 E0.12195
G1 X15.799 Y-8.899 E0.04658
G1 X16.397 Y-7.745 E0.11924
G1 X17.005 Y-6.299 E0.14388
G1 X17.485 Y-4.806 E0.14388
G1 X17.792 Y-3.477 E0.12517
G1 X17.887 Y-2.978 E0.04657
G1 X18.078 Y-1.413 E0.14467
G1 X18.132 Y-0.159 E0.11521
G1 X18.107 Y0.731 E0.08161
G1 E-3.20000 F3000.00000
G1 Z0.700 F9000.000
G1 X4.195 Y0.000 F9000.000
G1 Z0.300 F9000.000
G1 E3.20000 F3000.00000
G1 X4.062 Y1.046 E0.09675 F900.000
G1 X3.666 Y2.036 E0.09781
G1 X3.049 Y2.881 E0.09598
G1 X2.235 Y3.549 E0.09662
G1 X1.350 Y3.966 E0.08978
G1 X0.276 Y4.187 E0.10058
G1 X-0.804 Y4.116 E0.09934
G1 X-1.738 Y3.813 E0.09011
G1 X-2.691 Y3.218 E0.10307
G1 X-3.410 Y2.441 E0.09714
G1 X-3.883 Y1.579 E0.09022
G1 X-4.164 Y0.493 E0.10292
G1 X-4.159 Y-0.538 E0.09459
G1 X-3.904 Y-1.533 E0.09427
G1 X-3.401 Y-2.455 E0.09639
G1 X-2.682 Y-3.225 E0.09658
G1 X-1.792 Y-3.793 E0.09684
G1 X-0.770 Y-4.122 E0.09858
G1 X0.257 Y-4.187 E0.09441 F900.000
G1 X1.290 Y-3.991 E0.09648
G1 X2.244 Y-3.544 E0.09659
G1 X3.058 Y-2.872 E0.09692
G1 X3.685 Y-2.000 E0.09849
G1 X4.063 Y-1.044 E0.09435
G1 X4.188 Y-0.059 E0.09106
G1 X3.454 Y0.000 F9000.000
G1 X3.344 Y0.862 E0.07970 F900.000
G1 X3.021 Y1.672 E0.08008
G1 X2.510 Y2.372 E0.07943
G1 X1.839 Y2.922 E0.07965
G1 X1.116 Y3.263 E0.07336
G1 X0.225 Y3.446 E0.08344
G1 X-0.664 Y3.388 E0.08178
G1 X-1.425 Y3.141 E0.07340
G1 X-2.218 Y2.646 E0.08574
G1 X-2.808 Y2.007 E0.07982
G1 X-3.194 Y1.305 E0.07351
G1 X-3.428 Y0.401 E0.08570
G1 X-3.424 Y-0.443 E0.07747
G1 X-3.214 Y-1.261 E0.07750
G1 X-2.799 Y-2.021 E0.07944
G1 X-2.208 Y-2.655 E0.07951
G1 X-1.477 Y-3.122 E0.07960
G1 X-0.632 Y-3.394 E0.08144
G1 X0.211 Y-3.447 E0.07750 F900.000
G1 X1.062 Y-3.286 E0.07948
G1 X1.847 Y-2.918 E0.07952
G1 X2.516 Y-2.365 E0.07963
G1 X3.034 Y-1.645 E0.08140
G1 X3.345 Y-0.860 E0.07748
G1 X3.446 Y-0.059 E0.07399
G1 X3.791 Y0.215 F9000.000
G1 E-3.20000 F3000.00000
G1 Z0.700 F9000.000
G1 X-5.119 Y-12.216 F9000.000
G1 Z0.300 F9000.000
G1 E3.20000 F3000.00000
G1 X-4.432 Y-12.498 E0.06814 F900.000
G1 X-3.503 Y-12.791 E0.08944
G1 X-2.376 Y-13.047 E0.10598
G1 X-1.235 Y-13.204 E0.10572
G1 X-0.084 Y-13.261 E0.10572
G1 X1.064 Y-13.219 E0.10542
G1 X2.380 Y-13.047 E0.12174 F900.000
G1 X3.500 Y-12.792 E0.10538
G1 X4.597 Y-12.440 E0.10573
G1 X5.660 Y-11.994 E0.10573
G1 X6.680 Y-11.458 E0.10573
G1 X7.651 Y-10.834 E0.10592
G1 X8.425 Y-10.240 E0.08949
G1 X9.411 Y-9.345 E0.12219
G1 X10.184 Y-8.497 E0.10530
G1 X10.883 Y-7.581 E0.10573
G1 X11.500 Y-6.607 E0.10573
G1 X12.030 Y-5.584 E0.10573
G1 X12.470 Y-4.518 E0.10580
G1 X12.814 Y-3.423 E0.10530
G1 X13.063 Y-2.294 E0.10610
G1 X13.213 Y-1.151 E0.10573
G1 X13.263 Y-0.000 E0.10574
G1 X13.213 Y1.151 E0.10574
G1 X13.063 Y2.294 E0.10573
G1 X12.815 Y3.419 E0.10573
G1 X12.471 Y4.514 E0.10523
G1 X11.951 Y5.741 E0.12227
G1 X11.501 Y6.606 E0.08956
G1 X10.883 Y7.581 E0.10583
G1 X10.184 Y8.497 E0.10573
G1 X9.408 Y9.349 E0.10573
G1 X8.561 Y10.130 E0.10573
G1 X7.649 Y10.835 E0.10573
G1 X6.680 Y11.458 E0.10573
G1 X5.663 Y11.992 E0.10535
G1 X4.432 Y12.498 E0.12212
G1 X3.503 Y12.791 E0.08944
G1 X2.376 Y13.047 E0.10598
G1 X1.235 Y13.204 E0.10572
G1 X0.084 Y13.261 E0.10572
G1 X-1.064 Y13.219 E0.10542
G1 X-2.380 Y13.047 E0.12174
G1 X-3.500 Y12.792 E0.10538
G1 X-4.597 Y12.440 E0.10573
G1 X-5.660 Y11.994 E0.10573
G1 X-6.680 Y11.458 E0.10573
G1 X-7.651 Y10.834 E0.10592
G1 X-8.425 Y10.240 E0.08949
G1 X-9.411 Y9.345 E0.12219
G1 X-10.184 Y8.497 E0.10530
G1 X-10.883 Y7.581 E0.10573
G1 X-11.500 Y6.607 E0.10573
G1 X-12.030 Y5.584 E0.10573
G1 X-12.470 Y4.518 E0.10580
G1 X-12.814 Y3.423 E0.10530
G1 X-13.063 Y2.294 E0.10610
G1 X-13.213 Y1.151 E0.10573
G1 X-13.263 Y-0.000 E0.10574
G1 X-13.213 Y-1.151 E0.10574
G1 X-13.063 Y-2.294 E0.10573
G1 X-12.815 Y-3.419 E0.10573
G1 X-12.471 Y-4.514 E0.10523
G1 X-11.951 Y-5.741 E0.12227
G1 X-11.501 Y-6.606 E0.08956
G1 X-10.883 Y-7.581 E0.10583
G1 X-10.184 Y-8.497 E0.10573
G1 X-9.408 Y-9.349 E0.10573
G1 X-8.561 Y-10.130 E0.10573
G1 X-7.649 Y-10.835 E0.10573
G1 X-6.680 Y-11.458 E0.10573
G1 X-5.663 Y-11.992 E0.10535
G1 X-5.175 Y-12.193 E0.04848
G1 X-5.454 Y-12.873 F9000.000
G1 X-4.683 Y-13.190 E0.07650 F900.000
G1 X-3.695 Y-13.502 E0.09506
G1 X-2.508 Y-13.772 E0.11169
G1 X-1.303 Y-13.937 E0.11159
G1 X-0.088 Y-13.998 E0.11159
G1 X1.126 Y-13.952 E0.11148
G1 X2.509 Y-13.771 E0.12803 F900.000
G1 X3.694 Y-13.502 E0.11148
G1 X4.852 Y-13.131 E0.11160
G1 X5.974 Y-12.660 E0.11160
G1 X7.050 Y-12.094 E0.11160
G1 X8.074 Y-11.436 E0.11167
G1 X8.896 Y-10.805 E0.09508
G1 X9.931 Y-9.866 E0.12818
G1 X10.749 Y-8.968 E0.11145
G1 X11.487 Y-8.002 E0.11160
G1 X12.139 Y-6.974 E0.11160
G1 X12.698 Y-5.894 E0.11160
G1 X13.162 Y-4.769 E0.11163
G1 X13.526 Y-3.611 E0.11145
G1 X13.789 Y-2.421 E0.11173
G1 X13.947 Y-1.215 E0.11160
G1 X14.000 Y-0.000 E0.11161
G1 X13.947 Y1.215 E0.11161
G1 X13.789 Y2.421 E0.11160
G1 X13.526 Y3.609 E0.11160
G1 X13.163 Y4.768 E0.11143
G1 X12.617 Y6.054 E0.12821
G1 X12.139 Y6.974 E0.09510
G1 X11.487 Y8.002 E0.11164
G1 X10.749 Y8.968 E0.11160
G1 X9.930 Y9.868 E0.11160
G1 X9.036 Y10.692 E0.11160
G1 X8.074 Y11.436 E0.11160
G1 X7.050 Y12.094 E0.11160
G1 X5.975 Y12.659 E0.11146
G1 X4.683 Y13.190 E0.12816
G1 X3.695 Y13.502 E0.09506
G1 X2.508 Y13.772 E0.11169
G1 X1.303 Y13.937 E0.11159
G1 X0.088 Y13.998 E0.11159
G1 X-1.126 Y13.952 E0.11149
G1 X-2.509 Y13.771 E0.12803
G1 X-3.694 Y13.502 E0.11147
G1 X-4.852 Y13.131 E0.11160
G1 X-5.974 Y12.660 E0.11160
G1 X-7.050 Y12.094 E0.11160
G1 X-8.074 Y11.436 E0.11167
G1 X-8.896 Y10.805 E0.09508
G1 X-9.931 Y9.866 E0.12818
G1 X-10.749 Y8.968 E0.11145
G1 X-11.487 Y8.002 E0.11160
G1 X-12.139 Y6.974 E0.11160
G1 X-12.698 Y5.894 E0.11160
G1 X-13.162 Y4.769 E0.11163
G1 X-13.526 Y3.611 E0.11145
G1 X-13.789 Y2.421 E0.11173
G1 X-13.947 Y1.215 E0.11160
G1 X-14.000 Y-0.000 E0.11161
G1 X-13.947 Y-1.215 E0.11161
G1 X-13.789 Y-2.421 E0.11160
G1 X-13.526 Y-3.609 E0.11160
G1 X-13.163 Y-4.768 E0.11143
G1 X-12.617 Y-6.054 E0.12821
G1 X-12.139 Y-6.974 E0.09510
G1 X-11.487 Y-8.002 E0.11164
G1 X-10.749 Y-8.968 E0.11160
G1 X-9.930 Y-9.868 E0.11160
G1 X-9.036 Y-10.692 E0.11160
G1 X-8.074 Y-11.436 E0.11160
G1 X-7.050 Y-12.094 E0.11160
G1 X-5.975 Y-12.659 E0.11146
G1 X-5.510 Y-12.851 E0.04616
G1 X-5.138 Y-12.629 F9000.000
G1 X5.197 Y-11.622 F9000.000
G1 X11.626 Y-5.193 E0.84295 F900.000
G1 X12.261 Y-3.508 F9000.000
G1 X3.509 Y-12.259 E1.14749 F900.000
G1 X2.110 Y-12.607 E0.13363
G1 X12.604 Y-2.113 E1.37592
G1 X12.768 Y-0.898 E0.11363
G1 X0.901 Y-12.765 E1.55592
G1 X-0.195 Y-12.810 E0.10171
G1 X12.812 Y0.197 E1.70542
G1 X12.768 Y1.204 E0.09349
G1 X-1.200 Y-12.764 E1.83143
G1 X-2.135 Y-12.647 E0.08732
G1 X12.650 Y2.138 E1.93850
G1 X12.475 Y3.014 E0.08285
G1 X-3.013 Y-12.474 E2.03065
G1 X-3.844 Y-12.254 E0.07976
G1 X12.253 Y3.843 E2.11056
G1 X11.987 Y4.629 E0.07691
G1 X-4.626 Y-11.984 E2.17824
G1 X-5.371 Y-11.678 E0.07468
G1 X2.119 Y-4.189 E0.98200
G1 X0.655 Y-4.601 E0.14096
G1 X-6.074 Y-11.330 E0.88233
G1 X-6.747 Y-10.951 E0.07155
G1 X-0.382 Y-4.587 E0.83447
G1 X-1.245 Y-4.399 E0.08188
G1 X-7.387 Y-10.540 E0.80526
G1 X-7.985 Y-10.087 E0.06957
G1 X-2.012 Y-4.115 E0.78305
G1 X-2.654 Y-3.705 E0.07058
G1 X-8.558 Y-9.609 E0.77409
G1 X-9.092 Y-9.092 E0.06892
G1 X-3.216 Y-3.216 E0.77034
G1 X-3.724 Y-2.673 E0.06896
G1 X-9.608 Y-8.557 E0.77153
G1 X-10.088 Y-7.985 E0.06918
G1 X-4.099 Y-1.997 E0.78521
G1 X-4.405 Y-1.251 E0.07470
G1 X-10.543 Y-7.389 E0.80477
G1 X-10.951 Y-6.746 E0.07062
G1 X-4.608 Y-0.403 E0.83157
G1 X-4.614 Y0.643 E0.09697
G1 X-11.332 Y-6.076 E0.88086
G1 X-11.674 Y-5.367 E0.07297
G1 X-4.229 Y2.078 E0.97615
G1 X-2.072 Y4.235 F9000.000
G1 X5.371 Y11.678 E0.97587 F900.000
G1 X6.074 Y11.330 E0.07275
G1 X-0.670 Y4.586 E0.88432
G1 X0.389 Y4.594 E0.09819
G1 X6.747 Y10.952 E0.83362
G1 X7.387 Y10.540 E0.07053
G1 X1.260 Y4.414 E0.80325
G1 X1.998 Y4.100 E0.07431
G1 X7.985 Y10.087 E0.78495
G1 X8.558 Y9.609 E0.06920
G1 X2.654 Y3.705 E0.77415
G1 X3.231 Y3.231 E0.06925
G1 X9.092 Y9.092 E0.76846
G1 X9.608 Y8.557 E0.06893
G1 X3.699 Y2.648 E0.77480
G1 X4.112 Y2.010 E0.07048
G1 X10.088 Y7.985 E0.78352
G1 X10.543 Y7.389 E0.06954
G1 X4.412 Y1.258 E0.80388
G1 X4.582 Y0.377 E0.08322
G1 X10.951 Y6.746 E0.83508
G1 X11.332 Y6.076 E0.07147
G1 X4.584 Y-0.672 E0.88477
G1 X4.198 Y-2.109 E0.13796
G1 X11.674 Y5.367 E0.98029
G1 X4.626 Y11.984 F9000.000
G1 X-11.987 Y-4.629 E2.17824 F900.000
G1 X-12.253 Y-3.843 E0.07691
G1 X3.844 Y12.254 E2.11056
G1 X3.013 Y12.474 E0.07976
G1 X-12.475 Y-3.014 E2.03065
G1 X-12.650 Y-2.138 E0.08285
G1 X2.135 Y12.647 E1.93850
G1 X1.200 Y12.764 E0.08732
G1 X-12.768 Y-1.204 E1.83143
G1 X-12.812 Y-0.197 E0.09349
G1 X0.195 Y12.810 E1.70542
G1 X-0.901 Y12.765 E0.10171
G1 X-12.768 Y0.898 E1.55591
G1 X-12.604 Y2.113 E0.11364
G1 X-2.110 Y12.607 E1.37591
G1 X-3.509 Y12.259 E0.13363
G1 X-12.261 Y3.508 E1.14749
G1 X-11.626 Y5.193 F9000.000
G1 X-5.197 Y11.622 E0.84294 F900.000
G1 X-8.523 Y9.348 F9000.000
G1 X-9.429 Y8.442 E0.11878 F900.000
G1 E-3.20000 F3000.00000
G1 Z0.700 F9000.000
G1 X8.522 Y-9.348 F9000.000
G1 Z0.300 F9000.000
G1 E3.20000 F3000.00000
G1 X9.429 Y-8.442 E0.11885 F900.000
G1 E-3.20000 F3000.00000
G1 Z0.700 F9000.000
G1 X2.726 Y-2.564 F9000.000
G1 Z0.600 F9000.000
G1 E3.20000 F3000.00000
G1 X3.298 Y-1.755 E0.05379 F1800.000
G1 X3.623 Y-0.932 E0.04809
G1 X3.742 Y0.000 E0.05109
G1 X3.622 Y0.939 E0.05142
G1 X3.265 Y1.825 E0.05187
G1 X2.705 Y2.584 E0.05126
G1 X1.972 Y3.178 E0.05127
G1 X1.095 Y3.574 E0.05229
G1 X0.247 Y3.733 E0.04687
G1 X-0.748 Y3.664 E0.05419
G1 X-1.411 Y3.449 E0.03786
G1 X-1.667 Y3.345 E0.01504
G1 X-2.435 Y2.836 E0.05006
G1 X-2.916 Y2.325 E0.03813
G1 X-3.081 Y2.111 E0.01467
G1 X-3.409 Y1.515 E0.03694
G1 X-3.513 Y1.266 E0.01467
G1 X-3.682 Y0.608 E0.03694
G1 X-3.718 Y0.335 E0.01494
G1 X-3.706 Y-0.498 E0.04524
G1 X-3.486 Y-1.353 E0.04796
G1 X-3.041 Y-2.177 E0.05092
G1 X-2.402 Y-2.867 E0.05108
G1 X-1.608 Y-3.378 E0.05130
G1 X-0.663 Y-3.679 E0.05387
G1 X0.221 Y-3.734 E0.04814 F1800.000
G1 X1.144 Y-3.562 E0.05100
G1 X1.996 Y-3.164 E0.05109
G1 X2.680 Y-2.602 E0.04811
G1 X2.403 Y-2.265 F9000.000
G1 X2.912 Y-1.546 E0.04786 F1800.000
G1 X3.198 Y-0.823 E0.04227
G1 X3.302 Y0.000 E0.04509
G1 X3.196 Y0.830 E0.04543
G1 X2.884 Y1.609 E0.04560
G1 X2.388 Y2.281 E0.04538
G1 X1.739 Y2.806 E0.04538
G1 X0.972 Y3.154 E0.04575
G1 X0.222 Y3.295 E0.04148
G1 X-0.664 Y3.233 E0.04825
G1 X-1.261 Y3.039 E0.03411
G1 X-1.463 Y2.958 E0.01183
G1 X-2.153 Y2.501 E0.04493
G1 X-2.584 Y2.041 E0.03425
G1 X-2.716 Y1.871 E0.01169
G1 X-3.016 Y1.326 E0.03382
G1 X-3.099 Y1.127 E0.01169
G1 X-3.253 Y0.525 E0.03382
G1 X-3.282 Y0.309 E0.01179
G1 X-3.271 Y-0.439 E0.04069
G1 X-3.078 Y-1.193 E0.04224
G1 X-2.684 Y-1.922 E0.04502
G1 X-2.120 Y-2.530 E0.04508
G1 X-1.421 Y-2.980 E0.04517
G1 X-0.582 Y-3.247 E0.04782
G1 X0.194 Y-3.296 E0.04228 F1800.000
G1 X1.009 Y-3.144 E0.04506
G1 X1.762 Y-2.793 E0.04510
G1 X2.356 Y-2.303 E0.04185
G1 X2.796 Y-2.337 F9000.000
G1 X-4.404 Y-12.983 F9000.000
G1 X-3.764 Y-13.185 E0.03647 F1800.000
G1 X-2.610 Y-13.460 E0.06448
G1 X-1.433 Y-13.636 E0.06463
G1 X-0.260 Y-13.709 E0.06388
G1 X0.260 Y-13.709 E0.02824
G1 X0.921 Y-13.680 E0.03597
G1 X1.433 Y-13.636 E0.02792 F1800.000
G1 X2.610 Y-13.460 E0.06463
G1 X3.759 Y-13.186 E0.06420
G1 X4.881 Y-12.814 E0.06420
G1 X5.966 Y-12.346 E0.06420
G1 X7.007 Y-11.787 E0.06420
G1 X7.999 Y-11.138 E0.06441
G1 X8.922 Y-10.414 E0.06375
G1 X9.789 Y-9.603 E0.06446
G1 X10.579 Y-8.725 E0.06421
G1 X11.291 Y-7.782 E0.06421
G1 X11.920 Y-6.781 E0.06421
G1 X12.459 Y-5.730 E0.06421
G1 X12.907 Y-4.634 E0.06428
G1 X13.257 Y-3.509 E0.06406
G1 X13.510 Y-2.353 E0.06430
G1 X13.663 Y-1.181 E0.06421
G1 X13.714 Y-0.000 E0.06421
G1 X13.663 Y1.181 E0.06421
G1 X13.510 Y2.353 E0.06421
G1 X13.258 Y3.507 E0.06421
G1 X12.906 Y4.636 E0.06421
G1 X12.458 Y5.732 E0.06435
G1 X11.921 Y6.779 E0.06397
G1 X11.291 Y7.782 E0.06432
G1 X10.579 Y8.725 E0.06421
G1 X9.789 Y9.603 E0.06421
G1 X8.925 Y10.410 E0.06421
G1 X7.996 Y11.140 E0.06421
G1 X7.007 Y11.787 E0.06421
G1 X5.966 Y12.346 E0.06420
G1 X4.875 Y12.816 E0.06456
G1 X3.764 Y13.185 E0.06357
G1 X2.610 Y13.460 E0.06448
G1 X1.433 Y13.636 E0.06463
G1 X0.260 Y13.709 E0.06388
G1 X-0.260 Y13.709 E0.02824
G1 X-1.433 Y13.636 E0.06388
G1 X-2.610 Y13.460 E0.06463
G1 X-3.759 Y13.186 E0.06420
G1 X-4.881 Y12.814 E0.06420
G1 X-5.966 Y12.346 E0.06420
G1 X-7.007 Y11.787 E0.06420
G1 X-7.999 Y11.138 E0.06441
G1 X-8.922 Y10.414 E0.06375
G1 X-9.789 Y9.603 E0.06446
G1 X-10.579 Y8.725 E0.06421
G1 X-11.291 Y7.782 E0.06421
G1 X-11.920 Y6.781 E0.06421
G1 X-12.459 Y5.730 E0.06421
G1 X-12.907 Y4.634 E0.06428
G1 X-13.257 Y3.509 E0.06406
G1 X-13.510 Y2.353 E0.06430
G1 X-13.663 Y1.181 E0.06421
G1 X-13.714 Y-0.000 E0.06421
G1 X-13.663 Y-1.181 E0.06421
G1 X-13.510 Y-2.353 E0.06421
G1 X-13.258 Y-3.507 E0.06421
G1 X-12.906 Y-4.636 E0.06421
G1 X-12.458 Y-5.732 E0.06435
G1 X-11.921 Y-6.779 E0.06397
G1 X-11.291 Y-7.782 E0.06432
