; generated by Slic3r 1.2.9 on 2016-11-30 at 14:43:19

; external perimeters extrusion width = 0.50mm
; perimeters extrusion width = 0.50mm
; infill extrusion width = 0.50mm
; solid infill extrusion width = 0.50mm
; top infill extrusion width = 0.50mm

M107
;Basic settings: Layer height: {layer_height} Walls: {wall_thickness} Fill: {fill_density}
;Print time: {print_time}
;Filament used: {filament_amount}m {filament_weight}g
;Filament cost: {filament_cost}
;M190 S{print_bed_temperature} ;Uncomment to add your own bed temperature line
;M109 S{print_temperature} ;Uncomment to add your own temperature line
G21        ;metric values
G90        ;absolute positioning
M83
G10 P0 S200
T0
M116


G21 ; set units to millimeters
G90 ; use absolute coordinates
M83 ; use relative distances for extrusion
G1 E-3.20000 F3000.00000
G1 Z0.400 F9000.000
G1 X6.351 Y-6.355 F9000.000
G1 Z0.300 F9000.000
G1 E3.20000 F3000.00000
G1 X14.924 Y2.227 E1.11289 F1200.000
G1 X15.567 Y3.013 E0.09324
G1 X15.972 Y3.622 E0.06709
G1 X16.324 Y4.254 E0.06638
G1 X16.623 Y4.913 E0.06638
G1 X16.774 Y5.313 E0.03918
G1 X16.986 Y6.000 E0.06599
G1 X17.142 Y6.707 E0.06648
G1 X17.241 Y7.423 E0.06628
G1 X17.283 Y8.446 E0.09395
G1 X17.241 Y9.168 E0.06638
G1 X17.142 Y9.885 E0.06638
G1 X16.986 Y10.591 E0.06635
G1 X16.773 Y11.283 E0.06640
G1 X16.623 Y11.678 E0.03879
G1 X16.324 Y12.337 E0.06638
G1 X15.812 Y13.224 E0.09395
G1 X15.391 Y13.812 E0.06638
G1 X14.932 Y14.356 E0.06531
G1 X14.414 Y14.878 E0.06745
G1 X14.097 Y15.158 E0.03879
G1 X13.526 Y15.603 E0.06638
G1 X12.922 Y16.000 E0.06638
G1 X12.017 Y16.475 E0.09374
G1 X11.345 Y16.748 E0.06659
G1 X10.657 Y16.965 E0.06617
G1 X10.244 Y17.067 E0.03901
G1 X9.532 Y17.195 E0.06638
G1 X8.511 Y17.277 E0.09395
G1 X-8.511 Y17.277 E1.56185
G1 X-9.233 Y17.231 E0.06638
G1 X-10.244 Y17.067 E0.09397
G1 X-10.944 Y16.882 E0.06636
G1 X-11.620 Y16.644 E0.06578
G1 X-12.015 Y16.475 E0.03939
G1 X-12.661 Y16.150 E0.06638
G1 X-13.279 Y15.774 E0.06638
G1 X-13.864 Y15.349 E0.06638
G1 X-14.414 Y14.878 E0.06638
G1 X-15.120 Y14.144 E0.09342
G1 X-15.567 Y13.578 E0.06620
G1 X-15.972 Y12.969 E0.06710
G1 X-16.324 Y12.337 E0.06640
G1 X-16.623 Y11.678 E0.06635
G1 X-16.773 Y11.283 E0.03879
G1 X-17.056 Y10.306 E0.09335
G1 X-17.190 Y9.588 E0.06698
G1 X-17.265 Y8.871 E0.06613
G1 X-17.286 Y8.296 E0.05285
G1 X-17.286 Y-8.296 E1.52227
G1 X-17.241 Y-9.168 E0.08018
G1 X-17.142 Y-9.884 E0.06625
G1 X-16.987 Y-10.587 E0.06613
G1 X-16.773 Y-11.283 E0.06676
G1 X-16.505 Y-11.955 E0.06640
G1 X-16.185 Y-12.601 E0.06608
G1 X-15.972 Y-12.969 E0.03907
G1 X-15.571 Y-13.572 E0.06638
G1 X-15.123 Y-14.140 E0.06638
G1 X-14.631 Y-14.670 E0.06638
G1 X-13.871 Y-15.344 E0.09326
G1 X-13.287 Y-15.768 E0.06620
G1 X-12.661 Y-16.150 E0.06726
G1 X-12.287 Y-16.347 E0.03879
G1 X-11.626 Y-16.641 E0.06635
G1 X-10.944 Y-16.882 E0.06641
G1 X-10.244 Y-17.067 E0.06638
G1 X-9.235 Y-17.231 E0.09380
G1 X-8.511 Y-17.277 E0.06653
G1 X-7.788 Y-17.265 E0.06638
G1 X-7.069 Y-17.195 E0.06633 F1200.000
G1 X-6.356 Y-17.067 E0.06643
G1 X-5.656 Y-16.882 E0.06638
G1 X-4.974 Y-16.641 E0.06638
G1 X-4.313 Y-16.347 E0.06638
G1 X-3.678 Y-16.000 E0.06638
G1 X-3.083 Y-15.610 E0.06530
G1 X-2.736 Y-15.349 E0.03987
G1 X-2.022 Y-14.724 E0.08698
G1 X6.309 Y-6.397 E1.08076
G1 E-3.20000 F3000.00000
G1 Z0.700 F9000.000
G1 X-5.795 Y5.923 F9000.000
G1 Z0.300 F9000.000
G1 E3.20000 F3000.00000
G1 X-5.553 Y6.207 E0.03428 F900.000
G1 X-5.343 Y6.517 E0.03428
G1 X-5.168 Y6.847 E0.03428
G1 X-5.030 Y7.194 E0.03428
G1 X-4.930 Y7.554 E0.03428
G1 X-4.870 Y7.923 E0.03428
G1 X-4.849 Y8.296 E0.03428
G1 X-4.870 Y8.669 E0.03428
G1 X-4.930 Y9.037 E0.03428
G1 X-5.030 Y9.397 E0.03428
G1 X-5.168 Y9.745 E0.03428
G1 X-5.343 Y10.075 E0.03428
G1 X-5.553 Y10.384 E0.03428
G1 X-5.795 Y10.669 E0.03428
G1 X-6.066 Y10.926 E0.03428
G1 X-6.364 Y11.152 E0.03428
G1 X-6.684 Y11.344 E0.03428
G1 X-7.023 Y11.501 E0.03428
G1 X-7.377 Y11.621 E0.03428
G1 X-7.742 Y11.701 E0.03428
G1 X-8.113 Y11.741 E0.03428
G1 X-8.487 Y11.741 E0.03428
G1 X-8.858 Y11.701 E0.03428
G1 X-9.223 Y11.621 E0.03428
G1 X-9.577 Y11.501 E0.03428
G1 X-9.916 Y11.344 E0.03428
G1 X-10.236 Y11.152 E0.03428
G1 X-10.534 Y10.926 E0.03428
G1 X-10.805 Y10.669 E0.03428
G1 X-11.047 Y10.384 E0.03428
G1 X-11.257 Y10.075 E0.03428
G1 X-11.432 Y9.745 E0.03428
G1 X-11.570 Y9.398 E0.03428
G1 X-11.670 Y9.037 E0.03428
G1 X-11.730 Y8.669 E0.03428
G1 X-11.751 Y8.296 E0.03428
G1 X-11.730 Y7.923 E0.03428
G1 X-11.670 Y7.554 E0.03428
G1 X-11.570 Y7.194 E0.03428
G1 X-11.432 Y6.847 E0.03428
G1 X-11.257 Y6.517 E0.03428
G1 X-11.047 Y6.207 E0.03428
G1 X-10.805 Y5.923 E0.03428
G1 X-10.534 Y5.666 E0.03428
G1 X-10.236 Y5.440 E0.03428
G1 X-9.916 Y5.247 E0.03428
G1 X-9.577 Y5.090 E0.03428
G1 X-9.223 Y4.971 E0.03428
G1 X-8.858 Y4.890 E0.03428
G1 X-8.487 Y4.850 E0.03428
G1 X-8.113 Y4.850 E0.03428 F900.000
G1 X-7.742 Y4.890 E0.03428
G1 X-7.377 Y4.971 E0.03428
G1 X-7.023 Y5.090 E0.03428
G1 X-6.684 Y5.247 E0.03428
G1 X-6.364 Y5.440 E0.03428
G1 X-6.066 Y5.666 E0.03428
G1 X-5.838 Y5.881 E0.02878
G1 X-5.430 Y5.842 F9000.000
G1 E-3.20000 F3000.00000
G1 Z0.700 F9000.000
G1 X-6.058 Y12.591 F9000.000
G1 Z0.300 F9000.000
G1 E3.20000 F3000.00000
G1 X-6.580 Y12.830 E0.05271 F900.000
G1 X-6.951 Y12.954 E0.03583
G1 X-7.330 Y13.047 E0.03583
G1 X-7.715 Y13.110 E0.03583
G1 X-8.105 Y13.141 E0.03583
G1 X-8.495 Y13.141 E0.03583
G1 X-8.885 Y13.110 E0.03583
G1 X-9.270 Y13.047 E0.03583
G1 X-9.649 Y12.954 E0.03583
G1 X-10.020 Y12.830 E0.03583
G1 X-10.379 Y12.677 E0.03583
G1 X-10.725 Y12.496 E0.03583
G1 X-11.055 Y12.287 E0.03583
G1 X-11.367 Y12.052 E0.03583
G1 X-11.659 Y11.793 E0.03583
G1 X-11.930 Y11.511 E0.03586
G1 X-12.177 Y11.209 E0.03581
G1 X-12.399 Y10.888 E0.03583
G1 X-12.594 Y10.549 E0.03583
G1 X-12.762 Y10.197 E0.03583
G1 X-12.900 Y9.831 E0.03583
G1 X-13.009 Y9.456 E0.03583
G1 X-13.087 Y9.074 E0.03583
G1 X-13.134 Y8.686 E0.03581
G1 X-13.150 Y8.296 E0.03586
G1 X-13.134 Y7.905 E0.03583
G1 X-13.087 Y7.518 E0.03583
G1 X-13.009 Y7.135 E0.03583
G1 X-12.900 Y6.760 E0.03583
G1 X-12.762 Y6.395 E0.03583
G1 X-12.594 Y6.042 E0.03583
G1 X-12.399 Y5.704 E0.03583
G1 X-12.177 Y5.382 E0.03583
G1 X-11.930 Y5.080 E0.03583
G1 X-11.659 Y4.798 E0.03583
G1 X-11.367 Y4.539 E0.03583
G1 X-11.055 Y4.305 E0.03583
G1 X-10.725 Y4.096 E0.03583
G1 X-10.379 Y3.914 E0.03583
G1 X-10.020 Y3.761 E0.03583
G1 X-9.649 Y3.638 E0.03583
G1 X-9.270 Y3.544 E0.03583
G1 X-8.885 Y3.481 E0.03583
G1 X-8.495 Y3.450 E0.03583
G1 X-8.105 Y3.450 E0.03583
G1 X-7.716 Y3.481 E0.03581
G1 X-7.330 Y3.544 E0.03586 F900.000
G1 X-6.951 Y3.638 E0.03583
G1 X-6.580 Y3.761 E0.03583
G1 X-6.221 Y3.914 E0.03583
G1 X-5.875 Y4.096 E0.03583
G1 X-5.545 Y4.305 E0.03586
G1 X-5.233 Y4.539 E0.03581
G1 X-4.941 Y4.798 E0.03583
G1 X-4.670 Y5.080 E0.03583
G1 X-4.423 Y5.382 E0.03583
G1 X-4.201 Y5.704 E0.03583
G1 X-4.006 Y6.042 E0.03583
G1 X-3.838 Y6.395 E0.03583
G1 X-3.700 Y6.760 E0.03583
G1 X-3.591 Y7.135 E0.03583
G1 X-3.513 Y7.518 E0.03583
G1 X-3.466 Y7.905 E0.03583
G1 X-3.450 Y8.295 E0.03581
G1 X-3.466 Y8.686 E0.03586
G1 X-3.513 Y9.074 E0.03583
G1 X-3.591 Y9.456 E0.03583
G1 X-3.700 Y9.831 E0.03583
G1 X-3.838 Y10.197 E0.03583
G1 X-4.006 Y10.549 E0.03583
G1 X-4.201 Y10.888 E0.03583
G1 X-4.423 Y11.209 E0.03583
G1 X-4.670 Y11.512 E0.03586
G1 X-4.941 Y11.793 E0.03581
G1 X-5.233 Y12.052 E0.03583
G1 X-5.545 Y12.287 E0.03583
G1 X-6.005 Y12.564 E0.04922
G1 X-6.392 Y12.371 F9000.000
G1 X-6.341 Y11.952 F9000.000
G1 X-6.829 Y12.175 E0.10267 F600.000
G1 X-7.173 Y12.289 E0.06939
G1 X-7.470 Y12.359 E0.05860
G1 X-8.058 Y12.437 E0.11344
G1 X-8.467 Y12.441 E0.07844
G1 X-8.953 Y12.392 E0.09364
G1 X-9.427 Y12.289 E0.09288
G1 X-9.852 Y12.143 E0.08604
G1 X-10.374 Y11.888 E0.11124
G1 X-10.657 Y11.711 E0.06399
G1 X-10.972 Y11.469 E0.07601
G1 X-11.173 Y11.287 E0.05196
G1 X-11.592 Y10.821 E0.12005
G1 X-11.864 Y10.419 E0.09288
G1 X-12.116 Y9.922 E0.10685
G1 X-12.236 Y9.610 E0.06399
G1 X-12.328 Y9.288 E0.06400
G1 X-12.422 Y8.762 E0.10244
G1 X-12.450 Y8.296 E0.08947
G1 X-12.422 Y7.829 E0.08945 F600.000
G1 X-12.328 Y7.303 E0.10245
G1 X-12.236 Y6.982 E0.06400
G1 X-12.116 Y6.670 E0.06400
G1 X-11.864 Y6.172 E0.10684
G1 X-11.592 Y5.770 E0.09288
G1 X-11.173 Y5.305 E0.12005
G1 X-10.972 Y5.122 E0.05197
G1 X-10.657 Y4.881 E0.07601
G1 X-10.374 Y4.704 E0.06399
G1 X-9.852 Y4.448 E0.11124
G1 X-9.427 Y4.302 E0.08604
G1 X-8.953 Y4.199 E0.09288
G1 X-8.467 Y4.150 E0.09364
G1 X-8.093 Y4.152 E0.07160
G1 X-7.800 Y4.178 E0.05634
G1 X-7.207 Y4.293 E0.11569
G1 X-6.748 Y4.448 E0.09288
G1 X-6.226 Y4.704 E0.11124
G1 X-5.943 Y4.881 E0.06404
G1 X-5.628 Y5.122 E0.07597
G1 X-5.427 Y5.305 E0.05197
G1 X-5.008 Y5.770 E0.12005
G1 X-4.736 Y6.172 E0.09288
G1 X-4.484 Y6.670 E0.10684
G1 X-4.364 Y6.982 E0.06400
G1 X-4.272 Y7.303 E0.06400
G1 X-4.178 Y7.829 E0.10244
G1 X-4.150 Y8.295 E0.08942
G1 X-4.178 Y8.762 E0.08951
G1 X-4.272 Y9.288 E0.10244
G1 X-4.364 Y9.610 E0.06400
G1 X-4.484 Y9.922 E0.06400
G1 X-4.754 Y10.450 E0.11368
G1 X-5.008 Y10.821 E0.08605
G1 X-5.427 Y11.287 E0.12005
G1 X-5.628 Y11.469 E0.05197
G1 X-5.943 Y11.711 E0.07601
G1 X-6.289 Y11.923 E0.07775
G1 E-3.20000 F3000.00000
G1 Z0.700 F9000.000
G1 X-8.113 Y-4.850 F9000.000
G1 Z0.300 F9000.000
G1 E3.20000 F3000.00000
G1 X-8.487 Y-4.850 E0.03428 F900.000
G1 X-8.858 Y-4.890 E0.03428
G1 X-9.223 Y-4.971 E0.03428
G1 X-9.577 Y-5.090 E0.03428
G1 X-9.916 Y-5.247 E0.03428
G1 X-10.236 Y-5.440 E0.03428
G1 X-10.534 Y-5.666 E0.03428
G1 X-10.805 Y-5.923 E0.03428
G1 X-11.047 Y-6.207 E0.03428
G1 X-11.257 Y-6.517 E0.03428
G1 X-11.432 Y-6.847 E0.03428
G1 X-11.570 Y-7.194 E0.03428
G1 X-11.670 Y-7.554 E0.03428
G1 X-11.730 Y-7.923 E0.03428
G1 X-11.751 Y-8.296 E0.03428
G1 X-11.730 Y-8.669 E0.03428
G1 X-11.670 Y-9.037 E0.03428
G1 X-11.570 Y-9.398 E0.03428
G1 X-11.432 Y-9.745 E0.03428
G1 X-11.257 Y-10.075 E0.03428
G1 X-11.047 Y-10.384 E0.03428
G1 X-10.805 Y-10.669 E0.03428
G1 X-10.534 Y-10.926 E0.03428
G1 X-10.236 Y-11.152 E0.03428
G1 X-9.916 Y-11.344 E0.03428
G1 X-9.577 Y-11.501 E0.03428
G1 X-9.223 Y-11.621 E0.03428
G1 X-8.858 Y-11.701 E0.03428
G1 X-8.487 Y-11.741 E0.03428
G1 X-8.113 Y-11.741 E0.03428 F900.000
G1 X-7.742 Y-11.701 E0.03428
G1 X-7.377 Y-11.621 E0.03428
G1 X-7.023 Y-11.501 E0.03428
G1 X-6.684 Y-11.344 E0.03428
G1 X-6.364 Y-11.152 E0.03428
G1 X-6.066 Y-10.926 E0.03428
G1 X-5.795 Y-10.669 E0.03428
G1 X-5.553 Y-10.384 E0.03428
G1 X-5.343 Y-10.075 E0.03428
G1 X-5.168 Y-9.745 E0.03428
G1 X-5.030 Y-9.397 E0.03428
G1 X-4.930 Y-9.037 E0.03428
G1 X-4.870 Y-8.669 E0.03428
G1 X-4.849 Y-8.296 E0.03428
G1 X-4.870 Y-7.923 E0.03428
G1 X-4.930 Y-7.554 E0.03428
G1 X-5.030 Y-7.194 E0.03428
G1 X-5.168 Y-6.847 E0.03428
G1 X-5.343 Y-6.517 E0.03428
G1 X-5.553 Y-6.207 E0.03428
G1 X-5.795 Y-5.923 E0.03428
G1 X-6.066 Y-5.666 E0.03428
G1 X-6.364 Y-5.440 E0.03428
G1 X-6.684 Y-5.247 E0.03428
G1 X-7.023 Y-5.090 E0.03428
G1 X-7.377 Y-4.971 E0.03428
G1 X-7.742 Y-4.890 E0.03428
G1 X-8.054 Y-4.857 E0.02877
G1 X-8.288 Y-4.520 F9000.000
G1 E-3.20000 F3000.00000
G1 Z0.700 F9000.000
G1 X-8.420 Y-13.141 F9000.000
G1 Z0.300 F9000.000
G1 E3.20000 F3000.00000
G1 X-8.105 Y-13.141 E0.02891 F900.000
G1 X-7.716 Y-13.110 E0.03581
G1 X-7.330 Y-13.047 E0.03586 F900.000
G1 X-6.951 Y-12.954 E0.03583
G1 X-6.580 Y-12.830 E0.03583
G1 X-6.221 Y-12.677 E0.03583
G1 X-5.875 Y-12.496 E0.03583
G1 X-5.545 Y-12.287 E0.03586
G1 X-5.233 Y-12.052 E0.03581
G1 X-4.941 Y-11.793 E0.03583
G1 X-4.670 Y-11.512 E0.03583
G1 X-4.423 Y-11.209 E0.03583
G1 X-4.201 Y-10.888 E0.03583
G1 X-4.006 Y-10.549 E0.03583
G1 X-3.838 Y-10.197 E0.03583
G1 X-3.700 Y-9.831 E0.03583
G1 X-3.591 Y-9.456 E0.03583
G1 X-3.513 Y-9.074 E0.03583
G1 X-3.466 Y-8.686 E0.03583
G1 X-3.450 Y-8.296 E0.03581
G1 X-3.466 Y-7.905 E0.03586
G1 X-3.513 Y-7.518 E0.03583
G1 X-3.591 Y-7.135 E0.03583
G1 X-3.700 Y-6.760 E0.03583
G1 X-3.838 Y-6.395 E0.03583
G1 X-4.006 Y-6.042 E0.03583
G1 X-4.201 Y-5.704 E0.03583
G1 X-4.423 Y-5.382 E0.03583
G1 X-4.670 Y-5.080 E0.03586
G1 X-4.941 Y-4.798 E0.03581
G1 X-5.233 Y-4.539 E0.03583
G1 X-5.545 Y-4.305 E0.03583
G1 X-5.875 Y-4.096 E0.03583
G1 X-6.221 Y-3.914 E0.03583
G1 X-6.580 Y-3.761 E0.03583
G1 X-6.951 Y-3.638 E0.03583
G1 X-7.330 Y-3.544 E0.03583
G1 X-7.715 Y-3.481 E0.03583
G1 X-8.105 Y-3.450 E0.03583
G1 X-8.495 Y-3.450 E0.03583
G1 X-8.885 Y-3.481 E0.03583
G1 X-9.270 Y-3.544 E0.03583
G1 X-9.649 Y-3.638 E0.03583
G1 X-10.020 Y-3.761 E0.03583
G1 X-10.379 Y-3.914 E0.03583
G1 X-10.725 Y-4.096 E0.03583
G1 X-11.055 Y-4.305 E0.03583
G1 X-11.367 Y-4.539 E0.03583
G1 X-11.659 Y-4.798 E0.03583
G1 X-11.930 Y-5.080 E0.03586
G1 X-12.177 Y-5.382 E0.03581
G1 X-12.399 Y-5.704 E0.03583
G1 X-12.594 Y-6.042 E0.03583
G1 X-12.762 Y-6.395 E0.03583
G1 X-12.900 Y-6.760 E0.03583
G1 X-13.009 Y-7.135 E0.03583
G1 X-13.087 Y-7.518 E0.03583
G1 X-13.134 Y-7.905 E0.03581
G1 X-13.150 Y-8.296 E0.03586
G1 X-13.134 Y-8.686 E0.03583
G1 X-13.087 Y-9.074 E0.03583
G1 X-13.009 Y-9.456 E0.03583
G1 X-12.900 Y-9.831 E0.03583
G1 X-12.762 Y-10.197 E0.03583
G1 X-12.594 Y-10.549 E0.03583
G1 X-12.399 Y-10.888 E0.03583
G1 X-12.177 Y-11.209 E0.03583
G1 X-11.930 Y-11.512 E0.03583
G1 X-11.659 Y-11.793 E0.03583
G1 X-11.367 Y-12.052 E0.03583
G1 X-11.055 Y-12.287 E0.03583
G1 X-10.725 Y-12.496 E0.03583
G1 X-10.379 Y-12.677 E0.03583
G1 X-10.020 Y-12.830 E0.03583
G1 X-9.649 Y-12.954 E0.03583
G1 X-9.270 Y-13.047 E0.03583
G1 X-8.885 Y-13.110 E0.03583
G1 X-8.480 Y-13.141 E0.03725
G1 X-8.256 Y-12.872 F9000.000
G1 X-8.467 Y-12.441 F9000.000
G1 X-8.093 Y-12.440 E0.07160 F600.000
G1 X-7.800 Y-12.413 E0.05634
G1 X-7.207 Y-12.298 E0.11569
G1 X-6.748 Y-12.143 E0.09288
G1 X-6.226 Y-11.888 E0.11124
G1 X-5.956 Y-11.720 E0.06081
G1 X-5.676 Y-11.509 E0.06718
G1 X-5.276 Y-11.136 E0.10487
G1 X-4.986 Y-10.793 E0.08606
G1 X-4.794 Y-10.513 E0.06498
G1 X-4.528 Y-10.021 E0.10707
G1 X-4.364 Y-9.610 E0.08484
G1 X-4.272 Y-9.288 E0.06400
G1 X-4.178 Y-8.762 E0.10244
G1 X-4.150 Y-8.296 E0.08942
G1 X-4.165 Y-7.962 E0.06405
G1 X-4.206 Y-7.630 E0.06397
G1 X-4.272 Y-7.303 E0.06398
G1 X-4.364 Y-6.982 E0.06400
G1 X-4.543 Y-6.538 E0.09167
G1 X-4.754 Y-6.142 E0.08604
G1 X-4.982 Y-5.803 E0.07822
G1 X-5.301 Y-5.430 E0.09387
G1 X-5.676 Y-5.082 E0.09804
G1 X-5.956 Y-4.871 E0.06718
G1 X-6.341 Y-4.639 E0.08606
G1 X-6.829 Y-4.417 E0.10267
G1 X-7.173 Y-4.302 E0.06939
G1 X-7.470 Y-4.232 E0.05860
G1 X-8.058 Y-4.154 E0.11344
G1 X-8.542 Y-4.154 E0.09288
G1 X-9.130 Y-4.232 E0.11344
G1 X-9.454 Y-4.310 E0.06399
G1 X-9.819 Y-4.435 E0.07381
G1 X-10.374 Y-4.704 E0.11808
G1 X-10.657 Y-4.881 E0.06399
G1 X-10.972 Y-5.122 E0.07601
G1 X-11.405 Y-5.545 E0.11593
G1 X-11.614 Y-5.799 E0.06297
G1 X-11.806 Y-6.079 E0.06498
G1 X-12.057 Y-6.538 E0.10024
G1 X-12.236 Y-6.982 E0.09166
G1 X-12.328 Y-7.303 E0.06400
G1 X-12.394 Y-7.630 E0.06398
G1 X-12.435 Y-7.962 E0.06393
G1 X-12.450 Y-8.296 E0.06405
G1 X-12.426 Y-8.726 E0.08262 F600.000
G1 X-12.355 Y-9.170 E0.08604
G1 X-12.236 Y-9.610 E0.08726
G1 X-12.116 Y-9.922 E0.06400
G1 X-11.972 Y-10.223 E0.06397
G1 X-11.806 Y-10.513 E0.06398
G1 X-11.614 Y-10.793 E0.06498
G1 X-11.324 Y-11.136 E0.08606
G1 X-10.972 Y-11.469 E0.09287
G1 X-10.657 Y-11.711 E0.07601
G1 X-10.374 Y-11.888 E0.06399
G1 X-10.078 Y-12.043 E0.06397
G1 X-9.771 Y-12.175 E0.06398
G1 X-9.393 Y-12.298 E0.07624
G1 X-8.953 Y-12.392 E0.08603
G1 X-8.527 Y-12.438 E0.08217
G1 E-3.20000 F3000.00000
G1 Z0.700 F9000.000
G1 X6.066 Y5.666 F9000.000
G1 Z0.300 F9000.000
G1 E3.20000 F3000.00000
G1 X6.364 Y5.440 E0.03428 F900.000
G1 X6.684 Y5.247 E0.03428
G1 X7.023 Y5.090 E0.03428
G1 X7.377 Y4.971 E0.03428
G1 X7.742 Y4.890 E0.03428
G1 X8.113 Y4.850 E0.03428
G1 X8.487 Y4.850 E0.03428 F900.000
G1 X8.858 Y4.890 E0.03428
G1 X9.223 Y4.971 E0.03428
G1 X9.577 Y5.090 E0.03428
G1 X9.916 Y5.247 E0.03428
G1 X10.236 Y5.440 E0.03428
G1 X10.534 Y5.666 E0.03428
G1 X10.805 Y5.923 E0.03428
G1 X11.047 Y6.207 E0.03428
G1 X11.257 Y6.517 E0.03428
G1 X11.432 Y6.847 E0.03428
G1 X11.570 Y7.194 E0.03428
G1 X11.670 Y7.554 E0.03428
G1 X11.730 Y7.923 E0.03428
G1 X11.751 Y8.296 E0.03428
G1 X11.730 Y8.669 E0.03428
G1 X11.670 Y9.037 E0.03428
G1 X11.570 Y9.397 E0.03428
G1 X11.432 Y9.745 E0.03428
G1 X11.257 Y10.075 E0.03428
G1 X11.047 Y10.384 E0.03428
G1 X10.805 Y10.669 E0.03428
G1 X10.534 Y10.926 E0.03428
G1 X10.236 Y11.152 E0.03428
G1 X9.916 Y11.344 E0.03428
