; generated by Slic3r 1.2.9 on 2016-10-10 at 12:51:34

; external perimeters extrusion width = 0.50mm
; perimeters extrusion width = 0.50mm
; infill extrusion width = 0.50mm
; solid infill extrusion width = 0.50mm
; top infill extrusion width = 0.50mm

M107
;Basic settings: Layer height: {layer_height} Walls: {wall_thickness} Fill: {fill_density}
;Print time: {print_time}
;Filament used: {filament_amount}m {filament_weight}g
;Filament cost: {filament_cost}
;M190 S{print_bed_temperature} ;Uncomment to add your own bed temperature line
;M109 S{print_temperature} ;Uncomment to add your own temperature line
G21        ;metric values
G90        ;absolute positioning
M83
G10 P0 S200
T0
M116


G21 ; set units to millimeters
G90 ; use absolute coordinates
M83 ; use relative distances for extrusion
G1 E-3.20000 F3000.00000
G1 Z0.400 F9000.000
G1 X16.532 Y-7.526 F9000.000
G1 Z0.300 F9000.000
G1 E3.20000 F3000.00000
G1 X20.899 Y2.067 E0.96713 F1200.000
G1 X21.235 Y3.615 E0.14532
G1 X21.235 Y51.515 E4.39485
G1 X20.840 Y53.186 E0.15755
G1 X19.740 Y54.504 E0.15755
G1 X17.499 Y55.251 E0.21667
G1 X10.125 Y55.251 E0.67663
G1 X8.453 Y54.856 E0.15755
G1 X7.004 Y53.568 E0.17794
G1 X-19.522 Y13.241 E4.42867
G1 X-19.990 Y12.225 E0.10265
G1 X-21.088 Y8.421 E0.36323
G1 X-21.235 Y7.385 E0.09606
G1 X-21.235 Y-51.515 E5.40411
G1 X-20.840 Y-53.186 E0.15755
G1 X-19.740 Y-54.504 E0.15755
G1 X-17.499 Y-55.251 E0.21667
G1 X-7.599 Y-55.251 E0.90833
G1 X-5.928 Y-54.856 E0.15755
G1 X-4.199 Y-53.063 E0.22853 F1200.000
G1 X16.507 Y-7.581 E4.58512
G1 E-3.20000 F3000.00000
G1 Z0.700 F9000.000
G1 X11.260 Y10.053 F9000.000
G1 Z0.300 F9000.000
G1 E3.20000 F3000.00000
G1 X-15.318 Y10.053 E2.43856 F900.000
G1 X-15.693 Y8.165 E0.17657
G1 X-16.153 Y7.056 E0.11013
G1 X-16.364 Y6.845 E0.02737
G1 X-16.364 Y-50.380 E5.25040
G1 X-8.735 Y-50.380 E0.69994
G1 X-8.735 Y-10.944 E3.61826
G1 X6.960 Y4.751 E2.03644
G1 X16.364 Y4.751 E0.86283
G1 X16.364 Y50.380 E4.18646
G1 X11.260 Y50.380 E0.46824
G1 X11.260 Y10.113 E3.69451
G1 X10.525 Y10.788 F9000.000
G1 X-16.001 Y10.788 E2.43372 F900.000
G1 X-16.001 Y10.391 E0.03649
G1 X-16.401 Y8.380 E0.18811
G1 X-16.776 Y7.473 E0.09006
G1 X-17.099 Y7.150 E0.04191
G1 X-17.099 Y-51.115 E5.34585
G1 X-7.999 Y-51.115 E0.83493
G1 X-7.999 Y-11.248 E3.65779
G1 X7.264 Y4.015 E1.98053
G1 X17.099 Y4.015 E0.90236
G1 X17.099 Y51.115 E4.32145
G1 X10.525 Y51.115 E0.60323
G1 X10.525 Y10.848 E3.69451
G1 X10.525 Y10.388 F9000.000
G1 X6.170 Y9.603 F9000.000
G1 X-15.914 Y-12.481 E2.87437 F900.000
G1 X-15.914 Y-13.525 E0.09604
G1 X7.214 Y9.603 E3.01018
G1 X8.257 Y9.603 E0.09604
G1 X-15.914 Y-14.568 E3.14600
G1 X-15.914 Y-15.612 E0.09604
G1 X9.301 Y9.603 E3.28181
G1 X10.344 Y9.603 E0.09604
G1 X-15.914 Y-16.655 E3.41763
G1 X-15.914 Y-11.438 F9000.000
G1 X5.127 Y9.603 E2.73856 F900.000
G1 X4.083 Y9.603 E0.09604
G1 X-15.914 Y-10.394 E2.60274
G1 X-15.914 Y-9.351 E0.09604
G1 X3.040 Y9.603 E2.46693
G1 X1.996 Y9.603 E0.09604
G1 X-15.914 Y-8.307 E2.33111
G1 X-15.914 Y-7.264 E0.09604
G1 X0.953 Y9.603 E2.19530
G1 X-0.091 Y9.603 E0.09604
G1 X-15.914 Y-6.220 E2.05949
G1 X-15.914 Y-5.177 E0.09604
G1 X-1.134 Y9.603 E1.92367
G1 X-2.178 Y9.603 E0.09604
G1 X-15.914 Y-4.133 E1.78786
G1 X-15.914 Y-3.090 E0.09604
G1 X-3.221 Y9.603 E1.65204
G1 X-4.265 Y9.603 E0.09604
G1 X-15.914 Y-2.046 E1.51623
G1 X-15.914 Y-1.003 E0.09604
G1 X-5.308 Y9.603 E1.38041
G1 X-6.352 Y9.603 E0.09604
G1 X-15.914 Y0.041 E1.24460
G1 X-15.914 Y1.084 E0.09604
G1 X-7.395 Y9.603 E1.10879
G1 X-8.439 Y9.603 E0.09604
G1 X-15.914 Y2.128 E0.97297
G1 X-15.914 Y3.171 E0.09604
G1 X-9.482 Y9.603 E0.83716
G1 X-10.526 Y9.603 E0.09604
G1 X-15.914 Y4.215 E0.70134
G1 X-15.914 Y5.258 E0.09604
G1 X-11.569 Y9.603 E0.56553
G1 X-12.613 Y9.603 E0.09604
G1 X-15.914 Y6.302 E0.42971
G1 X-15.228 Y8.032 F9000.000
G1 X-13.656 Y9.603 E0.20452 F900.000
G1 X-9.184 Y-10.969 F9000.000
G1 X-15.914 Y-17.699 E0.87597 F900.000
G1 X-15.914 Y-18.742 E0.09604
G1 X-9.184 Y-12.012 E0.87597
G1 X-9.184 Y-13.056 E0.09604
G1 X-15.914 Y-19.786 E0.87597
G1 X-15.914 Y-20.829 E0.09604
G1 X-9.184 Y-14.099 E0.87597
G1 X-9.184 Y-15.143 E0.09604
G1 X-15.914 Y-21.873 E0.87597
G1 X-15.914 Y-22.916 E0.09604
G1 X-9.184 Y-16.186 E0.87597
G1 X-9.184 Y-17.230 E0.09604
G1 X-15.914 Y-23.960 E0.87597
G1 X-15.914 Y-25.003 E0.09604
G1 X-9.184 Y-18.273 E0.87597
G1 X-9.184 Y-19.317 E0.09604
G1 X-15.914 Y-26.047 E0.87597
G1 X-15.914 Y-27.090 E0.09604
G1 X-9.184 Y-20.360 E0.87597
G1 X-9.184 Y-21.404 E0.09604
G1 X-15.914 Y-28.134 E0.87597
G1 X-15.914 Y-29.177 E0.09604
G1 X-9.184 Y-22.447 E0.87597
G1 X-9.184 Y-23.491 E0.09604
G1 X-15.914 Y-30.221 E0.87597
G1 X-15.914 Y-31.264 E0.09604
G1 X-9.184 Y-24.534 E0.87597
G1 X-9.184 Y-25.578 E0.09604
G1 X-15.914 Y-32.308 E0.87597
G1 X-15.914 Y-33.351 E0.09604
G1 X-9.184 Y-26.621 E0.87597
G1 X-9.184 Y-27.665 E0.09604
G1 X-15.914 Y-34.395 E0.87597
G1 X-15.914 Y-35.438 E0.09604
G1 X-9.184 Y-28.708 E0.87597
G1 X-9.184 Y-29.752 E0.09604
G1 X-15.914 Y-36.482 E0.87597
G1 X-15.914 Y-37.525 E0.09604
G1 X-9.184 Y-30.795 E0.87597
G1 X-9.184 Y-31.839 E0.09604
G1 X-15.914 Y-38.569 E0.87597
G1 X-15.914 Y-39.612 E0.09604
G1 X-9.184 Y-32.882 E0.87597
G1 X-9.184 Y-33.926 E0.09604
G1 X-15.914 Y-40.656 E0.87597
G1 X-15.914 Y-41.700 E0.09604
G1 X-9.184 Y-34.969 E0.87597
G1 X-9.184 Y-36.013 E0.09604
G1 X-15.914 Y-42.743 E0.87597
G1 X-15.914 Y-43.787 E0.09604
G1 X-9.184 Y-37.056 E0.87597
G1 X-9.184 Y-38.100 E0.09604
G1 X-15.914 Y-44.830 E0.87597
G1 X-15.914 Y-45.874 E0.09604
G1 X-9.184 Y-39.143 E0.87597
G1 X-9.184 Y-40.187 E0.09604
G1 X-15.914 Y-46.917 E0.87597
G1 X-15.914 Y-47.961 E0.09604
G1 X-9.184 Y-41.230 E0.87597
G1 X-9.184 Y-42.274 E0.09604
G1 X-15.914 Y-49.004 E0.87597
G1 X-15.797 Y-49.930 E0.08593
G1 X-9.184 Y-43.317 E0.86071
G1 X-9.184 Y-44.361 E0.09604
G1 X-14.754 Y-49.930 E0.72490
G1 X-13.710 Y-49.930 E0.09604
G1 X-9.184 Y-45.404 E0.58908
G1 X-9.184 Y-46.448 E0.09604
G1 X-12.667 Y-49.930 E0.45327
G1 X-11.623 Y-49.930 E0.09604
G1 X-9.184 Y-47.491 E0.31745
G1 X-9.184 Y-48.535 E0.09604
G1 X-10.580 Y-49.930 E0.18164
G1 X-9.536 Y-49.930 E0.09604
G1 X-9.184 Y-49.578 E0.04583
G1 E-3.20000 F3000.00000
G1 Z0.700 F9000.000
G1 X6.984 Y5.200 F9000.000
G1 Z0.300 F9000.000
G1 E3.20000 F3000.00000
G1 X15.914 Y14.130 E1.16226 F900.000
G1 X15.914 Y15.174 E0.09604
G1 X11.709 Y10.969 E0.54729
G1 X11.709 Y12.012 E0.09604
G1 X15.914 Y16.217 E0.54729
G1 X15.914 Y17.261 E0.09604
G1 X11.709 Y13.056 E0.54729
G1 X11.709 Y14.099 E0.09604
G1 X15.914 Y18.304 E0.54729
G1 X15.914 Y19.348 E0.09604
G1 X11.709 Y15.143 E0.54729
G1 X11.709 Y16.186 E0.09604
G1 X15.914 Y20.391 E0.54729
G1 X15.914 Y21.435 E0.09604
G1 X11.709 Y17.230 E0.54729
G1 X11.709 Y18.273 E0.09604
G1 X15.914 Y22.478 E0.54729
G1 X15.914 Y23.522 E0.09604
G1 X11.709 Y19.317 E0.54729
G1 X11.709 Y20.360 E0.09604
G1 X15.914 Y24.565 E0.54729
G1 X15.914 Y25.609 E0.09604
G1 X11.709 Y21.404 E0.54729
G1 X11.709 Y22.447 E0.09604
G1 X15.914 Y26.652 E0.54729
G1 X15.914 Y27.696 E0.09604
G1 X11.709 Y23.491 E0.54729
G1 X11.709 Y24.534 E0.09604
G1 X15.914 Y28.739 E0.54729
G1 X15.914 Y29.783 E0.09604
G1 X11.709 Y25.578 E0.54729
G1 X11.709 Y26.621 E0.09604
G1 X15.914 Y30.826 E0.54729
G1 X15.914 Y31.870 E0.09604
G1 X11.709 Y27.665 E0.54729
G1 X11.709 Y28.708 E0.09604
G1 X15.914 Y32.913 E0.54729
G1 X15.914 Y33.957 E0.09604
G1 X11.709 Y29.752 E0.54729
G1 X11.709 Y30.795 E0.09604
G1 X15.914 Y35.000 E0.54729
G1 X15.914 Y36.044 E0.09604
G1 X11.709 Y31.839 E0.54729
G1 X11.709 Y32.882 E0.09604
G1 X15.914 Y37.087 E0.54729
G1 X15.914 Y38.131 E0.09604
G1 X11.709 Y33.926 E0.54729
G1 X11.709 Y34.969 E0.09604
G1 X15.914 Y39.174 E0.54729
G1 X15.914 Y40.218 E0.09604
G1 X11.709 Y36.013 E0.54729
G1 X11.709 Y37.056 E0.09604
G1 X15.914 Y41.261 E0.54729
G1 X15.914 Y42.305 E0.09604
G1 X11.709 Y38.100 E0.54729
G1 X11.709 Y39.143 E0.09604
G1 X15.914 Y43.348 E0.54729
G1 X15.914 Y44.392 E0.09604
G1 X11.709 Y40.187 E0.54729
G1 X11.709 Y41.230 E0.09604
G1 X15.914 Y45.435 E0.54729
G1 X15.914 Y46.479 E0.09604
G1 X11.709 Y42.274 E0.54729
G1 X11.709 Y43.317 E0.09604
G1 X15.914 Y47.522 E0.54729
G1 X15.914 Y48.566 E0.09604
G1 X11.709 Y44.361 E0.54729
G1 X11.709 Y45.404 E0.09604
G1 X15.914 Y49.609 E0.54729
G1 X15.192 Y49.930 E0.07276
G1 X11.709 Y46.448 E0.45326
G1 X11.709 Y47.491 E0.09604
G1 X14.149 Y49.930 E0.31745
G1 X13.105 Y49.930 E0.09604
G1 X11.709 Y48.535 E0.18163
G1 X11.709 Y49.578 E0.09604
G1 X12.062 Y49.930 E0.04582
G1 X15.914 Y13.087 F9000.000
G1 X8.028 Y5.200 E1.02645 F900.000
G1 X9.071 Y5.200 E0.09604
G1 X15.914 Y12.043 E0.89064
G1 X15.914 Y11.000 E0.09604
G1 X10.115 Y5.200 E0.75482
G1 X11.158 Y5.200 E0.09604
G1 X15.914 Y9.956 E0.61901
G1 X15.914 Y8.913 E0.09604
G1 X12.202 Y5.200 E0.48319
G1 X13.245 Y5.200 E0.09604
G1 X15.914 Y7.869 E0.34738
G1 X15.914 Y6.826 E0.09604
G1 X14.289 Y5.200 E0.21156
G1 X15.332 Y5.200 E0.09604
G1 X15.914 Y5.782 E0.07575
G1 E-3.20000 F3000.00000
G1 Z0.700 F9000.000
G1 X10.810 Y10.503 F9000.000
G1 Z0.600 F9000.000
G1 E3.20000 F3000.00000
G1 X-15.715 Y10.503 E1.44120 F1800.000
G1 X-15.715 Y10.362 E0.00762
G1 X-16.126 Y8.296 E0.11445
G1 X-16.534 Y7.311 E0.05795
G1 X-16.814 Y7.032 E0.02147
G1 X-16.814 Y-50.830 E3.14376
G1 X-8.285 Y-50.830 E0.46339
G1 X-8.285 Y-11.130 E2.15698
G1 X7.146 Y4.301 E1.18568
G1 X16.814 Y4.301 E0.52527
G1 X16.814 Y50.830 E2.52804
G1 X10.810 Y50.830 E0.32618
G1 X10.810 Y10.563 E2.18782
G1 X10.375 Y10.938 F9000.000
G1 X-16.151 Y10.938 E1.44120 F1800.000
G1 X-16.151 Y10.405 E0.02896
G1 X-16.545 Y8.423 E0.10979
G1 X-16.903 Y7.558 E0.05091
G1 X-17.249 Y7.212 E0.02657
G1 X-17.249 Y-51.265 E3.17723
G1 X-7.849 Y-51.265 E0.51073
G1 X-7.849 Y-11.311 E2.17085
G1 X7.326 Y3.865 E1.16608
G1 X17.249 Y3.865 E0.53914
G1 X17.249 Y51.265 E2.57538
G1 X10.375 Y51.265 E0.37352
G1 X10.375 Y10.998 E2.18782
G1 X10.375 Y10.538 F9000.000
G1 X16.331 Y50.572 F9000.000
G1 X16.556 Y50.347 E0.01729 F1800.000
G1 X16.556 Y49.730 E0.03353
G1 X15.714 Y50.572 E0.06471
G1 X15.098 Y50.572 E0.03353
G1 X16.556 Y49.114 E0.11214
G1 X16.556 Y48.497 E0.03353
G1 X14.481 Y50.572 E0.15956
G1 X13.865 Y50.572 E0.03353
G1 X16.556 Y47.880 E0.20698
G1 X16.556 Y47.264 E0.03353
G1 X13.248 Y50.572 E0.25440
G1 X12.631 Y50.572 E0.03353
G1 X16.556 Y46.647 E0.30182
G1 X16.556 Y46.031 E0.03353
G1 X12.015 Y50.572 E0.34925
G1 X11.398 Y50.572 E0.03353
G1 X16.556 Y45.414 E0.39667
G1 X16.556 Y44.797 E0.03353
G1 X11.068 Y50.285 E0.42205
G1 X11.068 Y49.668 E0.03353
G1 X16.556 Y44.181 E0.42205
G1 X16.556 Y43.564 E0.03353
G1 X11.068 Y49.052 E0.42205
G1 X11.068 Y48.435 E0.03353
G1 X16.556 Y42.947 E0.42205
G1 X16.556 Y42.331 E0.03353
G1 X11.068 Y47.819 E0.42205
G1 X11.068 Y47.202 E0.03353
G1 X16.556 Y41.714 E0.42205
G1 X16.556 Y41.098 E0.03353
G1 X11.068 Y46.585 E0.42205
G1 X11.068 Y45.969 E0.03353
G1 X16.556 Y40.481 E0.42205
G1 X16.556 Y39.864 E0.03353
G1 X11.068 Y45.352 E0.42205
G1 X11.068 Y44.736 E0.03353
G1 X16.556 Y39.248 E0.42205
G1 X16.556 Y38.631 E0.03353
G1 X11.068 Y44.119 E0.42205
G1 X11.068 Y43.502 E0.03353
G1 X16.556 Y38.015 E0.42205
G1 X16.556 Y37.398 E0.03353
G1 X11.068 Y42.886 E0.42205
G1 X11.068 Y42.269 E0.03353
G1 X16.556 Y36.781 E0.42205
G1 X16.556 Y36.165 E0.03353
G1 X11.068 Y41.652 E0.42205
G1 X11.068 Y41.036 E0.03353
G1 X16.556 Y35.548 E0.42205
G1 X16.556 Y34.931 E0.03353
G1 X11.068 Y40.419 E0.42205
G1 X11.068 Y39.803 E0.03353
G1 X16.556 Y34.315 E0.42205
G1 X16.556 Y33.698 E0.03353
G1 X11.068 Y39.186 E0.42205
G1 X11.068 Y38.569 E0.03353
G1 X16.556 Y33.082 E0.42205
G1 X16.556 Y32.465 E0.03353
G1 X11.068 Y37.953 E0.42205
G1 X11.068 Y37.336 E0.03353
G1 X16.556 Y31.848 E0.42205
G1 X16.556 Y31.232 E0.03353
G1 X11.068 Y36.720 E0.42205
G1 X11.068 Y36.103 E0.03353
G1 X16.556 Y30.615 E0.42205
G1 X16.556 Y29.999 E0.03353
G1 X11.068 Y35.486 E0.42205
G1 X11.068 Y34.870 E0.03353
G1 X16.556 Y29.382 E0.42205
G1 X16.556 Y28.765 E0.03353
G1 X11.068 Y34.253 E0.42205
G1 X11.068 Y33.636 E0.03353
G1 X16.556 Y28.149 E0.42205
G1 X16.556 Y27.532 E0.03353
G1 X11.068 Y33.020 E0.42205
G1 X11.068 Y32.403 E0.03353
G1 X16.556 Y26.915 E0.42205
G1 X16.556 Y26.299 E0.03353
G1 X11.068 Y31.787 E0.42205
G1 X11.068 Y31.170 E0.03353
G1 X16.556 Y25.682 E0.42205
G1 X16.556 Y25.066 E0.03353
G1 X11.068 Y30.553 E0.42205
G1 X11.068 Y29.937 E0.03353
G1 X16.556 Y24.449 E0.42205
G1 X16.556 Y23.832 E0.03353
G1 X11.068 Y29.320 E0.42205
G1 X11.068 Y28.704 E0.03353
G1 X16.556 Y23.216 E0.42205
G1 X16.556 Y22.599 E0.03353
G1 X11.068 Y28.087 E0.42205
G1 X11.068 Y27.470 E0.03353
G1 X16.556 Y21.983 E0.42205
G1 X16.556 Y21.366 E0.03353
G1 X11.068 Y26.854 E0.42205
G1 X11.068 Y26.237 E0.03353
G1 X16.556 Y20.749 E0.42205
G1 X16.556 Y20.133 E0.03353
G1 X11.068 Y25.620 E0.42205
G1 X11.068 Y25.004 E0.03353
G1 X16.556 Y19.516 E0.42205
G1 X16.556 Y18.899 E0.03353
G1 X11.068 Y24.387 E0.42205
G1 X11.068 Y23.771 E0.03353
G1 X16.556 Y18.283 E0.42205
G1 X16.556 Y17.666 E0.03353
G1 X11.068 Y23.154 E0.42205
G1 X11.068 Y22.537 E0.03353
G1 X16.556 Y17.050 E0.42205
G1 X16.556 Y16.433 E0.03353
G1 X11.068 Y21.921 E0.42205
G1 X11.068 Y21.304 E0.03353
G1 X16.556 Y15.816 E0.42205
G1 X16.556 Y15.200 E0.03353
G1 X11.068 Y20.688 E0.42205
G1 X11.068 Y20.071 E0.03353
G1 X16.556 Y14.583 E0.42205
G1 X16.556 Y13.967 E0.03353
G1 X11.068 Y19.454 E0.42205
G1 X11.068 Y18.838 E0.03353
G1 X16.556 Y13.350 E0.42205
G1 X16.556 Y12.733 E0.03353
G1 X11.068 Y18.221 E0.42205
G1 X11.068 Y17.604 E0.03353
G1 X16.556 Y12.117 E0.42205
G1 X16.556 Y11.500 E0.03353
G1 X11.068 Y16.988 E0.42205
G1 X11.068 Y16.371 E0.03353
G1 X16.556 Y10.883 E0.42205
G1 X16.556 Y10.267 E0.03353
G1 X11.068 Y15.755 E0.42205
G1 X11.068 Y15.138 E0.03353
G1 X16.556 Y9.650 E0.42205
G1 X16.556 Y9.034 E0.03353
G1 X11.068 Y14.521 E0.42205
G1 X11.068 Y13.905 E0.03353
G1 X16.556 Y8.417 E0.42205
G1 X16.556 Y7.800 E0.03353
G1 X11.068 Y13.288 E0.42205
G1 X11.068 Y12.672 E0.03353
G1 X16.556 Y7.184 E0.42205
G1 X16.556 Y6.567 E0.03353
G1 X11.068 Y12.055 E0.42205
G1 X11.068 Y11.438 E0.03353
G1 X16.556 Y5.951 E0.42205
G1 X16.556 Y5.334 E0.03353
G1 X11.068 Y10.822 E0.42205
G1 X11.028 Y10.245 E0.03145
G1 X16.556 Y4.717 E0.42510
G1 X16.098 Y4.559 E0.02635
G1 X10.412 Y10.245 E0.43731
G1 X9.795 Y10.245 E0.03353
G1 X15.481 Y4.559 E0.43731
G1 X14.865 Y4.559 E0.03353
G1 X9.179 Y10.245 E0.43731
G1 X8.562 Y10.245 E0.03353
G1 X14.248 Y4.559 E0.43731
G1 X13.631 Y4.559 E0.03353
G1 X7.945 Y10.245 E0.43731
G1 X7.329 Y10.245 E0.03353
G1 X13.015 Y4.559 E0.43731
G1 X12.398 Y4.559 E0.03353
G1 X6.712 Y10.245 E0.43731
G1 X6.095 Y10.245 E0.03353
G1 X11.782 Y4.559 E0.43731
G1 X11.165 Y4.559 E0.03353
G1 X5.479 Y10.245 E0.43731
G1 X4.862 Y10.245 E0.03353
G1 X10.548 Y4.559 E0.43731
G1 X9.932 Y4.559 E0.03353
G1 X4.246 Y10.245 E0.43731
G1 X3.629 Y10.245 E0.03353
G1 X9.315 Y4.559 E0.43731
G1 X8.699 Y4.559 E0.03353
G1 X3.012 Y10.245 E0.43731
G1 X2.396 Y10.245 E0.03353
G1 X8.082 Y4.559 E0.43731
G1 X7.465 Y4.559 E0.03353
G1 X1.779 Y10.245 E0.43731
G1 X1.163 Y10.245 E0.03353
G1 X6.971 Y4.436 E0.44672
G1 X6.663 Y4.128 E0.02371
G1 X0.546 Y10.245 E0.47043
G1 X-0.071 Y10.245 E0.03353
G1 X6.354 Y3.820 E0.49414
G1 X6.046 Y3.511 E0.02371
G1 X-0.687 Y10.245 E0.51785
G1 X-1.304 Y10.245 E0.03353
G1 X5.738 Y3.203 E0.54156
G1 X5.429 Y2.895 E0.02371
G1 X-1.921 Y10.245 E0.56527
G1 X-2.537 Y10.245 E0.03353
G1 X5.121 Y2.586 E0.58898
G1 X4.813 Y2.278 E0.02371
G1 X-3.154 Y10.245 E0.61269
G1 X-3.770 Y10.245 E0.03353
G1 X4.505 Y1.970 E0.63641
G1 X4.196 Y1.662 E0.02371
G1 X-4.387 Y10.245 E0.66012
G1 X-5.004 Y10.245 E0.03353
G1 X3.888 Y1.353 E0.68383
G1 X3.580 Y1.045 E0.02371
G1 X-5.620 Y10.245 E0.70754
G1 X-6.237 Y10.245 E0.03353
G1 X3.271 Y0.737 E0.73125
G1 X2.963 Y0.428 E0.02371
G1 X-6.853 Y10.245 E0.75496
G1 X-7.470 Y10.245 E0.03353
G1 X2.655 Y0.120 E0.77867
G1 X2.346 Y-0.188 E0.02371
G1 X-8.087 Y10.245 E0.80238
G1 X-8.703 Y10.245 E0.03353
G1 X2.038 Y-0.497 E0.82610
G1 X1.730 Y-0.805 E0.02371
G1 X-9.320 Y10.245 E0.84981
G1 X-9.937 Y10.245 E0.03353
G1 X1.421 Y-1.113 E0.87352
G1 X1.113 Y-1.422 E0.02371
G1 X-10.553 Y10.245 E0.89723
G1 X-11.170 Y10.245 E0.03353
G1 X0.805 Y-1.730 E0.92094
G1 X0.497 Y-2.038 E0.02371
G1 X-11.786 Y10.245 E0.94465
G1 X-12.403 Y10.245 E0.03353
G1 X0.188 Y-2.346 E0.96836
G1 X-0.120 Y-2.655 E0.02371
