; generated by Slic3r 1.2.9 on 2016-10-28 at 11:32:02

; external perimeters extrusion width = 0.50mm
; perimeters extrusion width = 0.50mm
; infill extrusion width = 0.50mm
; solid infill extrusion width = 0.50mm
; top infill extrusion width = 0.50mm

M107
;Basic settings: Layer height: {layer_height} Walls: {wall_thickness} Fill: {fill_density}
;Print time: {print_time}
;Filament used: {filament_amount}m {filament_weight}g
;Filament cost: {filament_cost}
;M190 S{print_bed_temperature} ;Uncomment to add your own bed temperature line
;M109 S{print_temperature} ;Uncomment to add your own temperature line
G21        ;metric values
G90        ;absolute positioning
M83
G10 P0 S200
T0
M116


G21 ; set units to millimeters
G90 ; use absolute coordinates
M83 ; use relative distances for extrusion
G1 E-3.20000 F3000.00000
G1 Z0.400 F9000.000
G1 X-13.175 Y-16.432 F9000.000
G1 Z0.300 F9000.000
G1 E3.20000 F3000.00000
G1 X6.967 Y-32.576 E2.36835 F1200.000
G1 X7.811 Y-33.063 E0.08947
G1 X7.980 Y-33.133 E0.01676
G1 X8.922 Y-33.386 E0.08947
G1 X9.103 Y-33.410 E0.01676
G1 X10.078 Y-33.410 E0.08947
G1 X10.259 Y-33.386 E0.01676 F1200.000
G1 X11.201 Y-33.133 E0.08947
G1 X11.370 Y-33.063 E0.01676
G1 X12.214 Y-32.576 E0.08947
G1 X12.359 Y-32.465 E0.01676
G1 X13.049 Y-31.775 E0.08948
G1 X13.433 Y-31.221 E0.06186
G1 X25.555 Y-10.227 E2.22423
G1 X25.771 Y-9.789 E0.04483
G1 X25.971 Y-9.251 E0.05264
G1 X32.565 Y12.942 E2.12424
G1 X32.663 Y14.657 E0.15755
G1 X32.219 Y15.874 E0.11887
G1 X23.155 Y31.574 E1.66333
G1 X21.977 Y32.824 E0.15755
G1 X19.920 Y33.442 E0.19713
G1 X1.791 Y33.442 E1.66333
G1 X-0.171 Y32.885 E0.18710
G1 X-27.262 Y16.167 E2.92078
G1 X-27.689 Y15.860 E0.04831
G1 X-28.686 Y14.997 E0.12099
G1 X-29.376 Y14.286 E0.09085
G1 X-29.603 Y14.027 E0.03163
G1 X-30.212 Y13.263 E0.08967
G1 X-30.420 Y12.972 E0.03281
G1 X-30.943 Y12.161 E0.08849
G1 X-31.125 Y11.846 E0.03340
G1 X-31.565 Y10.988 E0.08849
G1 X-31.713 Y10.662 E0.03281
G1 X-32.071 Y9.753 E0.08967
G1 X-32.182 Y9.427 E0.03163
G1 X-32.527 Y8.151 E0.12127
G1 X-32.701 Y7.179 E0.09056
G1 X-32.255 Y4.678 E0.23311
G1 X-26.357 Y-5.537 E1.08222
G1 X-25.459 Y-6.584 E0.12655
G1 X-13.222 Y-16.395 E1.43903
G1 E-3.20000 F3000.00000
G1 Z0.700 F9000.000
G1 X-9.490 Y-7.124 F9000.000
G1 Z0.300 F9000.000
G1 E3.20000 F3000.00000
G1 X-9.250 Y-7.155 E0.02220 F900.000
G1 X-8.971 Y-7.192 E0.02579 F900.000
G1 X-8.453 Y-7.124 E0.04800
G1 X-7.969 Y-6.923 E0.04800
G1 X-7.554 Y-6.605 E0.04800
G1 X-7.383 Y-6.382 E0.02579
G1 X-7.236 Y-6.190 E0.02220
G1 X-7.036 Y-5.707 E0.04800
G1 X-6.967 Y-5.188 E0.04800
G1 X-7.036 Y-4.669 E0.04800
G1 X-7.236 Y-4.186 E0.04800
G1 X-7.554 Y-3.771 E0.04800
G1 X-7.969 Y-3.453 E0.04800
G1 X-8.453 Y-3.252 E0.04800
G1 X-8.971 Y-3.184 E0.04800
G1 X-9.490 Y-3.252 E0.04800
G1 X-9.973 Y-3.453 E0.04800
G1 X-10.388 Y-3.771 E0.04800
G1 X-10.707 Y-4.186 E0.04800
G1 X-10.907 Y-4.669 E0.04800
G1 X-10.975 Y-5.188 E0.04800
G1 X-10.907 Y-5.707 E0.04800
G1 X-10.707 Y-6.190 E0.04800
G1 X-10.388 Y-6.605 E0.04800
G1 X-9.973 Y-6.923 E0.04800
G1 X-9.545 Y-7.101 E0.04249
G1 X-9.417 Y-7.354 F9000.000
G1 X-12.337 Y-6.059 F9000.000
G1 X-10.905 Y-8.538 E0.26260 F900.000
G1 X-7.037 Y-8.538 E0.35491
G1 X-6.027 Y-6.788 E0.18540
G1 X-5.103 Y-5.188 E0.16951 F900.000
G1 X-7.037 Y-1.838 E0.35491
G1 X-10.905 Y-1.838 E0.35491
G1 X-12.840 Y-5.188 E0.35491
G1 X-12.367 Y-6.007 E0.08681
G1 X-11.937 Y-6.059 F9000.000
G1 X-11.649 Y-5.764 F9000.000
G1 X-11.585 Y-5.935 E0.03502 F600.000
G1 X-11.270 Y-6.561 E0.13422
G1 X-10.868 Y-7.151 E0.13670
G1 X-10.407 Y-7.674 E0.13363
G1 X-9.631 Y-7.825 E0.15133
G1 X-9.011 Y-7.865 E0.11900
G1 X-8.312 Y-7.825 E0.13422
G1 X-7.536 Y-7.674 E0.15133
G1 X-7.074 Y-7.151 E0.13363
G1 X-6.633 Y-6.492 E0.15191
G1 X-6.323 Y-5.849 E0.13670
G1 X-6.101 Y-5.188 E0.13363
G1 X-6.358 Y-4.441 E0.15133
G1 X-6.673 Y-3.815 E0.13422
G1 X-7.074 Y-3.225 E0.13670
G1 X-7.536 Y-2.702 E0.13363
G1 X-8.312 Y-2.551 E0.15133
G1 X-9.011 Y-2.511 E0.13422
G1 X-9.723 Y-2.564 E0.13670
G1 X-10.407 Y-2.702 E0.13363
G1 X-10.925 Y-3.298 E0.15133
G1 X-11.310 Y-3.884 E0.13422
G1 X-11.620 Y-4.527 E0.13670
G1 X-11.842 Y-5.188 E0.13363
G1 X-11.823 Y-5.251 E0.01257
G1 X-11.668 Y-5.707 E0.09227 F600.000
G1 E-3.20000 F3000.00000
G1 Z0.700 F9000.000
G1 X9.703 Y24.011 F9000.000
G1 Z0.300 F9000.000
G1 E3.20000 F3000.00000
G1 X10.259 Y23.781 E0.05518 F900.000
G1 X10.641 Y23.731 E0.03538
G1 X10.855 Y23.702 E0.01981 F900.000
G1 X11.452 Y23.781 E0.05518
G1 X12.007 Y24.011 E0.05518
G1 X12.484 Y24.377 E0.05518
G1 X12.850 Y24.854 E0.05518
G1 X13.081 Y25.410 E0.05518
G1 X13.159 Y26.006 E0.05518
G1 X13.081 Y26.603 E0.05518
G1 X12.850 Y27.158 E0.05518
G1 X12.484 Y27.635 E0.05518
G1 X12.007 Y28.001 E0.05518
G1 X11.452 Y28.232 E0.05518
G1 X10.855 Y28.310 E0.05518
G1 X10.259 Y28.232 E0.05518
G1 X9.703 Y28.001 E0.05518
G1 X9.226 Y27.635 E0.05518
G1 X8.860 Y27.158 E0.05518
G1 X8.630 Y26.603 E0.05518
G1 X8.551 Y26.006 E0.05518
G1 X8.630 Y25.410 E0.05518
G1 X8.860 Y24.854 E0.05518
G1 X9.226 Y24.377 E0.05518
G1 X9.656 Y24.048 E0.04968
G1 X9.721 Y23.611 F9000.000
G1 X1.615 Y10.001 F9000.000
G1 X1.059 Y10.232 E0.05518 F900.000
G1 X0.463 Y10.310 E0.05518
G1 X-0.133 Y10.232 E0.05518
G1 X-0.689 Y10.001 E0.05518
G1 X-1.166 Y9.635 E0.05518
G1 X-1.532 Y9.158 E0.05518
G1 X-1.762 Y8.603 E0.05518
G1 X-1.841 Y8.006 E0.05518
G1 X-1.762 Y7.410 E0.05518
G1 X-1.532 Y6.854 E0.05518
G1 X-1.166 Y6.377 E0.05518
G1 X-0.689 Y6.011 E0.05518
G1 X-0.133 Y5.781 E0.05518
G1 X0.305 Y5.723 E0.04060
G1 X0.463 Y5.702 E0.01459 F900.000
G1 X1.059 Y5.781 E0.05518
G1 X1.615 Y6.011 E0.05518
G1 X2.092 Y6.377 E0.05518
G1 X2.458 Y6.854 E0.05518
G1 X2.688 Y7.410 E0.05518
G1 X2.767 Y8.006 E0.05518
G1 X2.688 Y8.603 E0.05518
G1 X2.458 Y9.158 E0.05518
G1 X2.092 Y9.635 E0.05518
G1 X1.662 Y9.965 E0.04968
G1 X1.597 Y10.401 F9000.000
G1 X18.944 Y8.006 F9000.000
G1 X19.022 Y7.410 E0.05518 F900.000
G1 X19.252 Y6.854 E0.05518
G1 X19.618 Y6.377 E0.05518
G1 X20.096 Y6.011 E0.05518
G1 X20.651 Y5.781 E0.05518
G1 X21.034 Y5.731 E0.03538
G1 X21.248 Y5.702 E0.01981 F900.000
G1 X21.844 Y5.781 E0.05518
G1 X22.400 Y6.011 E0.05518
G1 X22.877 Y6.377 E0.05518
G1 X23.243 Y6.854 E0.05518
G1 X23.473 Y7.410 E0.05518
G1 X23.552 Y8.008 E0.05531
G1 X23.467 Y8.617 E0.05640
G1 X23.243 Y9.158 E0.05379
G1 X22.877 Y9.635 E0.05518
G1 X22.400 Y10.001 E0.05518
G1 X21.844 Y10.232 E0.05518
G1 X21.248 Y10.310 E0.05518
G1 X20.651 Y10.232 E0.05518
G1 X20.096 Y10.001 E0.05518
G1 X19.618 Y9.635 E0.05518
G1 X19.252 Y9.158 E0.05518
G1 X19.022 Y8.603 E0.05518
G1 X18.952 Y8.066 E0.04968
G1 X18.606 Y7.791 F9000.000
G1 X14.484 Y11.494 F9000.000
G1 X14.705 Y11.783 E0.03345 F900.000
G1 X15.150 Y12.856 E0.10649
G1 X15.301 Y14.006 E0.10649
G1 X15.150 Y15.157 E0.10649
G1 X14.705 Y16.229 E0.10649
G1 X13.999 Y17.150 E0.10648
G1 X13.078 Y17.856 E0.10649
G1 X12.283 Y18.186 E0.07894
G1 X12.006 Y18.301 E0.02755
G1 X10.855 Y18.452 E0.10649
G1 X9.705 Y18.301 E0.10649
G1 X8.632 Y17.856 E0.10649
G1 X7.712 Y17.150 E0.10649
G1 X7.005 Y16.229 E0.10649
G1 X6.676 Y15.434 E0.07894
G1 X6.561 Y15.157 E0.02755
G1 X6.409 Y14.006 E0.10648
G1 X6.561 Y12.856 E0.10649
G1 X7.005 Y11.783 E0.10649
G1 X7.712 Y10.863 E0.10649
G1 X8.632 Y10.156 E0.10649
G1 X9.705 Y9.712 E0.10649
G1 X10.409 Y9.619 E0.06522
G1 X10.855 Y9.560 E0.04127 F900.000
G1 X12.006 Y9.712 E0.10649
G1 X13.078 Y10.156 E0.10649
G1 X13.999 Y10.863 E0.10649
G1 X14.447 Y11.447 E0.06753
G1 X13.863 Y11.894 F9000.000
G1 X14.063 Y12.154 E0.03007 F900.000
G1 X14.433 Y13.048 E0.08871
G1 X14.559 Y14.006 E0.08871
G1 X14.433 Y14.965 E0.08871
G1 X14.063 Y15.858 E0.08871
G1 X13.474 Y16.625 E0.08871
G1 X12.707 Y17.214 E0.08871
G1 X12.002 Y17.506 E0.07005
G1 X11.814 Y17.584 E0.01866
G1 X10.855 Y17.710 E0.08871
G1 X9.897 Y17.584 E0.08871
G1 X9.003 Y17.214 E0.08871
G1 X8.236 Y16.625 E0.08871
G1 X7.648 Y15.858 E0.08871
G1 X7.355 Y15.153 E0.07005
G1 X7.278 Y14.965 E0.01866
G1 X7.151 Y14.006 E0.08871
G1 X7.278 Y13.048 E0.08871
G1 X7.648 Y12.154 E0.08871
G1 X8.236 Y11.387 E0.08871
G1 X9.003 Y10.799 E0.08871
G1 X9.897 Y10.429 E0.08871
G1 X10.505 Y10.348 E0.05633
G1 X10.855 Y10.302 E0.03238 F900.000
G1 X11.814 Y10.429 E0.08871
G1 X12.707 Y10.799 E0.08871
G1 X13.474 Y11.387 E0.08871
G1 X13.827 Y11.847 E0.05314
G1 X14.188 Y11.852 F9000.000
G1 X22.342 Y23.239 F9000.000
G1 X19.264 Y28.571 E0.56481 F900.000
G1 X12.966 Y28.571 E0.57786
G1 X12.864 Y28.271 E0.02902
G1 X13.009 Y28.160 E0.01675
G1 X13.493 Y27.529 E0.07295
G1 X13.797 Y26.795 E0.07295
G1 X13.901 Y26.006 E0.07295
G1 X13.797 Y25.218 E0.07295
G1 X13.493 Y24.483 E0.07295
G1 X13.009 Y23.853 E0.07295
G1 X12.378 Y23.368 E0.07295
G1 X11.644 Y23.064 E0.07295
G1 X10.855 Y22.960 E0.07295
G1 X10.067 Y23.064 E0.07295
G1 X9.332 Y23.368 E0.07295
G1 X8.702 Y23.853 E0.07295
G1 X8.217 Y24.483 E0.07295
G1 X7.913 Y25.218 E0.07295
G1 X7.809 Y26.006 E0.07295
G1 X7.913 Y26.795 E0.07295
G1 X8.217 Y27.529 E0.07295
G1 X8.702 Y28.160 E0.07295
G1 X8.846 Y28.271 E0.01675
G1 X8.745 Y28.571 E0.02902
G1 X2.447 Y28.571 E0.57786
G1 X-5.962 Y14.006 E1.54301
G1 X-2.813 Y8.552 E0.57786
G1 X-2.503 Y8.614 E0.02902
G1 X-2.479 Y8.795 E0.01675
G1 X-2.175 Y9.529 E0.07295
G1 X-1.691 Y10.160 E0.07295
G1 X-1.060 Y10.644 E0.07295
G1 X-0.325 Y10.948 E0.07295
G1 X0.463 Y11.052 E0.07295
G1 X1.251 Y10.948 E0.07295
G1 X1.986 Y10.644 E0.07295
G1 X2.617 Y10.160 E0.07295
G1 X3.101 Y9.529 E0.07295
G1 X3.405 Y8.795 E0.07295
G1 X3.509 Y8.006 E0.07295
G1 X3.405 Y7.218 E0.07295
G1 X3.101 Y6.483 E0.07295
G1 X2.617 Y5.853 E0.07295
G1 X1.986 Y5.368 E0.07295
G1 X1.251 Y5.064 E0.07295
G1 X0.463 Y4.960 E0.07295
G1 X-0.325 Y5.064 E0.07295
G1 X-0.494 Y5.134 E0.01675
G1 X-0.703 Y4.896 E0.02902
G1 X2.447 Y-0.558 E0.57786
G1 X19.264 Y-0.558 E1.54301
G1 X22.413 Y4.896 E0.57786
G1 X22.205 Y5.134 E0.02902 F900.000
G1 X22.036 Y5.064 E0.01675
G1 X21.248 Y4.960 E0.07295
G1 X20.459 Y5.064 E0.07295
G1 X19.725 Y5.368 E0.07295
G1 X19.094 Y5.853 E0.07295
G1 X18.610 Y6.483 E0.07295
G1 X18.305 Y7.218 E0.07295
G1 X18.202 Y8.006 E0.07295
G1 X18.305 Y8.795 E0.07295
G1 X18.610 Y9.529 E0.07295
G1 X19.094 Y10.160 E0.07295
G1 X19.725 Y10.644 E0.07295
G1 X20.459 Y10.948 E0.07295
G1 X21.248 Y11.052 E0.07295
G1 X22.036 Y10.948 E0.07295
G1 X22.770 Y10.644 E0.07295
G1 X23.401 Y10.160 E0.07295
G1 X23.885 Y9.529 E0.07295
G1 X24.183 Y8.811 E0.07133
G1 X24.211 Y8.607 E0.01892
G1 X24.520 Y8.546 E0.02891
G1 X27.673 Y14.006 E0.57845
G1 X22.372 Y23.187 E0.97270
G1 X23.009 Y23.555 F9000.000
G1 X19.689 Y29.306 E0.60928 F900.000
G1 X2.022 Y29.306 E1.62095
G1 X-6.812 Y14.006 E1.62095
G1 X2.022 Y-1.294 E1.62095
G1 X19.689 Y-1.294 E1.62095
G1 X25.188 Y8.231 E1.00912
G1 X28.522 Y14.006 E0.61183 F900.000
G1 X23.039 Y23.503 E1.00616
G1 X22.609 Y23.555 F9000.000
G1 X23.529 Y20.399 F9000.000
G1 X15.520 Y12.389 E1.04591 F900.000
G1 X15.728 Y13.645 E0.11750
G1 X23.146 Y21.062 E0.96866
G1 X22.763 Y21.726 E0.07077
G1 X15.655 Y14.618 E0.92827
G1 X15.456 Y15.466 E0.08046
G1 X22.380 Y22.390 E0.90415
G1 X21.997 Y23.054 E0.07077
G1 X15.149 Y16.206 E0.89415
G1 X14.729 Y16.833 E0.06968
G1 X21.613 Y23.717 E0.89898
G1 X21.230 Y24.381 E0.07077
G1 X14.275 Y17.426 E0.90830
G1 X13.682 Y17.880 E0.06895
G1 X20.847 Y25.045 E0.93562
G1 X20.464 Y25.709 E0.07077
G1 X13.055 Y18.300 E0.96742
G1 X12.315 Y18.607 E0.07399
G1 X20.080 Y26.372 E1.01406
G1 X19.697 Y27.036 E0.07077
G1 X11.467 Y18.806 E1.07482
G1 X10.493 Y18.879 E0.09011
G1 X19.314 Y27.700 E1.15184
G1 X18.688 Y28.121 E0.06965
G1 X9.238 Y18.671 E1.23409
G1 X6.190 Y15.623 F9000.000
G1 X1.745 Y11.178 E0.58049 F900.000
G1 X2.416 Y10.802 E0.07100
G1 X5.982 Y14.368 E0.46575
G1 X6.056 Y13.395 E0.09011
G1 X2.981 Y10.320 E0.40155
G1 X3.436 Y9.728 E0.06895
G1 X6.254 Y12.547 E0.36811
G1 X6.561 Y11.806 E0.07399
G1 X3.755 Y9.000 E0.36650
G1 X3.927 Y8.125 E0.08231
G1 X6.981 Y11.179 E0.39885
G1 X7.436 Y10.587 E0.06895
G1 X3.852 Y7.003 E0.46806
G1 X1.467 Y4.618 F9000.000
G1 X0.480 Y3.631 E0.12878 F900.000
G1 X0.864 Y2.968 E0.07077
G1 X8.028 Y10.132 E0.93562
G1 X8.655 Y9.712 E0.06968
G1 X1.247 Y2.304 E0.96742
G1 X1.630 Y1.640 E0.07077
G1 X9.395 Y9.406 E1.01406
G1 X10.244 Y9.207 E0.08046
G1 X2.013 Y0.976 E1.07481
G1 X2.397 Y0.313 E0.07077
G1 X11.217 Y9.133 E1.15184
G1 X12.472 Y9.341 E0.11750
G1 X3.022 Y-0.109 E1.23408
G1 X4.069 Y-0.109 E0.09668
G1 X23.913 Y19.735 E2.59132
G1 X24.296 Y19.071 E0.07077
G1 X5.116 Y-0.109 E2.50464
G1 X6.163 Y-0.109 E0.09668
G1 X24.679 Y18.407 E2.41796
G1 X25.062 Y17.743 E0.07077
G1 X7.210 Y-0.109 E2.33128
G1 X8.257 Y-0.109 E0.09668
G1 X18.153 Y9.787 E1.29226
G1 X17.773 Y8.360 E0.13630
G1 X9.304 Y-0.109 E1.10599
G1 X10.351 Y-0.109 E0.09668
G1 X17.849 Y7.389 E0.97915
G1 X18.121 Y6.614 E0.07584
G1 X11.398 Y-0.109 E0.87795
G1 X12.445 Y-0.109 E0.09668
G1 X18.520 Y5.966 E0.79328
G1 X19.022 Y5.421 E0.06842
G1 X13.492 Y-0.109 E0.72210
G1 X14.539 Y-0.109 E0.09668
G1 X19.624 Y4.976 E0.66400
G1 X20.364 Y4.669 E0.07399
G1 X15.586 Y-0.109 E0.62396
G1 X16.633 Y-0.109 E0.09668
G1 X21.266 Y4.524 E0.60501
G1 X20.544 Y2.755 F9000.000
G1 X17.680 Y-0.109 E0.37400 F900.000
G1 X18.727 Y-0.109 E0.09668
G1 X19.114 Y0.278 E0.05050
G1 E-3.20000 F3000.00000
G1 Z0.700 F9000.000
G1 X24.278 Y9.630 F9000.000
G1 Z0.300 F9000.000
G1 E3.20000 F3000.00000
G1 X24.835 Y10.187 E0.07269 F900.000
G1 X26.265 Y12.664 F9000.000
G1 X23.833 Y10.232 E0.31756 F900.000
G1 X23.288 Y10.734 E0.06842
G1 X26.978 Y14.425 E0.48193
G1 X26.595 Y15.088 E0.07077
G1 X22.640 Y11.133 E0.51656
G1 X21.865 Y11.405 E0.07584
G1 X26.212 Y15.752 E0.56771
G1 X25.829 Y16.416 E0.07077
G1 X20.893 Y11.480 E0.64450
G1 X19.467 Y11.101 E0.13630
G1 X25.446 Y17.080 E0.78073
G1 X14.095 Y24.575 F9000.000
G1 X17.641 Y28.121 E0.46318 F900.000
G1 X16.594 Y28.121 E0.09668
G1 X14.352 Y25.879 E0.29286
G1 X14.228 Y26.802 E0.08605
G1 X15.547 Y28.121 E0.17224
G1 X14.500 Y28.121 E0.09668
G1 X13.922 Y27.543 E0.07556
G1 X12.287 Y22.767 F9000.000
G1 X0.943 Y11.423 E1.48140 F900.000
G1 X-0.070 Y11.457 E0.09358
G1 X10.983 Y22.510 E1.44336
G1 X10.059 Y22.633 E0.08605
G1 X-2.969 Y9.605 E1.70124
G1 X-3.352 Y10.269 E0.07077
G1 X9.319 Y22.940 E1.65461
G1 X8.699 Y23.367 E0.06950
G1 X-3.735 Y10.933 E1.62376
G1 X-4.118 Y11.597 E0.07077
G1 X8.181 Y23.896 E1.60613
G1 X7.765 Y24.527 E0.06979
G1 X-4.502 Y12.260 E1.60185
G1 X-4.885 Y12.924 E0.07077
G1 X7.471 Y25.280 E1.61352
G1 X7.362 Y26.218 E0.08721
G1 X-5.268 Y13.588 E1.64936
G1 X-4.554 Y15.349 F9000.000
G1 X7.673 Y27.576 E1.59675 F900.000
G1 X7.172 Y28.121 E0.06842
G1 X-3.124 Y17.826 E1.34446
G1 X-1.694 Y20.303 F9000.000
G1 X6.125 Y28.121 E1.02097 F900.000
G1 X5.078 Y28.121 E0.09668
G1 X-0.264 Y22.780 E0.69748
G1 X1.167 Y25.258 F9000.000
G1 X4.031 Y28.121 E0.37399 F900.000
G1 X2.984 Y28.121 E0.09668
G1 X2.597 Y27.735 E0.05049
G1 X24.323 Y8.210 F9000.000
G1 X24.011 Y7.290 E0.08912 F600.000
G1 X23.667 Y6.590 E0.07159
G1 X23.249 Y5.971 E0.06850
G1 X22.604 Y5.236 E0.08972
G1 E-3.20000 F3000.00000
G1 Z0.700 F9000.000
G1 X12.576 Y28.567 F9000.000
G1 Z0.300 F9000.000
G1 E3.20000 F3000.00000
G1 X11.617 Y28.757 E0.08972 F600.000
G1 X10.872 Y28.809 E0.06850
G1 X10.094 Y28.757 E0.07159
G1 X9.135 Y28.567 E0.08972
G1 X-2.615 Y8.216 F9000.000
G1 X-2.300 Y7.290 E0.08972 F600.000
G1 X-1.973 Y6.619 E0.06850
G1 X-1.539 Y5.971 E0.07158
G1 X-0.894 Y5.236 E0.08972
G1 E-3.20000 F3000.00000
G1 Z0.700 F9000.000
G1 X-22.669 Y8.103 F9000.000
G1 Z0.300 F9000.000
G1 E3.20000 F3000.00000
G1 X-22.645 Y8.288 E0.01719 F900.000
G1 X-22.711 Y8.794 E0.04680
G1 X-22.906 Y9.265 E0.04680
G1 X-23.217 Y9.670 E0.04680
G1 X-23.621 Y9.980 E0.04680
G1 X-24.093 Y10.176 E0.04680
G1 X-24.598 Y10.242 E0.04680
G1 X-25.104 Y10.176 E0.04680
G1 X-25.575 Y9.980 E0.04680
G1 X-25.980 Y9.670 E0.04680
G1 X-26.291 Y9.265 E0.04680
G1 X-26.486 Y8.794 E0.04680
G1 X-26.552 Y8.288 E0.04680
G1 X-26.486 Y7.783 E0.04680
G1 X-26.291 Y7.311 E0.04680
G1 X-25.980 Y6.907 E0.04680
G1 X-25.575 Y6.596 E0.04680
G1 X-25.104 Y6.401 E0.04680
G1 X-24.778 Y6.358 E0.03014
G1 X-24.598 Y6.334 E0.01666 F900.000
G1 X-24.093 Y6.401 E0.04680
G1 X-23.621 Y6.596 E0.04680
G1 X-23.217 Y6.907 E0.04680
G1 X-22.906 Y7.311 E0.04680
G1 X-22.711 Y7.783 E0.04680
G1 X-22.677 Y8.043 E0.02411
G1 X-22.496 Y8.174 F9000.000
G1 X-16.160 Y8.288 F9000.000
