; generated by Slic3r 1.2.9 on 2016-10-24 at 18:49:16

; external perimeters extrusion width = 0.50mm
; perimeters extrusion width = 0.50mm
; infill extrusion width = 0.50mm
; solid infill extrusion width = 0.50mm
; top infill extrusion width = 0.50mm

M107
;Basic settings: Layer height: {layer_height} Walls: {wall_thickness} Fill: {fill_density}
;Print time: {print_time}
;Filament used: {filament_amount}m {filament_weight}g
;Filament cost: {filament_cost}
;M190 S{print_bed_temperature} ;Uncomment to add your own bed temperature line
;M109 S{print_temperature} ;Uncomment to add your own temperature line
G21        ;metric values
G90        ;absolute positioning
M83
G10 P0 S200
T0
M116


G21 ; set units to millimeters
G90 ; use absolute coordinates
M83 ; use relative distances for extrusion
G1 E-3.20000 F3000.00000
G1 Z0.400 F9000.000
G1 X0.000 Y24.686 F9000.000
G1 Z0.300 F9000.000
G1 E3.20000 F3000.00000
G1 X-30.497 Y24.686 E2.79809 F1200.000
G1 X-30.984 Y24.654 E0.04483
G1 X-32.269 Y24.485 E0.11885
G1 X-33.210 Y24.232 E0.08946
G1 X-34.404 Y23.738 E0.11856
G1 X-35.249 Y23.250 E0.08947
G1 X-36.274 Y22.463 E0.11857
G1 X-36.964 Y21.774 E0.08945
G1 X-37.750 Y20.749 E0.11855
G1 X-38.238 Y19.905 E0.08945
G1 X-38.732 Y18.711 E0.11857
G1 X-38.985 Y17.769 E0.08947
G1 X-39.154 Y16.484 E0.11885
G1 X-39.186 Y15.997 E0.04483
G1 X-39.186 Y-13.998 E2.75206
G1 X-39.118 Y-15.152 E0.10604
G1 X-39.054 Y-15.635 E0.04473
G1 X-38.877 Y-16.528 E0.08346
G1 X-38.750 Y-17.000 E0.04483
G1 X-38.458 Y-17.861 E0.08342
G1 X-38.271 Y-18.312 E0.04482
G1 X-37.869 Y-19.127 E0.08341
G1 X-37.625 Y-19.550 E0.04483
G1 X-37.120 Y-20.306 E0.08341
G1 X-36.822 Y-20.694 E0.04483
G1 X-36.223 Y-21.377 E0.08341
G1 X-35.877 Y-21.723 E0.04483
G1 X-35.194 Y-22.322 E0.08341
G1 X-34.806 Y-22.620 E0.04483
G1 X-34.050 Y-23.125 E0.08342
G1 X-33.627 Y-23.369 E0.04482
G1 X-32.812 Y-23.771 E0.08342
G1 X-32.360 Y-23.958 E0.04483
G1 X-31.499 Y-24.251 E0.08343
G1 X-31.028 Y-24.377 E0.04481
G1 X-30.136 Y-24.554 E0.08341
G1 X-29.652 Y-24.618 E0.04480
G1 X-28.498 Y-24.686 E0.10601
G1 X18.497 Y-24.686 E4.31182
G1 X18.983 Y-24.654 E0.04473
G1 X19.492 Y-24.587 E0.04710 F1200.000
G1 X20.433 Y-24.335 E0.08937
G1 X20.904 Y-24.140 E0.04680
G1 X21.748 Y-23.653 E0.08938
G1 X22.153 Y-23.342 E0.04679
G1 X22.842 Y-22.653 E0.08948
G1 X23.152 Y-22.249 E0.04669
G1 X23.571 Y-21.560 E0.07394
G1 X38.640 Y10.596 E3.25821
G1 X38.835 Y11.067 E0.04680
G1 X39.087 Y12.008 E0.08937
G1 X39.154 Y12.516 E0.04700
G1 X39.186 Y13.003 E0.04483
G1 X39.186 Y20.950 E0.72912
G1 X38.791 Y22.621 E0.15755
G1 X37.690 Y23.939 E0.15755
G1 X35.450 Y24.686 E0.21667
G1 X0.060 Y24.686 E3.24705
G1 E-3.20000 F3000.00000
G1 Z0.700 F9000.000
G1 X-30.876 Y4.893 F9000.000
G1 Z0.300 F9000.000
G1 E3.20000 F3000.00000
G1 X-31.149 Y5.269 E0.04263 F900.000
G1 X-31.507 Y5.565 E0.04263
G1 X-31.927 Y5.763 E0.04263
G1 X-32.384 Y5.850 E0.04263
G1 X-32.847 Y5.821 E0.04263
G1 X-33.289 Y5.677 E0.04263
G1 X-33.682 Y5.428 E0.04263
G1 X-34.000 Y5.090 E0.04263
G1 X-34.223 Y4.682 E0.04263
G1 X-34.339 Y4.232 E0.04263
G1 X-34.339 Y3.768 E0.04263
G1 X-34.223 Y3.318 E0.04263
G1 X-34.000 Y2.910 E0.04263
G1 X-33.682 Y2.572 E0.04263
G1 X-33.289 Y2.323 E0.04263
G1 X-32.847 Y2.179 E0.04263
G1 X-32.384 Y2.150 E0.04263 F900.000
G1 X-31.927 Y2.237 E0.04263
G1 X-31.507 Y2.435 E0.04263
G1 X-31.149 Y2.731 E0.04263
G1 X-30.876 Y3.107 E0.04263
G1 X-30.705 Y3.539 E0.04263
G1 X-30.646 Y4.000 E0.04263
G1 X-30.705 Y4.461 E0.04263
G1 X-30.854 Y4.837 E0.03712
G1 X-30.683 Y5.243 F9000.000
G1 X23.628 Y15.637 F9000.000
G1 X23.808 Y14.934 E0.06658 F900.000
G1 X24.158 Y14.298 E0.06658
G1 X24.655 Y13.769 E0.06658
G1 X25.271 Y13.378 E0.06695
G1 X25.974 Y13.155 E0.06771
G1 X26.682 Y13.111 E0.06504 F900.000
G1 X27.395 Y13.247 E0.06658
G1 X28.051 Y13.556 E0.06658
G1 X28.610 Y14.018 E0.06658
G1 X29.037 Y14.605 E0.06658
G1 X29.298 Y15.264 E0.06505
G1 X29.396 Y16.000 E0.06808
G1 X29.298 Y16.736 E0.06808
G1 X29.037 Y17.395 E0.06505
G1 X28.610 Y17.982 E0.06658
G1 X28.051 Y18.444 E0.06658
G1 X27.410 Y18.746 E0.06505
G1 X26.686 Y18.890 E0.06771
G1 X25.958 Y18.844 E0.06695
G1 X25.267 Y18.620 E0.06658
G1 X24.651 Y18.228 E0.06695
G1 X24.150 Y17.687 E0.06771
G1 X23.808 Y17.066 E0.06505
G1 X23.628 Y16.363 E0.06658
G1 X23.628 Y15.697 E0.06108
G1 X24.363 Y15.730 F9000.000
G1 X24.498 Y15.207 E0.04953 F900.000
G1 X24.758 Y14.734 E0.04953
G1 X25.127 Y14.341 E0.04953
G1 X25.584 Y14.051 E0.04966
G1 X26.111 Y13.884 E0.05066
G1 X26.635 Y13.851 E0.04823 F900.000
G1 X27.165 Y13.952 E0.04953
G1 X27.654 Y14.182 E0.04953
G1 X28.070 Y14.526 E0.04953
G1 X28.387 Y14.963 E0.04953
G1 X28.581 Y15.451 E0.04823
G1 X28.654 Y16.000 E0.05079
G1 X28.581 Y16.549 E0.05079
G1 X28.387 Y17.037 E0.04823
G1 X28.070 Y17.474 E0.04953
G1 X27.654 Y17.818 E0.04953
G1 X27.178 Y18.042 E0.04823
G1 X26.637 Y18.149 E0.05066
G1 X26.096 Y18.115 E0.04966
G1 X25.583 Y17.949 E0.04953
G1 X25.126 Y17.659 E0.04966
G1 X24.751 Y17.253 E0.05066
G1 X24.498 Y16.793 E0.04823
G1 X24.363 Y16.270 E0.04953
G1 X24.363 Y15.790 E0.04402
G1 X24.055 Y15.475 F9000.000
G1 X-0.605 Y14.000 F9000.000
G1 X-0.729 Y14.972 E0.08992 F900.000
G1 X-1.087 Y15.877 E0.08927
G1 X-1.661 Y16.666 E0.08954
G1 X-2.413 Y17.289 E0.08958
G1 X-3.296 Y17.704 E0.08958
G1 X-4.255 Y17.887 E0.08958
G1 X-5.230 Y17.826 E0.08958
G1 X-6.158 Y17.524 E0.08958
G1 X-6.983 Y17.001 E0.08958
G1 X-7.651 Y16.289 E0.08958
G1 X-8.122 Y15.434 E0.08958
G1 X-8.365 Y14.484 E0.09001
G1 X-8.357 Y13.485 E0.09165
G1 X-8.122 Y12.566 E0.08702
G1 X-7.651 Y11.711 E0.08958
G1 X-6.983 Y10.999 E0.08958
G1 X-6.158 Y10.476 E0.08958
G1 X-5.230 Y10.174 E0.08958
G1 X-4.283 Y10.114 E0.08702 F900.000
G1 X-3.301 Y10.294 E0.09165
G1 X-2.413 Y10.711 E0.09001
G1 X-1.661 Y11.334 E0.08958
G1 X-1.087 Y12.123 E0.08954
G1 X-0.729 Y13.028 E0.08927
G1 X-0.613 Y13.940 E0.08442
G1 X-1.347 Y14.000 F9000.000
G1 X-1.447 Y14.788 E0.07284 F900.000
G1 X-1.737 Y15.520 E0.07223
G1 X-2.201 Y16.159 E0.07250
G1 X-2.810 Y16.663 E0.07253
G1 X-3.525 Y16.999 E0.07253
G1 X-4.302 Y17.147 E0.07253
G1 X-5.091 Y17.098 E0.07253
G1 X-5.843 Y16.853 E0.07253
G1 X-6.510 Y16.430 E0.07253
G1 X-7.051 Y15.854 E0.07253
G1 X-7.432 Y15.161 E0.07253
G1 X-7.629 Y14.394 E0.07268
G1 X-7.623 Y13.581 E0.07460
G1 X-7.432 Y12.839 E0.07025
G1 X-7.051 Y12.146 E0.07253
G1 X-6.510 Y11.570 E0.07253
G1 X-5.843 Y11.147 E0.07253
G1 X-5.091 Y10.902 E0.07253
G1 X-4.327 Y10.854 E0.07025 F900.000
G1 X-3.527 Y11.000 E0.07460
G1 X-2.810 Y11.337 E0.07268
G1 X-2.201 Y11.841 E0.07253
G1 X-1.737 Y12.480 E0.07250
G1 X-1.447 Y13.212 E0.07223
G1 X-1.354 Y13.940 E0.06734
G1 X-1.009 Y14.214 F9000.000
G1 E-3.20000 F3000.00000
G1 Z0.700 F9000.000
G1 X-13.176 Y15.434 F9000.000
G1 Z0.300 F9000.000
G1 E3.20000 F3000.00000
G1 X-13.105 Y16.000 E0.05235 F900.000
G1 X-13.196 Y16.720 E0.06658
G1 X-13.463 Y17.395 E0.06658
G1 X-13.890 Y17.982 E0.06658
G1 X-14.449 Y18.444 E0.06658
G1 X-15.090 Y18.746 E0.06505
G1 X-15.814 Y18.890 E0.06771
G1 X-16.542 Y18.844 E0.06695
G1 X-17.233 Y18.620 E0.06658
G1 X-17.849 Y18.228 E0.06695
G1 X-18.350 Y17.687 E0.06771
G1 X-18.692 Y17.066 E0.06505
G1 X-18.872 Y16.363 E0.06658
G1 X-18.872 Y15.637 E0.06658
G1 X-18.692 Y14.934 E0.06658
G1 X-18.342 Y14.298 E0.06658
G1 X-17.845 Y13.769 E0.06658
G1 X-17.229 Y13.378 E0.06695
G1 X-16.526 Y13.155 E0.06771
G1 X-15.818 Y13.111 E0.06504 F900.000
G1 X-15.105 Y13.247 E0.06658
G1 X-14.449 Y13.556 E0.06658
G1 X-13.890 Y14.018 E0.06658
G1 X-13.463 Y14.605 E0.06658
G1 X-13.196 Y15.280 E0.06658
G1 X-13.184 Y15.374 E0.00873
G1 X-13.914 Y15.467 F9000.000
G1 X-13.846 Y16.000 E0.04933 F900.000
G1 X-13.914 Y16.536 E0.04953
G1 X-14.113 Y17.037 E0.04953
G1 X-14.430 Y17.474 E0.04953
G1 X-14.846 Y17.818 E0.04953
G1 X-15.322 Y18.042 E0.04823
G1 X-15.863 Y18.149 E0.05066
G1 X-16.404 Y18.115 E0.04966
G1 X-16.917 Y17.949 E0.04953
G1 X-17.374 Y17.659 E0.04966
G1 X-17.749 Y17.253 E0.05066
G1 X-18.002 Y16.793 E0.04823
G1 X-18.137 Y16.270 E0.04953
G1 X-18.137 Y15.730 E0.04953
G1 X-18.002 Y15.207 E0.04953
G1 X-17.742 Y14.734 E0.04953
G1 X-17.373 Y14.341 E0.04953
G1 X-16.916 Y14.051 E0.04966
G1 X-16.389 Y13.884 E0.05066
G1 X-15.865 Y13.851 E0.04823 F900.000
G1 X-15.335 Y13.952 E0.04953
G1 X-14.846 Y14.182 E0.04953
G1 X-14.430 Y14.526 E0.04953
G1 X-14.113 Y14.963 E0.04953
G1 X-13.935 Y15.411 E0.04423
G1 X-13.533 Y15.590 F9000.000
G1 X-9.349 Y6.082 F9000.000
G1 X-10.446 Y5.476 E0.11498 F900.000
G1 X-11.469 Y4.752 E0.11498
G1 X-12.404 Y3.917 E0.11498
G1 X-14.169 Y1.946 E0.24283
G1 X-6.836 Y-2.288 E0.77688
G1 X-7.139 Y-2.839 E0.05770
G1 X-14.484 Y1.401 E0.77809
G1 X-15.309 Y-1.114 E0.24283
G1 X-15.564 Y-2.341 E0.11498
G1 X-15.680 Y-3.588 E0.11498
G1 X-15.656 Y-4.841 E0.11498
G1 X-15.492 Y-6.084 E0.11498
G1 X-15.190 Y-7.300 E0.11498
G1 X-14.753 Y-8.475 E0.11498
G1 X-14.189 Y-9.594 E0.11498
G1 X-13.502 Y-10.642 E0.11498
G1 X-12.703 Y-11.607 E0.11498
G1 X-11.801 Y-12.477 E0.11498
G1 X-10.807 Y-13.240 E0.11498
G1 X-9.734 Y-13.888 E0.11498
G1 X-8.593 Y-14.412 E0.11521
G1 X-7.358 Y-14.814 E0.11907
G1 X-4.814 Y-15.347 E0.23849 F900.000
G1 X-4.814 Y-6.858 E0.77884
G1 X-4.186 Y-6.898 E0.05780
G1 X-4.186 Y-15.339 E0.77448
G1 X-1.710 Y-14.834 E0.23178
G1 X-0.628 Y-14.496 E0.10408
G1 X0.416 Y-14.049 E0.10417
G1 X1.423 Y-13.489 E0.10570
G1 X2.340 Y-12.853 E0.10236
G1 X3.201 Y-12.115 E0.10408
G1 X3.983 Y-11.293 E0.10408
G1 X4.678 Y-10.397 E0.10408
G1 X5.279 Y-9.434 E0.10408
G1 X5.779 Y-8.416 E0.10408
G1 X6.167 Y-7.370 E0.10236
G1 X6.458 Y-6.255 E0.10570
G1 X6.630 Y-5.133 E0.10417
G1 X6.687 Y-3.993 E0.10471
G1 X6.602 Y-2.612 E0.12693
G1 X6.344 Y-1.246 E0.12756
G1 X5.492 Y1.406 E0.25557
G1 X-1.869 Y-2.844 E0.77979
G1 X-1.963 Y-2.605 E0.02353
G1 X-2.185 Y-2.300 E0.03460
G1 X5.169 Y1.946 E0.77912
G1 X3.404 Y3.917 E0.24283
G1 X2.469 Y4.752 E0.11498
G1 X1.446 Y5.476 E0.11498
G1 X0.349 Y6.082 E0.11498
G1 X-0.809 Y6.561 E0.11498
G1 X-2.013 Y6.908 E0.11498
G1 X-3.249 Y7.117 E0.11498
G1 X-4.500 Y7.187 E0.11498
G1 X-5.751 Y7.117 E0.11498
G1 X-6.987 Y6.908 E0.11498
G1 X-8.191 Y6.561 E0.11498
G1 X-9.294 Y6.105 E0.10948
G1 X-9.013 Y5.425 F9000.000
G1 X-10.055 Y4.852 E0.10912 F900.000
G1 X-11.010 Y4.175 E0.10741
G1 X-11.884 Y3.396 E0.10741
G1 X-13.017 Y2.130 E0.15593
G1 X-6.960 Y-1.368 E0.64176 F900.000
G1 X-5.873 Y-0.731 E0.11553
G1 X-4.969 Y-0.485 E0.08600
G1 X-4.033 Y-0.485 E0.08585
G1 X-3.100 Y-0.747 E0.08893
G1 X-2.040 Y-1.368 E0.11265
G1 X4.017 Y2.130 E0.64176
G1 X2.883 Y3.396 E0.15593
G1 X2.010 Y4.175 E0.10741
G1 X1.055 Y4.852 E0.10741
G1 X0.030 Y5.418 E0.10741
G1 X-1.052 Y5.866 E0.10741
G1 X-2.177 Y6.189 E0.10741
G1 X-3.331 Y6.385 E0.10741
G1 X-4.500 Y6.451 E0.10741
G1 X-5.669 Y6.385 E0.10741
G1 X-6.823 Y6.189 E0.10741
G1 X-7.948 Y5.865 E0.10741
G1 X-8.957 Y5.448 E0.10019
G1 X-9.347 Y5.645 F9000.000
G1 E-3.20000 F3000.00000
G1 Z0.700 F9000.000
G1 X-5.417 Y-2.051 F9000.000
G1 Z0.300 F9000.000
G1 E3.20000 F3000.00000
G1 X-5.873 Y-2.341 E0.04953 F900.000
G1 X-6.242 Y-2.734 E0.04953
G1 X-6.502 Y-3.207 E0.04953
G1 X-6.637 Y-3.730 E0.04953
G1 X-6.637 Y-4.270 E0.04953
G1 X-6.502 Y-4.793 E0.04953
G1 X-6.242 Y-5.266 E0.04953
G1 X-5.873 Y-5.659 E0.04953
G1 X-5.415 Y-5.950 E0.04975
G1 X-4.879 Y-6.117 E0.05151
G1 X-4.365 Y-6.149 E0.04726 F900.000
G1 X-3.835 Y-6.048 E0.04953
G1 X-3.346 Y-5.818 E0.04953
G1 X-2.930 Y-5.474 E0.04953
G1 X-2.613 Y-5.037 E0.04953
G1 X-2.414 Y-4.536 E0.04953
G1 X-2.346 Y-3.998 E0.04975
G1 X-2.423 Y-3.441 E0.05151
G1 X-2.613 Y-2.963 E0.04726
G1 X-2.930 Y-2.526 E0.04953
G1 X-3.346 Y-2.182 E0.04953
G1 X-3.835 Y-1.952 E0.04953
G1 X-4.365 Y-1.851 E0.04953
G1 X-4.904 Y-1.885 E0.04953
G1 X-5.360 Y-2.033 E0.04402
G1 X-5.755 Y-1.837 F9000.000
G1 E-3.20000 F3000.00000
G1 Z0.700 F9000.000
G1 X-1.009 Y-3.197 F9000.000
G1 Z0.300 F9000.000
G1 E3.20000 F3000.00000
G1 X-0.951 Y-3.998 E0.07371 F900.000
G1 X-0.990 Y-4.524 E0.04839
G1 X-1.106 Y-5.037 E0.04824
G1 X-1.297 Y-5.527 E0.04824
G1 X-1.558 Y-5.984 E0.04824
G1 X-1.883 Y-6.397 E0.04824
G1 X-2.266 Y-6.757 E0.04824
G1 X-2.698 Y-7.057 E0.04824
G1 X-3.450 Y-7.428 E0.07697
G1 X-3.450 Y-14.438 E0.64313 F900.000
G1 X-1.894 Y-14.120 E0.14570
G1 X-0.883 Y-13.805 E0.09723
G1 X0.092 Y-13.388 E0.09726
G1 X1.034 Y-12.864 E0.09885
G1 X1.889 Y-12.270 E0.09557
G1 X2.694 Y-11.580 E0.09723
G1 X3.425 Y-10.813 E0.09723
G1 X4.074 Y-9.975 E0.09723
G1 X4.635 Y-9.076 E0.09723
G1 X5.102 Y-8.125 E0.09723
G1 X5.464 Y-7.149 E0.09557
G1 X5.736 Y-6.106 E0.09885
G1 X5.897 Y-5.058 E0.09726
G1 X5.951 Y-3.997 E0.09747
G1 X5.870 Y-2.704 E0.11892
G1 X5.629 Y-1.428 E0.11915
G1 X5.070 Y0.313 E0.16774
G1 X-0.957 Y-3.167 E0.63857
G1 X-1.399 Y-3.285 F9000.000
G1 X-5.550 Y-7.446 F9000.000
G1 X-6.645 Y-6.824 E0.11553 F900.000
G1 X-7.310 Y-6.163 E0.08600
G1 X-7.778 Y-5.352 E0.08600
G1 X-8.018 Y-4.445 E0.08600
G1 X-8.010 Y-3.186 E0.11553
G1 X-14.067 Y0.311 E0.64176
G1 X-14.597 Y-1.304 E0.15593
G1 X-14.835 Y-2.450 E0.10741
G1 X-14.944 Y-3.616 E0.10741
G1 X-14.921 Y-4.786 E0.10741
G1 X-14.768 Y-5.947 E0.10741
G1 X-14.486 Y-7.083 E0.10741
G1 X-14.078 Y-8.180 E0.10741
G1 X-13.551 Y-9.225 E0.10741
G1 X-12.909 Y-10.205 E0.10741
G1 X-12.163 Y-11.106 E0.10741
G1 X-11.320 Y-11.919 E0.10741
G1 X-10.391 Y-12.632 E0.10741
G1 X-9.389 Y-13.237 E0.10741
G1 X-8.324 Y-13.726 E0.10749
G1 X-7.169 Y-14.102 E0.11150
G1 X-5.550 Y-14.441 E0.15174 F900.000
G1 X-5.550 Y-7.506 E0.63626
G1 X-5.415 Y-7.070 F9000.000
G1 E-3.20000 F3000.00000
G1 Z0.700 F9000.000
G1 X-30.724 Y-19.369 F9000.000
G1 Z0.300 F9000.000
G1 E3.20000 F3000.00000
G1 X-30.013 Y-19.611 E0.06887 F900.000
G1 X-29.258 Y-19.762 E0.07070
G1 X-28.461 Y-19.814 E0.07324
G1 X-18.997 Y-19.814 E0.86834
G1 X-20.044 Y-18.000 E0.19221 F900.000
G1 X-19.382 Y-16.853 E0.12155
G1 X-20.523 Y-16.867 E0.10467
G1 X-21.446 Y-16.651 E0.08702
G1 X-22.311 Y-16.198 E0.08958
G1 X-23.037 Y-15.545 E0.08958
G1 X-23.577 Y-14.732 E0.08958
G1 X-23.898 Y-13.810 E0.08958
G1 X-23.978 Y-12.865 E0.08702
G1 X-23.819 Y-11.878 E0.09165
G1 X-23.420 Y-10.982 E0.09001
G1 X-22.814 Y-10.217 E0.08958
G1 X-22.036 Y-9.627 E0.08958
G1 X-21.136 Y-9.248 E0.08958
G1 X-20.198 Y-9.110 E0.08702
G1 X-19.203 Y-9.206 E0.09165
G1 X-18.284 Y-9.548 E0.09001
G1 X-17.482 Y-10.105 E0.08958
G1 X-16.844 Y-10.845 E0.08958
G1 X-16.410 Y-11.719 E0.08958
G1 X-16.207 Y-12.674 E0.08958
G1 X-16.248 Y-13.650 E0.08958
G1 X-16.373 Y-14.064 E0.03976
G1 X-13.228 Y-14.064 E0.28859
G1 X-10.956 Y-18.000 E0.41696
G1 X-12.003 Y-19.814 E0.19220
G1 X3.003 Y-19.814 E1.37679
G1 X1.956 Y-18.000 E0.19218
G1 X4.228 Y-14.064 E0.41696
G1 X7.349 Y-14.064 E0.28640
G1 X7.201 Y-13.191 E0.08131
G1 X7.277 Y-12.195 E0.09165
G1 X7.600 Y-11.268 E0.09001
G1 X8.140 Y-10.455 E0.08958
G1 X8.866 Y-9.802 E0.08958
G1 X9.731 Y-9.349 E0.08958
G1 X10.681 Y-9.126 E0.08958
G1 X11.657 Y-9.147 E0.08958
G1 X12.598 Y-9.409 E0.08958
G1 X13.443 Y-9.897 E0.08958
G1 X14.140 Y-10.580 E0.08950
G1 X14.644 Y-11.410 E0.08909
G1 X14.927 Y-12.339 E0.08911
G1 X14.965 Y-13.354 E0.09318
G1 X14.767 Y-14.277 E0.08660
G1 X14.342 Y-15.141 E0.08832
G1 X13.698 Y-15.892 E0.09085
G1 X12.893 Y-16.452 E0.08992
G1 X11.978 Y-16.792 E0.08958
G1 X11.007 Y-16.894 E0.08958
G1 X10.350 Y-16.797 E0.06092
G1 X11.044 Y-18.000 E0.12743
G1 X9.997 Y-19.814 E0.19217
G1 X18.427 Y-19.814 E0.77342
G1 X18.708 Y-19.777 E0.02603
G1 X18.902 Y-19.696 E0.01926
G1 X19.069 Y-19.569 E0.01926
G1 X19.196 Y-19.402 E0.01926
G1 X19.277 Y-19.208 E0.01926
G1 X19.314 Y-18.922 E0.02645
G1 X19.314 Y6.078 E2.29376
G1 X19.515 Y7.604 E0.14121
G1 X20.134 Y9.098 E0.14840
G1 X21.119 Y10.381 E0.14840
G1 X22.402 Y11.366 E0.14840
G1 X23.896 Y11.985 E0.14840
G1 X25.422 Y12.186 E0.14121
G1 X33.422 Y12.186 E0.73400
G1 X33.708 Y12.223 E0.02645
G1 X33.902 Y12.304 E0.01926
G1 X34.069 Y12.431 E0.01926
G1 X34.196 Y12.598 E0.01926
G1 X34.276 Y12.791 E0.01918
G1 X34.314 Y13.078 E0.02656
G1 X34.314 Y19.814 E0.61806
G1 X20.599 Y19.814 E1.25837
G1 X20.599 Y17.814 E0.18350
G1 X17.754 Y17.814 E0.26106
G1 X17.754 Y16.814 E0.09175
G1 X13.246 Y16.814 E0.41361
G1 X13.246 Y17.814 E0.09175
G1 X10.418 Y17.814 E0.25951
G1 X10.418 Y19.814 E0.18350
G1 X-30.422 Y19.814 E3.74708
G1 X-31.485 Y19.675 E0.09831
G1 X-32.402 Y19.294 E0.09112
G1 X-33.190 Y18.690 E0.09112
G1 X-33.794 Y17.902 E0.09112
G1 X-34.175 Y16.985 E0.09112
