; generated by Slic3r 1.2.9 on 2016-11-15 at 10:14:26

; external perimeters extrusion width = 0.50mm
; perimeters extrusion width = 0.50mm
; infill extrusion width = 0.50mm
; solid infill extrusion width = 0.50mm
; top infill extrusion width = 0.50mm

M107
;Basic settings: Layer height: {layer_height} Walls: {wall_thickness} Fill: {fill_density}
;Print time: {print_time}
;Filament used: {filament_amount}m {filament_weight}g
;Filament cost: {filament_cost}
;M190 S{print_bed_temperature} ;Uncomment to add your own bed temperature line
;M109 S{print_temperature} ;Uncomment to add your own temperature line
G21        ;metric values
G90        ;absolute positioning
M83
G10 P0 S200
T0
M116


G21 ; set units to millimeters
G90 ; use absolute coordinates
M83 ; use relative distances for extrusion
G1 E-3.20000 F3000.00000
G1 Z0.400 F9000.000
G1 X33.686 Y0.000 F9000.000
G1 Z0.300 F9000.000
G1 E3.20000 F3000.00000
G1 X33.686 Y29.950 E2.74793 F1200.000
G1 X33.291 Y31.621 E0.15755
G1 X32.190 Y32.939 E0.15755
G1 X29.950 Y33.686 E0.21667
G1 X-29.950 Y33.686 E5.49586
G1 X-31.621 Y33.291 E0.15755
G1 X-32.939 Y32.190 E0.15755
G1 X-33.686 Y29.950 E0.21667
G1 X-33.686 Y-29.950 E5.49586
G1 X-33.291 Y-31.621 E0.15755
G1 X-32.190 Y-32.939 E0.15755
G1 X-29.950 Y-33.686 E0.21667
G1 X29.950 Y-33.686 E5.49586
G1 X31.621 Y-33.291 E0.15755
G1 X32.939 Y-32.190 E0.15755 F1200.000
G1 X33.686 Y-29.950 E0.21667
G1 X33.686 Y-0.060 E2.74242
G1 E-3.20000 F3000.00000
G1 Z0.700 F9000.000
G1 X15.586 Y5.814 F9000.000
G1 Z0.300 F9000.000
G1 E3.20000 F3000.00000
G1 X15.586 Y12.386 E0.60291 F900.000
G1 X6.614 Y12.386 E0.82312
G1 X6.614 Y5.814 E0.60291
G1 X15.526 Y5.814 E0.81761 F900.000
G1 X14.850 Y6.550 F9000.000
G1 X14.850 Y11.650 E0.46793 F900.000
G1 X7.350 Y11.650 E0.68813
G1 X7.350 Y6.550 E0.46793
G1 X14.790 Y6.550 E0.68262 F900.000
G1 X15.250 Y6.550 F9000.000
G1 X-6.614 Y6.550 F9000.000
G1 X-6.614 Y12.386 E0.53542 F900.000
G1 X-15.586 Y12.386 E0.82312
G1 X-15.586 Y5.814 E0.60291
G1 X-6.614 Y5.814 E0.82312 F900.000
G1 X-6.614 Y6.490 E0.06199
G1 X-7.350 Y6.550 F9000.000
G1 X-7.350 Y11.650 E0.46793 F900.000
G1 X-14.850 Y11.650 E0.68813
G1 X-14.850 Y6.550 E0.46793
G1 X-7.410 Y6.550 E0.68262 F900.000
G1 X-6.950 Y6.550 F9000.000
G1 X-3.286 Y-8.014 F9000.000
G1 X-3.286 Y-18.586 E0.96992 F900.000
G1 X3.286 Y-18.586 E0.60291 F900.000
G1 X3.286 Y-8.014 E0.96992
G1 X-3.226 Y-8.014 E0.59741
G1 X-2.550 Y-8.750 F9000.000
G1 X-2.550 Y-17.850 E0.83493 F900.000
G1 X2.550 Y-17.850 E0.46793 F900.000
G1 X2.550 Y-8.750 E0.83493
G1 X-2.490 Y-8.750 E0.46242
G1 X-2.950 Y-8.750 F9000.000
G1 E-3.20000 F3000.00000
G1 Z0.700 F9000.000
G1 X19.585 Y28.814 F9000.000
G1 Z0.300 F9000.000
G1 E3.20000 F3000.00000
G1 X-28.814 Y28.814 E4.44065 F900.000
G1 X-28.814 Y-28.814 E5.28747
G1 X28.814 Y-28.814 E5.28747
G1 X28.814 Y28.814 E5.28747
G1 X19.645 Y28.814 E0.84132 F900.000
G1 X19.645 Y29.550 F9000.000
G1 X-29.550 Y29.550 E4.51365 F900.000
G1 X-29.550 Y-29.550 E5.42246
G1 X29.550 Y-29.550 E5.42246
G1 X29.550 Y29.550 E5.42246
G1 X19.705 Y29.550 E0.90330 F900.000
G1 X19.445 Y29.204 F9000.000
G1 X6.571 Y12.835 F9000.000
G1 X22.101 Y28.365 E2.02234 F900.000
G1 X23.145 Y28.365 E0.09613
G1 X7.615 Y12.835 E2.02234
G1 X8.659 Y12.835 E0.09613
G1 X24.189 Y28.365 E2.02234
G1 X25.233 Y28.365 E0.09613
G1 X9.703 Y12.835 E2.02234
G1 X10.747 Y12.835 E0.09613
G1 X26.277 Y28.365 E2.02234
G1 X27.321 Y28.365 E0.09613
G1 X11.791 Y12.835 E2.02234
G1 X12.835 Y12.835 E0.09613
G1 X28.345 Y28.345 E2.01974
G1 X28.365 Y27.321 E0.09431
G1 X13.879 Y12.835 E1.88639
G1 X14.923 Y12.835 E0.09613
G1 X28.365 Y26.277 E1.75044
G1 X28.365 Y25.233 E0.09613
G1 X15.967 Y12.835 E1.61448
G1 X16.035 Y11.859 E0.09010
G1 X28.365 Y24.189 E1.60564
G1 X28.365 Y23.145 E0.09613
G1 X16.035 Y10.815 E1.60564
G1 X16.035 Y9.771 E0.09613
G1 X28.365 Y22.101 E1.60564
G1 X28.365 Y21.057 E0.09613
G1 X16.035 Y8.727 E1.60564
G1 X16.035 Y7.683 E0.09613
G1 X28.365 Y20.013 E1.60564
G1 X28.365 Y18.969 E0.09613
G1 X16.035 Y6.638 E1.60564
G1 X16.035 Y5.594 E0.09613
G1 X28.365 Y17.925 E1.60564
G1 X28.365 Y16.881 E0.09613
G1 X3.735 Y-7.750 E3.20733
G1 X2.875 Y-7.565 E0.08095
G1 X15.806 Y5.365 E1.68377
G1 X14.762 Y5.365 E0.09613
G1 X1.831 Y-7.565 E1.68377
G1 X0.787 Y-7.565 E0.09613
G1 X13.717 Y5.365 E1.68377
G1 X12.673 Y5.365 E0.09613
G1 X-0.257 Y-7.565 E1.68377
G1 X-1.301 Y-7.565 E0.09613
G1 X11.629 Y5.365 E1.68377
G1 X10.585 Y5.365 E0.09613
G1 X-2.345 Y-7.565 E1.68377
G1 X-3.389 Y-7.565 E0.09613
G1 X9.541 Y5.365 E1.68377
G1 X8.497 Y5.365 E0.09613
G1 X-25.233 Y-28.365 E4.39232
G1 X-24.189 Y-28.365 E0.09613
G1 X-3.735 Y-7.911 E2.66352
G1 X-3.735 Y-8.955 E0.09613
G1 X-23.145 Y-28.365 E2.52757
G1 X-22.101 Y-28.365 E0.09613
G1 X-3.735 Y-9.999 E2.39161
G1 X-3.735 Y-11.043 E0.09613
G1 X-21.057 Y-28.365 E2.25566
G1 X-20.013 Y-28.365 E0.09613
G1 X-3.735 Y-12.087 E2.11971
G1 X-3.735 Y-13.131 E0.09613
G1 X-18.969 Y-28.365 E1.98375
G1 X-17.925 Y-28.365 E0.09613
G1 X-3.735 Y-14.175 E1.84780
G1 X-3.735 Y-15.219 E0.09613
G1 X-16.881 Y-28.365 E1.71184
G1 X-15.837 Y-28.365 E0.09613
G1 X-3.735 Y-16.263 E1.57589
G1 X-3.735 Y-17.307 E0.09613
G1 X-14.793 Y-28.365 E1.43994
G1 X-13.749 Y-28.365 E0.09613
G1 X-3.735 Y-18.351 E1.30398
G1 X-3.374 Y-19.035 F9000.000
G1 X-12.705 Y-28.365 E1.21499 F900.000
G1 X-11.661 Y-28.365 E0.09613
G1 X-2.330 Y-19.035 E1.21499
G1 X-1.286 Y-19.035 E0.09613
G1 X-10.616 Y-28.365 E1.21499
G1 X-9.572 Y-28.365 E0.09613
G1 X-0.242 Y-19.035 E1.21499
G1 X0.802 Y-19.035 E0.09613
G1 X-8.528 Y-28.365 E1.21499
G1 X-7.484 Y-28.365 E0.09613
G1 X1.846 Y-19.035 E1.21499
G1 X2.890 Y-19.035 E0.09613
G1 X-6.440 Y-28.365 E1.21499
G1 X-5.396 Y-28.365 E0.09613
G1 X28.365 Y5.396 E4.39637
G1 X28.365 Y4.352 E0.09613
G1 X-4.352 Y-28.365 E4.26042
G1 X-3.308 Y-28.365 E0.09613
G1 X28.365 Y3.308 E4.12446
G1 X28.365 Y2.264 E0.09613
G1 X-2.264 Y-28.365 E3.98851
G1 X-1.220 Y-28.365 E0.09613
G1 X28.365 Y1.220 E3.85256
G1 X28.365 Y0.176 E0.09613
G1 X-0.176 Y-28.365 E3.71660
G1 X0.868 Y-28.365 E0.09613
G1 X28.365 Y-0.868 E3.58065
G1 X28.365 Y-1.912 E0.09613
G1 X1.912 Y-28.365 E3.44470
G1 X2.956 Y-28.365 E0.09613
G1 X28.365 Y-2.956 E3.30874
G1 X28.365 Y-4.000 E0.09613
G1 X4.000 Y-28.365 E3.17279
G1 X5.044 Y-28.365 E0.09613
G1 X28.365 Y-5.044 E3.03683
G1 X28.365 Y-6.088 E0.09613
G1 X6.088 Y-28.365 E2.90088
G1 X7.132 Y-28.365 E0.09613
G1 X28.365 Y-7.132 E2.76493
G1 X28.365 Y-8.176 E0.09613
G1 X8.176 Y-28.365 E2.62897
G1 X9.220 Y-28.365 E0.09613
G1 X28.365 Y-9.220 E2.49302
G1 X28.365 Y-10.264 E0.09613
G1 X10.264 Y-28.365 E2.35707
G1 X11.308 Y-28.365 E0.09613
G1 X28.365 Y-11.308 E2.22111
G1 X28.365 Y-12.352 E0.09613
G1 X12.352 Y-28.365 E2.08516
G1 X13.396 Y-28.365 E0.09613
G1 X28.365 Y-13.396 E1.94920
G1 X28.365 Y-14.441 E0.09613
G1 X14.441 Y-28.365 E1.81325
G1 X15.485 Y-28.365 E0.09613
G1 X28.365 Y-15.485 E1.67730
G1 X28.365 Y-16.529 E0.09613
G1 X16.529 Y-28.365 E1.54134
G1 X17.573 Y-28.365 E0.09613
G1 X28.365 Y-17.573 E1.40539
G1 X28.365 Y-18.617 E0.09613
G1 X18.617 Y-28.365 E1.26943
G1 X19.661 Y-28.365 E0.09613
G1 X28.365 Y-19.661 E1.13348
G1 X28.365 Y-20.705 E0.09613
G1 X20.705 Y-28.365 E0.99753
G1 X21.749 Y-28.365 E0.09613
G1 X28.365 Y-21.749 E0.86157
G1 X28.365 Y-22.793 E0.09613
G1 X22.793 Y-28.365 E0.72562
G1 X23.837 Y-28.365 E0.09613
G1 X28.365 Y-23.837 E0.58967
G1 X28.365 Y-24.881 E0.09613
G1 X24.881 Y-28.365 E0.45371
G1 X25.925 Y-28.365 E0.09613
G1 X28.365 Y-25.925 E0.31776
G1 X28.365 Y-26.969 E0.09613
G1 X26.969 Y-28.365 E0.18180
G1 X28.013 Y-28.365 E0.09613
G1 X28.365 Y-28.013 E0.04585
G1 X3.735 Y-18.190 F9000.000
G1 X28.365 Y6.440 E3.20733 F900.000
G1 X28.365 Y7.484 E0.09613
G1 X3.735 Y-17.146 E3.20733
G1 X3.735 Y-16.102 E0.09613
G1 X28.365 Y8.528 E3.20733
G1 X28.365 Y9.572 E0.09613
G1 X3.735 Y-15.058 E3.20733
G1 X3.735 Y-14.014 E0.09613
G1 X28.365 Y10.616 E3.20733
G1 X28.365 Y11.661 E0.09613
G1 X3.735 Y-12.970 E3.20733
G1 X3.735 Y-11.926 E0.09613
G1 X28.365 Y12.705 E3.20733
G1 X28.365 Y13.749 E0.09613
G1 X3.735 Y-10.882 E3.20733
G1 X3.735 Y-9.838 E0.09613
G1 X28.365 Y14.793 E3.20733
G1 X28.365 Y15.837 E0.09613
G1 X3.735 Y-8.794 E3.20733
G1 X6.165 Y12.429 F9000.000
G1 X-28.365 Y-22.101 E4.49650 F900.000
G1 X-28.365 Y-21.057 E0.09613
G1 X21.057 Y28.365 E6.43567
G1 X20.013 Y28.365 E0.09613
G1 X-28.365 Y-20.013 E6.29972
G1 X-28.365 Y-18.969 E0.09613
G1 X18.969 Y28.365 E6.16376
G1 X17.925 Y28.365 E0.09613
G1 X-28.365 Y-17.925 E6.02781
G1 X-28.365 Y-16.881 E0.09613
G1 X16.881 Y28.365 E5.89186
G1 X15.837 Y28.365 E0.09613
G1 X-6.165 Y6.363 E2.86505
G1 X-6.165 Y7.407 E0.09613
G1 X14.793 Y28.365 E2.72909
G1 X13.749 Y28.365 E0.09613
G1 X-6.165 Y8.451 E2.59314
G1 X-6.165 Y9.495 E0.09613
G1 X12.704 Y28.365 E2.45718
G1 X11.660 Y28.365 E0.09613
G1 X-6.165 Y10.540 E2.32123
G1 X-6.165 Y11.584 E0.09613
G1 X10.616 Y28.365 E2.18528
G1 X9.572 Y28.365 E0.09613
G1 X-6.165 Y12.628 E2.04932
G1 X-7.002 Y12.835 E0.07938
G1 X8.528 Y28.365 E2.02234
G1 X7.484 Y28.365 E0.09613
G1 X-8.046 Y12.835 E2.02234
G1 X-9.090 Y12.835 E0.09613
G1 X6.440 Y28.365 E2.02234
G1 X5.396 Y28.365 E0.09613
G1 X-10.134 Y12.835 E2.02234
G1 X-11.178 Y12.835 E0.09613
G1 X4.352 Y28.365 E2.02234
G1 X3.308 Y28.365 E0.09613
G1 X-12.222 Y12.835 E2.02234
G1 X-13.266 Y12.835 E0.09613
G1 X2.264 Y28.365 E2.02234
G1 X1.220 Y28.365 E0.09613
G1 X-14.310 Y12.835 E2.02234
G1 X-15.354 Y12.835 E0.09613
G1 X0.176 Y28.365 E2.02234
G1 X-0.868 Y28.365 E0.09613
G1 X-28.365 Y0.868 E3.58064
G1 X-28.365 Y-0.176 E0.09613
G1 X-16.035 Y12.154 E1.60564
G1 X-16.035 Y11.110 E0.09613
G1 X-28.365 Y-1.220 E1.60564
G1 X-28.365 Y-2.264 E0.09613
G1 X-16.035 Y10.066 E1.60564
G1 X-16.035 Y9.022 E0.09613
G1 X-28.365 Y-3.308 E1.60564
G1 X-28.365 Y-4.352 E0.09613
G1 X-16.035 Y7.978 E1.60564
G1 X-16.035 Y6.934 E0.09613
G1 X-28.365 Y-5.396 E1.60564
G1 X-28.365 Y-6.440 E0.09613
G1 X-16.035 Y5.890 E1.60564
G1 X-15.516 Y5.365 F9000.000
G1 X-28.365 Y-7.484 E1.67324 F900.000
G1 X-28.365 Y-8.528 E0.09613
G1 X-14.472 Y5.365 E1.80919
G1 X-13.428 Y5.365 E0.09613
G1 X-28.365 Y-9.572 E1.94515
G1 X-28.365 Y-10.616 E0.09613
G1 X-12.384 Y5.365 E2.08110
G1 X-11.340 Y5.365 E0.09613
G1 X-28.365 Y-11.660 E2.21706
G1 X-28.365 Y-12.705 E0.09613
G1 X-10.296 Y5.365 E2.35301
G1 X-9.251 Y5.365 E0.09613
G1 X-28.365 Y-13.749 E2.48896
G1 X-28.365 Y-14.793 E0.09613
G1 X-8.207 Y5.365 E2.62492
G1 X-7.163 Y5.365 E0.09613
G1 X-28.365 Y-15.837 E2.76087
G1 X-28.365 Y-23.145 F9000.000
G1 X6.165 Y11.385 E4.49650 F900.000
G1 X6.165 Y10.341 E0.09613
G1 X-28.365 Y-24.189 E4.49650
G1 X-28.365 Y-25.233 E0.09613
G1 X6.165 Y9.297 E4.49650
G1 X6.165 Y8.253 E0.09613
G1 X-28.365 Y-26.277 E4.49650
G1 X-28.365 Y-27.321 E0.09613
G1 X6.165 Y7.209 E4.49650
G1 X6.165 Y6.165 E0.09613
G1 X-28.345 Y-28.345 E4.49390
G1 X-27.321 Y-28.365 E0.09431
G1 X6.409 Y5.365 E4.39232
G1 X7.453 Y5.365 E0.09613
G1 X-26.277 Y-28.365 E4.39232
G1 X-28.365 Y1.912 F9000.000
G1 X-1.912 Y28.365 E3.44469 F900.000
G1 X-2.956 Y28.365 E0.09613
G1 X-28.365 Y2.956 E3.30873
G1 X-28.365 Y4.000 E0.09613
G1 X-4.000 Y28.365 E3.17278
G1 X-5.044 Y28.365 E0.09613
G1 X-28.365 Y5.044 E3.03682
G1 X-28.365 Y6.088 E0.09613
G1 X-6.088 Y28.365 E2.90087
G1 X-7.132 Y28.365 E0.09613
G1 X-28.365 Y7.132 E2.76492
G1 X-28.365 Y8.176 E0.09613
G1 X-8.176 Y28.365 E2.62896
G1 X-9.220 Y28.365 E0.09613
G1 X-28.365 Y9.220 E2.49301
G1 X-28.365 Y10.264 E0.09613
G1 X-10.264 Y28.365 E2.35706
G1 X-11.308 Y28.365 E0.09613
G1 X-28.365 Y11.308 E2.22110
G1 X-28.365 Y12.353 E0.09613
G1 X-12.353 Y28.365 E2.08515
G1 X-13.397 Y28.365 E0.09613
G1 X-28.365 Y13.397 E1.94919
G1 X-28.365 Y14.441 E0.09613
G1 X-14.441 Y28.365 E1.81324
G1 X-15.485 Y28.365 E0.09613
G1 X-28.365 Y15.485 E1.67729
G1 X-28.365 Y16.529 E0.09613
G1 X-16.529 Y28.365 E1.54133
G1 X-17.573 Y28.365 E0.09613
G1 X-28.365 Y17.573 E1.40538
G1 X-28.365 Y18.617 E0.09613
G1 X-18.617 Y28.365 E1.26942
G1 X-19.661 Y28.365 E0.09613
G1 X-28.365 Y19.661 E1.13347
G1 X-28.365 Y20.705 E0.09613
G1 X-20.705 Y28.365 E0.99752
G1 X-21.749 Y28.365 E0.09613
G1 X-28.365 Y21.749 E0.86156
G1 X-28.365 Y22.793 E0.09613
G1 X-22.793 Y28.365 E0.72561
G1 X-23.837 Y28.365 E0.09613
G1 X-28.365 Y23.837 E0.58966
G1 X-28.365 Y24.881 E0.09613
G1 X-24.881 Y28.365 E0.45370
G1 X-25.925 Y28.365 E0.09613
G1 X-28.365 Y25.925 E0.31775
G1 X-28.365 Y26.969 E0.09613
G1 X-26.969 Y28.365 E0.18179
G1 X-28.013 Y28.365 E0.09613
G1 X-28.365 Y28.013 E0.04584
G1 E-3.20000 F3000.00000
G1 Z0.700 F9000.000
G1 X7.064 Y11.936 F9000.000
G1 Z0.600 F9000.000
G1 E3.20000 F3000.00000
G1 X7.064 Y6.264 E0.30813 F1800.000
G1 X15.136 Y6.264 E0.43853 F1800.000
G1 X15.136 Y11.936 E0.30813
G1 X7.124 Y11.936 E0.43527
G1 X7.500 Y11.500 F9000.000
G1 X7.500 Y6.700 E0.26080 F1800.000
G1 X14.700 Y6.700 E0.39120 F1800.000
G1 X14.700 Y11.500 E0.26080
G1 X7.560 Y11.500 E0.38794
G1 X7.100 Y11.500 F9000.000
G1 X-7.064 Y11.500 F9000.000
G1 X-7.064 Y11.936 E0.02367 F1800.000
G1 X-15.136 Y11.936 E0.43853
G1 X-15.136 Y6.264 E0.30813
G1 X-7.064 Y6.264 E0.43853 F1800.000
G1 X-7.064 Y11.440 E0.28121
G1 X-7.500 Y11.440 F9000.000
G1 X-7.500 Y11.500 E0.00326 F1800.000
G1 X-14.700 Y11.500 E0.39120
G1 X-14.700 Y6.700 E0.26080
G1 X-7.500 Y6.700 E0.39120 F1800.000
G1 X-7.500 Y11.380 E0.25428
G1 X-7.448 Y11.470 F9000.000
G1 X-2.836 Y-8.464 F9000.000
G1 X-2.836 Y-18.136 E0.52547 F1800.000
G1 X2.836 Y-18.136 E0.30813 F1800.000
G1 X2.836 Y-8.464 E0.52547
G1 X-2.776 Y-8.464 E0.30487
G1 X-2.400 Y-8.900 F9000.000
G1 X-2.400 Y-17.700 E0.47813 F1800.000
G1 X2.400 Y-17.700 E0.26080 F1800.000
G1 X2.400 Y-8.900 E0.47813
G1 X-2.340 Y-8.900 E0.25754
G1 X-2.800 Y-8.900 F9000.000
G1 X-17.335 Y-29.264 F9000.000
G1 X29.264 Y-29.264 E2.53187 F1800.000
G1 X29.264 Y29.264 E3.18003
G1 X-29.264 Y29.264 E3.18003 F1800.000
G1 X-29.264 Y-29.264 E3.18003
G1 X-17.395 Y-29.264 E0.64491
G1 X-17.395 Y-29.700 F9000.000
G1 X29.700 Y-29.700 E2.55880 F1800.000
G1 X29.700 Y29.700 E3.22737
G1 X-29.700 Y29.700 E3.22737 F1800.000
G1 X-29.700 Y-29.700 E3.22737
G1 X-17.455 Y-29.700 E0.66532
G1 X-17.195 Y-29.354 F9000.000
G1 X-29.007 Y-28.782 F9000.000
G1 X-28.782 Y-29.007 E0.01732 F1800.000
G1 X-28.164 Y-29.007 E0.03369
G1 X-29.007 Y-28.164 E0.06497
G1 X-29.007 Y-27.546 E0.03369
G1 X-27.546 Y-29.007 E0.11261
G1 X-26.928 Y-29.007 E0.03369
G1 X-29.007 Y-26.928 E0.16025
G1 X-29.007 Y-26.310 E0.03369
G1 X-26.310 Y-29.007 E0.20790
G1 X-25.692 Y-29.007 E0.03369
G1 X-29.007 Y-25.692 E0.25554
G1 X-29.007 Y-25.073 E0.03369
G1 X-25.073 Y-29.007 E0.30319
G1 X-24.455 Y-29.007 E0.03369
G1 X-29.007 Y-24.455 E0.35083
G1 X-29.007 Y-23.837 E0.03369
G1 X-23.837 Y-29.007 E0.39848
G1 X-23.219 Y-29.007 E0.03369
G1 X-29.007 Y-23.219 E0.44612
G1 X-29.007 Y-22.601 E0.03369
G1 X-22.601 Y-29.007 E0.49377
G1 X-21.983 Y-29.007 E0.03369
G1 X-29.007 Y-21.983 E0.54141
G1 X-29.007 Y-21.365 E0.03369
G1 X-21.365 Y-29.007 E0.58905
G1 X-20.747 Y-29.007 E0.03369
G1 X-29.007 Y-20.747 E0.63670
G1 X-29.007 Y-20.129 E0.03369
G1 X-20.129 Y-29.007 E0.68434
G1 X-19.511 Y-29.007 E0.03369
G1 X-29.007 Y-19.511 E0.73199
G1 X-29.007 Y-18.893 E0.03369
G1 X-18.893 Y-29.007 E0.77963
G1 X-18.275 Y-29.007 E0.03369
G1 X-29.007 Y-18.275 E0.82728
G1 X-29.007 Y-17.657 E0.03369
G1 X-17.657 Y-29.007 E0.87492
G1 X-17.039 Y-29.007 E0.03369
G1 X-29.007 Y-17.039 E0.92257
G1 X-29.007 Y-16.421 E0.03369
G1 X-16.421 Y-29.007 E0.97021
G1 X-15.803 Y-29.007 E0.03369
G1 X-29.007 Y-15.803 E1.01785
G1 X-29.007 Y-15.185 E0.03369
G1 X-15.185 Y-29.007 E1.06550
G1 X-14.567 Y-29.007 E0.03369
G1 X-29.007 Y-14.567 E1.11314
G1 X-29.007 Y-13.948 E0.03369
G1 X-13.948 Y-29.007 E1.16079
G1 X-13.330 Y-29.007 E0.03369
G1 X-29.007 Y-13.330 E1.20843
G1 X-29.007 Y-12.712 E0.03369
G1 X-12.712 Y-29.007 E1.25608
G1 X-12.094 Y-29.007 E0.03369
G1 X-29.007 Y-12.094 E1.30372
G1 X-29.007 Y-11.476 E0.03369
G1 X-11.476 Y-29.007 E1.35137
G1 X-10.858 Y-29.007 E0.03369
G1 X-29.007 Y-10.858 E1.39901
G1 X-29.007 Y-10.240 E0.03369
G1 X-10.240 Y-29.007 E1.44665
G1 X-9.622 Y-29.007 E0.03369
G1 X-29.007 Y-9.622 E1.49430
G1 X-29.007 Y-9.004 E0.03369
G1 X-9.004 Y-29.007 E1.54194
G1 X-8.386 Y-29.007 E0.03369
G1 X-29.007 Y-8.386 E1.58959
G1 X-29.007 Y-7.768 E0.03369
G1 X-7.768 Y-29.007 E1.63723
G1 X-7.150 Y-29.007 E0.03369
G1 X-29.007 Y-7.150 E1.68488
