; generated by Slic3r 1.2.9 on 2016-12-14 at 16:51:20

; external perimeters extrusion width = 0.50mm
; perimeters extrusion width = 0.50mm
; infill extrusion width = 0.50mm
; solid infill extrusion width = 0.50mm
; top infill extrusion width = 0.50mm

M107
;Basic settings: Layer height: {layer_height} Walls: {wall_thickness} Fill: {fill_density}
;Print time: {print_time}
;Filament used: {filament_amount}m {filament_weight}g
;Filament cost: {filament_cost}
;M190 S{print_bed_temperature} ;Uncomment to add your own bed temperature line
;M109 S{print_temperature} ;Uncomment to add your own temperature line
G21        ;metric values
G90        ;absolute positioning
M83
G10 P0 S200
T0
M116


G21 ; set units to millimeters
G90 ; use absolute coordinates
M83 ; use relative distances for extrusion
G1 E-3.20000 F3000.00000
G1 Z0.400 F9000.000
G1 X-0.001 Y-38.938 F9000.000
G1 Z0.300 F9000.000
G1 E3.20000 F3000.00000
G1 X0.787 Y-38.938 E0.07230 F1200.000
G1 X8.132 Y-38.841 E0.67391 F1200.000
G1 X16.820 Y-38.317 E0.79865
G1 X17.490 Y-38.232 E0.06197
G1 X45.143 Y-31.868 E2.60341
G1 X46.099 Y-31.504 E0.09387
G1 X47.630 Y-30.665 E0.16021
G1 X48.905 Y-29.516 E0.15749
G1 X51.244 Y-26.140 E0.37679
G1 X51.905 Y-23.858 E0.21805
G1 X49.624 Y30.939 E5.03201
G1 X49.359 Y32.175 E0.11598
G1 X48.709 Y33.796 E0.16021
G1 X47.720 Y35.199 E0.15749
G1 X44.648 Y37.924 E0.37679
G1 X43.136 Y38.738 E0.15755
G1 X42.178 Y38.865 E0.08864
G1 X11.827 Y38.938 E2.78473
G1 X-11.836 Y38.938 E2.17114
G1 X-42.178 Y38.865 E2.78391
G1 X-43.848 Y38.466 E0.15755
G1 X-44.648 Y37.924 E0.08863
G1 X-47.720 Y35.199 E0.37679
G1 X-48.709 Y33.796 E0.15749
G1 X-49.359 Y32.175 E0.16021
G1 X-49.624 Y30.939 E0.11597
G1 X-51.905 Y-23.858 E5.03201
G1 X-51.244 Y-26.140 E0.21805
G1 X-48.905 Y-29.516 E0.37679
G1 X-47.630 Y-30.665 E0.15749
G1 X-46.099 Y-31.504 E0.16021
G1 X-45.162 Y-31.864 E0.09208
G1 X-18.225 Y-38.223 E2.53934
G1 X-17.551 Y-38.319 E0.06250
G1 X-5.080 Y-38.933 E1.14561
G1 X-0.061 Y-38.938 E0.46053
G1 E-3.20000 F3000.00000
G1 Z0.700 F9000.000
G1 X-23.146 Y31.986 F9000.000
G1 Z0.300 F9000.000
G1 E3.20000 F3000.00000
G1 X-28.338 Y29.456 E0.52998 F900.000
G1 X-33.947 Y25.324 E0.63916
G1 X-41.220 Y33.525 E1.00570
G1 X-41.941 Y33.814 E0.07122
G1 X-44.288 Y31.733 E0.28780
G1 X-44.577 Y31.012 E0.07122
G1 X-36.770 Y22.210 E1.07947
G1 X-40.302 Y16.533 E0.61345
G1 X-42.402 Y11.240 E0.52252
G1 X-43.527 Y5.657 E0.52252
G1 X-43.641 Y-0.037 E0.52252
G1 X-42.741 Y-5.661 E0.52253
G1 X-40.857 Y-11.028 E0.52189
G1 X-37.455 Y-17.020 E0.63222
G1 X-46.467 Y-23.263 E1.00582
G1 X-46.840 Y-23.943 E0.07122
G1 X-45.054 Y-26.522 E0.28780
G1 X-44.373 Y-26.895 E0.07122
G1 X-34.695 Y-20.191 E1.08024
G1 X-29.970 Y-24.054 E0.55995
G1 X-25.545 Y-26.616 E0.46914
G1 X-20.774 Y-28.436 E0.46847
G1 X-15.640 Y-29.498 E0.48110
G1 X-14.357 Y-29.624 E0.11824
G1 X-13.400 Y-29.681 E0.08794
G1 X-12.025 Y-29.720 E0.12621
G1 X12.340 Y-29.720 E2.23556
G1 X14.329 Y-29.630 E0.18266
G1 X15.622 Y-29.493 E0.11923 F900.000
G1 X16.513 Y-29.374 E0.08251
G1 X17.921 Y-29.145 E0.13093
G1 X22.471 Y-27.889 E0.43303
G1 X26.615 Y-26.082 E0.41479
G1 X30.456 Y-23.712 E0.41407
G1 X34.687 Y-20.186 E0.50540
G1 X44.373 Y-26.895 E1.08104
G1 X45.054 Y-26.522 E0.07122
G1 X46.840 Y-23.943 E0.28780
G1 X46.467 Y-23.263 E0.07122
G1 X37.455 Y-17.020 E1.00582
G1 X40.857 Y-11.028 E0.63222
G1 X42.741 Y-5.661 E0.52188
G1 X43.641 Y-0.030 E0.52316
G1 X43.527 Y5.657 E0.52189
G1 X42.402 Y11.240 E0.52252
G1 X40.302 Y16.533 E0.52252
G1 X36.770 Y22.210 E0.61345
G1 X44.577 Y31.012 E1.07947
G1 X44.288 Y31.733 E0.07122
G1 X41.941 Y33.814 E0.28780
G1 X41.220 Y33.525 E0.07122
G1 X33.947 Y25.325 E1.00568
G1 X28.332 Y29.459 E0.63977
G1 X23.146 Y31.986 E0.52935
G1 X17.582 Y33.539 E0.52997
G1 X11.776 Y34.067 E0.53493
G1 X-11.776 Y34.067 E2.16086
G1 X-17.582 Y33.539 E0.53493
G1 X-23.088 Y32.002 E0.52447
G1 X-23.286 Y32.711 F9000.000
G1 X-23.408 Y32.677 E0.01164 F900.000
G1 X-28.721 Y30.088 E0.54225
G1 X-33.843 Y26.315 E0.58366
G1 X-40.785 Y34.143 E0.96000
G1 X-42.089 Y34.666 E0.12886
G1 X-44.906 Y32.168 E0.34545
G1 X-45.429 Y30.864 E0.12886
G1 X-37.685 Y22.133 E1.07082
G1 X-40.961 Y16.866 E0.56914
G1 X-43.110 Y11.450 E0.53462
G1 X-44.261 Y5.737 E0.53463
G1 X-44.378 Y-0.088 E0.53463
G1 X-43.457 Y-5.842 E0.53463
G1 X-41.529 Y-11.334 E0.53399
G1 X-38.427 Y-16.799 E0.57656
G1 X-47.029 Y-22.757 E0.96005
G1 X-47.703 Y-23.989 E0.12886
G1 X-45.560 Y-27.084 E0.34545
G1 X-44.328 Y-27.759 E0.12886
G1 X-34.731 Y-21.111 E1.07111
G1 X-30.390 Y-24.661 E0.51454
G1 X-25.862 Y-27.282 E0.48000
G1 X-20.981 Y-29.144 E0.47932
G1 X-15.750 Y-30.226 E0.49011
G1 X-14.415 Y-30.357 E0.12313
G1 X-13.432 Y-30.416 E0.09028
G1 X-12.036 Y-30.455 E0.12821
G1 X12.065 Y-30.455 E2.21126
G1 X12.073 Y-30.468 E0.00138
G1 X14.536 Y-30.357 E0.22623
G1 X16.621 Y-30.102 E0.19272 F900.000
G1 X17.776 Y-29.914 E0.10734
G1 X17.801 Y-29.941 E0.00340
G1 X22.717 Y-28.584 E0.46796
G1 X26.957 Y-26.735 E0.42438
G1 X30.886 Y-24.310 E0.42366
G1 X34.729 Y-21.109 E0.45885
G1 X44.328 Y-27.759 E1.07142
G1 X45.560 Y-27.084 E0.12886
G1 X47.703 Y-23.989 E0.34545
G1 X47.029 Y-22.757 E0.12886
G1 X38.427 Y-16.799 E0.96005
G1 X41.529 Y-11.334 E0.57656
G1 X43.457 Y-5.842 E0.53398
G1 X44.378 Y-0.081 E0.53526
G1 X44.261 Y5.737 E0.53399
G1 X43.110 Y11.450 E0.53463
G1 X40.961 Y16.866 E0.53462
G1 X37.685 Y22.133 E0.56914
G1 X45.429 Y30.864 E1.07082
G1 X44.906 Y32.168 E0.12886
G1 X42.089 Y34.666 E0.34545
G1 X40.785 Y34.143 E0.12887
G1 X33.843 Y26.315 E0.95999
G1 X28.715 Y30.091 E0.58428
G1 X23.408 Y32.677 E0.54162
G1 X17.715 Y34.265 E0.54225
G1 X11.809 Y34.802 E0.54413
G1 X-11.809 Y34.802 E2.16699
G1 X-17.715 Y34.265 E0.54413
G1 X-23.228 Y32.727 E0.52510
G1 X-23.317 Y32.588 F9000.000
G1 X14.443 Y-30.761 F9000.000
G1 X14.335 Y-31.131 E0.03529 F900.000
G1 X14.264 Y-31.516 E0.03594
G1 X14.244 Y-32.266 E0.06882
G1 X14.283 Y-32.575 E0.02863
G1 X14.358 Y-32.880 E0.02875
G1 X14.477 Y-33.183 E0.02991
G1 X14.574 Y-33.366 E0.01901
G1 X14.752 Y-33.621 E0.02855
G1 X14.967 Y-33.837 E0.02790
G1 X15.214 Y-34.030 E0.02881
G1 X15.516 Y-34.189 E0.03129
G1 X15.719 Y-34.259 E0.01969
G1 X16.029 Y-34.328 E0.02916
G1 X16.361 Y-34.357 E0.03058
G1 X16.756 Y-34.320 E0.03636
G1 X17.187 Y-34.200 E0.04105
G1 X17.472 Y-34.055 E0.02937
G1 X17.855 Y-33.754 E0.04467
G1 X18.120 Y-33.412 E0.03971
G1 X18.230 Y-33.211 E0.02105
G1 X18.345 Y-32.930 E0.02781
G1 X18.425 Y-32.635 E0.02813
G1 X18.474 Y-32.294 E0.03157
G1 X18.488 Y-31.969 E0.02989
G1 X18.464 Y-31.558 E0.03770
G1 X18.344 Y-31.003 E0.05215
G1 X18.234 Y-30.723 E0.02757
G1 X17.996 Y-30.302 E0.04440
G1 X12.219 Y-30.862 F9000.000
G1 X12.374 Y-31.359 E0.04776 F900.000
G1 X12.438 Y-31.703 E0.03211
G1 X12.472 Y-32.222 E0.04770
G1 X12.454 Y-32.580 E0.03294
G1 X12.400 Y-32.976 E0.03664
G1 X12.275 Y-33.404 E0.04092
G1 X12.106 Y-33.757 E0.03587
G1 X11.852 Y-34.081 E0.03773
G1 X11.680 Y-34.225 E0.02064
G1 X11.428 Y-34.359 E0.02620
G1 X11.202 Y-34.445 E0.02212
G1 X10.867 Y-34.511 E0.03141
G1 X10.340 Y-34.543 E0.04836
G1 X9.166 Y-34.543 E0.10775
G1 X8.905 Y-34.477 E0.02472
G1 X8.874 Y-34.287 E0.01765
G1 X8.874 Y-30.855 E0.31484
G1 E-3.20000 F3000.00000
G1 Z0.700 F9000.000
G1 X7.084 Y-33.097 F9000.000
G1 Z0.300 F9000.000
G1 E3.20000 F3000.00000
G1 X6.629 Y-33.271 E0.04475 F900.000
G1 X6.453 Y-33.305 E0.01643
G1 X4.546 Y-33.305 E0.17492
G1 X4.263 Y-33.235 E0.02675
G1 X4.297 Y-32.981 E0.02346
G1 X5.085 Y-30.855 E0.20803
G1 X5.898 Y-30.855 F9000.000
G1 X6.723 Y-32.974 E0.20864 F900.000
G1 X6.764 Y-33.220 E0.02281
G1 X6.903 Y-33.430 E0.02316
G1 X7.568 Y-35.112 E0.16593
G1 E-3.20000 F3000.00000
G1 Z0.700 F9000.000
G1 X4.793 Y-32.413 F9000.000
G1 Z0.300 F9000.000
G1 E3.20000 F3000.00000
G1 X4.130 Y-33.441 E0.11222 F900.000
G1 X3.505 Y-35.112 E0.16369
G1 X2.506 Y-33.478 F9000.000
G1 X2.312 Y-33.957 E0.04741 F900.000
G1 X2.109 Y-34.290 E0.03578
G1 X1.922 Y-34.490 E0.02509
G1 X1.799 Y-34.592 E0.01464
G1 X1.624 Y-34.710 E0.01938
G1 X1.364 Y-34.835 E0.02648
G1 X1.068 Y-34.921 E0.02826
G1 X0.736 Y-34.953 E0.03062
G1 X0.326 Y-34.932 E0.03762
G1 X0.007 Y-34.865 E0.02990
G1 X-0.266 Y-34.759 E0.02687
G1 X-0.430 Y-34.674 E0.01694
G1 X-0.639 Y-34.523 E0.02372
G1 X-0.925 Y-34.219 E0.03824
G1 X-1.158 Y-33.786 E0.04516
G1 X-1.295 Y-33.360 E0.04104
G1 X-1.378 Y-32.844 E0.04793
G1 X-1.393 Y-32.523 E0.02954
G1 X-1.377 Y-32.207 E0.02900
G1 X-1.319 Y-31.817 E0.03623
G1 X-1.188 Y-31.389 E0.04105
G1 X-0.924 Y-30.855 E0.05461
G1 E-3.20000 F3000.00000
G1 Z0.700 F9000.000
G1 X-3.286 Y-30.855 F9000.000
G1 Z0.300 F9000.000
G1 E3.20000 F3000.00000
G1 X-3.019 Y-31.323 E0.04937 F900.000
G1 X-2.911 Y-31.603 E0.02757
G1 X-2.833 Y-31.905 E0.02860
G1 X-2.791 Y-32.159 E0.02360
G1 X-2.767 Y-32.569 E0.03770
G1 X-2.783 Y-32.912 E0.03155
G1 X-2.840 Y-33.280 E0.03412
G1 X-2.960 Y-33.666 E0.03711
G1 X-3.160 Y-34.054 E0.04009
G1 X-3.361 Y-34.313 E0.03003
G1 X-3.744 Y-34.632 E0.04578
G1 X-4.068 Y-34.801 E0.03352
G1 X-4.369 Y-34.893 E0.02887
G1 X-4.894 Y-34.958 E0.04853
G1 X-5.275 Y-34.921 E0.03508
G1 X-5.536 Y-34.859 E0.02467
G1 X-5.739 Y-34.789 E0.01969
G1 X-6.053 Y-34.623 E0.03262
G1 X-6.288 Y-34.437 E0.02749
G1 X-6.519 Y-34.200 E0.03034
G1 X-6.728 Y-33.885 E0.03469
G1 X-6.885 Y-33.514 E0.03701
G1 X-6.972 Y-33.176 E0.03203
G1 X-7.012 Y-32.859 E0.02925
G1 X-7.022 Y-32.630 E0.02104
G1 X-6.991 Y-32.116 E0.04726
G1 X-6.908 Y-31.685 E0.04023
G1 X-6.791 Y-31.352 E0.03243
G1 X-6.525 Y-30.855 E0.05167
G1 E-3.20000 F3000.00000
G1 Z0.700 F9000.000
G1 X-8.602 Y-30.855 F9000.000
G1 Z0.300 F9000.000
G1 E3.20000 F3000.00000
G1 X-9.697 Y-33.728 E0.28211 F900.000
G1 X-9.905 Y-34.315 E0.05708
G1 X-10.079 Y-34.546 E0.02658
G1 X-10.261 Y-34.548 E0.01662
G1 X-10.308 Y-34.546 E0.00433
G1 X-10.477 Y-34.318 E0.02609
G1 X-11.754 Y-30.855 E0.33856
G1 E-3.20000 F3000.00000
G1 Z0.700 F9000.000
G1 X-13.478 Y-32.573 F9000.000
G1 Z0.300 F9000.000
G1 E3.20000 F3000.00000
G1 X-13.933 Y-32.747 E0.04475 F900.000
G1 X-14.109 Y-32.780 E0.01643
G1 X-16.016 Y-32.780 E0.17492
G1 X-16.299 Y-32.709 E0.02679
G1 X-16.265 Y-32.458 E0.02325
G1 X-15.583 Y-30.645 E0.17775
G1 X-14.505 Y-30.751 F9000.000
G1 X-13.840 Y-32.449 E0.16734 F900.000
G1 X-13.798 Y-32.695 E0.02292
G1 X-13.659 Y-32.906 E0.02316
G1 X-12.994 Y-34.587 E0.16593
G1 E-3.20000 F3000.00000
G1 Z0.700 F9000.000
G1 X-15.780 Y-31.911 F9000.000
G1 Z0.300 F9000.000
G1 E3.20000 F3000.00000
G1 X-16.435 Y-32.918 E0.11020 F900.000
G1 X-17.057 Y-34.587 E0.16347
G1 E-3.20000 F3000.00000
G1 Z0.700 F9000.000
G1 X-17.395 Y-28.705 F9000.000
G1 Z0.300 F9000.000
G1 E3.20000 F3000.00000
G1 X43.355 Y32.045 E7.89069 F900.000
G1 X43.894 Y31.543 E0.06767
G1 X-16.533 Y-28.884 E7.84864
G1 X-15.666 Y-29.059 E0.08117
G1 X38.928 Y25.536 E7.09111
G1 X36.209 Y26.982 F9000.000
G1 X42.251 Y33.024 E0.78483 F900.000
G1 X42.803 Y32.535 E0.06775
G1 X-18.258 Y-28.527 E7.93107
G1 X-19.121 Y-28.348 E0.08093
G1 X34.018 Y24.792 E6.90214
G1 X36.438 Y22.005 F9000.000
G1 X-14.718 Y-29.152 E6.64454 F900.000
G1 X-13.744 Y-29.219 E0.08965
G1 X36.838 Y21.363 E6.56994
G1 X37.237 Y20.721 E0.06944
G1 X-12.738 Y-29.255 E6.49112
G1 X-11.713 Y-29.271 E0.09419
G1 X37.636 Y20.079 E6.40981
G1 X38.036 Y19.437 E0.06944
G1 X-10.671 Y-29.271 E6.32643
G1 X-9.630 Y-29.271 E0.09564
G1 X38.435 Y18.795 E6.24304
G1 X38.835 Y18.153 E0.06944
G1 X-8.589 Y-29.271 E6.15965
G1 X-7.547 Y-29.271 E0.09564
G1 X39.234 Y17.511 E6.07627
G1 X39.633 Y16.869 E0.06944
G1 X-6.506 Y-29.271 E5.99288
G1 X-5.464 Y-29.271 E0.09564
G1 X40.002 Y16.196 E5.90554
G1 X40.298 Y15.451 E0.07367
G1 X-4.423 Y-29.271 E5.80870
G1 X-3.382 Y-29.271 E0.09564
G1 X40.594 Y14.705 E5.71186
G1 X40.890 Y13.959 E0.07367
G1 X-2.340 Y-29.271 E5.61502
G1 X-1.299 Y-29.271 E0.09564
G1 X41.186 Y13.214 E5.51818
G1 X41.481 Y12.468 E0.07367
G1 X-0.257 Y-29.271 E5.42134
G1 X0.784 Y-29.271 E0.09564
G1 X41.777 Y11.723 E5.32450
G1 X42.033 Y10.937 E0.07587
G1 X1.825 Y-29.271 E5.22247
G1 X2.867 Y-29.271 E0.09564
G1 X42.208 Y10.071 E5.10990
G1 X42.382 Y9.204 E0.08120
G1 X3.908 Y-29.271 E4.99732
G1 X4.949 Y-29.271 E0.09564
G1 X42.557 Y8.337 E4.88475
G1 X42.732 Y7.470 E0.08120
G1 X5.991 Y-29.271 E4.77217
G1 X7.032 Y-29.271 E0.09564
G1 X42.906 Y6.604 E4.65960
G1 X43.079 Y5.735 E0.08132
G1 X8.074 Y-29.271 E4.54680
G1 X9.115 Y-29.271 E0.09564
G1 X43.100 Y4.714 E4.41420
G1 X43.120 Y3.693 E0.09378
G1 X10.156 Y-29.271 E4.28160
G1 X11.198 Y-29.271 E0.09564
G1 X43.141 Y2.673 E4.14900
G1 X43.161 Y1.652 E0.09378
G1 X12.242 Y-29.267 E4.01598
G1 X13.333 Y-29.218 E0.10029
G1 X43.182 Y0.631 E3.87695
G1 X43.083 Y-0.510 E0.10514
G1 X14.444 Y-29.149 E3.71982
G1 X15.615 Y-29.019 E0.10823
G1 X42.884 Y-1.749 E3.54193
G1 X42.686 Y-2.989 E0.11530
G1 X16.837 Y-28.839 E3.35752
G1 X18.150 Y-28.566 E0.12319
G1 X42.488 Y-4.229 E3.16117
G1 X42.256 Y-5.502 E0.11883
G1 X19.588 Y-28.170 E2.94427
G1 X21.027 Y-27.773 E0.13704
G1 X41.693 Y-7.106 E2.68429
G1 X41.130 Y-8.711 F9000.000
G1 X22.565 Y-27.276 E2.41131 F900.000
G1 X24.412 Y-26.470 F9000.000
G1 X40.567 Y-10.316 E2.09831 F900.000
G1 X39.352 Y-12.572 F9000.000
G1 X26.296 Y-25.627 E1.69578 F900.000
G1 X29.016 Y-23.949 F9000.000
G1 X37.985 Y-14.980 E1.16493 F900.000
G1 X34.057 Y-19.949 F9000.000
G1 X36.899 Y-17.107 E0.36915 F900.000
G1 X37.514 Y-17.533 E0.06874
G1 X35.069 Y-19.978 E0.31755
G1 X35.685 Y-20.404 E0.06874
G1 X38.130 Y-17.960 E0.31755
G1 X38.745 Y-18.386 E0.06874
G1 X36.300 Y-20.831 E0.31755
G1 X36.915 Y-21.257 E0.06874
G1 X39.360 Y-18.812 E0.31755
G1 X39.975 Y-19.238 E0.06874
G1 X37.530 Y-21.683 E0.31755
G1 X38.146 Y-22.109 E0.06874
G1 X40.590 Y-19.664 E0.31755
G1 X41.206 Y-20.090 E0.06874
G1 X38.761 Y-22.535 E0.31755
G1 X39.376 Y-22.961 E0.06874
G1 X41.821 Y-20.517 E0.31755
G1 X42.436 Y-20.943 E0.06874
G1 X39.991 Y-23.388 E0.31755
G1 X40.606 Y-23.814 E0.06874
G1 X43.051 Y-21.369 E0.31755
G1 X43.666 Y-21.795 E0.06874
G1 X41.222 Y-24.240 E0.31755
G1 X41.837 Y-24.666 E0.06874
G1 X44.282 Y-22.221 E0.31755
G1 X44.897 Y-22.647 E0.06874
G1 X42.452 Y-25.092 E0.31755
G1 X43.067 Y-25.518 E0.06874
G1 X45.512 Y-23.074 E0.31755
G1 X46.127 Y-23.500 E0.06874
G1 X43.682 Y-25.945 E0.31755
G1 X44.417 Y-26.251 E0.07313
G1 X44.859 Y-25.809 E0.05738
G1 E-3.20000 F3000.00000
G1 Z0.700 F9000.000
G1 X-19.984 Y-28.169 F9000.000
G1 Z0.300 F9000.000
G1 E3.20000 F3000.00000
G1 X33.419 Y25.233 E6.93631 F900.000
G1 X32.819 Y25.675 E0.06841
G1 X-20.836 Y-27.980 E6.96905
G1 X-21.590 Y-27.692 E0.07410
G1 X32.219 Y26.116 E6.98906
G1 X31.619 Y26.558 E0.06841
G1 X-22.344 Y-27.405 E7.00907
G1 X-23.097 Y-27.117 E0.07410
G1 X31.019 Y27.000 E7.02908
G1 X30.420 Y27.441 E0.06841
G1 X-23.851 Y-26.830 E7.04908
G1 X-24.605 Y-26.542 E0.07410
G1 X29.820 Y27.883 E7.06909
G1 X29.220 Y28.324 E0.06841
G1 X-25.359 Y-26.255 E7.08910
G1 X-26.028 Y-25.883 E0.07034
G1 X28.620 Y28.766 E7.09817
G1 X27.995 Y29.182 E0.06899
G1 X-26.688 Y-25.501 E7.10260
G1 X-27.347 Y-25.119 E0.06999
G1 X27.295 Y29.523 E7.09732
G1 X26.595 Y29.864 E0.07154
G1 X-28.007 Y-24.737 E7.09204
G1 X-28.667 Y-24.355 E0.06999
G1 X25.894 Y30.206 E7.08676
G1 X25.194 Y30.547 E0.07154
G1 X-29.326 Y-23.973 E7.08148
G1 X-29.959 Y-23.565 E0.06918
G1 X24.494 Y30.888 E7.07270
G1 X23.794 Y31.229 E0.07154
G1 X-30.532 Y-23.096 E7.05618
G1 X-31.105 Y-22.628 E0.06797
G1 X23.094 Y31.570 E7.03965
G1 X22.281 Y31.799 E0.07756
G1 X-31.677 Y-22.159 E7.00847
G1 X-32.250 Y-21.691 E0.06797
G1 X21.467 Y32.026 E6.97714
G1 X20.652 Y32.253 E0.07764
G1 X-32.823 Y-21.222 E6.94580
G1 X-33.396 Y-20.754 E0.06797
G1 X19.838 Y32.480 E6.91446
G1 X19.024 Y32.708 E0.07764
G1 X-33.969 Y-20.286 E6.88312
G1 X-34.542 Y-19.817 E0.06797
G1 X18.210 Y32.935 E6.85178
G1 X17.355 Y33.122 E0.08033
G1 X-36.563 Y-20.797 E7.00328
G1 X-38.058 Y-18.126 F9000.000
G1 X-45.348 Y-25.416 E0.94682 F900.000
G1 X-45.774 Y-24.801 E0.06874
G1 X-41.447 Y-20.474 E0.56198
G1 X-39.952 Y-23.144 F9000.000
G1 X16.401 Y33.209 E7.31948 F900.000
G1 X15.446 Y33.295 E0.08803
G1 X-43.341 Y-25.492 E7.63568
G1 X-44.922 Y-26.031 F9000.000
G1 X14.492 Y33.382 E7.71701 F900.000
G1 X13.537 Y33.469 E0.08803
G1 X-36.985 Y-17.053 E6.56219
G1 X-37.362 Y-16.389 E0.07016
G1 X12.582 Y33.556 E6.48718
G1 X11.603 Y33.617 E0.09016
G1 X-37.739 Y-15.725 E6.40890
G1 X-38.116 Y-15.060 E0.07016
