; generated by Slic3r 1.2.9 on 2016-10-25 at 10:34:52

; external perimeters extrusion width = 0.50mm
; perimeters extrusion width = 0.50mm
; infill extrusion width = 0.50mm
; solid infill extrusion width = 0.50mm
; top infill extrusion width = 0.50mm

M107
;Basic settings: Layer height: {layer_height} Walls: {wall_thickness} Fill: {fill_density}
;Print time: {print_time}
;Filament used: {filament_amount}m {filament_weight}g
;Filament cost: {filament_cost}
;M190 S{print_bed_temperature} ;Uncomment to add your own bed temperature line
;M109 S{print_temperature} ;Uncomment to add your own temperature line
G21        ;metric values
G90        ;absolute positioning
M83
G10 P0 S200
T0
M116


G21 ; set units to millimeters
G90 ; use absolute coordinates
M83 ; use relative distances for extrusion
G1 E-3.20000 F3000.00000
G1 Z0.400 F9000.000
G1 X-8.638 Y-8.744 F9000.000
G1 Z0.300 F9000.000
G1 E3.20000 F3000.00000
G1 X3.411 Y-20.648 E1.55402 F1200.000
G1 X3.707 Y-20.911 E0.03635
G1 X4.189 Y-21.295 E0.05658
G1 X4.897 Y-21.740 E0.07675
G1 X7.793 Y-23.134 E0.29483
G1 X8.582 Y-23.411 E0.07675
G1 X9.183 Y-23.548 E0.05658
G1 X10.015 Y-23.642 E0.07675
G1 X13.228 Y-23.642 E0.29483
G1 X14.059 Y-23.548 E0.07675 F1200.000
G1 X14.660 Y-23.411 E0.05658
G1 X15.450 Y-23.134 E0.07675
G1 X18.345 Y-21.740 E0.29483
G1 X19.054 Y-21.295 E0.07675
G1 X19.536 Y-20.911 E0.05658
G1 X20.127 Y-20.319 E0.07675
G1 X22.131 Y-17.807 E0.29483
G1 X22.576 Y-17.099 E0.07675
G1 X22.843 Y-16.543 E0.05658
G1 X23.120 Y-15.753 E0.07675
G1 X23.835 Y-12.621 E0.29483
G1 X23.928 Y-11.789 E0.07675
G1 X23.928 Y11.789 E2.16336
G1 X23.835 Y12.621 E0.07675
G1 X23.120 Y15.753 E0.29483
G1 X22.843 Y16.543 E0.07675
G1 X22.576 Y17.099 E0.05658
G1 X22.131 Y17.807 E0.07675
G1 X20.127 Y20.319 E0.29483
G1 X19.536 Y20.911 E0.07675
G1 X19.053 Y21.295 E0.05658
G1 X18.345 Y21.740 E0.07675
G1 X15.450 Y23.134 E0.29483
G1 X14.661 Y23.411 E0.07675
G1 X14.059 Y23.548 E0.05658
G1 X13.228 Y23.642 E0.07675
G1 X-13.228 Y23.642 E2.42735
G1 X-14.059 Y23.548 E0.07675
G1 X-14.661 Y23.411 E0.05658
G1 X-15.450 Y23.134 E0.07675
G1 X-18.345 Y21.740 E0.29483
G1 X-19.054 Y21.295 E0.07675
G1 X-19.536 Y20.911 E0.05658
G1 X-20.127 Y20.319 E0.07675
G1 X-22.131 Y17.807 E0.29483
G1 X-22.576 Y17.099 E0.07675
G1 X-22.843 Y16.543 E0.05658
G1 X-23.120 Y15.753 E0.07675
G1 X-23.835 Y12.621 E0.29483
G1 X-23.928 Y11.789 E0.07675
G1 X-23.928 Y11.173 E0.05658
G1 X-23.835 Y10.341 E0.07675
G1 X-23.120 Y7.209 E0.29483
G1 X-22.843 Y6.419 E0.07675
G1 X-22.576 Y5.863 E0.05658
G1 X-22.131 Y5.155 E0.07675
G1 X-20.127 Y2.643 E0.29483
G1 X-19.832 Y2.314 E0.04051
G1 X-8.681 Y-8.702 E1.43817
G1 E-3.20000 F3000.00000
G1 Z0.700 F9000.000
G1 X8.762 Y8.025 F9000.000
G1 Z0.300 F9000.000
G1 E3.20000 F3000.00000
G1 X9.718 Y7.419 E0.10381 F900.000
G1 X10.832 Y7.072 E0.10706
G1 X11.903 Y7.005 E0.09846 F900.000
G1 X13.007 Y7.215 E0.10315
G1 X14.025 Y7.694 E0.10315
G1 X14.891 Y8.411 E0.10315
G1 X15.552 Y9.320 E0.10315
G1 X15.965 Y10.366 E0.10315
G1 X16.107 Y11.488 E0.10381
G1 X15.947 Y12.644 E0.10706
G1 X15.552 Y13.642 E0.09846
G1 X14.891 Y14.551 E0.10315
G1 X14.025 Y15.268 E0.10315
G1 X13.007 Y15.747 E0.10315
G1 X11.896 Y15.959 E0.10381
G1 X10.732 Y15.871 E0.10706
G1 X9.712 Y15.539 E0.09847
G1 X8.762 Y14.937 E0.10315
G1 X7.993 Y14.117 E0.10315
G1 X7.451 Y13.132 E0.10315
G1 X7.172 Y12.043 E0.10315
G1 X7.172 Y10.919 E0.10315
G1 X7.439 Y9.879 E0.09846
G1 X7.988 Y8.850 E0.10706
G1 X8.721 Y8.069 E0.09830
G1 X9.235 Y8.597 F9000.000
G1 X10.030 Y8.092 E0.08633 F900.000
G1 X10.966 Y7.801 E0.09001
G1 X11.856 Y7.745 E0.08184 F900.000
G1 X12.778 Y7.921 E0.08610
G1 X13.627 Y8.320 E0.08610
G1 X14.350 Y8.918 E0.08610
G1 X14.902 Y9.678 E0.08610
G1 X15.247 Y10.550 E0.08610
G1 X15.365 Y11.484 E0.08633
G1 X15.230 Y12.455 E0.09001
G1 X14.902 Y13.284 E0.08184
G1 X14.350 Y14.044 E0.08610
G1 X13.627 Y14.642 E0.08610
G1 X12.778 Y15.041 E0.08610
G1 X11.854 Y15.218 E0.08633
G1 X10.876 Y15.144 E0.09001
G1 X10.027 Y14.868 E0.08184
G1 X9.235 Y14.365 E0.08610
G1 X8.593 Y13.681 E0.08610
G1 X8.141 Y12.859 E0.08610
G1 X7.907 Y11.950 E0.08610
G1 X7.907 Y11.012 E0.08610
G1 X8.129 Y10.148 E0.08184
G1 X8.591 Y9.282 E0.09001
G1 X9.194 Y8.640 E0.08082
G1 X9.185 Y8.200 F9000.000
G1 E-3.20000 F3000.00000
G1 Z0.700 F9000.000
G1 X14.899 Y15.714 F9000.000
G1 Z0.300 F9000.000
G1 E3.20000 F3000.00000
G1 X12.816 Y16.717 E0.21204 F900.000
G1 X10.426 Y16.717 E0.21930
G1 X8.273 Y15.680 E0.21930
G1 X6.782 Y13.811 E0.21930
G1 X6.251 Y11.481 E0.21930
G1 X6.782 Y9.151 E0.21930
G1 X8.273 Y7.282 E0.21930
G1 X10.426 Y6.245 E0.21930
G1 X12.816 Y6.245 E0.21930
G1 X14.970 Y7.282 E0.21930
G1 X16.460 Y9.151 E0.21930 F900.000
G1 X16.992 Y11.481 E0.21930
G1 X16.460 Y13.811 E0.21930
G1 X14.953 Y15.688 E0.22089
G1 X15.145 Y16.412 F9000.000
G1 X13.280 Y17.310 E0.18992 F900.000
G1 X13.620 Y18.237 E0.09052
G1 X13.657 Y18.578 E0.03154
G1 X13.464 Y19.554 E0.09125
G1 X12.867 Y18.759 E0.09126
G1 X12.752 Y18.435 E0.03154
G1 X12.656 Y17.453 E0.09052
G1 X10.586 Y17.453 E0.18992
G1 X10.490 Y18.435 E0.09052
G1 X10.376 Y18.759 E0.03154
G1 X9.779 Y19.554 E0.09125
G1 X9.586 Y18.578 E0.09125
G1 X9.623 Y18.237 E0.03154
G1 X9.963 Y17.310 E0.09052
G1 X8.098 Y16.412 E0.18992
G1 X7.585 Y17.255 E0.09052
G1 X7.342 Y17.498 E0.03154
G1 X6.458 Y17.955 E0.09126
G1 X6.708 Y16.992 E0.09126
G1 X6.890 Y16.701 E0.03154
G1 X7.598 Y16.013 E0.09052
G1 X6.307 Y14.395 E0.18992
G1 X5.480 Y14.932 E0.09052
G1 X5.155 Y15.045 E0.03154
G1 X4.161 Y15.074 E0.09126
G1 X4.803 Y14.315 E0.09125
G1 X5.094 Y14.131 E0.03154
G1 X6.030 Y13.819 E0.09052
G1 X5.569 Y11.801 E0.18992
G1 X4.590 Y11.926 E0.09052
G1 X4.249 Y11.886 E0.03154
G1 X3.341 Y11.481 E0.09126
G1 X4.249 Y11.076 E0.09125
G1 X4.590 Y11.036 E0.03154
G1 X5.569 Y11.161 E0.09052
G1 X6.030 Y9.143 E0.18992
G1 X5.094 Y8.831 E0.09052
G1 X4.803 Y8.647 E0.03154
G1 X4.161 Y7.888 E0.09125
G1 X5.155 Y7.917 E0.09126
G1 X5.480 Y8.030 E0.03154
G1 X6.307 Y8.567 E0.09052
G1 X7.598 Y6.949 E0.18992
G1 X6.890 Y6.261 E0.09052
G1 X6.708 Y5.970 E0.03154
G1 X6.458 Y5.007 E0.09126
G1 X7.342 Y5.464 E0.09126
G1 X7.585 Y5.707 E0.03154
G1 X8.098 Y6.550 E0.09052
G1 X9.963 Y5.652 E0.18992
G1 X9.623 Y4.725 E0.09052
G1 X9.586 Y4.384 E0.03154
G1 X9.779 Y3.408 E0.09126
G1 X10.359 Y4.181 E0.08871
G1 X10.491 Y4.531 E0.03434
G1 X10.586 Y5.509 E0.09015
G1 X12.656 Y5.509 E0.18992
G1 X12.752 Y4.527 E0.09052
G1 X12.867 Y4.203 E0.03154
G1 X13.464 Y3.408 E0.09126
G1 X13.657 Y4.384 E0.09126
G1 X13.620 Y4.725 E0.03154 F900.000
G1 X13.280 Y5.652 E0.09052
G1 X15.145 Y6.550 E0.18992
G1 X15.657 Y5.707 E0.09052
G1 X15.901 Y5.464 E0.03154
G1 X16.784 Y5.007 E0.09126
G1 X16.535 Y5.970 E0.09126
G1 X16.353 Y6.261 E0.03154
G1 X15.645 Y6.949 E0.09052
G1 X16.935 Y8.567 E0.18992
G1 X17.763 Y8.030 E0.09052
G1 X18.088 Y7.917 E0.03154
G1 X19.082 Y7.888 E0.09126
G1 X18.439 Y8.647 E0.09125
G1 X18.149 Y8.831 E0.03154
G1 X17.213 Y9.143 E0.09052
G1 X17.674 Y11.161 E0.18992
G1 X18.652 Y11.036 E0.09052
G1 X18.994 Y11.076 E0.03154
G1 X19.902 Y11.481 E0.09126
G1 X18.994 Y11.886 E0.09126
G1 X18.652 Y11.926 E0.03154
G1 X17.674 Y11.801 E0.09052
G1 X17.213 Y13.819 E0.18992
G1 X18.149 Y14.131 E0.09052
G1 X18.439 Y14.315 E0.03154
G1 X19.082 Y15.074 E0.09125
G1 X18.088 Y15.045 E0.09125
G1 X17.763 Y14.932 E0.03154
G1 X16.935 Y14.395 E0.09052
G1 X15.645 Y16.013 E0.18992
G1 X16.353 Y16.701 E0.09052
G1 X16.535 Y16.992 E0.03154
G1 X16.784 Y17.955 E0.09126
G1 X15.901 Y17.498 E0.09126
G1 X15.657 Y17.255 E0.03154
G1 X15.176 Y16.464 E0.08501
G1 X14.960 Y16.058 F9000.000
G1 X14.224 Y15.608 F9000.000
G1 X14.679 Y15.316 E0.04962 F600.000
G1 X15.121 Y14.866 E0.05783
G1 X15.424 Y14.484 F9000.000
G1 X15.910 Y13.845 E0.07367 F600.000
G1 X16.046 Y13.612 E0.02474
G1 X16.273 Y12.879 E0.07035
G1 X16.365 Y12.471 F9000.000
G1 X16.545 Y11.481 E0.09237 F600.000
G1 X16.387 Y10.585 E0.08344
G1 X16.273 Y10.083 F9000.000
G1 X16.046 Y9.350 E0.07035 F600.000
G1 X15.910 Y9.117 E0.02474
G1 X15.424 Y8.478 E0.07368
G1 X15.121 Y8.096 F9000.000
G1 X14.679 Y7.646 E0.05783 F600.000
G1 X14.224 Y7.354 E0.04962
G1 X14.002 Y7.251 F9000.000
G1 X13.134 Y6.837 E0.08825 F600.000
G1 X12.713 Y6.698 E0.04067
G1 X12.041 Y6.634 E0.06197
G1 X11.537 Y6.636 F9000.000
G1 X10.762 Y6.660 E0.07117 F600.000
G1 X10.529 Y6.695 E0.02159
G1 X9.768 Y6.995 E0.07503
G1 X9.307 Y7.217 F9000.000
G1 X8.555 Y7.635 E0.07897 F600.000
G1 X7.919 Y8.352 E0.08792
G1 X7.598 Y8.753 F9000.000
G1 X7.203 Y9.353 E0.06595 F600.000
G1 X7.061 Y9.737 E0.03754
G1 X6.885 Y10.463 E0.06854
G1 X6.783 Y10.899 F9000.000
G1 X6.717 Y11.481 E0.05371 F600.000
G1 X6.783 Y12.063 E0.05371
G1 X6.885 Y12.499 F9000.000
G1 X7.073 Y13.277 E0.07344 F600.000
G1 X7.199 Y13.610 E0.03271
G1 X7.599 Y14.210 E0.06614
G1 X7.919 Y14.609 F9000.000
G1 X8.555 Y15.327 E0.08792 F600.000
G1 X9.307 Y15.745 E0.07897
G1 X9.773 Y15.969 F9000.000
G1 X10.528 Y16.272 E0.07462 F600.000
G1 X10.656 Y16.292 E0.01193
G1 X11.572 Y16.326 E0.08409
G1 X12.041 Y16.328 F9000.000
G1 X12.713 Y16.264 E0.06197 F600.000
G1 X13.134 Y16.125 E0.04067
G1 X14.002 Y15.711 E0.08825
G1 E-3.20000 F3000.00000
G1 Z0.700 F9000.000
G1 X11.896 Y-7.003 F9000.000
G1 Z0.300 F9000.000
G1 E3.20000 F3000.00000
G1 X10.732 Y-7.091 E0.10706 F900.000
G1 X9.712 Y-7.423 E0.09847
G1 X8.762 Y-8.025 E0.10315
G1 X7.993 Y-8.845 E0.10315
G1 X7.451 Y-9.830 E0.10315
G1 X7.172 Y-10.919 E0.10315
G1 X7.172 Y-12.043 E0.10315
G1 X7.439 Y-13.083 E0.09846
G1 X7.988 Y-14.112 E0.10706
G1 X8.762 Y-14.937 E0.10381
G1 X9.718 Y-15.543 E0.10381
G1 X10.832 Y-15.890 E0.10706
G1 X11.903 Y-15.957 E0.09846 F900.000
G1 X13.007 Y-15.747 E0.10315
G1 X14.025 Y-15.268 E0.10315
G1 X14.891 Y-14.551 E0.10315
G1 X15.552 Y-13.642 E0.10315
G1 X15.965 Y-12.596 E0.10315
G1 X16.107 Y-11.474 E0.10381
G1 X15.947 Y-10.318 E0.10706
G1 X15.552 Y-9.320 E0.09846
G1 X14.891 Y-8.411 E0.10315
G1 X14.025 Y-7.694 E0.10315
G1 X13.007 Y-7.215 E0.10315
G1 X11.955 Y-7.015 E0.09830
G1 X11.854 Y-7.744 F9000.000
G1 X10.876 Y-7.818 E0.09001 F900.000
G1 X10.027 Y-8.094 E0.08184
G1 X9.235 Y-8.597 E0.08610
G1 X8.593 Y-9.281 E0.08610
G1 X8.141 Y-10.103 E0.08610
G1 X7.907 Y-11.012 E0.08610
G1 X7.907 Y-11.950 E0.08610
G1 X8.129 Y-12.814 E0.08184
G1 X8.591 Y-13.680 E0.09001
G1 X9.235 Y-14.365 E0.08633
G1 X10.030 Y-14.870 E0.08633
G1 X10.966 Y-15.161 E0.09001
G1 X11.856 Y-15.217 E0.08184 F900.000
G1 X12.778 Y-15.041 E0.08610
G1 X13.627 Y-14.642 E0.08610
G1 X14.350 Y-14.044 E0.08610
G1 X14.902 Y-13.284 E0.08610
G1 X15.247 Y-12.412 E0.08610
G1 X15.365 Y-11.478 E0.08633
G1 X15.230 Y-10.507 E0.09001
G1 X14.902 Y-9.678 E0.08184
G1 X14.350 Y-8.918 E0.08610
G1 X13.627 Y-8.320 E0.08610
G1 X12.778 Y-7.921 E0.08610
G1 X11.913 Y-7.756 E0.08082
G1 X11.658 Y-7.395 F9000.000
G1 E-3.20000 F3000.00000
G1 Z0.700 F9000.000
G1 X11.221 Y-16.717 F9000.000
G1 Z0.300 F9000.000
G1 E3.20000 F3000.00000
G1 X12.816 Y-16.717 E0.14642 F900.000
G1 X14.970 Y-15.680 E0.21930
G1 X16.460 Y-13.811 E0.21930 F900.000
G1 X16.992 Y-11.481 E0.21930
G1 X16.460 Y-9.151 E0.21930
G1 X14.970 Y-7.282 E0.21930
G1 X12.816 Y-6.245 E0.21930
G1 X10.426 Y-6.245 E0.21930
G1 X8.273 Y-7.282 E0.21930
G1 X6.782 Y-9.151 E0.21930
G1 X6.251 Y-11.481 E0.21930
G1 X6.782 Y-13.811 E0.21930
G1 X8.273 Y-15.680 E0.21930
G1 X10.426 Y-16.717 E0.21930
G1 X11.161 Y-16.717 E0.06738
G1 X11.161 Y-17.453 F9000.000
G1 X12.656 Y-17.453 E0.13723 F900.000
G1 X12.752 Y-18.435 E0.09052
G1 X12.867 Y-18.759 E0.03154
G1 X13.464 Y-19.554 E0.09126
G1 X13.657 Y-18.578 E0.09126
G1 X13.620 Y-18.237 E0.03154 F900.000
G1 X13.280 Y-17.310 E0.09052
G1 X15.145 Y-16.412 E0.18992
G1 X15.657 Y-17.255 E0.09052
G1 X15.901 Y-17.498 E0.03154
G1 X16.784 Y-17.955 E0.09126
G1 X16.535 Y-16.992 E0.09126
G1 X16.353 Y-16.701 E0.03154
G1 X15.645 Y-16.013 E0.09052
G1 X16.935 Y-14.395 E0.18992
G1 X17.763 Y-14.932 E0.09052
G1 X18.088 Y-15.045 E0.03154
G1 X19.082 Y-15.074 E0.09126
G1 X18.439 Y-14.315 E0.09125
G1 X18.149 Y-14.131 E0.03154
G1 X17.213 Y-13.819 E0.09052
G1 X17.674 Y-11.801 E0.18992
G1 X18.652 Y-11.926 E0.09052
G1 X18.994 Y-11.886 E0.03154
G1 X19.902 Y-11.481 E0.09126
G1 X18.994 Y-11.076 E0.09126
G1 X18.652 Y-11.036 E0.03154
G1 X17.674 Y-11.161 E0.09052
G1 X17.213 Y-9.143 E0.18992
G1 X18.149 Y-8.831 E0.09052
G1 X18.439 Y-8.647 E0.03154
G1 X19.082 Y-7.888 E0.09125
G1 X18.088 Y-7.917 E0.09125
G1 X17.763 Y-8.030 E0.03154
G1 X16.935 Y-8.567 E0.09052
G1 X15.645 Y-6.949 E0.18992
G1 X16.353 Y-6.261 E0.09052
G1 X16.535 Y-5.970 E0.03154
G1 X16.784 Y-5.007 E0.09126
G1 X15.901 Y-5.464 E0.09126
G1 X15.657 Y-5.707 E0.03154
G1 X15.145 Y-6.550 E0.09052
G1 X13.280 Y-5.652 E0.18992
G1 X13.620 Y-4.725 E0.09052
G1 X13.657 Y-4.384 E0.03154
G1 X13.464 Y-3.408 E0.09125
G1 X12.867 Y-4.203 E0.09126
G1 X12.752 Y-4.527 E0.03154
G1 X12.656 Y-5.509 E0.09052
G1 X10.586 Y-5.509 E0.18992
G1 X10.490 Y-4.527 E0.09052
G1 X10.376 Y-4.203 E0.03154
G1 X9.779 Y-3.408 E0.09125
G1 X9.586 Y-4.384 E0.09125
G1 X9.623 Y-4.725 E0.03154
G1 X9.963 Y-5.652 E0.09052
G1 X8.098 Y-6.550 E0.18992
G1 X7.585 Y-5.707 E0.09052
G1 X7.342 Y-5.464 E0.03154
G1 X6.458 Y-5.007 E0.09126
G1 X6.708 Y-5.970 E0.09126
G1 X6.890 Y-6.261 E0.03154
G1 X7.598 Y-6.949 E0.09052
G1 X6.307 Y-8.567 E0.18992
G1 X5.480 Y-8.030 E0.09052
G1 X5.155 Y-7.917 E0.03154
G1 X4.161 Y-7.888 E0.09126
G1 X4.803 Y-8.647 E0.09125
G1 X5.094 Y-8.831 E0.03154
G1 X6.030 Y-9.143 E0.09052
G1 X5.569 Y-11.161 E0.18992
G1 X4.590 Y-11.036 E0.09052
G1 X4.249 Y-11.076 E0.03154
G1 X3.341 Y-11.481 E0.09126
G1 X4.249 Y-11.886 E0.09125
G1 X4.590 Y-11.926 E0.03154
G1 X5.569 Y-11.801 E0.09052
G1 X6.030 Y-13.819 E0.18992
G1 X5.094 Y-14.131 E0.09052
G1 X4.803 Y-14.315 E0.03154
G1 X4.161 Y-15.074 E0.09125
G1 X5.155 Y-15.045 E0.09126
G1 X5.480 Y-14.932 E0.03154
G1 X6.307 Y-14.395 E0.09052
G1 X7.598 Y-16.013 E0.18992
G1 X6.890 Y-16.701 E0.09052
G1 X6.708 Y-16.992 E0.03154
G1 X6.458 Y-17.955 E0.09126
G1 X7.342 Y-17.498 E0.09126
G1 X7.585 Y-17.255 E0.03154
G1 X8.098 Y-16.412 E0.09052
G1 X9.963 Y-17.310 E0.18992
G1 X9.623 Y-18.237 E0.09052
G1 X9.586 Y-18.578 E0.03154
G1 X9.779 Y-19.554 E0.09126
G1 X10.359 Y-18.781 E0.08871
G1 X10.491 Y-18.431 E0.03434
G1 X10.586 Y-17.453 E0.09015
G1 X11.101 Y-17.453 E0.04718
G1 X11.361 Y-17.106 F9000.000
G1 X11.537 Y-16.326 F9000.000
G1 X10.762 Y-16.302 E0.07117 F600.000
G1 X10.529 Y-16.267 E0.02159
G1 X9.768 Y-15.967 E0.07503
G1 X9.307 Y-15.745 F9000.000
G1 X8.555 Y-15.327 E0.07897 F600.000
G1 X7.919 Y-14.610 E0.08792
G1 X7.598 Y-14.209 F9000.000
G1 X7.203 Y-13.609 E0.06595 F600.000
G1 X7.061 Y-13.225 E0.03754
G1 X6.885 Y-12.499 E0.06854
G1 X6.783 Y-12.063 F9000.000
G1 X6.717 Y-11.481 E0.05371 F600.000
G1 X6.783 Y-10.899 E0.05371
G1 X6.885 Y-10.463 F9000.000
G1 X7.073 Y-9.685 E0.07344 F600.000
G1 X7.199 Y-9.352 E0.03271
G1 X7.599 Y-8.752 E0.06614
G1 X7.919 Y-8.353 F9000.000
G1 X8.555 Y-7.635 E0.08792 F600.000
G1 X9.307 Y-7.217 E0.07897
G1 X9.773 Y-6.993 F9000.000
G1 X10.528 Y-6.690 E0.07462 F600.000
G1 X10.656 Y-6.670 E0.01193
G1 X11.572 Y-6.636 E0.08409
G1 X12.041 Y-6.634 F9000.000
G1 X12.713 Y-6.698 E0.06197 F600.000
G1 X13.134 Y-6.837 E0.04067
G1 X14.002 Y-7.251 E0.08825
G1 X14.224 Y-7.354 F9000.000
G1 X14.679 Y-7.646 E0.04962 F600.000
G1 X15.121 Y-8.096 E0.05783
G1 X15.424 Y-8.478 F9000.000
G1 X15.910 Y-9.117 E0.07367 F600.000
G1 X16.046 Y-9.350 E0.02474
G1 X16.273 Y-10.083 E0.07035
G1 X16.365 Y-10.491 F9000.000
G1 X16.545 Y-11.481 E0.09237 F600.000
G1 X16.387 Y-12.377 E0.08344
G1 X16.273 Y-12.879 F9000.000
G1 X16.046 Y-13.612 E0.07035 F600.000
G1 X15.910 Y-13.845 E0.02474
G1 X15.424 Y-14.484 E0.07368
G1 X15.121 Y-14.866 F9000.000
G1 X14.679 Y-15.316 E0.05783 F600.000
G1 X14.224 Y-15.608 E0.04962
G1 X14.002 Y-15.711 F9000.000
G1 X13.134 Y-16.125 E0.08825 F600.000
G1 X12.713 Y-16.264 E0.04067
G1 X12.041 Y-16.328 E0.06197
G1 E-3.20000 F3000.00000
G1 Z0.700 F9000.000
G1 X-8.395 Y8.375 F9000.000
G1 Z0.300 F9000.000
G1 E3.20000 F3000.00000
G1 X-8.352 Y8.411 E0.00515 F900.000
G1 X-7.691 Y9.320 E0.10315
G1 X-7.277 Y10.366 E0.10315
G1 X-7.135 Y11.488 E0.10381
G1 X-7.296 Y12.644 E0.10706
G1 X-7.691 Y13.642 E0.09846
G1 X-8.352 Y14.551 E0.10315
G1 X-9.218 Y15.268 E0.10315
G1 X-10.235 Y15.747 E0.10315
G1 X-11.347 Y15.959 E0.10381
G1 X-12.510 Y15.871 E0.10706
