; generated by Slic3r 1.2.9 on 2016-10-25 at 10:16:51

; external perimeters extrusion width = 0.50mm
; perimeters extrusion width = 0.50mm
; infill extrusion width = 0.50mm
; solid infill extrusion width = 0.50mm
; top infill extrusion width = 0.50mm

M107
;Basic settings: Layer height: {layer_height} Walls: {wall_thickness} Fill: {fill_density}
;Print time: {print_time}
;Filament used: {filament_amount}m {filament_weight}g
;Filament cost: {filament_cost}
;M190 S{print_bed_temperature} ;Uncomment to add your own bed temperature line
;M109 S{print_temperature} ;Uncomment to add your own temperature line
G21        ;metric values
G90        ;absolute positioning
M83
G10 P0 S200
T0
M116


G21 ; set units to millimeters
G90 ; use absolute coordinates
M83 ; use relative distances for extrusion
G1 E-3.20000 F3000.00000
G1 Z0.400 F9000.000
G1 X14.894 Y8.377 F9000.000
G1 Z0.300 F9000.000
G1 E3.20000 F3000.00000
G1 X10.243 Y16.646 E0.87044 F1200.000
G1 X9.908 Y17.144 E0.05507
G1 X7.842 Y19.735 E0.30412
G1 X7.250 Y20.327 E0.07675
G1 X6.751 Y20.725 E0.05858
G1 X6.043 Y21.170 E0.07675
G1 X3.056 Y22.608 E0.30412
G1 X2.267 Y22.884 E0.07675
G1 X1.644 Y23.027 E0.05858
G1 X0.813 Y23.120 E0.07675
G1 X-2.502 Y23.120 E0.30412
G1 X-3.333 Y23.027 E0.07675
G1 X-3.955 Y22.884 E0.05858
G1 X-4.745 Y22.608 E0.07675
G1 X-7.731 Y21.170 E0.30412
G1 X-8.440 Y20.725 E0.07675
G1 X-8.939 Y20.327 E0.05858
G1 X-9.530 Y19.735 E0.07675
G1 X-11.597 Y17.144 E0.30412
G1 X-12.022 Y16.476 E0.07265
G1 X-22.654 Y-4.956 E2.19509
G1 X-22.930 Y-5.746 E0.07675
G1 X-23.668 Y-8.977 E0.30412
G1 X-23.762 Y-9.809 E0.07675
G1 X-23.762 Y-10.447 E0.05858
G1 X-23.668 Y-11.278 E0.07675
G1 X-22.930 Y-14.510 E0.30412
G1 X-22.654 Y-15.299 E0.07675
G1 X-22.377 Y-15.875 E0.05858
G1 X-21.932 Y-16.583 E0.07675
G1 X-19.865 Y-19.174 E0.30412
G1 X-19.274 Y-19.766 E0.07675
G1 X-18.775 Y-20.164 E0.05858
G1 X-18.067 Y-20.609 E0.07675
G1 X-15.080 Y-22.047 E0.30412
G1 X-14.291 Y-22.324 E0.07675
G1 X-13.668 Y-22.466 E0.05858
G1 X-12.931 Y-22.558 E0.06820
G1 X9.429 Y-23.119 E2.05211
G1 X12.837 Y-23.120 E0.31272
G1 X13.668 Y-23.027 E0.07675 F1200.000
G1 X14.291 Y-22.884 E0.05858
G1 X15.080 Y-22.608 E0.07675
G1 X18.067 Y-21.170 E0.30412
G1 X18.775 Y-20.725 E0.07675
G1 X19.274 Y-20.327 E0.05858
G1 X19.865 Y-19.735 E0.07675
G1 X21.932 Y-17.144 E0.30412
G1 X22.377 Y-16.436 E0.07675
G1 X22.654 Y-15.860 E0.05858
G1 X22.930 Y-15.071 E0.07675
G1 X23.668 Y-11.839 E0.30412
G1 X23.762 Y-11.008 E0.07675
G1 X23.762 Y-10.370 E0.05858
G1 X23.668 Y-9.538 E0.07675
G1 X22.930 Y-6.307 E0.30412
G1 X22.654 Y-5.517 E0.07675
G1 X22.267 Y-4.732 E0.08035
G1 X14.924 Y8.325 E1.37444
G1 E-3.20000 F3000.00000
G1 Z0.700 F9000.000
G1 X11.970 Y-6.208 F9000.000
G1 Z0.300 F9000.000
G1 E3.20000 F3000.00000
G1 X11.475 Y-6.107 E0.04632 F900.000
G1 X10.319 Y-6.180 E0.10620
G1 X9.225 Y-6.536 E0.10557
G1 X8.254 Y-7.152 E0.10557
G1 X7.466 Y-7.991 E0.10557
G1 X6.912 Y-8.999 E0.10557
G1 X6.626 Y-10.114 E0.10557
G1 X6.626 Y-11.264 E0.10556
G1 X6.899 Y-12.329 E0.10090
G1 X7.461 Y-13.382 E0.10948
G1 X8.254 Y-14.226 E0.10620
G1 X9.231 Y-14.846 E0.10620
G1 X10.370 Y-15.201 E0.10948
G1 X11.468 Y-15.270 E0.10090 F900.000
G1 X12.598 Y-15.054 E0.10556
G1 X13.639 Y-14.564 E0.10557
G1 X14.526 Y-13.831 E0.10557
G1 X15.202 Y-12.900 E0.10557
G1 X15.625 Y-11.830 E0.10557
G1 X15.770 Y-10.689 E0.10557
G1 X15.625 Y-9.547 E0.10557
G1 X15.202 Y-8.478 E0.10557
G1 X14.526 Y-7.547 E0.10556
G1 X13.639 Y-6.813 E0.10557
G1 X12.644 Y-6.345 E0.10090
G1 X12.028 Y-6.220 E0.05765
G1 X11.882 Y-6.941 F9000.000
G1 X11.424 Y-6.848 E0.04289 F900.000
G1 X10.458 Y-6.908 E0.08874
G1 X9.541 Y-7.207 E0.08851
G1 X8.726 Y-7.724 E0.08851
G1 X8.066 Y-8.427 E0.08851
G1 X7.601 Y-9.272 E0.08851
G1 X7.361 Y-10.207 E0.08851
G1 X7.361 Y-11.171 E0.08851
G1 X7.590 Y-12.061 E0.08426
G1 X8.064 Y-12.949 E0.09242
G1 X8.726 Y-13.654 E0.08874
G1 X9.543 Y-14.173 E0.08874
G1 X10.505 Y-14.472 E0.09242
G1 X11.421 Y-14.530 E0.08426 F900.000
G1 X12.369 Y-14.349 E0.08851
G1 X13.242 Y-13.938 E0.08851
G1 X13.985 Y-13.323 E0.08851
G1 X14.552 Y-12.543 E0.08851
G1 X14.907 Y-11.646 E0.08851
G1 X15.028 Y-10.689 E0.08851
G1 X14.907 Y-9.732 E0.08851
G1 X14.552 Y-8.835 E0.08851
G1 X13.985 Y-8.054 E0.08851
G1 X13.242 Y-7.439 E0.08851
G1 X12.411 Y-7.048 E0.08426
G1 X11.941 Y-6.953 E0.04403
G1 X11.755 Y-6.562 F9000.000
G1 E-3.20000 F3000.00000
G1 Z0.700 F9000.000
G1 X6.059 Y-12.707 F9000.000
G1 Z0.300 F9000.000
G1 E3.20000 F3000.00000
G1 X6.151 Y-13.110 E0.03793 F900.000
G1 X7.700 Y-15.052 E0.22789
G1 X9.938 Y-16.130 E0.22788
G1 X12.421 Y-16.130 E0.22789
G1 X14.659 Y-15.052 E0.22788
G1 X16.208 Y-13.110 E0.22789 F900.000
G1 X16.761 Y-10.689 E0.22788
G1 X16.208 Y-8.267 E0.22788
G1 X14.659 Y-6.326 E0.22789
G1 X12.421 Y-5.248 E0.22788
G1 X9.938 Y-5.248 E0.22789
G1 X7.700 Y-6.326 E0.22788
G1 X6.151 Y-8.267 E0.22789
G1 X5.599 Y-10.689 E0.22788
G1 X6.046 Y-12.649 E0.18445
G1 X5.329 Y-12.813 F9000.000
G1 X5.393 Y-13.092 E0.02629 F900.000
G1 X4.437 Y-13.410 E0.09237
G1 X4.134 Y-13.602 E0.03291
G1 X3.449 Y-14.412 E0.09732
G1 X4.509 Y-14.381 E0.09732
G1 X4.848 Y-14.263 E0.03291
G1 X5.693 Y-13.715 E0.09237
G1 X7.008 Y-15.365 E0.19359
G1 X6.286 Y-16.066 E0.09237
G1 X6.096 Y-16.370 E0.03291
G1 X5.830 Y-17.397 E0.09732
G1 X6.772 Y-16.909 E0.09732
G1 X7.026 Y-16.656 E0.03291
G1 X7.549 Y-15.796 E0.09237
G1 X9.450 Y-16.712 E0.19359
G1 X9.104 Y-17.657 E0.09237
G1 X9.065 Y-18.013 E0.03291
G1 X9.270 Y-19.054 E0.09732
G1 X9.890 Y-18.228 E0.09476
G1 X10.027 Y-17.864 E0.03570
G1 X10.125 Y-16.866 E0.09202
G1 X12.235 Y-16.866 E0.19359
G1 X12.332 Y-17.868 E0.09237
G1 X12.452 Y-18.206 E0.03291
G1 X13.089 Y-19.054 E0.09732
G1 X13.295 Y-18.013 E0.09732
G1 X13.256 Y-17.657 E0.03291 F900.000
G1 X12.909 Y-16.712 E0.09237
G1 X14.810 Y-15.796 E0.19359
G1 X15.333 Y-16.656 E0.09237
G1 X15.587 Y-16.909 E0.03291
G1 X16.529 Y-17.397 E0.09732
G1 X16.263 Y-16.370 E0.09732
G1 X16.073 Y-16.066 E0.03291
G1 X15.351 Y-15.365 E0.09237
G1 X16.666 Y-13.715 E0.19359
G1 X17.511 Y-14.263 E0.09237
G1 X17.850 Y-14.381 E0.03291
G1 X18.910 Y-14.412 E0.09732
G1 X18.225 Y-13.602 E0.09732
G1 X17.922 Y-13.410 E0.03291
G1 X16.967 Y-13.092 E0.09237
G1 X17.436 Y-11.035 E0.19359
G1 X18.435 Y-11.162 E0.09237
G1 X18.791 Y-11.121 E0.03291
G1 X19.760 Y-10.689 E0.09732
G1 X18.791 Y-10.257 E0.09732
G1 X18.435 Y-10.215 E0.03291
G1 X17.436 Y-10.343 E0.09237
G1 X16.967 Y-8.286 E0.19359
G1 X17.922 Y-7.968 E0.09237
G1 X18.225 Y-7.776 E0.03291
G1 X18.910 Y-6.966 E0.09732
G1 X17.850 Y-6.997 E0.09732
G1 X17.511 Y-7.114 E0.03291
G1 X16.666 Y-7.663 E0.09237
G1 X15.351 Y-6.013 E0.19359
G1 X16.073 Y-5.312 E0.09237
G1 X16.263 Y-5.007 E0.03291
G1 X16.529 Y-3.981 E0.09732
G1 X15.587 Y-4.469 E0.09732
G1 X15.333 Y-4.721 E0.03291
G1 X14.810 Y-5.582 E0.09237
G1 X12.909 Y-4.666 E0.19359
G1 X13.256 Y-3.721 E0.09237
G1 X13.295 Y-3.364 E0.03291
G1 X13.089 Y-2.324 E0.09732
G1 X12.452 Y-3.172 E0.09732
G1 X12.332 Y-3.510 E0.03291
G1 X12.235 Y-4.512 E0.09237
G1 X10.125 Y-4.512 E0.19359
G1 X10.027 Y-3.510 E0.09237
G1 X9.907 Y-3.172 E0.03291
G1 X9.270 Y-2.324 E0.09732
G1 X9.065 Y-3.364 E0.09732
G1 X9.104 Y-3.721 E0.03291
G1 X9.450 Y-4.666 E0.09237
G1 X7.549 Y-5.582 E0.19359
G1 X7.026 Y-4.721 E0.09237
G1 X6.772 Y-4.469 E0.03291
G1 X5.830 Y-3.981 E0.09732
G1 X6.096 Y-5.007 E0.09732
G1 X6.286 Y-5.312 E0.03291
G1 X7.008 Y-6.013 E0.09237
G1 X5.693 Y-7.663 E0.19359
G1 X4.848 Y-7.114 E0.09237
G1 X4.509 Y-6.997 E0.03291
G1 X3.449 Y-6.966 E0.09732
G1 X4.134 Y-7.776 E0.09732
G1 X4.437 Y-7.968 E0.03291
G1 X5.393 Y-8.286 E0.09237
G1 X4.923 Y-10.343 E0.19359
G1 X3.924 Y-10.215 E0.09237
G1 X3.568 Y-10.257 E0.03291
G1 X2.599 Y-10.689 E0.09732
G1 X3.568 Y-11.121 E0.09732
G1 X3.924 Y-11.162 E0.03291
G1 X4.923 Y-11.035 E0.09237
G1 X5.315 Y-12.754 E0.16180
G1 X5.603 Y-12.897 F9000.000
G1 X6.470 Y-12.474 F9000.000
G1 X6.620 Y-12.885 E0.04011 F600.000
G1 X7.108 Y-13.626 E0.08141
G1 X7.938 Y-14.586 E0.11644
G1 X8.015 Y-14.657 E0.00963
G1 X9.045 Y-15.230 E0.10814
G1 X10.052 Y-15.628 E0.09936
G1 X10.273 Y-15.661 E0.02049
G1 X11.487 Y-15.701 E0.11146
G1 X12.306 Y-15.624 E0.07546
G1 X12.746 Y-15.478 E0.04254
G1 X13.869 Y-14.944 E0.11409
G1 X14.335 Y-14.646 E0.05076
G1 X14.848 Y-14.123 E0.06722
G1 X15.614 Y-13.113 E0.11627
G1 X15.745 Y-12.888 E0.02395
G1 X16.038 Y-11.944 E0.09067
G1 X16.260 Y-10.689 E0.11693
G1 X16.041 Y-9.448 E0.11561
G1 X15.745 Y-8.490 E0.09198
G1 X15.601 Y-8.245 E0.02610
G1 X14.837 Y-7.243 E0.11561
G1 X14.335 Y-6.732 E0.06573
G1 X13.885 Y-6.443 E0.04907
G1 X12.794 Y-5.923 E0.11091
G1 X12.305 Y-5.757 E0.04735
G1 X11.496 Y-5.677 E0.07458
G1 X10.244 Y-5.716 E0.11499
G1 X10.051 Y-5.745 E0.01787
G1 X9.037 Y-6.153 E0.10028
G1 X8.015 Y-6.721 E0.10729
G1 X7.114 Y-7.745 E0.12511
G1 X6.617 Y-8.491 E0.08236
G1 X6.485 Y-8.842 E0.03432
G1 X6.189 Y-10.067 E0.11568
G1 X6.119 Y-10.689 E0.05741
G1 X6.192 Y-11.328 E0.05899
G1 X6.456 Y-12.416 E0.10274 F600.000
G1 E-3.20000 F3000.00000
G1 Z0.700 F9000.000
G1 X-6.669 Y-10.758 F9000.000
G1 Z0.300 F9000.000
G1 E3.20000 F3000.00000
G1 X-6.590 Y-10.128 E0.05825 F900.000
G1 X-6.734 Y-8.986 E0.10557
G1 X-7.157 Y-7.917 E0.10557
G1 X-7.834 Y-6.986 E0.10556
G1 X-8.720 Y-6.252 E0.10557
G1 X-9.715 Y-5.784 E0.10090
G1 X-10.884 Y-5.546 E0.10947
G1 X-12.040 Y-5.619 E0.10620
G1 X-13.134 Y-5.975 E0.10557
G1 X-14.105 Y-6.591 E0.10557
G1 X-14.893 Y-7.430 E0.10557
G1 X-15.447 Y-8.438 E0.10557
G1 X-15.733 Y-9.553 E0.10557
G1 X-15.733 Y-10.703 E0.10556
G1 X-15.460 Y-11.768 E0.10090
G1 X-14.898 Y-12.821 E0.10948
G1 X-14.105 Y-13.665 E0.10620
G1 X-13.128 Y-14.285 E0.10620
G1 X-11.989 Y-14.640 E0.10948
G1 X-10.891 Y-14.709 E0.10090 F900.000
G1 X-9.761 Y-14.493 E0.10556
G1 X-8.720 Y-14.003 E0.10557
G1 X-7.834 Y-13.270 E0.10557
G1 X-7.157 Y-12.339 E0.10557
G1 X-6.734 Y-11.269 E0.10557
G1 X-6.677 Y-10.817 E0.04181
G1 X-7.406 Y-10.725 F9000.000
G1 X-7.331 Y-10.128 E0.05523 F900.000
G1 X-7.452 Y-9.171 E0.08851
G1 X-7.807 Y-8.274 E0.08851
G1 X-8.374 Y-7.493 E0.08851
G1 X-9.117 Y-6.878 E0.08851
G1 X-9.948 Y-6.487 E0.08426
G1 X-10.935 Y-6.287 E0.09242
G1 X-11.901 Y-6.348 E0.08874
G1 X-12.818 Y-6.646 E0.08851
G1 X-13.633 Y-7.163 E0.08851
G1 X-14.293 Y-7.866 E0.08851
G1 X-14.758 Y-8.711 E0.08851
G1 X-14.998 Y-9.646 E0.08851
G1 X-14.998 Y-10.610 E0.08851
G1 X-14.769 Y-11.500 E0.08426
G1 X-14.295 Y-12.388 E0.09242
G1 X-13.633 Y-13.093 E0.08874
G1 X-12.816 Y-13.612 E0.08874
G1 X-11.854 Y-13.911 E0.09242
G1 X-10.938 Y-13.969 E0.08426 F900.000
G1 X-9.990 Y-13.788 E0.08851
G1 X-9.117 Y-13.377 E0.08851
G1 X-8.374 Y-12.762 E0.08851
G1 X-7.807 Y-11.982 E0.08851
G1 X-7.452 Y-11.085 E0.08851
G1 X-7.414 Y-10.785 E0.02778
G1 X-7.038 Y-10.570 F9000.000
G1 X-9.541 Y-15.378 F9000.000
G1 X-7.700 Y-14.491 E0.18752 F900.000
G1 X-6.151 Y-12.549 E0.22789 F900.000
G1 X-5.599 Y-10.128 E0.22788
G1 X-6.151 Y-7.706 E0.22788
G1 X-7.700 Y-5.765 E0.22789
G1 X-9.938 Y-4.687 E0.22788
G1 X-12.421 Y-4.687 E0.22789
G1 X-14.659 Y-5.765 E0.22788
G1 X-16.208 Y-7.706 E0.22789
G1 X-16.761 Y-10.128 E0.22788
G1 X-16.208 Y-12.549 E0.22789
G1 X-14.659 Y-14.491 E0.22789
G1 X-12.421 Y-15.569 E0.22788
G1 X-9.938 Y-15.569 E0.22789
G1 X-9.595 Y-15.404 E0.03486
G1 X-9.276 Y-16.067 F9000.000
G1 X-7.549 Y-15.235 E0.17588 F900.000
G1 X-7.026 Y-16.095 E0.09237
G1 X-6.772 Y-16.348 E0.03291
G1 X-5.830 Y-16.836 E0.09732
G1 X-6.096 Y-15.809 E0.09732
G1 X-6.286 Y-15.505 E0.03291
G1 X-7.008 Y-14.804 E0.09237
G1 X-5.693 Y-13.154 E0.19359
G1 X-4.848 Y-13.702 E0.09237
G1 X-4.509 Y-13.820 E0.03291
G1 X-3.449 Y-13.851 E0.09732
G1 X-4.134 Y-13.041 E0.09732
G1 X-4.437 Y-12.849 E0.03291
G1 X-5.393 Y-12.531 E0.09237
G1 X-4.923 Y-10.474 E0.19359
G1 X-3.924 Y-10.601 E0.09237
G1 X-3.568 Y-10.560 E0.03291
G1 X-2.599 Y-10.128 E0.09732
G1 X-3.568 Y-9.696 E0.09732
G1 X-3.924 Y-9.654 E0.03291
G1 X-4.923 Y-9.782 E0.09237
G1 X-5.393 Y-7.725 E0.19359
G1 X-4.437 Y-7.407 E0.09237
G1 X-4.134 Y-7.215 E0.03291
G1 X-3.449 Y-6.405 E0.09732
G1 X-4.509 Y-6.436 E0.09732
G1 X-4.848 Y-6.553 E0.03291
G1 X-5.693 Y-7.102 E0.09237
G1 X-7.008 Y-5.452 E0.19359
G1 X-6.286 Y-4.751 E0.09237
G1 X-6.096 Y-4.446 E0.03291
G1 X-5.830 Y-3.420 E0.09732
G1 X-6.772 Y-3.908 E0.09732
G1 X-7.026 Y-4.160 E0.03291
G1 X-7.549 Y-5.021 E0.09237
G1 X-9.450 Y-4.105 E0.19359
G1 X-9.104 Y-3.160 E0.09237
G1 X-9.065 Y-2.803 E0.03291
G1 X-9.270 Y-1.763 E0.09732
G1 X-9.907 Y-2.611 E0.09732
G1 X-10.027 Y-2.949 E0.03291
G1 X-10.125 Y-3.951 E0.09237
G1 X-12.235 Y-3.951 E0.19359
G1 X-12.332 Y-2.949 E0.09237
G1 X-12.452 Y-2.611 E0.03291
G1 X-13.089 Y-1.763 E0.09732
G1 X-13.295 Y-2.803 E0.09732
G1 X-13.256 Y-3.160 E0.03291
G1 X-12.909 Y-4.105 E0.09237
G1 X-14.810 Y-5.021 E0.19359
G1 X-15.333 Y-4.160 E0.09237
G1 X-15.587 Y-3.908 E0.03291
G1 X-16.529 Y-3.420 E0.09732
G1 X-16.263 Y-4.446 E0.09732
G1 X-16.073 Y-4.751 E0.03291
G1 X-15.351 Y-5.452 E0.09237
G1 X-16.666 Y-7.102 E0.19359
G1 X-17.511 Y-6.553 E0.09237
G1 X-17.850 Y-6.436 E0.03291
G1 X-18.910 Y-6.405 E0.09732
G1 X-18.225 Y-7.215 E0.09732
G1 X-17.922 Y-7.407 E0.03291
G1 X-16.967 Y-7.725 E0.09237
G1 X-17.436 Y-9.782 E0.19359
G1 X-18.435 Y-9.654 E0.09237
G1 X-18.791 Y-9.696 E0.03291
G1 X-19.760 Y-10.128 E0.09732
G1 X-18.791 Y-10.560 E0.09732
G1 X-18.435 Y-10.601 E0.03291
G1 X-17.436 Y-10.474 E0.09237
G1 X-16.967 Y-12.531 E0.19359
G1 X-17.922 Y-12.849 E0.09237
G1 X-18.225 Y-13.041 E0.03291
G1 X-18.910 Y-13.851 E0.09732
G1 X-17.850 Y-13.820 E0.09732
G1 X-17.511 Y-13.702 E0.03291
G1 X-16.666 Y-13.154 E0.09237
G1 X-15.351 Y-14.804 E0.19359
G1 X-16.073 Y-15.505 E0.09237
G1 X-16.263 Y-15.809 E0.03291
G1 X-16.529 Y-16.836 E0.09732
G1 X-15.587 Y-16.348 E0.09732
G1 X-15.333 Y-16.095 E0.03291
G1 X-14.810 Y-15.235 E0.09237
G1 X-12.909 Y-16.151 E0.19359
G1 X-13.256 Y-17.096 E0.09237
G1 X-13.295 Y-17.452 E0.03291
G1 X-13.089 Y-18.493 E0.09732
G1 X-12.469 Y-17.667 E0.09476
G1 X-12.332 Y-17.303 E0.03570
G1 X-12.235 Y-16.305 E0.09202
G1 X-10.125 Y-16.305 E0.19359
G1 X-10.027 Y-17.307 E0.09237
G1 X-9.907 Y-17.645 E0.03291
G1 X-9.270 Y-18.493 E0.09732
G1 X-9.065 Y-17.452 E0.09732
G1 X-9.104 Y-17.096 E0.03291 F900.000
G1 X-9.450 Y-16.151 E0.09237
G1 X-9.330 Y-16.093 E0.01221
G1 X-9.246 Y-15.668 F9000.000
G1 X-9.707 Y-14.949 F9000.000
G1 X-8.474 Y-14.374 E0.12488 F600.000
G1 X-8.024 Y-14.085 E0.04907
G1 X-7.522 Y-13.574 E0.06573
G1 X-6.758 Y-12.572 E0.11561
G1 X-6.614 Y-12.327 E0.02610
G1 X-6.318 Y-11.369 E0.09198
G1 X-6.099 Y-10.128 E0.11561
G1 X-6.318 Y-8.887 E0.11561
G1 X-6.614 Y-7.929 E0.09198
G1 X-6.758 Y-7.684 E0.02610
G1 X-7.511 Y-6.694 E0.11412
G1 X-8.024 Y-6.171 E0.06722
G1 X-8.490 Y-5.873 E0.05076
G1 X-9.583 Y-5.355 E0.11095
G1 X-10.054 Y-5.196 E0.04561
G1 X-10.863 Y-5.116 E0.07458
G1 X-12.115 Y-5.155 E0.11499
G1 X-12.308 Y-5.184 E0.01787
G1 X-13.322 Y-5.592 E0.10028
G1 X-14.344 Y-6.160 E0.10729
G1 X-15.236 Y-7.172 E0.12376
G1 X-15.743 Y-7.930 E0.08371
G1 X-15.874 Y-8.281 E0.03432
G1 X-16.170 Y-9.506 E0.11568
G1 X-16.240 Y-10.128 E0.05741
G1 X-16.167 Y-10.767 E0.05899
G1 X-15.887 Y-11.924 E0.10923 F600.000
G1 X-15.739 Y-12.324 E0.03913
G1 X-15.242 Y-13.077 E0.08282
G1 X-14.344 Y-14.096 E0.12461
G1 X-13.314 Y-14.669 E0.10814
G1 X-12.307 Y-15.067 E0.09936
G1 X-12.062 Y-15.103 E0.02267
G1 X-10.857 Y-15.139 E0.11068
G1 X-10.053 Y-15.064 E0.07405
G1 X-9.764 Y-14.968 E0.02789
G1 E-3.20000 F3000.00000
G1 Z0.700 F9000.000
G1 X-2.793 Y6.532 F9000.000
G1 Z0.300 F9000.000
G1 E3.20000 F3000.00000
G1 X-1.654 Y6.177 E0.10948 F900.000
G1 X-0.556 Y6.108 E0.10090 F900.000
G1 X0.574 Y6.324 E0.10556
G1 X1.615 Y6.813 E0.10557
G1 X2.502 Y7.547 E0.10557
G1 X3.178 Y8.478 E0.10557
G1 X3.601 Y9.547 E0.10557
G1 X3.746 Y10.689 E0.10557
G1 X3.601 Y11.830 E0.10557
G1 X3.178 Y12.900 E0.10557
G1 X2.502 Y13.831 E0.10556
G1 X1.615 Y14.564 E0.10557
G1 X0.620 Y15.033 E0.10090
G1 X-0.549 Y15.270 E0.10947
G1 X-1.704 Y15.198 E0.10620
G1 X-2.799 Y14.842 E0.10557
G1 X-3.770 Y14.226 E0.10557
G1 X-4.558 Y13.387 E0.10557
G1 X-5.112 Y12.379 E0.10557
G1 X-5.398 Y11.264 E0.10557
G1 X-5.398 Y10.114 E0.10556
G1 X-5.125 Y9.048 E0.10090
G1 X-4.563 Y7.996 E0.10948
G1 X-3.770 Y7.152 E0.10620
G1 X-2.843 Y6.564 E0.10070
G1 X-2.481 Y7.205 F9000.000
G1 X-1.519 Y6.906 E0.09242 F900.000
G1 X-0.603 Y6.848 E0.08426 F900.000
