; generated by Slic3r 1.2.9 on 2016-12-14 at 15:48:20

; external perimeters extrusion width = 0.50mm
; perimeters extrusion width = 0.50mm
; infill extrusion width = 0.50mm
; solid infill extrusion width = 0.50mm
; top infill extrusion width = 0.50mm

M107
;Basic settings: Layer height: {layer_height} Walls: {wall_thickness} Fill: {fill_density}
;Print time: {print_time}
;Filament used: {filament_amount}m {filament_weight}g
;Filament cost: {filament_cost}
;M190 S{print_bed_temperature} ;Uncomment to add your own bed temperature line
;M109 S{print_temperature} ;Uncomment to add your own temperature line
G21        ;metric values
G90        ;absolute positioning
M83
G10 P0 S200
T0
M116


G21 ; set units to millimeters
G90 ; use absolute coordinates
M83 ; use relative distances for extrusion
G1 E-3.20000 F3000.00000
G1 Z0.400 F9000.000
G1 X0.000 Y33.564 F9000.000
G1 Z0.300 F9000.000
G1 E3.20000 F3000.00000
G1 X-12.136 Y33.552 E1.11348 F1200.000
G1 X-17.048 Y33.145 E0.45220
G1 X-17.656 Y33.043 E0.05659
G1 X-22.432 Y31.834 E0.45202
G1 X-23.015 Y31.633 E0.05661
G1 X-27.527 Y29.654 E0.45200
G1 X-28.070 Y29.361 E0.05661
G1 X-32.194 Y26.666 E0.45201
G1 X-32.681 Y26.287 E0.05660
G1 X-36.305 Y22.951 E0.45202
G1 X-36.723 Y22.497 E0.05661
G1 X-39.749 Y18.609 E0.45201
G1 X-40.086 Y18.093 E0.05660
G1 X-42.431 Y13.760 E0.45201
G1 X-42.679 Y13.195 E0.05660
G1 X-44.279 Y8.535 E0.45201
G1 X-44.430 Y7.937 E0.05661
G1 X-45.241 Y3.078 E0.45201
G1 X-45.292 Y2.463 E0.05661
G1 X-45.292 Y-2.463 E0.45201
G1 X-45.241 Y-3.078 E0.05659
G1 X-44.430 Y-7.937 E0.45203
G1 X-44.279 Y-8.535 E0.05660
G1 X-42.679 Y-13.195 E0.45201
G1 X-42.431 Y-13.760 E0.05659
G1 X-40.086 Y-18.093 E0.45202
G1 X-39.749 Y-18.609 E0.05661
G1 X-36.723 Y-22.497 E0.45200
G1 X-36.305 Y-22.951 E0.05661
G1 X-32.681 Y-26.287 E0.45201
G1 X-32.175 Y-26.678 E0.05862
G1 X-28.070 Y-29.361 E0.44998
G1 X-27.527 Y-29.654 E0.05660
G1 X-23.015 Y-31.633 E0.45201
G1 X-22.432 Y-31.834 E0.05661
G1 X-17.656 Y-33.043 E0.45201
G1 X-17.048 Y-33.145 E0.05661
G1 X-11.827 Y-33.564 E0.48050
G1 X11.827 Y-33.564 E2.17035
G1 X12.136 Y-33.552 E0.02832
G1 X17.048 Y-33.145 E0.45220 F1200.000
G1 X17.678 Y-33.038 E0.05865
G1 X22.432 Y-31.834 E0.44996
G1 X23.015 Y-31.633 E0.05661
G1 X27.527 Y-29.654 E0.45201
G1 X28.070 Y-29.361 E0.05661
G1 X32.194 Y-26.666 E0.45200
G1 X32.681 Y-26.287 E0.05661
G1 X36.305 Y-22.951 E0.45201
G1 X36.737 Y-22.480 E0.05862
G1 X39.749 Y-18.609 E0.44999
G1 X40.086 Y-18.093 E0.05660
G1 X42.431 Y-13.760 E0.45202
G1 X42.679 Y-13.195 E0.05660
G1 X44.279 Y-8.535 E0.45201
G1 X44.430 Y-7.937 E0.05660
G1 X45.241 Y-3.078 E0.45202
G1 X45.292 Y-2.463 E0.05661
G1 X45.292 Y2.463 E0.45201
G1 X45.241 Y3.078 E0.05661
G1 X44.430 Y7.937 E0.45201
G1 X44.279 Y8.535 E0.05660
G1 X42.679 Y13.195 E0.45201
G1 X42.431 Y13.760 E0.05661
G1 X40.086 Y18.093 E0.45201
G1 X39.749 Y18.609 E0.05661
G1 X36.723 Y22.497 E0.45200
G1 X36.289 Y22.966 E0.05864
G1 X32.681 Y26.287 E0.44997
G1 X32.194 Y26.666 E0.05659
G1 X28.070 Y29.361 E0.45202
G1 X27.527 Y29.654 E0.05659
G1 X23.015 Y31.633 E0.45202
G1 X22.432 Y31.834 E0.05661
G1 X17.656 Y33.043 E0.45201
G1 X17.048 Y33.145 E0.05660
G1 X11.827 Y33.564 E0.48050
G1 X0.060 Y33.564 E1.07967
G1 E-3.20000 F3000.00000
G1 Z0.700 F9000.000
G1 X1.942 Y16.107 F9000.000
G1 Z0.300 F9000.000
G1 E3.20000 F3000.00000
G1 X1.368 Y16.008 E0.05347 F900.000
G1 X0.908 Y15.807 E0.04604
G1 X0.535 Y15.539 E0.04214
G1 X0.227 Y15.223 E0.04046
G1 X-0.028 Y14.872 E0.03985
G1 X-0.352 Y14.240 E0.06513
G1 X-0.732 Y12.998 E0.11919
G1 X-1.053 Y11.143 E0.17267
G1 X-1.340 Y8.657 E0.22966
G1 X-1.659 Y8.597 E0.02985
G1 X-3.372 Y11.842 E0.33664
G1 X-4.501 Y13.462 E0.18121
G1 X-4.974 Y13.916 E0.06011
G1 X-5.442 Y14.241 E0.05232
G1 X-5.781 Y14.402 E0.03443
G1 X-6.090 Y14.504 E0.02983
G1 X-6.448 Y14.565 E0.03330
G1 X-6.825 Y14.568 E0.03458
G1 X-7.232 Y14.496 E0.03799
G1 X-7.554 Y14.386 E0.03116
G1 X-8.159 Y14.108 E0.06109
G1 X-8.869 Y13.584 E0.08097
G1 X-9.267 Y13.107 E0.05698
G1 X-9.478 Y12.652 E0.04609
G1 X-9.578 Y12.243 E0.03861
G1 X-9.611 Y11.808 E0.04005
G1 X-9.581 Y11.374 E0.03986
G1 X-9.422 Y10.677 E0.06563
G1 X-8.929 Y9.510 E0.11622
G1 X-8.062 Y8.011 E0.15885
G1 X-6.601 Y5.775 E0.24508
G1 X-6.808 Y5.523 E0.02989
G1 X-10.195 Y6.904 E0.33561
G1 X-12.101 Y7.419 E0.18121
G1 X-12.755 Y7.463 E0.06011
G1 X-13.354 Y7.409 E0.05516
G1 X-13.955 Y7.216 E0.05793
G1 X-14.296 Y7.016 E0.03626
G1 X-14.565 Y6.798 E0.03174
G1 X-14.835 Y6.486 E0.03789
G1 X-15.031 Y6.172 E0.03400
G1 X-15.318 Y5.564 E0.06168
G1 X-15.523 Y4.722 E0.07951
G1 X-15.531 Y4.158 E0.05171
G1 X-15.423 Y3.678 E0.04511
G1 X-15.233 Y3.264 E0.04188
G1 X-14.981 Y2.901 E0.04045
G1 X-14.684 Y2.585 E0.03981
G1 X-14.120 Y2.148 E0.06551
G1 X-13.005 Y1.568 E0.11533
G1 X-11.214 Y0.916 E0.17484
G1 X-10.035 Y0.556 E0.11313
G1 X-8.822 Y0.157 E0.11715
G1 X-8.823 Y-0.163 E0.02942
G1 X-12.247 Y-1.265 E0.33006
G1 X-14.039 Y-2.095 E0.18121
G1 X-14.568 Y-2.482 E0.06011
G1 X-14.970 Y-2.886 E0.05233
G1 X-15.191 Y-3.199 E0.03513
G1 X-15.373 Y-3.546 E0.03594
G1 X-15.527 Y-4.114 E0.05401
G1 X-15.532 Y-4.600 E0.04458
G1 X-15.480 Y-4.941 E0.03167
G1 X-15.311 Y-5.584 E0.06102
G1 X-14.926 Y-6.361 E0.07951
G1 X-14.565 Y-6.804 E0.05245
G1 X-14.140 Y-7.119 E0.04854
G1 X-13.708 Y-7.310 E0.04338
G1 X-13.336 Y-7.408 E0.03526
G1 X-12.910 Y-7.458 E0.03931
G1 X-12.203 Y-7.431 E0.06492
G1 X-11.205 Y-7.221 E0.09364
G1 X-10.944 Y-7.148 E0.02487
G1 X-9.341 Y-6.570 E0.15629
G1 X-6.859 Y-5.550 E0.24624
G1 X-6.654 Y-5.796 E0.02942
G1 X-8.569 Y-8.841 E0.33006
G1 X-9.408 Y-10.629 E0.18121
G1 X-9.564 Y-11.266 E0.06011
G1 X-9.612 Y-11.826 E0.05158
G1 X-9.590 Y-12.152 E0.03004
G1 X-9.519 Y-12.520 E0.03434
G1 X-9.390 Y-12.867 E0.03393
G1 X-9.205 Y-13.192 E0.03438
G1 X-8.959 Y-13.487 E0.03521
G1 X-8.688 Y-13.731 E0.03346
G1 X-8.139 Y-14.120 E0.06175
G1 X-7.369 Y-14.456 E0.07706
G1 X-7.052 Y-14.535 E0.02999
G1 X-6.689 Y-14.575 E0.03350
G1 X-6.252 Y-14.541 E0.04022
G1 X-5.817 Y-14.418 E0.04141
G1 X-5.420 Y-14.228 E0.04046
G1 X-5.060 Y-13.984 E0.03986
G1 X-4.540 Y-13.502 E0.06512
G1 X-3.910 Y-12.686 E0.09449
G1 X-3.758 Y-12.465 E0.02461
G1 X-2.907 Y-10.988 E0.15648
G1 X-1.701 Y-8.604 E0.24508
G1 X-1.379 Y-8.657 E0.02989
G1 X-0.881 Y-12.281 E0.33561
G1 X-0.374 Y-14.190 E0.18121
G1 X-0.085 Y-14.778 E0.06011
G1 X0.238 Y-15.237 E0.05158
G1 X0.465 Y-15.473 E0.03004
G1 X0.756 Y-15.709 E0.03434
G1 X1.077 Y-15.892 E0.03393
G1 X1.431 Y-16.023 E0.03459
G1 X1.838 Y-16.095 E0.03799
G1 X2.178 Y-16.102 E0.03116 F900.000
G1 X2.842 Y-16.048 E0.06109
G1 X3.688 Y-15.799 E0.08097
G1 X4.225 Y-15.486 E0.05698
G1 X4.579 Y-15.130 E0.04609
G1 X4.813 Y-14.781 E0.03861
G1 X4.993 Y-14.383 E0.04005
G1 X5.113 Y-13.965 E0.03986
G1 X5.202 Y-13.255 E0.06563
G1 X5.138 Y-11.990 E0.11622
G1 X4.836 Y-10.286 E0.15885
G1 X4.228 Y-7.685 E0.24508
G1 X4.508 Y-7.518 E0.02989
G1 X7.219 Y-9.974 E0.33561
G1 X8.834 Y-11.111 E0.18121
G1 X9.434 Y-11.375 E0.06011
G1 X10.015 Y-11.529 E0.05516
G1 X10.646 Y-11.554 E0.05792
G1 X11.034 Y-11.483 E0.03626
G1 X11.361 Y-11.370 E0.03174
G1 X11.722 Y-11.169 E0.03789
G1 X12.014 Y-10.940 E0.03400
G1 X12.492 Y-10.467 E0.06175
G1 X12.978 Y-9.735 E0.08058
G1 X13.180 Y-9.188 E0.05348
G1 X13.236 Y-8.690 E0.04604
G1 X13.189 Y-8.233 E0.04214
G1 X13.070 Y-7.808 E0.04045
G1 X12.893 Y-7.411 E0.03986
G1 X12.505 Y-6.810 E0.06563
G1 X11.642 Y-5.882 E0.11634
G1 X10.177 Y-4.660 E0.17504
G1 X8.167 Y-3.168 E0.22966
G1 X8.275 Y-2.861 E0.02985
G1 X11.941 Y-3.000 E0.33664
G1 X13.909 Y-2.833 E0.18121
G1 X14.536 Y-2.651 E0.05988
G1 X14.993 Y-2.438 E0.04629
G1 X15.314 Y-2.234 E0.03492
G1 X15.654 Y-1.932 E0.04171
G1 X15.998 Y-1.445 E0.05471
G1 X16.169 Y-0.990 E0.04458
G1 X16.236 Y-0.651 E0.03167
G1 X16.297 Y0.012 E0.06109
G1 X16.199 Y0.885 E0.08058
G1 X16.002 Y1.433 E0.05348
G1 X15.725 Y1.851 E0.04604
G1 X15.395 Y2.171 E0.04214
G1 X15.031 Y2.420 E0.04046
G1 X14.641 Y2.610 E0.03986
G1 X13.957 Y2.821 E0.06563
G1 X12.700 Y2.978 E0.11622
G1 X10.969 Y2.976 E0.15885
G1 X8.302 Y2.829 E0.24508
G1 X8.187 Y3.134 E0.02989
G1 X11.076 Y5.377 E0.33561
G1 X12.476 Y6.771 E0.18121
G1 X12.840 Y7.315 E0.06011
G1 X13.080 Y7.832 E0.05233
G1 X13.179 Y8.194 E0.03443
G1 X13.226 Y8.516 E0.02983
G1 X13.224 Y8.879 E0.03330
G1 X13.161 Y9.251 E0.03458
G1 X13.020 Y9.640 E0.03799
G1 X12.856 Y9.937 E0.03116
G1 X12.477 Y10.484 E0.06102
G1 X11.851 Y11.083 E0.07951
G1 X11.360 Y11.375 E0.05245
G1 X10.852 Y11.526 E0.04854
G1 X10.381 Y11.558 E0.04338
G1 X9.998 Y11.522 E0.03526
G1 X9.581 Y11.424 E0.03931
G1 X8.926 Y11.156 E0.06492
G1 X8.059 Y10.617 E0.09364
G1 X7.839 Y10.460 E0.02487
G1 X6.531 Y9.369 E0.15629
G1 X4.547 Y7.561 E0.24624
G1 X4.270 Y7.722 E0.02942
G1 X5.028 Y11.239 E0.33006
G1 X5.205 Y13.206 E0.18121
G1 X5.134 Y13.857 E0.06011
G1 X4.977 Y14.438 E0.05516
G1 X4.680 Y15.001 E0.05848
G1 X4.399 Y15.325 E0.03933
G1 X4.133 Y15.547 E0.03180
G1 X3.794 Y15.745 E0.03605
G1 X3.369 Y15.904 E0.04164
G1 X2.815 Y16.052 E0.05256
G1 X2.002 Y16.103 E0.07476
G1 X1.982 Y15.367 F9000.000
G1 X1.580 Y15.298 E0.03738 F900.000
G1 X1.274 Y15.165 E0.03064
G1 X1.017 Y14.979 E0.02911
G1 X0.791 Y14.748 E0.02969
G1 X0.601 Y14.486 E0.02972
G1 X0.330 Y13.959 E0.05432
G1 X0.043 Y13.055 E0.08702
G1 X-0.012 Y12.843 E0.02011
G1 X-0.325 Y11.039 E0.16800
G1 X-0.896 Y6.081 E0.45788
G1 X-1.237 Y6.030 E0.03162
G1 X-2.287 Y8.210 E0.22201
G1 X-4.002 Y11.458 E0.33695
G1 X-5.063 Y12.982 E0.17037
G1 X-5.442 Y13.345 E0.04813
G1 X-5.812 Y13.603 E0.04140
G1 X-6.056 Y13.718 E0.02471
G1 X-6.269 Y13.789 E0.02061
G1 X-6.512 Y13.830 E0.02266
G1 X-6.763 Y13.832 E0.02297
G1 X-7.049 Y13.781 E0.02671
G1 X-7.281 Y13.702 E0.02247
G1 X-7.783 Y13.471 E0.05068
G1 X-8.361 Y13.045 E0.06591
G1 X-8.640 Y12.710 E0.03998
G1 X-8.781 Y12.407 E0.03068
G1 X-8.849 Y12.127 E0.02648
G1 X-8.874 Y11.806 E0.02955
G1 X-8.851 Y11.483 E0.02972
G1 X-8.719 Y10.903 E0.05449
G1 X-8.269 Y9.839 E0.10606
G1 X-7.434 Y8.395 E0.15299
G1 X-6.663 Y7.200 E0.13051
G1 X-4.596 Y4.082 E0.34322
G1 X-4.825 Y3.825 E0.03161
G1 X-7.030 Y4.819 E0.22189
G1 X-10.431 Y6.205 E0.33695
G1 X-12.223 Y6.690 E0.17037
G1 X-12.747 Y6.725 E0.04813
G1 X-13.207 Y6.683 E0.04240
G1 X-13.654 Y6.540 E0.04305
G1 X-13.877 Y6.410 E0.02370
G1 X-14.051 Y6.268 E0.02061
G1 X-14.241 Y6.048 E0.02667
G1 X-14.384 Y5.819 E0.02483
G1 X-14.621 Y5.317 E0.05088
G1 X-14.789 Y4.628 E0.06503
G1 X-14.794 Y4.234 E0.03614
G1 X-14.722 Y3.915 E0.03003
G1 X-14.591 Y3.630 E0.02882
G1 X-14.408 Y3.365 E0.02950
G1 X-14.188 Y3.131 E0.02948
G1 X-13.721 Y2.770 E0.05413
G1 X-12.708 Y2.243 E0.10484
G1 X-10.980 Y1.614 E0.16866
G1 X-9.813 Y1.257 E0.11205
G1 X-8.062 Y0.682 E0.16905
G1 X-6.151 Y0.166 E0.18165
G1 X-6.149 Y-0.170 E0.03084
G1 X-8.483 Y-0.827 E0.22249
G1 X-11.979 Y-1.951 E0.33695
G1 X-13.664 Y-2.732 E0.17037
G1 X-14.087 Y-3.042 E0.04813
G1 X-14.405 Y-3.362 E0.04140
G1 X-14.562 Y-3.584 E0.02495
G1 X-14.684 Y-3.816 E0.02408
G1 X-14.793 Y-4.216 E0.03801
G1 X-14.796 Y-4.547 E0.03039
G1 X-14.758 Y-4.791 E0.02265
G1 X-14.618 Y-5.325 E0.05065
G1 X-14.304 Y-5.960 E0.06503
G1 X-14.053 Y-6.268 E0.03640
G1 X-13.768 Y-6.479 E0.03260
G1 X-13.464 Y-6.614 E0.03047
G1 X-13.199 Y-6.683 E0.02517
G1 X-12.881 Y-6.721 E0.02930
G1 X-12.294 Y-6.698 E0.05392
G1 X-11.167 Y-6.447 E0.10595
G1 X-9.609 Y-5.884 E0.15199
G1 X-8.325 Y-5.345 E0.12775
G1 X-6.614 Y-4.660 E0.16911
G1 X-4.819 Y-3.826 E0.18165
G1 X-4.601 Y-4.082 E0.03084
G1 X-5.967 Y-6.086 E0.22249
G1 X-7.922 Y-9.195 E0.33695
G1 X-8.711 Y-10.876 E0.17037
G1 X-8.836 Y-11.385 E0.04813
G1 X-8.874 Y-11.832 E0.04113
G1 X-8.859 Y-12.057 E0.02073
G1 X-8.808 Y-12.321 E0.02463
G1 X-8.721 Y-12.555 E0.02288
G1 X-8.598 Y-12.772 E0.02290
G1 X-8.428 Y-12.976 E0.02436
G1 X-8.228 Y-13.155 E0.02464
G1 X-7.775 Y-13.476 E0.05091
G1 X-7.131 Y-13.757 E0.06453
G1 X-6.922 Y-13.810 E0.01972
G1 X-6.677 Y-13.836 E0.02260
G1 X-6.381 Y-13.813 E0.02723
G1 X-6.079 Y-13.728 E0.02885
G1 X-5.787 Y-13.588 E0.02969
G1 X-5.519 Y-13.407 E0.02972
G1 X-5.085 Y-13.004 E0.05432
G1 X-4.381 Y-12.073 E0.10707
G1 X-3.553 Y-10.636 E0.15216
G1 X-2.904 Y-9.370 E0.13051
G1 X-1.241 Y-6.030 E0.34235
G1 X-0.901 Y-6.080 E0.03158
G1 X-0.659 Y-8.498 E0.22291
G1 X-0.159 Y-12.136 E0.33695
G1 X0.318 Y-13.931 E0.17037
G1 X0.549 Y-14.401 E0.04813
G1 X0.808 Y-14.768 E0.04113
G1 X0.964 Y-14.931 E0.02072
G1 X1.173 Y-15.100 E0.02463
G1 X1.389 Y-15.223 E0.02288
G1 X1.624 Y-15.310 E0.02297
G1 X1.911 Y-15.361 E0.02671
G1 X2.156 Y-15.366 E0.02247 F900.000
G1 X2.706 Y-15.321 E0.05068
G1 X3.395 Y-15.118 E0.06591
G1 X3.772 Y-14.899 E0.03998
G1 X4.008 Y-14.662 E0.03068
G1 X4.168 Y-14.422 E0.02648
G1 X4.301 Y-14.129 E0.02955
G1 X4.390 Y-13.817 E0.02972
G1 X4.464 Y-13.228 E0.05449
G1 X4.406 Y-12.073 E0.10606
G1 X4.115 Y-10.432 E0.15299
G1 X3.799 Y-9.045 E0.13051
G1 X2.923 Y-5.407 E0.34327
G1 X3.225 Y-5.244 E0.03156
G1 X4.958 Y-6.933 E0.22201
G1 X7.679 Y-9.398 E0.33695
G1 X9.198 Y-10.467 E0.17037
G1 X9.678 Y-10.679 E0.04813
G1 X10.124 Y-10.797 E0.04240
G1 X10.593 Y-10.815 E0.04304
G1 X10.847 Y-10.769 E0.02370
G1 X11.060 Y-10.696 E0.02061
G1 X11.314 Y-10.554 E0.02667
G1 X11.527 Y-10.387 E0.02483
G1 X11.921 Y-9.997 E0.05091
G1 X12.318 Y-9.400 E0.06577
G1 X12.459 Y-9.018 E0.03738
G1 X12.496 Y-8.686 E0.03064
G1 X12.464 Y-8.370 E0.02911
G1 X12.376 Y-8.059 E0.02969
G1 X12.245 Y-7.763 E0.02972
G1 X11.922 Y-7.264 E0.05449
G1 X11.135 Y-6.417 E0.10610
G1 X9.722 Y-5.238 E0.16884
G1 X5.715 Y-2.265 E0.45782
G1 X5.842 Y-1.944 E0.03168
G1 X8.254 Y-2.124 E0.22189
G1 X11.924 Y-2.263 E0.33695
G1 X13.774 Y-2.106 E0.17037
G1 X14.277 Y-1.960 E0.04805
G1 X14.639 Y-1.792 E0.03666
G1 X14.870 Y-1.645 E0.02505
G1 X15.102 Y-1.438 E0.02854
G1 X15.343 Y-1.098 E0.03826
G1 X15.459 Y-0.788 E0.03040
G1 X15.507 Y-0.545 E0.02265
G1 X15.558 Y0.005 E0.05068
G1 X15.478 Y0.717 E0.06577
G1 X15.340 Y1.100 E0.03738
G1 X15.155 Y1.378 E0.03064
G1 X14.928 Y1.600 E0.02911
G1 X14.661 Y1.782 E0.02969
G1 X14.370 Y1.924 E0.02972
G1 X13.802 Y2.099 E0.05449
G1 X12.655 Y2.242 E0.10606
G1 X10.988 Y2.241 E0.15299
G1 X9.567 Y2.171 E0.13051
G1 X5.843 Y1.940 E0.34235
G1 X5.716 Y2.260 E0.03158
G1 X7.689 Y3.678 E0.22291
G1 X10.589 Y5.931 E0.33695
G1 X11.905 Y7.241 E0.17037
G1 X12.197 Y7.676 E0.04813
G1 X12.387 Y8.086 E0.04140
G1 X12.458 Y8.346 E0.02471
G1 X12.491 Y8.568 E0.02061
G1 X12.489 Y8.815 E0.02266
G1 X12.447 Y9.062 E0.02297
G1 X12.348 Y9.335 E0.02671
G1 X12.230 Y9.550 E0.02247
G1 X11.915 Y10.004 E0.05065
G1 X11.403 Y10.493 E0.06503
G1 X11.062 Y10.696 E0.03640
G1 X10.721 Y10.798 E0.03260
G1 X10.390 Y10.820 E0.03047
G1 X10.117 Y10.795 E0.02517
G1 X9.806 Y10.721 E0.02930
G1 X9.262 Y10.499 E0.05392
G1 X8.289 Y9.877 E0.10595
G1 X7.017 Y8.816 E0.15199
G1 X5.995 Y7.870 E0.12775
G1 X4.622 Y6.641 E0.16911
G1 X3.219 Y5.243 E0.18165
G1 X2.927 Y5.410 E0.03084
G1 X3.525 Y7.760 E0.22249
G1 X4.300 Y11.350 E0.33695
G1 X4.466 Y13.199 E0.17037
G1 X4.409 Y13.721 E0.04813
G1 X4.288 Y14.167 E0.04240
G1 X4.069 Y14.584 E0.04324
G1 X3.882 Y14.799 E0.02609
G1 X3.709 Y14.943 E0.02068
G1 X3.477 Y15.078 E0.02466
G1 X3.144 Y15.203 E0.03261
G1 X2.696 Y15.322 E0.04257
G1 X2.042 Y15.364 E0.06015
G1 X1.751 Y15.694 F9000.000
G1 E-3.20000 F3000.00000
G1 Z0.700 F9000.000
G1 X31.400 Y-20.843 F9000.000
G1 Z0.300 F9000.000
G1 E3.20000 F3000.00000
G1 X32.950 Y-19.413 E0.19350 F900.000
G1 X35.847 Y-15.691 E0.43273
G1 X38.102 Y-11.524 E0.43474
G1 X39.641 Y-7.043 E0.43474
G1 X40.421 Y-2.369 E0.43474
G1 X40.421 Y2.369 E0.43474
G1 X39.641 Y7.043 E0.43474
G1 X38.102 Y11.524 E0.43474
G1 X35.847 Y15.691 E0.43474
G1 X32.937 Y19.430 E0.43470
G1 X29.432 Y22.652 E0.43676
G1 X25.484 Y25.231 E0.43273
G1 X21.145 Y27.135 E0.43474
G1 X16.552 Y28.298 E0.43474
G1 X11.781 Y28.693 E0.43925
G1 X-11.781 Y28.693 E2.16174
G1 X-16.552 Y28.298 E0.43925
G1 X-21.145 Y27.135 E0.43474
G1 X-25.484 Y25.231 E0.43474
G1 X-29.451 Y22.640 E0.43474
G1 X-32.937 Y19.431 E0.43474
G1 X-35.847 Y15.691 E0.43474
G1 X-38.102 Y11.524 E0.43474
G1 X-39.641 Y7.043 E0.43474
G1 X-40.421 Y2.370 E0.43470
G1 X-40.417 Y-2.391 E0.43676
G1 X-39.641 Y-7.043 E0.43273
G1 X-38.102 Y-11.524 E0.43474
G1 X-35.847 Y-15.691 E0.43474
G1 X-32.937 Y-19.431 E0.43474
G1 X-29.451 Y-22.640 E0.43474
G1 X-25.484 Y-25.231 E0.43474
G1 X-21.145 Y-27.135 E0.43474
G1 X-16.552 Y-28.298 E0.43474
