; generated by Slic3r 1.2.9 on 2016-11-18 at 10:11:37

; external perimeters extrusion width = 0.50mm
; perimeters extrusion width = 0.50mm
; infill extrusion width = 0.50mm
; solid infill extrusion width = 0.50mm
; top infill extrusion width = 0.50mm

M107
;Basic settings: Layer height: {layer_height} Walls: {wall_thickness} Fill: {fill_density}
;Print time: {print_time}
;Filament used: {filament_amount}m {filament_weight}g
;Filament cost: {filament_cost}
;M190 S{print_bed_temperature} ;Uncomment to add your own bed temperature line
;M109 S{print_temperature} ;Uncomment to add your own temperature line
G21        ;metric values
G90        ;absolute positioning
M83
G10 P0 S200
T0
M116


G21 ; set units to millimeters
G90 ; use absolute coordinates
M83 ; use relative distances for extrusion
G1 E-3.20000 F3000.00000
G1 Z0.400 F9000.000
G1 X26.000 Y12.064 F9000.000
G1 Z0.300 F9000.000
G1 E3.20000 F3000.00000
G1 X25.447 Y13.239 E0.11920 F1200.000
G1 X24.539 Y14.850 E0.16965
G1 X24.284 Y15.264 E0.04457
G1 X23.702 Y16.155 E0.09766
G1 X23.124 Y16.971 E0.09178
G1 X21.642 Y18.825 E0.21774
G1 X20.721 Y19.827 E0.12488
G1 X19.754 Y20.787 E0.12503
G1 X19.072 Y21.426 E0.08580
G1 X18.132 Y22.217 E0.11268
G1 X17.140 Y22.995 E0.11570
G1 X16.029 Y23.789 E0.12524
G1 X14.095 Y24.978 E0.20828
G1 X12.820 Y25.660 E0.13268
G1 X10.889 Y26.538 E0.19459
G1 X9.146 Y27.187 E0.17066
G1 X7.250 Y27.751 E0.18156
G1 X5.597 Y28.131 E0.15557
G1 X3.571 Y28.462 E0.18840
G1 X2.319 Y28.587 E0.11544
G1 X1.343 Y28.643 E0.08968
G1 X0.122 Y28.683 E0.11204
G1 X-1.265 Y28.646 E0.12729
G1 X-2.278 Y28.590 E0.09308
G1 X-3.447 Y28.475 E0.10779
G1 X-3.845 Y28.425 E0.03681
G1 X-5.586 Y28.134 E0.16199
G1 X-7.277 Y27.746 E0.15916
G1 X-9.217 Y27.163 E0.18588
G1 X-10.969 Y26.504 E0.17174
G1 X-12.561 Y25.787 E0.16021
G1 X-14.113 Y24.970 E0.16089
G1 X-14.564 Y24.710 E0.04777
G1 X-16.024 Y23.790 E0.15832
G1 X-17.454 Y22.763 E0.16152
G1 X-18.950 Y21.532 E0.17779
G1 X-20.256 Y20.311 E0.16404
G1 X-21.663 Y18.802 E0.18930
G1 X-22.807 Y17.395 E0.16639
G1 X-23.866 Y15.913 E0.16708
G1 X-24.832 Y14.359 E0.16785
G1 X-25.684 Y12.771 E0.16539
G1 X-26.534 Y10.898 E0.18874
G1 X-27.164 Y9.216 E0.16475
G1 X-27.704 Y7.435 E0.17078
G1 X-28.131 Y5.611 E0.17190
G1 X-28.435 Y3.776 E0.17065
G1 X-28.618 Y1.969 E0.16663
G1 X-28.685 Y-0.078 E0.18793
G1 X-28.625 Y-1.839 E0.16160
G1 X-28.444 Y-3.715 E0.17299
G1 X-28.107 Y-5.722 E0.18665
G1 X-27.705 Y-7.434 E0.16139
G1 X-27.157 Y-9.235 E0.17270
G1 X-26.515 Y-10.946 E0.16769
G1 X-25.730 Y-12.680 E0.17464
G1 X-24.732 Y-14.528 E0.19268
G1 X-23.778 Y-16.042 E0.16417
G1 X-22.781 Y-17.432 E0.15699
G1 X-21.565 Y-18.914 E0.17591
G1 X-20.223 Y-20.342 E0.17977
G1 X-18.818 Y-21.649 E0.17607
G1 X-17.476 Y-22.746 E0.15903
G1 X-15.917 Y-23.864 E0.17602
G1 X-14.552 Y-24.717 E0.14767
G1 X-14.094 Y-24.978 E0.04837
G1 X-12.530 Y-25.802 E0.16221
G1 X-11.043 Y-26.474 E0.14972
G1 X-9.493 Y-27.063 E0.15215
G1 X-9.066 Y-27.214 E0.04152
G1 X-7.550 Y-27.671 E0.14529
G1 X-5.751 Y-28.102 E0.16972
G1 X-3.753 Y-28.438 E0.18589
G1 X-1.898 Y-28.621 E0.17103
G1 X-0.122 Y-28.684 E0.16301
G1 X1.592 Y-28.636 E0.15731
G1 X2.095 Y-28.606 E0.04626 F1200.000
G1 X3.858 Y-28.423 E0.16260
G1 X5.749 Y-28.102 E0.17597
G1 X7.304 Y-27.739 E0.14651
G1 X7.658 Y-27.640 E0.03378
G1 X9.266 Y-27.147 E0.15433
G1 X11.004 Y-26.491 E0.17044
G1 X12.652 Y-25.744 E0.16598
G1 X14.494 Y-24.752 E0.19197
G1 X15.958 Y-23.836 E0.15844
G1 X17.432 Y-22.781 E0.16632
G1 X18.902 Y-21.576 E0.17435
G1 X20.244 Y-20.323 E0.16846
G1 X21.633 Y-18.838 E0.18661
G1 X22.767 Y-17.450 E0.16448
G1 X23.844 Y-15.947 E0.16965
G1 X24.818 Y-14.384 E0.16891
G1 X25.683 Y-12.774 E0.16774
G1 X26.535 Y-10.895 E0.18931
G1 X27.174 Y-9.187 E0.16731
G1 X27.666 Y-7.574 E0.15469
G1 X28.102 Y-5.748 E0.17227
G1 X28.171 Y-5.392 E0.03329
G1 X28.430 Y-3.819 E0.14619
G1 X28.904 Y-0.475 E0.30992
G1 X28.930 Y0.340 E0.07478
G1 X28.702 Y3.203 E0.26359
G1 X28.645 Y3.620 E0.03859
G1 X28.065 Y6.531 E0.27234
G1 X27.963 Y6.927 E0.03747
G1 X27.062 Y9.708 E0.26829
G1 X26.911 Y10.097 E0.03820
G1 X26.026 Y12.009 E0.19340
G1 E-3.20000 F3000.00000
G1 Z0.700 F9000.000
G1 X10.222 Y4.544 F9000.000
G1 Z0.300 F9000.000
G1 E3.20000 F3000.00000
G1 X9.689 Y5.593 E0.10800 F900.000
G1 X9.051 Y6.576 E0.10747
G1 X8.314 Y7.486 E0.10744
G1 X7.486 Y8.314 E0.10744
G1 X6.576 Y9.050 E0.10744
G1 X5.594 Y9.688 E0.10744
G1 X4.550 Y10.220 E0.10745
G1 X3.456 Y10.640 E0.10752
G1 X2.328 Y10.942 E0.10713
G1 X1.167 Y11.126 E0.10789
G1 X0.000 Y11.187 E0.10719
G1 X-1.166 Y11.126 E0.10716
G1 X-2.327 Y10.942 E0.10779
G1 X-3.454 Y10.640 E0.10708
G1 X-4.549 Y10.220 E0.10765
G1 X-5.594 Y9.688 E0.10753
G1 X-6.576 Y9.050 E0.10744
G1 X-7.486 Y8.314 E0.10744
G1 X-8.314 Y7.486 E0.10744
G1 X-9.051 Y6.576 E0.10744
G1 X-9.688 Y5.593 E0.10744
G1 X-10.220 Y4.550 E0.10744
G1 X-10.640 Y3.457 E0.10744
G1 X-10.943 Y2.326 E0.10744
G1 X-11.126 Y1.169 E0.10744
G1 X-11.187 Y-0.000 E0.10744
G1 X-11.126 Y-1.170 E0.10744
G1 X-10.943 Y-2.326 E0.10744
G1 X-10.620 Y-3.530 E0.11430
G1 X-10.218 Y-4.554 E0.10100
G1 X-9.688 Y-5.594 E0.10705
G1 X-9.051 Y-6.576 E0.10744
G1 X-8.314 Y-7.486 E0.10744
G1 X-7.486 Y-8.314 E0.10744
G1 X-6.576 Y-9.051 E0.10744
G1 X-5.594 Y-9.689 E0.10744
G1 X-4.550 Y-10.220 E0.10745
G1 X-3.456 Y-10.640 E0.10752
G1 X-2.328 Y-10.942 E0.10712
G1 X-1.167 Y-11.126 E0.10789
G1 X-0.007 Y-11.187 E0.10656 F900.000
G1 X1.173 Y-11.126 E0.10841
G1 X2.327 Y-10.943 E0.10718
G1 X3.454 Y-10.641 E0.10708
G1 X4.549 Y-10.221 E0.10765
G1 X5.594 Y-9.689 E0.10753
G1 X6.576 Y-9.051 E0.10744
G1 X7.486 Y-8.314 E0.10744
G1 X8.314 Y-7.486 E0.10744
G1 X9.051 Y-6.576 E0.10744
G1 X9.688 Y-5.594 E0.10744
G1 X10.220 Y-4.550 E0.10744
G1 X10.640 Y-3.457 E0.10744
G1 X10.943 Y-2.326 E0.10744
G1 X11.126 Y-1.170 E0.10744
G1 X11.187 Y-0.000 E0.10744
G1 X11.126 Y1.169 E0.10744
G1 X10.943 Y2.326 E0.10744
G1 X10.640 Y3.457 E0.10744
G1 X10.244 Y4.488 E0.10134
G1 X9.557 Y4.224 F9000.000
G1 X9.051 Y5.225 E0.10290 F900.000
G1 X8.455 Y6.143 E0.10038
G1 X7.766 Y6.993 E0.10036
G1 X6.993 Y7.766 E0.10036
G1 X6.143 Y8.455 E0.10037
G1 X5.225 Y9.050 E0.10036
G1 X4.251 Y9.547 E0.10038
G1 X3.228 Y9.939 E0.10044
G1 X2.175 Y10.221 E0.10005
G1 X1.090 Y10.393 E0.10081
G1 X0.000 Y10.450 E0.10012
G1 X-1.089 Y10.393 E0.10009
G1 X-2.174 Y10.222 E0.10071
G1 X-3.226 Y9.940 E0.10001
G1 X-4.250 Y9.547 E0.10057
G1 X-5.225 Y9.050 E0.10044
G1 X-6.143 Y8.455 E0.10036
G1 X-6.993 Y7.766 E0.10036
G1 X-7.766 Y6.993 E0.10036
G1 X-8.455 Y6.143 E0.10036
G1 X-9.051 Y5.225 E0.10036
G1 X-9.547 Y4.250 E0.10036
G1 X-9.939 Y3.229 E0.10036
G1 X-10.222 Y2.173 E0.10036
G1 X-10.393 Y1.092 E0.10036
G1 X-10.451 Y-0.000 E0.10036
G1 X-10.393 Y-1.093 E0.10036
G1 X-10.222 Y-2.173 E0.10037
G1 X-9.920 Y-3.299 E0.10698
G1 X-9.546 Y-4.252 E0.09393
G1 X-9.051 Y-5.226 E0.10023
G1 X-8.455 Y-6.143 E0.10037
G1 X-7.766 Y-6.993 E0.10036
G1 X-6.993 Y-7.767 E0.10036
G1 X-6.143 Y-8.455 E0.10036
G1 X-5.225 Y-9.051 E0.10036
G1 X-4.251 Y-9.547 E0.10038
G1 X-3.229 Y-9.940 E0.10044
G1 X-2.175 Y-10.222 E0.10005
G1 X-1.090 Y-10.394 E0.10081
G1 X-0.007 Y-10.450 E0.09950 F900.000
G1 X1.096 Y-10.393 E0.10134
G1 X2.174 Y-10.222 E0.10009
G1 X3.226 Y-9.940 E0.10002
G1 X4.250 Y-9.548 E0.10057
G1 X5.225 Y-9.051 E0.10044
G1 X6.143 Y-8.455 E0.10036
G1 X6.993 Y-7.767 E0.10036
G1 X7.766 Y-6.993 E0.10036
G1 X8.455 Y-6.143 E0.10036
G1 X9.051 Y-5.226 E0.10036
G1 X9.547 Y-4.251 E0.10036
G1 X9.939 Y-3.230 E0.10036
G1 X10.222 Y-2.173 E0.10037
G1 X10.393 Y-1.093 E0.10036
G1 X10.451 Y-0.000 E0.10036
G1 X10.393 Y1.092 E0.10036
G1 X10.222 Y2.173 E0.10036
G1 X9.939 Y3.229 E0.10037
G1 X9.579 Y4.168 E0.09230
G1 X9.787 Y4.552 F9000.000
G1 X17.788 Y15.828 F9000.000
G1 X17.272 Y16.388 E0.06984 F900.000
G1 X16.334 Y17.318 E0.12121
G1 X15.850 Y17.772 E0.06089
G1 X15.046 Y18.447 E0.09630
G1 X14.154 Y19.146 E0.10401
G1 X13.281 Y19.766 E0.09818
G1 X11.602 Y20.793 E0.18061
G1 X10.601 Y21.324 E0.10400
G1 X9.083 Y22.013 E0.15294
G1 X7.545 Y22.586 E0.15058
G1 X5.944 Y23.058 E0.15312
G1 X4.979 Y23.283 E0.09088
G1 X3.001 Y23.623 E0.18416
G1 X1.873 Y23.736 E0.10408
G1 X-0.001 Y23.813 E0.17200
G1 X-1.832 Y23.739 E0.16813
G1 X-3.087 Y23.613 E0.11576
G1 X-4.214 Y23.427 E0.10481
G1 X-4.733 Y23.338 E0.04834
G1 X-6.122 Y23.013 E0.13086
G1 X-7.580 Y22.575 E0.13971
G1 X-9.061 Y22.022 E0.14502
G1 X-10.401 Y21.420 E0.13480
G1 X-12.021 Y20.556 E0.16843
G1 X-13.330 Y19.732 E0.14189
G1 X-14.532 Y18.866 E0.13594
G1 X-15.785 Y17.829 E0.14924
G1 X-16.684 Y16.987 E0.11300
G1 X-17.956 Y15.641 E0.16993
G1 X-18.964 Y14.401 E0.14664
G1 X-19.697 Y13.378 E0.11543
G1 X-20.650 Y11.860 E0.16442
G1 X-21.360 Y10.529 E0.13843
G1 X-21.999 Y9.119 E0.14206
G1 X-22.530 Y7.712 E0.13794
G1 X-23.047 Y5.977 E0.16611
G1 X-23.343 Y4.710 E0.11938
G1 X-23.599 Y3.183 E0.14214
G1 X-23.758 Y1.626 E0.14352
G1 X-23.770 Y1.345 E0.02584
G1 X-23.814 Y-0.001 E0.12357
G1 X-23.767 Y-1.471 E0.13490
G1 X-23.597 Y-3.200 E0.15940
G1 X-23.329 Y-4.769 E0.14610
G1 X-22.992 Y-6.200 E0.13481
G1 X-22.526 Y-7.724 E0.14625
G1 X-22.053 Y-8.980 E0.12316
G1 X-21.329 Y-10.589 E0.16185
G1 X-20.614 Y-11.923 E0.13889
G1 X-19.861 Y-13.137 E0.13107
G1 X-18.888 Y-14.502 E0.15381
G1 X-17.855 Y-15.756 E0.14907
G1 X-16.922 Y-16.752 E0.12519
G1 X-15.677 Y-17.925 E0.15693
G1 X-14.358 Y-18.993 E0.15571
G1 X-13.239 Y-19.795 E0.12639
G1 X-12.009 Y-20.561 E0.13292
G1 X-10.485 Y-21.381 E0.15879
G1 X-9.106 Y-22.004 E0.13885
G1 X-7.622 Y-22.561 E0.14545
G1 X-6.288 Y-22.966 E0.12787
G1 X-4.679 Y-23.350 E0.15180
G1 X-3.048 Y-23.617 E0.15158
G1 X-1.399 Y-23.768 E0.15195
G1 X-0.000 Y-23.814 E0.12844
G1 X1.399 Y-23.768 E0.12839
G1 X3.104 Y-23.611 E0.15713 F900.000
G1 X4.678 Y-23.350 E0.14640
G1 X6.148 Y-23.007 E0.13852
G1 X7.625 Y-22.560 E0.14157
G1 X9.190 Y-21.968 E0.15354
G1 X10.477 Y-21.385 E0.12961
G1 X11.860 Y-20.650 E0.14365
G1 X13.275 Y-19.770 E0.15295
G1 X14.512 Y-18.881 E0.13968
G1 X15.609 Y-17.981 E0.13024
G1 X16.849 Y-16.829 E0.15527
G1 X17.927 Y-15.676 E0.14481
G1 X18.833 Y-14.571 E0.13110
G1 X19.818 Y-13.203 E0.15470
G1 X20.635 Y-11.887 E0.14205
G1 X21.308 Y-10.627 E0.13114
G1 X22.000 Y-9.116 E0.15247
G1 X22.577 Y-7.567 E0.15165
G1 X22.994 Y-6.195 E0.13158
G1 X23.349 Y-4.678 E0.14293
G1 X23.619 Y-3.025 E0.15364
G1 X23.761 Y-1.576 E0.13360
G1 X23.853 Y1.185 E0.25353
G1 X23.976 Y1.185 E0.01130
G1 X23.852 Y2.749 E0.14389
G1 X23.302 Y5.511 E0.25845
G1 X22.449 Y8.142 E0.25377
G1 X22.399 Y8.251 E0.01093
G1 X21.153 Y10.937 E0.27169
G1 X20.314 Y12.425 E0.15678
G1 X19.635 Y13.474 E0.11462
G1 X19.182 Y14.110 E0.07160
G1 X17.828 Y15.784 E0.19754
G1 X18.369 Y16.283 F9000.000
G1 X17.802 Y16.898 E0.07684 F900.000
G1 X16.845 Y17.848 E0.12369
G1 X16.338 Y18.323 E0.06369
G1 X15.510 Y19.018 E0.09927
G1 X14.595 Y19.735 E0.10660
G1 X13.683 Y20.383 E0.10264
G1 X11.966 Y21.432 E0.18460
G1 X10.925 Y21.984 E0.10812
G1 X9.364 Y22.694 E0.15738
G1 X7.777 Y23.284 E0.15530
G1 X6.132 Y23.770 E0.15742
G1 X5.125 Y24.004 E0.09480
G1 X3.100 Y24.353 E0.18854
G1 X1.924 Y24.470 E0.10843
G1 X-0.000 Y24.549 E0.17672
G1 X-1.883 Y24.473 E0.17292
G1 X-3.184 Y24.342 E0.11991
G1 X-4.336 Y24.152 E0.10713
G1 X-4.879 Y24.059 E0.05057
G1 X-6.312 Y23.724 E0.13502
G1 X-7.815 Y23.272 E0.14400
G1 X-9.341 Y22.703 E0.14940
G1 X-10.717 Y22.085 E0.13842
G1 X-12.390 Y21.192 E0.17406
G1 X-13.747 Y20.338 E0.14705
G1 X-14.982 Y19.448 E0.13966
G1 X-16.271 Y18.381 E0.15356
G1 X-17.203 Y17.509 E0.11714
G1 X-18.509 Y16.126 E0.17450
G1 X-19.549 Y14.848 E0.15121
G1 X-20.308 Y13.788 E0.11956
G1 X-21.287 Y12.229 E0.16887
G1 X-22.020 Y10.854 E0.14299
G1 X-22.678 Y9.401 E0.14641
G1 X-23.227 Y7.948 E0.14251
G1 X-23.759 Y6.166 E0.17056
G1 X-24.064 Y4.855 E0.12354
G1 X-24.329 Y3.281 E0.14645
G1 X-24.492 Y1.679 E0.14769
G1 X-24.505 Y1.373 E0.02816
G1 X-24.550 Y-0.001 E0.12608
G1 X-24.502 Y-1.519 E0.13933
G1 X-24.326 Y-3.298 E0.16403
G1 X-24.051 Y-4.916 E0.15059
G1 X-23.703 Y-6.392 E0.13914
G1 X-23.222 Y-7.961 E0.15060
G1 X-22.733 Y-9.261 E0.12739
G1 X-21.990 Y-10.914 E0.16631
G1 X-21.251 Y-12.291 E0.14338
G1 X-20.473 Y-13.544 E0.13534
G1 X-19.473 Y-14.950 E0.15833
G1 X-18.408 Y-16.242 E0.15359
G1 X-17.444 Y-17.272 E0.12944
G1 X-16.162 Y-18.479 E0.16157
G1 X-14.804 Y-19.578 E0.16023
G1 X-13.648 Y-20.407 E0.13054
G1 X-12.378 Y-21.198 E0.13726
G1 X-10.811 Y-22.041 E0.16328
G1 X-9.387 Y-22.684 E0.14338
G1 X-7.858 Y-23.258 E0.14983
G1 X-6.480 Y-23.676 E0.13209
G1 X-4.824 Y-24.071 E0.15625
G1 X-3.142 Y-24.347 E0.15640
G1 X-1.445 Y-24.503 E0.15634
G1 X-0.000 Y-24.550 E0.13263
G1 X1.444 Y-24.503 E0.13260
G1 X3.198 Y-24.341 E0.16157 F900.000
G1 X4.822 Y-24.072 E0.15104
G1 X6.339 Y-23.718 E0.14289
G1 X7.862 Y-23.257 E0.14605
G1 X9.473 Y-22.647 E0.15799
G1 X10.802 Y-22.045 E0.13388
G1 X12.227 Y-21.288 E0.14807
G1 X13.685 Y-20.381 E0.15749
G1 X14.960 Y-19.465 E0.14410
G1 X16.093 Y-18.535 E0.13449
G1 X17.369 Y-17.350 E0.15973
G1 X18.480 Y-16.161 E0.14936
G1 X19.416 Y-15.020 E0.13541
G1 X20.430 Y-13.612 E0.15916
G1 X21.272 Y-12.255 E0.14655
G1 X21.968 Y-10.954 E0.13539
G1 X22.680 Y-9.398 E0.15699
G1 X23.275 Y-7.803 E0.15620
G1 X23.705 Y-6.386 E0.13585
G1 X24.071 Y-4.821 E0.14742
G1 X24.349 Y-3.121 E0.15811
G1 X24.496 Y-1.624 E0.13794
G1 X24.565 Y0.450 E0.19042
G1 X24.773 Y0.450 E0.01909
G1 X24.582 Y2.850 E0.22093
G1 X24.015 Y5.697 E0.26636
G1 X23.136 Y8.409 E0.26152
G1 X23.068 Y8.558 E0.01502
G1 X21.808 Y11.273 E0.27465
G1 X20.943 Y12.806 E0.16150
G1 X20.243 Y13.888 E0.11819
G1 X19.769 Y14.554 E0.07506
G1 X18.410 Y16.238 E0.19857
G1 X17.977 Y16.203 F9000.000
G1 X10.913 Y-4.184 F9000.000
G1 X22.318 Y7.221 E1.48072 F900.000
G1 X22.063 Y8.007 E0.07587
G1 X11.355 Y-2.701 E1.39028
G1 X11.563 Y-1.452 E0.11624
G1 X21.740 Y8.725 E1.32134
G1 X21.410 Y9.436 E0.07197
G1 X11.627 Y-0.347 E1.27013
G1 X11.594 Y0.661 E0.09260
G1 X21.080 Y10.147 E1.23159
G1 X20.748 Y10.856 E0.07185
G1 X11.490 Y1.598 E1.20198
G1 X11.330 Y2.479 E0.08222
G1 X20.373 Y11.521 E1.17397
G1 X19.997 Y12.187 E0.07015
G1 X11.110 Y3.300 E1.15379
G1 X10.837 Y4.068 E0.07482
G1 X19.592 Y12.823 E1.13667
G1 X19.177 Y13.449 E0.06894
G1 X10.533 Y4.805 E1.12223
G1 X10.182 Y5.495 E0.07107
G1 X18.736 Y14.049 E1.11054
G1 X18.272 Y14.626 E0.06797
G1 X9.793 Y6.147 E1.10084
G1 X9.383 Y6.778 E0.06908
G1 X17.809 Y15.203 E1.09387
G1 X17.326 Y15.761 E0.06775
G1 X8.918 Y7.353 E1.09169
G1 X8.433 Y7.910 E0.06774
G1 X16.806 Y16.282 E1.08697
G1 X16.285 Y16.802 E0.06757
G1 X7.913 Y8.430 E1.08697
G1 X7.356 Y8.915 E0.06774
G1 X15.765 Y17.323 E1.09165
G1 X15.208 Y17.808 E0.06773
G1 X6.781 Y9.380 E1.09411
G1 X6.151 Y9.791 E0.06907
G1 X14.637 Y18.277 E1.10179
G1 X14.053 Y18.734 E0.06807
G1 X5.499 Y10.180 E1.11063
G1 X4.810 Y10.531 E0.07105
G1 X13.451 Y19.173 E1.12197
G1 X12.825 Y19.587 E0.06897
G1 X4.073 Y10.836 E1.13628
G1 X3.305 Y11.109 E0.07480
G1 X12.178 Y19.982 E1.15204
G1 X11.532 Y20.377 E0.06951
G1 X2.484 Y11.329 E1.17474
G1 X1.603 Y11.489 E0.08221
G1 X10.856 Y20.742 E1.20134
G1 X10.160 Y21.086 E0.07134
G1 X0.667 Y11.594 E1.23242
G1 X-0.340 Y11.627 E0.09254
G1 X9.444 Y21.411 E1.27028
G1 X8.711 Y21.720 E0.07297
G1 X-1.445 Y11.563 E1.31866
G1 X-2.693 Y11.357 E0.11608
G1 X7.953 Y22.002 E1.38215
G1 X7.176 Y22.266 E0.07536
G1 X-4.174 Y10.916 E1.47357
G1 X-6.114 Y10.017 F9000.000
G1 X6.372 Y22.503 E1.62107 F900.000
G1 X5.549 Y22.721 E0.07815
G1 X-22.718 Y-5.545 E3.66987
G1 X-22.509 Y-6.377 E0.07877
G1 X-10.017 Y6.114 E1.62180
G1 X-10.917 Y4.174 F9000.000
G1 X-22.265 Y-7.174 E1.47335 F900.000
G1 X-22.006 Y-7.957 E0.07564
G1 X-11.357 Y2.693 E1.38263
G1 X-11.564 Y1.445 E0.11613
G1 X-21.722 Y-8.713 E1.31880
G1 X-21.408 Y-9.441 E0.07274
G1 X-11.628 Y0.340 E1.26985
G1 X-11.594 Y-0.667 E0.09254
G1 X-21.085 Y-10.159 E1.23228
G1 X-20.740 Y-10.854 E0.07130
G1 X-11.489 Y-1.604 E1.20105
G1 X-11.329 Y-2.484 E0.08219
G1 X-20.377 Y-11.532 E1.17467
G1 X-19.991 Y-12.187 E0.06979
G1 X-11.109 Y-3.305 E1.15312
G1 X-10.839 Y-4.076 E0.07497
G1 X-19.592 Y-12.829 E1.13646
G1 X-19.166 Y-13.444 E0.06868
G1 X-10.532 Y-4.810 E1.12102
G1 X-10.180 Y-5.499 E0.07105
G1 X-18.733 Y-14.052 E1.11044
G1 X-18.278 Y-14.637 E0.06810
G1 X-9.791 Y-6.151 E1.10183
G1 X-9.381 Y-6.781 E0.06907
G1 X-17.807 Y-15.208 E1.09405
G1 X-17.321 Y-15.763 E0.06772
G1 X-8.915 Y-7.357 E1.09145
G1 X-8.430 Y-7.913 E0.06774
