; generated by Slic3r 1.2.9 on 2016-11-15 at 15:04:25

; external perimeters extrusion width = 0.50mm
; perimeters extrusion width = 0.50mm
; infill extrusion width = 0.50mm
; solid infill extrusion width = 0.50mm
; top infill extrusion width = 0.50mm

M107
;Basic settings: Layer height: {layer_height} Walls: {wall_thickness} Fill: {fill_density}
;Print time: {print_time}
;Filament used: {filament_amount}m {filament_weight}g
;Filament cost: {filament_cost}
;M190 S{print_bed_temperature} ;Uncomment to add your own bed temperature line
;M109 S{print_temperature} ;Uncomment to add your own temperature line
G21        ;metric values
G90        ;absolute positioning
M83
G10 P0 S200
T0
M116


G21 ; set units to millimeters
G90 ; use absolute coordinates
M83 ; use relative distances for extrusion
G1 E-3.20000 F3000.00000
G1 Z0.400 F9000.000
G1 X0.000 Y11.185 F9000.000
G1 Z0.300 F9000.000
G1 E3.20000 F3000.00000
G1 X-12.591 Y11.185 E1.15524 F1200.000
G1 X-13.540 Y11.134 E0.08722
G1 X-13.902 Y11.094 E0.03338
G1 X-14.974 Y10.905 E0.09992
G1 X-15.676 Y10.722 E0.06657
G1 X-16.704 Y10.362 E0.09992
G1 X-17.692 Y9.904 E0.09992
G1 X-18.631 Y9.352 E0.09992
G1 X-18.932 Y9.148 E0.03338
G1 X-19.791 Y8.479 E0.09992
G1 X-20.581 Y7.729 E0.09992
G1 X-21.295 Y6.907 E0.09992
G1 X-21.724 Y6.322 E0.06657
G1 X-22.295 Y5.394 E0.09992
G1 X-22.774 Y4.416 E0.09992
G1 X-23.155 Y3.396 E0.09992
G1 X-23.434 Y2.343 E0.09992
G1 X-23.610 Y1.269 E0.09992
G1 X-23.681 Y0.182 E0.09992
G1 X-23.646 Y-0.907 E0.09992
G1 X-23.610 Y-1.269 E0.03338
G1 X-23.434 Y-2.343 E0.09992
G1 X-23.155 Y-3.396 E0.09992
G1 X-22.774 Y-4.416 E0.09992
G1 X-22.295 Y-5.394 E0.09992
G1 X-21.724 Y-6.322 E0.09992
G1 X-21.066 Y-7.189 E0.09992
G1 X-20.581 Y-7.729 E0.06657
G1 X-19.791 Y-8.479 E0.09992
G1 X-18.932 Y-9.148 E0.09992
G1 X-18.012 Y-9.730 E0.09992
G1 X-17.039 Y-10.220 E0.09992
G1 X-16.023 Y-10.613 E0.09992
G1 X-15.676 Y-10.722 E0.03338
G1 X-14.618 Y-10.980 E0.09992
G1 X-13.540 Y-11.134 E0.09992
G1 X-12.591 Y-11.185 E0.08722
G1 X12.591 Y-11.185 E2.31048
G1 X13.540 Y-11.134 E0.08722 F1200.000
G1 X13.902 Y-11.094 E0.03338
G1 X14.974 Y-10.905 E0.09992
G1 X15.676 Y-10.722 E0.06657
G1 X16.704 Y-10.362 E0.09992
G1 X17.039 Y-10.220 E0.03338
G1 X18.012 Y-9.730 E0.09992
G1 X18.932 Y-9.148 E0.09992
G1 X19.512 Y-8.711 E0.06657
G1 X20.326 Y-7.988 E0.09992
G1 X21.066 Y-7.189 E0.09992
G1 X21.295 Y-6.907 E0.03338
G1 X21.724 Y-6.322 E0.06656
G1 X22.295 Y-5.394 E0.09992
G1 X22.466 Y-5.073 E0.03338
G1 X22.912 Y-4.080 E0.09992
G1 X23.259 Y-3.047 E0.09992
G1 X23.505 Y-1.986 E0.09991
G1 X23.610 Y-1.269 E0.06657
G1 X23.681 Y-0.182 E0.09992
G1 X23.646 Y0.907 E0.09992
G1 X23.610 Y1.269 E0.03338
G1 X23.505 Y1.986 E0.06657
G1 X23.259 Y3.047 E0.09991
G1 X22.912 Y4.080 E0.09993
G1 X22.466 Y5.073 E0.09992
G1 X22.295 Y5.394 E0.03338
G1 X21.724 Y6.322 E0.09992
G1 X21.066 Y7.189 E0.09992
G1 X20.326 Y7.988 E0.09992
G1 X19.791 Y8.479 E0.06657
G1 X18.932 Y9.148 E0.09992
G1 X18.012 Y9.730 E0.09992
G1 X17.039 Y10.220 E0.09992
G1 X16.023 Y10.613 E0.09992
G1 X14.974 Y10.905 E0.09992
G1 X13.902 Y11.094 E0.09992
G1 X13.540 Y11.134 E0.03338
G1 X12.591 Y11.185 E0.08722
G1 X0.060 Y11.185 E1.14973
G1 E-3.20000 F3000.00000
G1 Z0.700 F9000.000
G1 X-9.356 Y3.144 F9000.000
G1 Z0.300 F9000.000
G1 E3.20000 F3000.00000
G1 X-10.277 Y3.850 E0.10649 F900.000
G1 X-11.349 Y4.294 E0.10649
G1 X-12.500 Y4.446 E0.10649
G1 X-13.651 Y4.294 E0.10649
G1 X-14.723 Y3.850 E0.10649
G1 X-15.644 Y3.144 E0.10649
G1 X-16.350 Y2.223 E0.10649
G1 X-16.794 Y1.151 E0.10649
G1 X-16.946 Y0.000 E0.10649
G1 X-16.794 Y-1.151 E0.10649
G1 X-16.350 Y-2.223 E0.10649
G1 X-15.644 Y-3.144 E0.10649
G1 X-14.723 Y-3.850 E0.10649
G1 X-13.651 Y-4.294 E0.10649
G1 X-12.500 Y-4.446 E0.10649 F900.000
G1 X-11.349 Y-4.294 E0.10649
G1 X-10.277 Y-3.850 E0.10649
G1 X-9.356 Y-3.144 E0.10649
G1 X-8.650 Y-2.223 E0.10649
G1 X-8.206 Y-1.151 E0.10649
G1 X-8.054 Y-0.000 E0.10649
G1 X-8.206 Y1.151 E0.10649
G1 X-8.650 Y2.223 E0.10649
G1 X-9.320 Y3.096 E0.10098
G1 X-9.881 Y2.619 F9000.000
G1 X-10.648 Y3.208 E0.08871 F900.000
G1 X-11.541 Y3.578 E0.08871
G1 X-12.500 Y3.704 E0.08871
G1 X-13.459 Y3.578 E0.08871
G1 X-14.352 Y3.208 E0.08871
G1 X-15.119 Y2.619 E0.08871
G1 X-15.708 Y1.852 E0.08871
G1 X-16.078 Y0.959 E0.08871
G1 X-16.204 Y0.000 E0.08871
G1 X-16.078 Y-0.959 E0.08871
G1 X-15.708 Y-1.852 E0.08871
G1 X-15.119 Y-2.619 E0.08871
G1 X-14.352 Y-3.208 E0.08871
G1 X-13.459 Y-3.578 E0.08871
G1 X-12.500 Y-3.704 E0.08871 F900.000
G1 X-11.541 Y-3.578 E0.08871
G1 X-10.648 Y-3.208 E0.08871
G1 X-9.881 Y-2.619 E0.08871
G1 X-9.292 Y-1.852 E0.08871
G1 X-8.922 Y-0.959 E0.08871
G1 X-8.796 Y-0.000 E0.08871
G1 X-8.922 Y0.959 E0.08871
G1 X-9.292 Y1.852 E0.08871
G1 X-9.844 Y2.571 E0.08321
G1 X-9.794 Y3.010 F9000.000
G1 X8.082 Y0.211 F9000.000
G1 X8.054 Y0.000 E0.01957 F900.000
G1 X8.206 Y-1.151 E0.10649
G1 X8.650 Y-2.223 E0.10649
G1 X9.356 Y-3.144 E0.10649
G1 X10.277 Y-3.850 E0.10649
G1 X11.349 Y-4.294 E0.10649
G1 X12.500 Y-4.446 E0.10649 F900.000
G1 X13.651 Y-4.294 E0.10649
G1 X14.723 Y-3.850 E0.10649
G1 X15.644 Y-3.144 E0.10649
G1 X16.350 Y-2.223 E0.10649
G1 X16.794 Y-1.151 E0.10649
G1 X16.946 Y-0.000 E0.10648
G1 X16.794 Y1.151 E0.10649
G1 X16.350 Y2.223 E0.10648
G1 X15.644 Y3.144 E0.10649
G1 X14.723 Y3.850 E0.10649
G1 X13.651 Y4.294 E0.10649
G1 X12.500 Y4.446 E0.10649
G1 X11.349 Y4.294 E0.10649
G1 X10.277 Y3.850 E0.10649
G1 X9.356 Y3.144 E0.10649
G1 X8.650 Y2.223 E0.10649
G1 X8.206 Y1.151 E0.10649
G1 X8.090 Y0.271 E0.08142
G1 X8.819 Y0.175 F9000.000
G1 X8.796 Y0.000 E0.01618 F900.000
G1 X8.922 Y-0.959 E0.08871
G1 X9.292 Y-1.852 E0.08871
G1 X9.881 Y-2.619 E0.08871
G1 X10.648 Y-3.208 E0.08871
G1 X11.541 Y-3.578 E0.08871
G1 X12.500 Y-3.704 E0.08871 F900.000
G1 X13.459 Y-3.578 E0.08871
G1 X14.352 Y-3.208 E0.08871
G1 X15.119 Y-2.619 E0.08871
G1 X15.708 Y-1.852 E0.08871
G1 X16.078 Y-0.959 E0.08871
G1 X16.204 Y-0.000 E0.08871
G1 X16.078 Y0.959 E0.08871
G1 X15.708 Y1.852 E0.08871
G1 X15.119 Y2.619 E0.08872
G1 X14.352 Y3.208 E0.08871
G1 X13.459 Y3.578 E0.08871
G1 X12.500 Y3.704 E0.08871
G1 X11.541 Y3.578 E0.08871
G1 X10.648 Y3.208 E0.08871
G1 X9.881 Y2.619 E0.08871
G1 X9.292 Y1.852 E0.08871
G1 X8.922 Y0.959 E0.08871
G1 X8.827 Y0.234 E0.06702
G1 X8.656 Y0.107 F9000.000
G1 X-2.498 Y-5.980 F9000.000
G1 X-1.927 Y-5.524 E0.06700 F900.000
G1 X-1.352 Y-5.281 E0.05726
G1 X-0.638 Y-5.473 E0.06785
G1 X0.002 Y-5.980 E0.07495
G1 X0.573 Y-5.524 E0.06700
G1 X1.148 Y-5.281 E0.05726
G1 X1.862 Y-5.473 E0.06785
G1 X2.502 Y-5.980 E0.07495
G1 X3.073 Y-5.524 E0.06700
G1 X3.648 Y-5.281 E0.05726
G1 X4.362 Y-5.473 E0.06785
G1 X5.002 Y-5.980 E0.07495
G1 X5.573 Y-5.524 E0.06700
G1 X6.148 Y-5.281 E0.05726
G1 X6.862 Y-5.473 E0.06785
G1 X7.502 Y-5.980 E0.07495
G1 X8.073 Y-5.524 E0.06700
G1 X8.648 Y-5.281 E0.05726
G1 X9.362 Y-5.473 E0.06785
G1 X10.002 Y-5.980 E0.07495
G1 X10.573 Y-5.524 E0.06700
G1 X11.148 Y-5.281 E0.05726
G1 X11.865 Y-5.474 E0.06813
G1 X12.885 Y-6.290 E0.11992
G1 X13.195 Y-6.274 E0.02844
G1 X13.797 Y-6.178 E0.05589
G1 X14.391 Y-6.023 E0.05641
G1 X14.968 Y-5.810 E0.05641
G1 X15.522 Y-5.543 E0.05641
G1 X16.047 Y-5.223 E0.05641
G1 X16.538 Y-4.853 E0.05641
G1 X16.991 Y-4.437 E0.05641
G1 X17.401 Y-3.979 E0.05641
G1 X17.765 Y-3.484 E0.05641
G1 X18.079 Y-2.955 E0.05641
G1 X18.340 Y-2.398 E0.05641
G1 X18.545 Y-1.819 E0.05641
G1 X18.694 Y-1.222 E0.05640
G1 X18.783 Y-0.614 E0.05641
G1 X18.813 Y-0.000 E0.05641
G1 X18.783 Y0.614 E0.05641
G1 X18.694 Y1.222 E0.05641
G1 X18.545 Y1.819 E0.05641
G1 X18.340 Y2.398 E0.05641
G1 X18.079 Y2.955 E0.05641
G1 X17.765 Y3.484 E0.05641
G1 X17.401 Y3.979 E0.05641
G1 X16.991 Y4.437 E0.05641
G1 X16.538 Y4.853 E0.05641
G1 X16.047 Y5.223 E0.05641
G1 X15.522 Y5.543 E0.05641
G1 X14.968 Y5.810 E0.05641
G1 X14.391 Y6.023 E0.05641
G1 X13.797 Y6.178 E0.05641
G1 X13.189 Y6.275 E0.05641
G1 X12.896 Y6.293 E0.02700
G1 X11.925 Y5.523 E0.11367
G1 X11.352 Y5.281 E0.05706
G1 X10.638 Y5.473 E0.06785
G1 X9.998 Y5.980 E0.07495
G1 X9.427 Y5.524 E0.06700
G1 X8.852 Y5.281 E0.05726
G1 X8.138 Y5.473 E0.06785
G1 X7.498 Y5.980 E0.07495
G1 X6.927 Y5.524 E0.06700
G1 X6.352 Y5.281 E0.05726
G1 X5.638 Y5.473 E0.06785
G1 X4.998 Y5.980 E0.07495
G1 X4.427 Y5.524 E0.06700
G1 X3.852 Y5.281 E0.05726
G1 X3.138 Y5.473 E0.06785
G1 X2.498 Y5.980 E0.07495
G1 X1.927 Y5.524 E0.06700
G1 X1.352 Y5.281 E0.05726
G1 X0.638 Y5.473 E0.06785
G1 X-0.002 Y5.980 E0.07495
G1 X-0.573 Y5.524 E0.06700
G1 X-1.148 Y5.281 E0.05726
G1 X-1.862 Y5.473 E0.06785
G1 X-2.502 Y5.980 E0.07495
G1 X-3.073 Y5.524 E0.06700
G1 X-3.648 Y5.281 E0.05726
G1 X-4.362 Y5.473 E0.06785
G1 X-5.002 Y5.980 E0.07495
G1 X-5.573 Y5.524 E0.06700
G1 X-6.148 Y5.281 E0.05726
G1 X-6.862 Y5.473 E0.06785
G1 X-7.502 Y5.980 E0.07495
G1 X-8.073 Y5.524 E0.06700
G1 X-8.648 Y5.281 E0.05726
G1 X-9.362 Y5.473 E0.06785
G1 X-10.002 Y5.980 E0.07495
G1 X-10.573 Y5.524 E0.06700
G1 X-11.148 Y5.281 E0.05726
G1 X-11.865 Y5.474 E0.06813
G1 X-12.885 Y6.290 E0.11992
G1 X-13.195 Y6.274 E0.02844
G1 X-13.797 Y6.178 E0.05589
G1 X-14.391 Y6.023 E0.05641
G1 X-14.968 Y5.810 E0.05641
G1 X-15.522 Y5.543 E0.05641
G1 X-16.047 Y5.223 E0.05641
G1 X-16.538 Y4.853 E0.05641
G1 X-16.991 Y4.437 E0.05641
G1 X-17.401 Y3.979 E0.05641
G1 X-17.765 Y3.484 E0.05641
G1 X-18.079 Y2.955 E0.05641
G1 X-18.340 Y2.398 E0.05641
G1 X-18.545 Y1.819 E0.05641
G1 X-18.694 Y1.222 E0.05641
G1 X-18.783 Y0.614 E0.05641
G1 X-18.813 Y-0.000 E0.05641
G1 X-18.783 Y-0.614 E0.05641
G1 X-18.694 Y-1.222 E0.05641
G1 X-18.545 Y-1.819 E0.05641
G1 X-18.340 Y-2.398 E0.05641
G1 X-18.079 Y-2.955 E0.05641
G1 X-17.765 Y-3.484 E0.05641
G1 X-17.401 Y-3.979 E0.05641
G1 X-16.991 Y-4.437 E0.05641
G1 X-16.538 Y-4.853 E0.05641
G1 X-16.047 Y-5.223 E0.05641
G1 X-15.522 Y-5.543 E0.05641
G1 X-14.968 Y-5.810 E0.05641
G1 X-14.391 Y-6.023 E0.05641
G1 X-13.797 Y-6.178 E0.05641
G1 X-13.195 Y-6.274 E0.05589
G1 X-12.885 Y-6.290 E0.02844
G1 X-11.927 Y-5.524 E0.11257
G1 X-11.352 Y-5.281 E0.05726 F900.000
G1 X-10.638 Y-5.473 E0.06785
G1 X-9.998 Y-5.980 E0.07495
G1 X-9.427 Y-5.524 E0.06700
G1 X-8.852 Y-5.281 E0.05726
G1 X-8.138 Y-5.473 E0.06785
G1 X-7.498 Y-5.980 E0.07495
G1 X-6.927 Y-5.524 E0.06700
G1 X-6.352 Y-5.281 E0.05726
G1 X-5.638 Y-5.473 E0.06785
G1 X-4.998 Y-5.980 E0.07495
G1 X-4.427 Y-5.524 E0.06700
G1 X-3.852 Y-5.281 E0.05726
G1 X-3.138 Y-5.473 E0.06785
G1 X-2.545 Y-5.943 E0.06944
G1 X-3.001 Y-6.519 F9000.000
G1 X-2.495 Y-6.920 E0.05922 F900.000
G1 X-1.548 Y-6.162 E0.11135
G1 X-1.299 Y-6.057 E0.02473
G1 X-0.975 Y-6.144 E0.03075
G1 X0.005 Y-6.920 E0.11471
G1 X0.952 Y-6.162 E0.11135
G1 X1.201 Y-6.057 E0.02473
G1 X1.525 Y-6.144 E0.03075
G1 X2.505 Y-6.920 E0.11471
G1 X3.452 Y-6.162 E0.11135
G1 X3.701 Y-6.057 E0.02473
G1 X4.025 Y-6.144 E0.03075
G1 X5.005 Y-6.920 E0.11471
G1 X5.952 Y-6.162 E0.11135
G1 X6.201 Y-6.057 E0.02474
G1 X6.525 Y-6.144 E0.03075
G1 X7.505 Y-6.920 E0.11471
G1 X8.452 Y-6.162 E0.11135
G1 X8.701 Y-6.057 E0.02473
G1 X9.025 Y-6.144 E0.03075
G1 X10.005 Y-6.920 E0.11471
G1 X10.952 Y-6.162 E0.11135
G1 X11.201 Y-6.057 E0.02473
G1 X11.526 Y-6.144 E0.03085
G1 X12.644 Y-7.039 E0.13141
G1 X13.272 Y-7.007 E0.05768
G1 X13.948 Y-6.899 E0.06280
G1 X14.612 Y-6.726 E0.06299
G1 X15.256 Y-6.488 E0.06299
G1 X15.874 Y-6.189 E0.06299
G1 X16.460 Y-5.832 E0.06299
G1 X17.009 Y-5.419 E0.06299
G1 X17.515 Y-4.955 E0.06299
G1 X17.973 Y-4.443 E0.06299
G1 X18.379 Y-3.890 E0.06299
G1 X18.729 Y-3.300 E0.06299
G1 X19.021 Y-2.678 E0.06299
G1 X19.251 Y-2.031 E0.06299
G1 X19.416 Y-1.365 E0.06299
G1 X19.516 Y-0.686 E0.06299
G1 X19.549 Y-0.000 E0.06299
G1 X19.516 Y0.686 E0.06299
G1 X19.416 Y1.365 E0.06299
G1 X19.251 Y2.031 E0.06299
G1 X19.021 Y2.678 E0.06299
G1 X18.729 Y3.300 E0.06299
G1 X18.379 Y3.890 E0.06299
G1 X17.973 Y4.443 E0.06299
G1 X17.515 Y4.955 E0.06299
G1 X17.009 Y5.419 E0.06299
G1 X16.460 Y5.832 E0.06299
G1 X15.874 Y6.189 E0.06299
G1 X15.256 Y6.488 E0.06299
G1 X14.612 Y6.726 E0.06299
G1 X13.948 Y6.899 E0.06299
G1 X13.270 Y7.007 E0.06299
G1 X12.659 Y7.044 E0.05615
G1 X11.547 Y6.161 E0.13029
G1 X11.299 Y6.057 E0.02467
G1 X10.975 Y6.144 E0.03075
G1 X9.995 Y6.920 E0.11471
G1 X9.048 Y6.162 E0.11135
G1 X8.799 Y6.057 E0.02473
G1 X8.475 Y6.144 E0.03075
G1 X7.495 Y6.920 E0.11471
G1 X6.548 Y6.162 E0.11135
G1 X6.299 Y6.057 E0.02474
G1 X5.975 Y6.144 E0.03075
G1 X4.995 Y6.920 E0.11471
G1 X4.048 Y6.162 E0.11135
G1 X3.799 Y6.057 E0.02474
G1 X3.475 Y6.144 E0.03075
G1 X2.495 Y6.920 E0.11471
G1 X1.548 Y6.162 E0.11135
G1 X1.299 Y6.057 E0.02474
G1 X0.975 Y6.144 E0.03075
G1 X-0.005 Y6.920 E0.11471
G1 X-0.952 Y6.162 E0.11135
G1 X-1.201 Y6.057 E0.02474
G1 X-1.525 Y6.144 E0.03075
G1 X-2.505 Y6.920 E0.11471
G1 X-3.452 Y6.162 E0.11135
G1 X-3.701 Y6.057 E0.02474
G1 X-4.025 Y6.144 E0.03075
G1 X-5.005 Y6.920 E0.11471
G1 X-5.952 Y6.162 E0.11135
G1 X-6.201 Y6.057 E0.02474
G1 X-6.525 Y6.144 E0.03075
G1 X-7.505 Y6.920 E0.11471
G1 X-8.452 Y6.162 E0.11135
G1 X-8.701 Y6.057 E0.02474
G1 X-9.025 Y6.144 E0.03075
G1 X-10.005 Y6.920 E0.11471
G1 X-10.952 Y6.162 E0.11135
G1 X-11.201 Y6.057 E0.02474
G1 X-11.526 Y6.144 E0.03084
G1 X-12.644 Y7.039 E0.13141
G1 X-13.272 Y7.007 E0.05769
G1 X-13.948 Y6.899 E0.06280
G1 X-14.612 Y6.726 E0.06299
G1 X-15.256 Y6.488 E0.06299
G1 X-15.874 Y6.189 E0.06299
G1 X-16.460 Y5.832 E0.06299
G1 X-17.009 Y5.419 E0.06299
G1 X-17.515 Y4.955 E0.06299
G1 X-17.973 Y4.443 E0.06299
G1 X-18.379 Y3.890 E0.06299
G1 X-18.730 Y3.300 E0.06299
G1 X-19.021 Y2.678 E0.06299
G1 X-19.251 Y2.031 E0.06299
G1 X-19.416 Y1.365 E0.06299
G1 X-19.516 Y0.686 E0.06299
G1 X-19.549 Y-0.000 E0.06299
G1 X-19.516 Y-0.686 E0.06299
G1 X-19.416 Y-1.365 E0.06299
G1 X-19.251 Y-2.031 E0.06299
G1 X-19.021 Y-2.678 E0.06299
G1 X-18.730 Y-3.300 E0.06299
G1 X-18.379 Y-3.890 E0.06299
G1 X-17.973 Y-4.443 E0.06299
G1 X-17.515 Y-4.955 E0.06299
G1 X-17.009 Y-5.419 E0.06299
G1 X-16.460 Y-5.832 E0.06299
G1 X-15.874 Y-6.189 E0.06299
G1 X-15.256 Y-6.488 E0.06299
G1 X-14.612 Y-6.726 E0.06299
G1 X-13.948 Y-6.899 E0.06299
G1 X-13.272 Y-7.007 E0.06280
G1 X-12.644 Y-7.039 E0.05769
G1 X-11.548 Y-6.162 E0.12882
G1 X-11.299 Y-6.057 E0.02474 F900.000
G1 X-10.975 Y-6.144 E0.03075
G1 X-9.995 Y-6.920 E0.11471
G1 X-9.048 Y-6.162 E0.11135
G1 X-8.799 Y-6.057 E0.02474
G1 X-8.475 Y-6.144 E0.03075
G1 X-7.495 Y-6.920 E0.11471
G1 X-6.548 Y-6.162 E0.11135
G1 X-6.299 Y-6.057 E0.02474
G1 X-5.975 Y-6.144 E0.03075
G1 X-4.995 Y-6.920 E0.11471
G1 X-4.048 Y-6.162 E0.11135
G1 X-3.799 Y-6.057 E0.02474
G1 X-3.475 Y-6.144 E0.03075
G1 X-3.048 Y-6.482 E0.04999
G1 X-2.629 Y-6.372 F9000.000
G1 X-9.747 Y-5.282 F9000.000
G1 X-9.896 Y-5.370 E0.01596 F600.000
G1 X-9.999 Y-5.382 E0.00950
G1 X-10.346 Y-4.981 E0.04859
G1 X-10.631 Y-4.752 E0.03355
G1 X-10.545 Y-4.499 E0.02451
G1 X-10.469 Y-4.389 E0.01230
G1 X-10.230 Y-4.251 E0.02527
G1 X-10.263 Y-4.728 F9000.000
G1 X-11.423 Y-4.789 E0.10655 F600.000
G1 X-12.053 Y-4.960 E0.05992
G1 X-12.063 Y-4.936 F9000.000
G1 X-12.542 Y-5.134 E0.09919 F600.000
G1 X-13.186 Y-5.314 E0.12807
G1 X-13.820 Y-5.211 E0.12308
G1 X-14.109 Y-5.124 E0.05777
G1 X-14.596 Y-4.933 E0.10009
G1 X-15.124 Y-4.693 E0.11124
G1 X-15.514 Y-4.438 E0.08915
G1 X-16.249 Y-3.853 E0.17995
G1 X-16.662 Y-3.379 E0.12039
G1 X-17.118 Y-2.751 E0.14868
G1 X-17.247 Y-2.514 E0.05160
G1 X-17.458 Y-2.036 E0.10011
G1 X-17.646 Y-1.548 E0.10013
G1 X-17.711 Y-1.320 E0.04543
G1 X-17.836 Y-0.522 E0.15483
G1 X-17.880 Y-0.000 E0.10025
G1 X-17.836 Y0.522 E0.10025
G1 X-17.711 Y1.320 E0.15483
G1 X-17.646 Y1.548 E0.04543
G1 X-17.458 Y2.036 E0.10013
G1 X-17.247 Y2.514 E0.10011
G1 X-17.118 Y2.751 E0.05160
G1 X-16.662 Y3.379 E0.14868
G1 X-16.249 Y3.853 E0.12039
G1 X-15.514 Y4.438 E0.17995
G1 X-15.124 Y4.693 E0.08915
G1 X-14.596 Y4.933 E0.11124
G1 X-14.109 Y5.124 E0.10009
G1 X-13.820 Y5.211 E0.05778
G1 X-13.186 Y5.314 E0.12308
G1 X-12.542 Y5.134 E0.12807
G1 X-12.063 Y4.936 E0.09919
G1 X-12.058 Y4.949 F9000.000
G1 X-11.059 Y4.746 E0.09353 F600.000
G1 X-10.180 Y4.748 E0.08061
G1 X-10.230 Y4.251 F9000.000
G1 X-10.390 Y4.344 E0.01691 F600.000
G1 X-10.447 Y4.421 E0.00885
G1 X-10.570 Y4.747 E0.03196
G1 X-10.298 Y5.003 E0.03428
G1 X-10.001 Y5.351 E0.04197
G1 X-9.913 Y5.329 E0.00833
G1 X-9.615 Y5.180 E0.03055
G1 X-9.326 Y4.561 F9000.000
G1 X-8.953 Y4.934 E0.04975 F900.000
G1 X-7.709 Y5.110 E0.11841
