; generated by Slic3r 1.2.9 on 2016-11-15 at 16:23:37

; external perimeters extrusion width = 0.50mm
; perimeters extrusion width = 0.50mm
; infill extrusion width = 0.50mm
; solid infill extrusion width = 0.50mm
; top infill extrusion width = 0.50mm

M107
;Basic settings: Layer height: {layer_height} Walls: {wall_thickness} Fill: {fill_density}
;Print time: {print_time}
;Filament used: {filament_amount}m {filament_weight}g
;Filament cost: {filament_cost}
;M190 S{print_bed_temperature} ;Uncomment to add your own bed temperature line
;M109 S{print_temperature} ;Uncomment to add your own temperature line
G21        ;metric values
G90        ;absolute positioning
M83
G10 P0 S200
T0
M116


G21 ; set units to millimeters
G90 ; use absolute coordinates
M83 ; use relative distances for extrusion
G1 E-3.20000 F3000.00000
G1 Z0.400 F9000.000
G1 X0.000 Y21.186 F9000.000
G1 Z0.300 F9000.000
G1 E3.20000 F3000.00000
G1 X-22.997 Y21.186 E2.10996 F1200.000
G1 X-23.484 Y21.154 E0.04483
G1 X-23.733 Y21.121 E0.02305
G1 X-24.675 Y20.868 E0.08948
G1 X-24.904 Y20.774 E0.02274
G1 X-25.749 Y20.286 E0.08947
G1 X-25.946 Y20.135 E0.02274
G1 X-26.635 Y19.446 E0.08948
G1 X-26.786 Y19.249 E0.02274
G1 X-27.274 Y18.404 E0.08947
G1 X-27.368 Y18.175 E0.02274
G1 X-27.621 Y17.234 E0.08944
G1 X-27.686 Y16.497 E0.06789
G1 X-27.686 Y-16.497 E3.02717
G1 X-27.621 Y-17.233 E0.06785
G1 X-27.368 Y-18.175 E0.08947
G1 X-27.274 Y-18.404 E0.02275
G1 X-26.787 Y-19.248 E0.08938
G1 X-26.635 Y-19.446 E0.02283
G1 X-25.946 Y-20.135 E0.08945
G1 X-25.749 Y-20.286 E0.02277
G1 X-24.904 Y-20.774 E0.08947
G1 X-24.675 Y-20.868 E0.02274
G1 X-23.736 Y-21.121 E0.08924
G1 X-22.997 Y-21.186 E0.06809
G1 X22.997 Y-21.186 E4.21992
G1 X23.484 Y-21.154 E0.04480
G1 X23.733 Y-21.121 E0.02307 F1200.000
G1 X24.674 Y-20.869 E0.08937
G1 X24.904 Y-20.774 E0.02285
G1 X25.749 Y-20.286 E0.08947
G1 X25.946 Y-20.135 E0.02274
G1 X26.635 Y-19.446 E0.08948
G1 X26.786 Y-19.249 E0.02274
G1 X27.274 Y-18.404 E0.08947
G1 X27.368 Y-18.175 E0.02274
G1 X27.621 Y-17.233 E0.08948
G1 X27.654 Y-16.984 E0.02305
G1 X27.686 Y-16.497 E0.04483
G1 X27.686 Y16.497 E3.02717
G1 X27.621 Y17.234 E0.06789
G1 X27.368 Y18.175 E0.08944
G1 X27.274 Y18.404 E0.02274
G1 X26.786 Y19.249 E0.08947
G1 X26.635 Y19.446 E0.02274
G1 X25.946 Y20.135 E0.08948
G1 X25.748 Y20.287 E0.02283
G1 X24.904 Y20.774 E0.08938
G1 X24.675 Y20.868 E0.02275
G1 X23.733 Y21.121 E0.08948
G1 X23.484 Y21.154 E0.02305
G1 X22.997 Y21.186 E0.04483
G1 X0.060 Y21.186 E2.10446
G1 E-3.20000 F3000.00000
G1 Z0.700 F9000.000
G1 X-22.208 Y17.050 F9000.000
G1 Z0.300 F9000.000
G1 E3.20000 F3000.00000
G1 X-22.971 Y17.050 E0.06996 F900.000
G1 X-23.141 Y17.028 E0.01581
G1 X-23.273 Y16.973 E0.01308
G1 X-23.386 Y16.886 E0.01308
G1 X-23.473 Y16.773 E0.01308
G1 X-23.528 Y16.641 E0.01308
G1 X-23.550 Y16.471 E0.01581
G1 X-23.550 Y15.636 E0.07657
G1 X-23.252 Y15.533 E0.02889
G1 X-22.910 Y15.971 E0.05096
G1 X-22.316 Y16.427 E0.06872 F900.000
G1 X-22.114 Y16.544 E0.02146
G1 X-21.710 Y16.680 E0.03907
G1 X-21.771 Y17.050 E0.03440
G1 X-22.148 Y17.050 E0.03461
G1 X-22.408 Y16.704 F9000.000
G1 X-23.526 Y15.205 F9000.000
G1 X-23.702 Y14.282 E0.08620 F900.000
G1 X-23.747 Y13.417 E0.07945
G1 X-23.695 Y12.664 E0.06929
G1 X-23.526 Y11.795 E0.08115
G1 E-3.20000 F3000.00000
G1 Z0.700 F9000.000
G1 X-21.349 Y16.951 F9000.000
G1 Z0.300 F9000.000
G1 E3.20000 F3000.00000
G1 X-20.554 Y16.998 E0.07312 F900.000
G1 X-19.743 Y16.957 E0.07447
G1 X-19.044 Y16.812 E0.06545
G1 X-18.357 Y16.580 E0.06659
G1 E-3.20000 F3000.00000
G1 Z0.700 F9000.000
G1 X18.357 Y16.580 F9000.000
G1 Z0.300 F9000.000
G1 E3.20000 F3000.00000
G1 X19.044 Y16.812 E0.06659 F900.000
G1 X19.743 Y16.957 E0.06545
G1 X20.554 Y16.998 E0.07447
G1 X21.349 Y16.951 E0.07312
G1 X23.550 Y15.969 F9000.000
G1 X23.550 Y16.471 E0.04600 F900.000
G1 X23.528 Y16.641 E0.01581
G1 X23.473 Y16.773 E0.01308
G1 X23.386 Y16.886 E0.01308
G1 X23.273 Y16.973 E0.01308
G1 X23.141 Y17.028 E0.01308
G1 X22.970 Y17.050 E0.01581
G1 X21.771 Y17.050 E0.11008
G1 X21.710 Y16.680 E0.03440
G1 X22.114 Y16.544 E0.03907
G1 X22.316 Y16.427 E0.02146
G1 X22.910 Y15.971 E0.06872
G1 X23.252 Y15.533 E0.05096
G1 X23.550 Y15.636 E0.02889
G1 X23.550 Y15.909 E0.02507 F900.000
G1 X23.204 Y16.169 F9000.000
G1 X23.526 Y15.205 F9000.000
G1 X23.695 Y14.336 E0.08115 F900.000
G1 X23.747 Y13.583 E0.06929
G1 X23.702 Y12.718 E0.07945
G1 X23.526 Y11.795 E0.08620
G1 E-3.20000 F3000.00000
G1 Z0.700 F9000.000
G1 X4.065 Y6.021 F9000.000
G1 Z0.300 F9000.000
G1 E3.20000 F3000.00000
G1 X3.632 Y7.103 E0.10691 F900.000
G1 X2.932 Y7.998 E0.10422
G1 X2.226 Y8.540 E0.08174
G1 X1.918 Y8.718 E0.03261
G1 X1.568 Y8.836 E0.03391
G1 X0.989 Y9.076 E0.05752
G1 X0.000 Y9.194 E0.09134
G1 X-0.989 Y9.076 E0.09134
G1 X-1.568 Y8.836 E0.05752
G1 X-1.918 Y8.718 E0.03391
G1 X-2.226 Y8.540 E0.03261
G1 X-2.933 Y7.998 E0.08174
G1 X-3.635 Y7.099 E0.10468
G1 X-4.062 Y6.041 E0.10468
G1 X-4.179 Y5.158 E0.08174
G1 X-4.179 Y4.842 E0.02891
G1 X-4.065 Y3.979 E0.07989
G1 X-3.957 Y3.683 E0.02893
G1 X-3.632 Y2.897 E0.07800
G1 X-2.933 Y2.002 E0.10422
G1 X-2.226 Y1.460 E0.08174
G1 X-1.918 Y1.282 E0.03261
G1 X-1.568 Y1.164 E0.03391
G1 X-0.995 Y0.927 E0.05689
G1 X-0.315 Y0.837 E0.06294
G1 X0.018 Y0.808 E0.03066 F900.000
G1 X0.989 Y0.924 E0.08967
G1 X1.568 Y1.164 E0.05752
G1 X1.918 Y1.282 E0.03391
G1 X2.226 Y1.460 E0.03261
G1 X2.932 Y2.002 E0.08174
G1 X3.635 Y2.901 E0.10468
G1 X4.062 Y3.959 E0.10468
G1 X4.179 Y4.842 E0.08174
G1 X4.179 Y5.158 E0.02891
G1 X4.073 Y5.961 E0.07438
G1 X3.346 Y5.845 F9000.000
G1 X2.990 Y6.729 E0.08740 F900.000
G1 X2.410 Y7.471 E0.08645
G1 X1.816 Y7.927 E0.06872
G1 X1.614 Y8.044 E0.02146
G1 X1.309 Y8.147 E0.02947
G1 X0.801 Y8.357 E0.05050
G1 X0.000 Y8.453 E0.07398
G1 X-0.801 Y8.357 E0.07398
G1 X-1.309 Y8.147 E0.05050
G1 X-1.614 Y8.044 E0.02947
G1 X-1.816 Y7.927 E0.02146
G1 X-2.410 Y7.471 E0.06872
G1 X-2.992 Y6.727 E0.08661
G1 X-3.345 Y5.852 E0.08661
G1 X-3.443 Y5.109 E0.06872
G1 X-3.443 Y4.891 E0.02006
G1 X-3.346 Y4.155 E0.06807
G1 X-3.271 Y3.950 E0.02007
G1 X-2.990 Y3.271 E0.06734
G1 X-2.410 Y2.529 E0.08645
G1 X-1.816 Y2.073 E0.06872
G1 X-1.614 Y1.956 E0.02146
G1 X-1.309 Y1.853 E0.02947
G1 X-0.803 Y1.644 E0.05028
G1 X-0.235 Y1.569 E0.05258
G1 X0.006 Y1.548 E0.02220 F900.000
G1 X0.801 Y1.643 E0.07339
G1 X1.309 Y1.853 E0.05050
G1 X1.614 Y1.956 E0.02947
G1 X1.816 Y2.073 E0.02146
G1 X2.410 Y2.529 E0.06872
G1 X2.992 Y3.273 E0.08661
G1 X3.345 Y4.148 E0.08661
G1 X3.443 Y4.891 E0.06872
G1 X3.443 Y5.109 E0.02006
G1 X3.354 Y5.785 E0.06257
G1 X3.618 Y6.138 F9000.000
G1 X6.296 Y4.716 F9000.000
G1 X6.208 Y3.967 E0.06916 F900.000
G1 X6.299 Y3.276 E0.06395
G1 X6.579 Y2.602 E0.06697
G1 X7.023 Y2.023 E0.06697
G1 X7.609 Y1.574 E0.06771
G1 X8.309 Y1.295 E0.06916
G1 X9.000 Y1.204 E0.06395 F900.000
G1 X9.724 Y1.299 E0.06696
G1 X10.398 Y1.579 E0.06697
G1 X10.977 Y2.023 E0.06697
G1 X11.421 Y2.602 E0.06697
G1 X11.701 Y3.276 E0.06697
G1 X11.796 Y4.000 E0.06696
G1 X11.701 Y4.724 E0.06696
G1 X11.421 Y5.398 E0.06697
G1 X10.977 Y5.977 E0.06697
G1 X10.398 Y6.421 E0.06697
G1 X9.724 Y6.701 E0.06697
G1 X9.000 Y6.796 E0.06697
G1 X8.276 Y6.701 E0.06696
G1 X7.602 Y6.421 E0.06697
G1 X7.023 Y5.977 E0.06697
G1 X6.579 Y5.398 E0.06697
G1 X6.319 Y4.772 E0.06221
G1 X7.015 Y4.529 F9000.000
G1 X6.950 Y3.973 E0.05139 F900.000
G1 X7.016 Y3.468 E0.04666
G1 X7.221 Y2.973 E0.04919
G1 X7.548 Y2.548 E0.04919
G1 X7.975 Y2.220 E0.04946
G1 X8.496 Y2.012 E0.05139
G1 X9.000 Y1.946 E0.04666 F900.000
G1 X9.532 Y2.016 E0.04919
G1 X10.027 Y2.221 E0.04919
G1 X10.452 Y2.548 E0.04919
G1 X10.779 Y2.973 E0.04919
G1 X10.984 Y3.468 E0.04919
G1 X11.054 Y4.000 E0.04919
G1 X10.984 Y4.532 E0.04919
G1 X10.779 Y5.027 E0.04919
G1 X10.452 Y5.452 E0.04919
G1 X10.027 Y5.779 E0.04919
G1 X9.532 Y5.984 E0.04919
G1 X9.000 Y6.054 E0.04919
G1 X8.468 Y5.984 E0.04919
G1 X7.973 Y5.779 E0.04919
G1 X7.548 Y5.452 E0.04919
G1 X7.221 Y5.027 E0.04919
G1 X7.038 Y4.584 E0.04395
G1 X6.635 Y4.405 F9000.000
G1 E-3.20000 F3000.00000
G1 Z0.700 F9000.000
G1 X16.204 Y4.000 F9000.000
G1 Z0.300 F9000.000
G1 E3.20000 F3000.00000
G1 X16.299 Y3.276 E0.06696 F900.000
G1 X16.579 Y2.602 E0.06697
G1 X17.023 Y2.023 E0.06697
G1 X17.609 Y1.574 E0.06771
G1 X18.309 Y1.295 E0.06916
G1 X19.000 Y1.204 E0.06395 F900.000
G1 X19.724 Y1.299 E0.06696
G1 X20.398 Y1.579 E0.06697
G1 X20.977 Y2.023 E0.06697
G1 X21.421 Y2.602 E0.06697
G1 X21.701 Y3.276 E0.06697
G1 X21.796 Y4.000 E0.06696
G1 X21.701 Y4.724 E0.06696
G1 X21.421 Y5.398 E0.06697
G1 X20.977 Y5.977 E0.06697
G1 X20.398 Y6.421 E0.06697
G1 X19.724 Y6.701 E0.06697
G1 X19.000 Y6.796 E0.06697
G1 X18.276 Y6.701 E0.06696
G1 X17.602 Y6.421 E0.06697
G1 X17.023 Y5.977 E0.06697
G1 X16.579 Y5.398 E0.06697
G1 X16.299 Y4.724 E0.06697
G1 X16.212 Y4.059 E0.06146
G1 X16.946 Y4.000 F9000.000
G1 X17.016 Y3.468 E0.04919 F900.000
G1 X17.221 Y2.973 E0.04919
G1 X17.548 Y2.548 E0.04919
G1 X17.975 Y2.220 E0.04946
G1 X18.496 Y2.012 E0.05139
G1 X19.000 Y1.946 E0.04666 F900.000
G1 X19.532 Y2.016 E0.04919
G1 X20.027 Y2.221 E0.04919
G1 X20.452 Y2.548 E0.04919
G1 X20.779 Y2.973 E0.04919
G1 X20.984 Y3.468 E0.04919
G1 X21.054 Y4.000 E0.04919
G1 X20.984 Y4.532 E0.04919
G1 X20.779 Y5.027 E0.04919
G1 X20.452 Y5.452 E0.04919
G1 X20.027 Y5.779 E0.04919
G1 X19.532 Y5.984 E0.04919
G1 X19.000 Y6.054 E0.04919
G1 X18.468 Y5.984 E0.04919
G1 X17.973 Y5.779 E0.04919
G1 X17.548 Y5.452 E0.04919
G1 X17.221 Y5.027 E0.04919
G1 X17.016 Y4.532 E0.04919
G1 X16.954 Y4.059 E0.04369
G1 X16.609 Y3.785 F9000.000
G1 E-3.20000 F3000.00000
G1 Z0.700 F9000.000
G1 X-6.208 Y4.033 F9000.000
G1 Z0.300 F9000.000
G1 E3.20000 F3000.00000
G1 X-6.299 Y4.724 E0.06395 F900.000
G1 X-6.579 Y5.398 E0.06697
G1 X-7.023 Y5.977 E0.06697
G1 X-7.602 Y6.421 E0.06697
G1 X-8.276 Y6.701 E0.06697
G1 X-9.000 Y6.796 E0.06697
G1 X-9.724 Y6.701 E0.06697
G1 X-10.398 Y6.421 E0.06697
G1 X-10.977 Y5.977 E0.06697
G1 X-11.421 Y5.398 E0.06697
G1 X-11.704 Y4.716 E0.06771
G1 X-11.792 Y3.967 E0.06916
G1 X-11.701 Y3.276 E0.06395
G1 X-11.421 Y2.602 E0.06697
G1 X-10.977 Y2.023 E0.06697
G1 X-10.391 Y1.574 E0.06771
G1 X-9.691 Y1.295 E0.06916
G1 X-9.000 Y1.204 E0.06395 F900.000
G1 X-8.276 Y1.299 E0.06696
G1 X-7.602 Y1.579 E0.06697
G1 X-7.023 Y2.023 E0.06697
G1 X-6.579 Y2.602 E0.06697
G1 X-6.296 Y3.284 E0.06771
G1 X-6.215 Y3.973 E0.06366
G1 X-6.950 Y4.027 F9000.000
G1 X-7.016 Y4.532 E0.04666 F900.000
G1 X-7.221 Y5.027 E0.04919
G1 X-7.548 Y5.452 E0.04919
G1 X-7.973 Y5.779 E0.04919
G1 X-8.468 Y5.984 E0.04919
G1 X-9.000 Y6.054 E0.04919
G1 X-9.532 Y5.984 E0.04919
G1 X-10.027 Y5.779 E0.04919
G1 X-10.452 Y5.452 E0.04919
G1 X-10.779 Y5.027 E0.04919
G1 X-10.985 Y4.529 E0.04946
G1 X-11.050 Y3.973 E0.05139
G1 X-10.984 Y3.468 E0.04666
G1 X-10.779 Y2.973 E0.04919
G1 X-10.452 Y2.548 E0.04919
G1 X-10.025 Y2.220 E0.04946
G1 X-9.504 Y2.012 E0.05139
G1 X-9.000 Y1.946 E0.04666 F900.000
G1 X-8.468 Y2.016 E0.04919
G1 X-7.973 Y2.221 E0.04919
G1 X-7.548 Y2.548 E0.04919
G1 X-7.221 Y2.973 E0.04919
G1 X-7.015 Y3.471 E0.04946
G1 X-6.957 Y3.968 E0.04589
G1 X-6.613 Y4.244 F9000.000
G1 E-3.20000 F3000.00000
G1 Z0.700 F9000.000
G1 X-16.208 Y4.033 F9000.000
G1 Z0.300 F9000.000
G1 E3.20000 F3000.00000
G1 X-16.299 Y4.724 E0.06395 F900.000
G1 X-16.579 Y5.398 E0.06697
G1 X-17.023 Y5.977 E0.06697
G1 X-17.602 Y6.421 E0.06697
G1 X-18.276 Y6.701 E0.06697
G1 X-19.000 Y6.796 E0.06696
G1 X-19.724 Y6.701 E0.06697
G1 X-20.398 Y6.421 E0.06697
G1 X-20.977 Y5.977 E0.06697
G1 X-21.421 Y5.398 E0.06697
G1 X-21.704 Y4.716 E0.06771
G1 X-21.792 Y3.967 E0.06916
G1 X-21.701 Y3.276 E0.06395
G1 X-21.421 Y2.602 E0.06697
G1 X-20.977 Y2.023 E0.06697
G1 X-20.391 Y1.574 E0.06771
G1 X-19.691 Y1.295 E0.06916
G1 X-19.000 Y1.204 E0.06395 F900.000
G1 X-18.276 Y1.299 E0.06697
G1 X-17.602 Y1.579 E0.06697
G1 X-17.023 Y2.023 E0.06697
G1 X-16.579 Y2.602 E0.06697
G1 X-16.296 Y3.284 E0.06771
G1 X-16.215 Y3.973 E0.06366
G1 X-16.950 Y4.027 F9000.000
G1 X-17.016 Y4.532 E0.04666 F900.000
G1 X-17.221 Y5.027 E0.04919
G1 X-17.548 Y5.452 E0.04919
G1 X-17.973 Y5.779 E0.04919
G1 X-18.468 Y5.984 E0.04919
G1 X-19.000 Y6.054 E0.04919
G1 X-19.532 Y5.984 E0.04919
G1 X-20.027 Y5.779 E0.04919
G1 X-20.452 Y5.452 E0.04919
G1 X-20.779 Y5.027 E0.04919
G1 X-20.985 Y4.529 E0.04946
G1 X-21.050 Y3.973 E0.05139
G1 X-20.984 Y3.468 E0.04666
G1 X-20.779 Y2.973 E0.04919
G1 X-20.452 Y2.548 E0.04919
G1 X-20.025 Y2.220 E0.04946
G1 X-19.504 Y2.012 E0.05139
G1 X-19.000 Y1.946 E0.04666 F900.000
G1 X-18.468 Y2.016 E0.04919
G1 X-17.973 Y2.221 E0.04919
G1 X-17.548 Y2.548 E0.04919
G1 X-17.221 Y2.973 E0.04919
G1 X-17.015 Y3.471 E0.04946
G1 X-16.957 Y3.968 E0.04589
G1 X-16.613 Y4.244 F9000.000
G1 X19.214 Y-16.314 F9000.000
G1 X22.814 Y-16.314 E0.33033 F900.000
G1 X22.814 Y10.011 E2.41533 F900.000
G1 X22.418 Y9.782 E0.04200
G1 X22.068 Y9.664 E0.03391
G1 X21.489 Y9.424 E0.05752
G1 X20.518 Y9.308 E0.08967
G1 X19.505 Y9.427 E0.09358
G1 X18.932 Y9.664 E0.05689
G1 X18.582 Y9.782 E0.03391
G1 X18.274 Y9.960 E0.03261
G1 X17.567 Y10.502 E0.08174
G1 X16.868 Y11.397 E0.10422
G1 X16.543 Y12.183 E0.07800
G1 X16.435 Y12.479 E0.02893
G1 X16.321 Y13.342 E0.07989
G1 X16.321 Y13.658 E0.02891
G1 X16.432 Y14.495 E0.07750
G1 X15.216 Y13.778 E0.12951
G1 X13.939 Y13.102 E0.13257
G1 X12.631 Y12.487 E0.13257
G1 X11.297 Y11.932 E0.13257
G1 X9.939 Y11.440 E0.13257
G1 X8.559 Y11.011 E0.13257
G1 X7.161 Y10.647 E0.13257
G1 X5.747 Y10.348 E0.13257
G1 X4.321 Y10.115 E0.13257
G1 X2.886 Y9.948 E0.13257
G1 X1.444 Y9.848 E0.13257
G1 X-0.001 Y9.814 E0.13264
G1 X-1.488 Y9.851 E0.13650
G1 X-2.886 Y9.948 E0.12856
G1 X-4.321 Y10.115 E0.13257
G1 X-5.747 Y10.348 E0.13257
G1 X-7.161 Y10.647 E0.13257
G1 X-8.559 Y11.011 E0.13257
G1 X-9.939 Y11.440 E0.13257
G1 X-11.297 Y11.932 E0.13257
G1 X-12.591 Y12.470 E0.12856
G1 X-13.938 Y13.102 E0.13650
G1 X-15.216 Y13.778 E0.13264
G1 X-16.432 Y14.495 E0.12951
G1 X-16.321 Y13.658 E0.07750
G1 X-16.321 Y13.342 E0.02891
G1 X-16.438 Y12.459 E0.08174
G1 X-16.865 Y11.401 E0.10468
G1 X-17.567 Y10.502 E0.10468
G1 X-18.274 Y9.960 E0.08174
G1 X-18.582 Y9.782 E0.03261
G1 X-18.932 Y9.664 E0.03391
G1 X-19.511 Y9.424 E0.05752
G1 X-20.482 Y9.308 E0.08967
G1 X-21.495 Y9.427 E0.09358
G1 X-22.068 Y9.664 E0.05689
G1 X-22.418 Y9.782 E0.03391
G1 X-22.814 Y10.011 E0.04200
G1 X-22.814 Y-16.314 E2.41538
G1 X19.154 Y-16.314 E3.85063
G1 X19.154 Y-17.049 F9000.000
G1 X22.975 Y-17.049 E0.35057 F900.000
G1 X23.141 Y-17.028 E0.01539 F900.000
G1 X23.273 Y-16.973 E0.01308
G1 X23.386 Y-16.886 E0.01308
G1 X23.473 Y-16.773 E0.01308
G1 X23.528 Y-16.641 E0.01308
G1 X23.550 Y-16.471 E0.01581
G1 X23.550 Y11.364 E2.55384
G1 X23.252 Y11.467 E0.02889
G1 X22.910 Y11.029 E0.05096
G1 X22.316 Y10.573 E0.06872
G1 X22.114 Y10.456 E0.02146
G1 X21.809 Y10.353 E0.02947
G1 X21.301 Y10.143 E0.05050
G1 X20.506 Y10.048 E0.07339
G1 X19.697 Y10.144 E0.07477
G1 X19.191 Y10.353 E0.05028
G1 X18.886 Y10.456 E0.02947
G1 X18.684 Y10.573 E0.02146
G1 X18.090 Y11.029 E0.06872
G1 X17.510 Y11.771 E0.08645
G1 X17.154 Y12.655 E0.08740
G1 X17.057 Y13.391 E0.06807
G1 X17.057 Y13.609 E0.02006
G1 X17.155 Y14.352 E0.06872
G1 X17.508 Y15.227 E0.08661
G1 X18.223 Y16.142 E0.10652
G1 X17.957 Y16.418 E0.03515
G1 X17.253 Y15.909 E0.07977
G1 X16.072 Y15.137 E0.12944
G1 X14.857 Y14.420 E0.12944
G1 X13.610 Y13.761 E0.12944
G1 X12.333 Y13.159 E0.12944
G1 X11.031 Y12.618 E0.12944
G1 X9.704 Y12.138 E0.12944
G1 X8.357 Y11.719 E0.12944
G1 X6.992 Y11.363 E0.12944
G1 X5.611 Y11.071 E0.12944
G1 X4.219 Y10.844 E0.12944
G1 X2.818 Y10.681 E0.12944
G1 X1.410 Y10.583 E0.12944
G1 X-0.000 Y10.550 E0.12947
G1 X-1.453 Y10.586 E0.13337
G1 X-2.818 Y10.681 E0.12548
G1 X-4.219 Y10.844 E0.12944
G1 X-5.611 Y11.071 E0.12944
G1 X-6.992 Y11.363 E0.12944
G1 X-8.357 Y11.719 E0.12944
G1 X-9.704 Y12.138 E0.12944
G1 X-11.031 Y12.618 E0.12944
G1 X-12.294 Y13.143 E0.12548
G1 X-13.609 Y13.760 E0.13337
G1 X-14.857 Y14.420 E0.12947
G1 X-16.072 Y15.137 E0.12944
G1 X-17.253 Y15.909 E0.12944
G1 X-17.957 Y16.418 E0.07977
G1 X-18.223 Y16.142 E0.03515
G1 X-17.510 Y15.229 E0.10636
G1 X-17.154 Y14.345 E0.08740
G1 X-17.057 Y13.609 E0.06807
G1 X-17.057 Y13.391 E0.02006
G1 X-17.155 Y12.648 E0.06872
G1 X-17.508 Y11.773 E0.08661
G1 X-18.090 Y11.029 E0.08661
G1 X-18.684 Y10.573 E0.06872
G1 X-18.886 Y10.456 E0.02146
