; generated by Slic3r 1.2.9 on 2016-11-15 at 16:09:46

; external perimeters extrusion width = 0.50mm
; perimeters extrusion width = 0.50mm
; infill extrusion width = 0.50mm
; solid infill extrusion width = 0.50mm
; top infill extrusion width = 0.50mm

M107
;Basic settings: Layer height: {layer_height} Walls: {wall_thickness} Fill: {fill_density}
;Print time: {print_time}
;Filament used: {filament_amount}m {filament_weight}g
;Filament cost: {filament_cost}
;M190 S{print_bed_temperature} ;Uncomment to add your own bed temperature line
;M109 S{print_temperature} ;Uncomment to add your own temperature line
G21        ;metric values
G90        ;absolute positioning
M83
G10 P0 S200
T0
M116


G21 ; set units to millimeters
G90 ; use absolute coordinates
M83 ; use relative distances for extrusion
G1 E-3.20000 F3000.00000
G1 Z0.400 F9000.000
G1 X11.021 Y-1.746 F9000.000
G1 Z0.300 F9000.000
G1 E3.20000 F3000.00000
G1 X11.131 Y-0.818 E0.08572 F946.437
G1 X11.161 Y-0.117 E0.06434
G1 X11.147 Y0.561 E0.06227
G1 X11.066 Y1.457 E0.08255
G1 X10.958 Y2.123 E0.06186
G1 X10.809 Y2.780 E0.06186
G1 X10.689 Y3.213 E0.04116
G1 X10.395 Y4.063 E0.08255
G1 X10.065 Y4.826 E0.07625
G1 X9.592 Y5.709 E0.09195
G1 X9.161 Y6.378 E0.07303
G1 X8.632 Y7.077 E0.08036
G1 X8.097 Y7.684 E0.07428
G1 X7.442 Y8.319 E0.08367
G1 X6.831 Y8.828 E0.07303
G1 X6.042 Y9.386 E0.08864
G1 X5.346 Y9.799 E0.07428
G1 X4.724 Y10.114 E0.06393
G1 X4.000 Y10.420 E0.07215
G1 X3.337 Y10.651 E0.06435
G1 X2.889 Y10.781 E0.04281
G1 X2.207 Y10.941 E0.06433
G1 X1.515 Y11.058 E0.06433
G1 X0.584 Y11.146 E0.08585
G1 X-0.113 Y11.161 E0.06392
G1 X-0.561 Y11.147 E0.04116
G1 X-1.233 Y11.093 E0.06186
G1 X-1.901 Y10.998 E0.06186
G1 X-2.780 Y10.809 E0.08255
G1 X-3.213 Y10.689 E0.04116
G1 X-3.852 Y10.475 E0.06186
G1 X-4.610 Y10.166 E0.07515
G1 X-5.346 Y9.799 E0.07538
G1 X-6.042 Y9.386 E0.07427
G1 X-6.831 Y8.828 E0.08864
G1 X-7.442 Y8.319 E0.07303
G1 X-8.097 Y7.684 E0.08367
G1 X-8.560 Y7.163 E0.06393
G1 X-9.057 Y6.524 E0.07427
G1 X-9.531 Y5.810 E0.07870
G1 X-9.921 Y5.115 E0.07303
G1 X-10.346 Y4.189 E0.09355
G1 X-10.651 Y3.337 E0.08298
G1 X-10.839 Y2.662 E0.06433
G1 X-10.985 Y1.976 E0.06433
G1 X-11.058 Y1.515 E0.04281
G1 X-11.131 Y0.818 E0.06433
G1 X-11.161 Y0.117 E0.06433
G1 X-11.134 Y-0.786 E0.08296
G1 X-11.038 Y-1.641 E0.07892
G1 X-10.863 Y-2.561 E0.08593
G1 X-10.689 Y-3.213 E0.06186
G1 X-10.395 Y-4.063 E0.08255
G1 X-10.065 Y-4.826 E0.07625
G1 X-9.592 Y-5.709 E0.09195
G1 X-9.161 Y-6.378 E0.07303
G1 X-8.632 Y-7.077 E0.08036
G1 X-8.097 Y-7.684 E0.07428
G1 X-7.442 Y-8.319 E0.08367
G1 X-6.831 Y-8.828 E0.07303
G1 X-6.042 Y-9.386 E0.08864
G1 X-5.346 Y-9.799 E0.07427
G1 X-4.610 Y-10.166 E0.07540
G1 X-4.189 Y-10.346 E0.04206
G1 X-3.560 Y-10.578 E0.06146
G1 X-2.889 Y-10.781 E0.06433
G1 X-2.207 Y-10.941 E0.06433
G1 X-1.282 Y-11.087 E0.08585
G1 X-0.584 Y-11.146 E0.06433
G1 X-0.117 Y-11.161 E0.04281
G1 X0.561 Y-11.147 E0.06227
G1 X1.233 Y-11.093 E0.06186 F946.437
G1 X2.123 Y-10.958 E0.08255
G1 X2.561 Y-10.863 E0.04116
G1 X3.213 Y-10.689 E0.06186
G1 X4.063 Y-10.395 E0.08255
G1 X4.826 Y-10.065 E0.07625
G1 X5.346 Y-9.799 E0.05359
G1 X5.810 Y-9.531 E0.04915
G1 X6.615 Y-8.990 E0.08905
G1 X7.077 Y-8.632 E0.05358
G1 X7.442 Y-8.319 E0.04418
G1 X8.097 Y-7.684 E0.08367
G1 X8.756 Y-6.923 E0.09236
G1 X9.057 Y-6.524 E0.04584
G1 X9.386 Y-6.042 E0.05358
G1 X9.799 Y-5.346 E0.07428
G1 X10.213 Y-4.503 E0.08614
G1 X10.578 Y-3.560 E0.09274
G1 X10.839 Y-2.662 E0.08585
G1 X11.012 Y-1.805 E0.08021
G1 E-3.20000 F3000.00000
G1 Z0.700 F9000.000
G1 X4.312 Y-0.806 F9000.000
G1 Z0.300 F9000.000
G1 E3.20000 F3000.00000
G1 X4.368 Y-0.405 E0.03718 F709.828
G1 X4.387 Y0.000 E0.03718
G1 X4.368 Y0.405 E0.03718
G1 X4.312 Y0.806 E0.03718
G1 X4.219 Y1.201 E0.03718
G1 X4.091 Y1.585 E0.03718
G1 X3.927 Y1.955 E0.03718
G1 X3.729 Y2.311 E0.03730
G1 X3.495 Y2.651 E0.03790
G1 X3.242 Y2.955 E0.03633
G1 X2.955 Y3.242 E0.03718
G1 X2.644 Y3.501 E0.03718
G1 X2.309 Y3.730 E0.03718
G1 X1.955 Y3.927 E0.03718
G1 X1.585 Y4.091 E0.03718
G1 X1.201 Y4.219 E0.03718
G1 X0.806 Y4.312 E0.03718
G1 X0.405 Y4.368 E0.03718
G1 X0.000 Y4.387 E0.03718
G1 X-0.405 Y4.368 E0.03718
G1 X-0.806 Y4.312 E0.03718
G1 X-1.201 Y4.219 E0.03718
G1 X-1.585 Y4.091 E0.03718
G1 X-1.955 Y3.927 E0.03718
G1 X-2.309 Y3.730 E0.03718
G1 X-2.644 Y3.501 E0.03718
G1 X-2.955 Y3.242 E0.03718
G1 X-3.242 Y2.955 E0.03718
G1 X-3.501 Y2.644 E0.03718
G1 X-3.730 Y2.309 E0.03718
G1 X-3.927 Y1.955 E0.03718
G1 X-4.091 Y1.585 E0.03718
G1 X-4.219 Y1.201 E0.03718
G1 X-4.312 Y0.806 E0.03718
G1 X-4.368 Y0.405 E0.03718
G1 X-4.387 Y0.000 E0.03718
G1 X-4.369 Y-0.396 E0.03633
G1 X-4.312 Y-0.805 E0.03790
G1 X-4.219 Y-1.201 E0.03730
G1 X-4.091 Y-1.585 E0.03718
G1 X-3.927 Y-1.955 E0.03718
G1 X-3.730 Y-2.309 E0.03718
G1 X-3.501 Y-2.644 E0.03718
G1 X-3.242 Y-2.955 E0.03718
G1 X-2.955 Y-3.242 E0.03718
G1 X-2.644 Y-3.501 E0.03718
G1 X-2.309 Y-3.730 E0.03718
G1 X-1.955 Y-3.927 E0.03718
G1 X-1.585 Y-4.091 E0.03718
G1 X-1.201 Y-4.219 E0.03718
G1 X-0.805 Y-4.312 E0.03730
G1 X-0.396 Y-4.369 E0.03790
G1 X-0.000 Y-4.387 E0.03633 F709.828
G1 X0.405 Y-4.368 E0.03718
G1 X0.806 Y-4.312 E0.03718
G1 X1.201 Y-4.219 E0.03718
G1 X1.585 Y-4.091 E0.03718
G1 X1.955 Y-3.927 E0.03718
G1 X2.309 Y-3.730 E0.03718
G1 X2.644 Y-3.501 E0.03718
G1 X2.955 Y-3.242 E0.03718
G1 X3.242 Y-2.955 E0.03718
G1 X3.501 Y-2.644 E0.03718
G1 X3.730 Y-2.309 E0.03718
G1 X3.927 Y-1.955 E0.03718
G1 X4.091 Y-1.585 E0.03718
G1 X4.219 Y-1.201 E0.03718
G1 X4.298 Y-0.864 E0.03167
G1 X3.582 Y-0.696 F9000.000
G1 X3.635 Y-0.337 E0.03331 F709.828
G1 X3.650 Y0.000 E0.03094
G1 X3.635 Y0.337 E0.03094
G1 X3.588 Y0.671 E0.03094
G1 X3.511 Y0.999 E0.03094
G1 X3.404 Y1.319 E0.03094
G1 X3.268 Y1.627 E0.03094
G1 X3.103 Y1.922 E0.03098
G1 X2.908 Y2.206 E0.03165
G1 X2.698 Y2.459 E0.03017
G1 X2.459 Y2.698 E0.03094
G1 X2.200 Y2.913 E0.03094
G1 X1.922 Y3.104 E0.03094
G1 X1.627 Y3.268 E0.03094
G1 X1.319 Y3.404 E0.03094
G1 X0.999 Y3.511 E0.03094
G1 X0.671 Y3.588 E0.03094
G1 X0.337 Y3.635 E0.03094
G1 X0.000 Y3.650 E0.03094
G1 X-0.337 Y3.635 E0.03094
G1 X-0.671 Y3.588 E0.03094
G1 X-0.999 Y3.511 E0.03094
G1 X-1.319 Y3.404 E0.03094
G1 X-1.627 Y3.268 E0.03094
G1 X-1.922 Y3.104 E0.03094
G1 X-2.200 Y2.913 E0.03094
G1 X-2.459 Y2.698 E0.03094
G1 X-2.698 Y2.459 E0.03094
G1 X-2.913 Y2.200 E0.03094
G1 X-3.104 Y1.922 E0.03094
G1 X-3.268 Y1.627 E0.03094
G1 X-3.404 Y1.319 E0.03094
G1 X-3.511 Y0.999 E0.03094
G1 X-3.588 Y0.671 E0.03094
G1 X-3.635 Y0.337 E0.03094
G1 X-3.650 Y0.000 E0.03094
G1 X-3.635 Y-0.329 E0.03017
G1 X-3.588 Y-0.670 E0.03165
G1 X-3.511 Y-0.999 E0.03098
G1 X-3.404 Y-1.319 E0.03094
G1 X-3.268 Y-1.627 E0.03094
G1 X-3.104 Y-1.922 E0.03094
G1 X-2.913 Y-2.200 E0.03094
G1 X-2.698 Y-2.459 E0.03094
G1 X-2.459 Y-2.698 E0.03094
G1 X-2.200 Y-2.913 E0.03094
G1 X-1.922 Y-3.104 E0.03094
G1 X-1.627 Y-3.268 E0.03094
G1 X-1.319 Y-3.404 E0.03094
G1 X-0.999 Y-3.511 E0.03094
G1 X-0.670 Y-3.588 E0.03098
G1 X-0.329 Y-3.635 E0.03165
G1 X-0.000 Y-3.650 E0.03017 F709.828
G1 X0.337 Y-3.635 E0.03094
G1 X0.671 Y-3.588 E0.03094
G1 X0.999 Y-3.511 E0.03094
G1 X1.319 Y-3.404 E0.03094
G1 X1.627 Y-3.268 E0.03094
G1 X1.922 Y-3.104 E0.03094
G1 X2.200 Y-2.913 E0.03094
G1 X2.459 Y-2.698 E0.03094
G1 X2.698 Y-2.459 E0.03094
G1 X2.913 Y-2.200 E0.03094
G1 X3.104 Y-1.922 E0.03094
G1 X3.268 Y-1.627 E0.03094
G1 X3.404 Y-1.319 E0.03094
G1 X3.511 Y-0.999 E0.03094
G1 X3.569 Y-0.754 E0.02305
G1 X3.923 Y-0.572 F9000.000
G1 X5.809 Y2.402 F9000.000
G1 X5.695 Y2.671 E0.02686 F709.828
G1 X5.380 Y3.259 E0.06119
G1 X5.091 Y3.694 E0.04794
G1 X4.702 Y4.179 E0.05704
G1 X4.172 Y4.709 E0.06874
G1 X3.583 Y5.170 E0.06862
G1 X3.025 Y5.515 E0.06023
G1 X2.589 Y5.732 E0.04463
G1 X1.941 Y5.983 E0.06375
G1 X1.407 Y6.127 E0.05073
G1 X0.775 Y6.242 E0.05896
G1 X0.395 Y6.278 E0.03505
G1 X-0.380 Y6.279 E0.07109
G1 X-1.134 Y6.188 E0.06970
G1 X-1.505 Y6.108 E0.03486
G1 X-2.226 Y5.883 E0.06926
G1 X-2.671 Y5.695 E0.04434
G1 X-3.259 Y5.380 E0.06119
G1 X-3.694 Y5.091 E0.04794
G1 X-4.179 Y4.702 E0.05704
G1 X-4.448 Y4.448 E0.03391
G1 X-4.952 Y3.880 E0.06969
G1 X-5.170 Y3.583 E0.03379
G1 X-5.515 Y3.025 E0.06023
G1 X-5.732 Y2.589 E0.04463
G1 X-5.982 Y1.944 E0.06350
G1 X-6.143 Y1.335 E0.05776
G1 X-6.242 Y0.778 E0.05193
G1 X-6.278 Y0.395 E0.03530
G1 X-6.280 Y-0.370 E0.07017
G1 X-6.221 Y-0.911 E0.04993
G1 X-6.105 Y-1.518 E0.05669
G1 X-5.883 Y-2.226 E0.06810
G1 X-5.695 Y-2.671 E0.04434
G1 X-5.380 Y-3.259 E0.06119
G1 X-5.091 Y-3.694 E0.04794
G1 X-4.702 Y-4.179 E0.05704
G1 X-4.179 Y-4.702 E0.06780
G1 X-3.694 Y-5.091 E0.05704
G1 X-3.259 Y-5.380 E0.04794
G1 X-2.667 Y-5.697 E0.06157
G1 X-1.944 Y-5.983 E0.07138
G1 X-1.179 Y-6.179 E0.07248
G1 X-0.407 Y-6.277 E0.07140
G1 X0.203 Y-6.284 E0.05595
G1 X0.769 Y-6.243 E0.05208
G1 X1.505 Y-6.108 E0.06869 F709.828
G1 X2.226 Y-5.883 E0.06926
G1 X2.671 Y-5.695 E0.04434
G1 X3.259 Y-5.380 E0.06119
G1 X3.694 Y-5.091 E0.04794
G1 X4.179 Y-4.702 E0.05704
G1 X4.709 Y-4.172 E0.06874
G1 X5.170 Y-3.583 E0.06862
G1 X5.515 Y-3.025 E0.06023
G1 X5.732 Y-2.589 E0.04463
G1 X5.986 Y-1.931 E0.06471
G1 X6.093 Y-1.564 E0.03506
G1 X6.241 Y-0.788 E0.07248
G1 X6.278 Y-0.395 E0.03626
G1 X6.280 Y0.367 E0.06993
G1 X6.210 Y0.981 E0.05669
G1 X6.105 Y1.515 E0.04993
G1 X6.006 Y1.871 E0.03394
G1 X5.833 Y2.346 E0.04638
G1 X6.510 Y2.634 F9000.000
G1 X6.359 Y2.989 E0.03543 F709.828
G1 X6.012 Y3.637 E0.06743
G1 X5.685 Y4.129 E0.05419
G1 X5.257 Y4.662 E0.06276
G1 X4.969 Y4.969 E0.03861
G1 X4.660 Y5.259 E0.03894
G1 X4.334 Y5.531 E0.03894
G1 X3.995 Y5.780 E0.03856
G1 X3.383 Y6.159 E0.06602
G1 X2.887 Y6.406 E0.05087
G1 X2.170 Y6.683 E0.07045
G1 X1.570 Y6.845 E0.05709
G1 X0.876 Y6.972 E0.06470
G1 X0.441 Y7.013 E0.04007
G1 X-0.000 Y7.027 E0.04053
G1 X-0.424 Y7.014 E0.03892
G1 X-0.847 Y6.975 E0.03894
G1 X-1.267 Y6.912 E0.03894
G1 X-1.682 Y6.822 E0.03894
G1 X-2.090 Y6.708 E0.03894
G1 X-2.490 Y6.571 E0.03879
G1 X-2.989 Y6.359 E0.04972
G1 X-3.637 Y6.012 E0.06743
G1 X-4.129 Y5.685 E0.05419
G1 X-4.662 Y5.257 E0.06276
G1 X-4.969 Y4.969 E0.03861
G1 X-5.260 Y4.660 E0.03894
G1 X-5.531 Y4.334 E0.03894
G1 X-5.780 Y3.995 E0.03856
G1 X-6.159 Y3.383 E0.06602
G1 X-6.406 Y2.887 E0.05087
G1 X-6.682 Y2.171 E0.07037
G1 X-6.862 Y1.494 E0.06428
G1 X-6.972 Y0.877 E0.05751
G1 X-7.013 Y0.441 E0.04016
G1 X-7.027 Y-0.000 E0.04053
G1 X-7.014 Y-0.421 E0.03859
G1 X-6.949 Y-1.020 E0.05530
G1 X-6.821 Y-1.686 E0.06222
G1 X-6.708 Y-2.090 E0.03853
G1 X-6.571 Y-2.490 E0.03879
G1 X-6.359 Y-2.989 E0.04972
G1 X-6.012 Y-3.637 E0.06743
G1 X-5.685 Y-4.129 E0.05419
G1 X-5.257 Y-4.662 E0.06276
G1 X-4.969 Y-4.969 E0.03861
G1 X-4.662 Y-5.257 E0.03861
G1 X-4.129 Y-5.685 E0.06276
G1 X-3.637 Y-6.012 E0.05419
G1 X-2.988 Y-6.360 E0.06757
G1 X-2.587 Y-6.533 E0.04007
G1 X-2.171 Y-6.683 E0.04052
G1 X-1.747 Y-6.806 E0.04050
G1 X-1.317 Y-6.902 E0.04050
G1 X-0.881 Y-6.971 E0.04050
G1 X-0.445 Y-7.012 E0.04012
G1 X0.225 Y-7.020 E0.06154
G1 X0.851 Y-6.975 E0.05754
G1 X1.267 Y-6.912 E0.03859 F709.828
G1 X1.682 Y-6.822 E0.03894
G1 X2.090 Y-6.708 E0.03894
G1 X2.490 Y-6.571 E0.03879
G1 X2.989 Y-6.359 E0.04972
G1 X3.637 Y-6.012 E0.06743
G1 X4.129 Y-5.685 E0.05419
G1 X4.662 Y-5.257 E0.06276
G1 X4.969 Y-4.969 E0.03861
G1 X5.260 Y-4.660 E0.03894
G1 X5.531 Y-4.334 E0.03894
G1 X5.780 Y-3.995 E0.03856
G1 X6.159 Y-3.383 E0.06602
G1 X6.406 Y-2.887 E0.05087
G1 X6.684 Y-2.167 E0.07079
G1 X6.806 Y-1.747 E0.04008
G1 X6.902 Y-1.317 E0.04050
G1 X6.971 Y-0.881 E0.04050
G1 X7.013 Y-0.441 E0.04050
G1 X7.027 Y0.000 E0.04053
G1 X7.014 Y0.420 E0.03851
G1 X6.938 Y1.094 E0.06222
G1 X6.822 Y1.685 E0.05530
G1 X6.708 Y2.090 E0.03862
G1 X6.533 Y2.578 E0.04756
G1 X6.127 Y2.687 F9000.000
G1 X4.970 Y1.944 F9000.000
G1 X4.788 Y2.354 E0.08591 F600.000
G1 X4.551 Y2.788 E0.09473
G1 X4.321 Y3.131 E0.07912
G1 X3.983 Y3.554 E0.10364
G1 X3.616 Y3.926 E0.10016
G1 X3.292 Y4.201 E0.08141
G1 X3.049 Y4.379 E0.05762
G1 X2.560 Y4.681 E0.11005
G1 X2.204 Y4.859 E0.07628
G1 X1.644 Y5.076 E0.11495
G1 X0.954 Y5.247 E0.13628
G1 X0.519 Y5.312 E0.08413
G1 X-0.001 Y5.339 E0.09983
G1 X-0.466 Y5.317 E0.08904
G1 X-0.962 Y5.251 E0.09595
G1 X-1.435 Y5.141 E0.09291
G1 X-1.903 Y4.987 E0.09442
G1 X-2.354 Y4.788 E0.09444
G1 X-2.770 Y4.562 E0.09064
G1 X-3.132 Y4.321 E0.08322
G1 X-3.554 Y3.983 E0.10364
G1 X-3.995 Y3.540 E0.11981
G1 X-4.275 Y3.195 E0.08507
G1 X-4.549 Y2.785 E0.09437
G1 X-4.789 Y2.354 E0.09440
G1 X-4.983 Y1.902 E0.09436
G1 X-5.123 Y1.485 E0.08412
G1 X-5.239 Y1.007 E0.09437
G1 X-5.312 Y0.519 E0.09438
G1 X-5.339 Y-0.001 E0.09983
G1 X-5.316 Y-0.456 E0.08720 F600.000
G1 X-5.278 Y-0.770 E0.06049
G1 X-5.176 Y-1.300 E0.10342
G1 X-4.994 Y-1.885 E0.11730
G1 X-4.834 Y-2.259 E0.07800
G1 X-4.562 Y-2.770 E0.11086
G1 X-4.275 Y-3.194 E0.09818
G1 X-3.963 Y-3.576 E0.09441
G1 X-3.554 Y-3.983 E0.11046
G1 X-3.132 Y-4.321 E0.10364
G1 X-2.770 Y-4.562 E0.08322
G1 X-2.354 Y-4.788 E0.09064
G1 X-1.965 Y-4.963 E0.08168
G1 X-1.435 Y-5.141 E0.10718
G1 X-1.000 Y-5.244 E0.08551
G1 X-0.357 Y-5.325 E0.12423
G1 X0.174 Y-5.332 E0.10168
G1 X0.519 Y-5.310 E0.06619
G1 X0.962 Y-5.251 E0.08566
G1 X1.487 Y-5.126 E0.10322
G1 X1.953 Y-4.967 E0.09442
G1 X2.354 Y-4.788 E0.08412
G1 X2.770 Y-4.562 E0.09064
G1 X3.132 Y-4.321 E0.08322
G1 X3.576 Y-3.963 E0.10937
G1 X3.995 Y-3.540 E0.11409
G1 X4.379 Y-3.049 E0.11930
G1 X4.681 Y-2.560 E0.11005
G1 X4.859 Y-2.204 E0.07628
G1 X5.126 Y-1.486 E0.14662
G1 X5.244 Y-1.000 E0.09581
G1 X5.326 Y-0.335 E0.12838
G1 X5.328 Y0.299 E0.12143
G1 X5.269 Y0.836 E0.10342
G1 X5.141 Y1.435 E0.11732
G1 X4.993 Y1.889 E0.09147
G1 E-3.20000 F3000.00000
G1 Z0.700 F9000.000
G1 X3.671 Y1.422 F9000.000
G1 Z0.600 F9000.000
G1 E3.20000 F3000.00000
G1 X3.524 Y1.755 E0.01975 F987.520
G1 X3.347 Y2.072 E0.01976
G1 X3.141 Y2.372 E0.01976
G1 X2.909 Y2.652 E0.01976
G1 X2.652 Y2.909 E0.01975
G1 X2.372 Y3.141 E0.01976
G1 X2.072 Y3.347 E0.01976
G1 X1.755 Y3.524 E0.01975
G1 X1.422 Y3.671 E0.01976
G1 X1.077 Y3.786 E0.01976
G1 X0.723 Y3.869 E0.01975
G1 X0.363 Y3.920 E0.01976
G1 X-0.000 Y3.936 E0.01976
G1 X-0.363 Y3.920 E0.01976
G1 X-0.723 Y3.869 E0.01976
G1 X-1.077 Y3.786 E0.01975
G1 X-1.422 Y3.671 E0.01976
G1 X-1.755 Y3.524 E0.01976
G1 X-2.072 Y3.347 E0.01975
G1 X-2.372 Y3.141 E0.01976
G1 X-2.652 Y2.909 E0.01976
G1 X-2.909 Y2.652 E0.01975
G1 X-3.141 Y2.372 E0.01976
G1 X-3.347 Y2.072 E0.01976
G1 X-3.524 Y1.755 E0.01975
G1 X-3.671 Y1.422 E0.01976
G1 X-3.786 Y1.077 E0.01976
G1 X-3.869 Y0.723 E0.01975
G1 X-3.920 Y0.363 E0.01976
G1 X-3.936 Y0.000 E0.01976
G1 X-3.920 Y-0.363 E0.01976
G1 X-3.869 Y-0.723 E0.01976
G1 X-3.786 Y-1.077 E0.01975
G1 X-3.671 Y-1.422 E0.01976
G1 X-3.524 Y-1.755 E0.01976
G1 X-3.347 Y-2.072 E0.01975
G1 X-3.141 Y-2.372 E0.01976
G1 X-2.909 Y-2.652 E0.01976
G1 X-2.652 Y-2.909 E0.01976
G1 X-2.372 Y-3.141 E0.01976
G1 X-2.072 Y-3.347 E0.01976
G1 X-1.755 Y-3.524 E0.01976
G1 X-1.422 Y-3.671 E0.01976
G1 X-1.077 Y-3.786 E0.01976
G1 X-0.721 Y-3.870 E0.01986
G1 X-0.342 Y-3.921 E0.02078
G1 X-0.000 Y-3.936 E0.01862 F987.520
G1 X0.363 Y-3.920 E0.01976
G1 X0.723 Y-3.869 E0.01976
G1 X1.077 Y-3.786 E0.01976
G1 X1.422 Y-3.671 E0.01976
G1 X1.755 Y-3.524 E0.01976
G1 X2.072 Y-3.347 E0.01976
G1 X2.372 Y-3.141 E0.01976
G1 X2.652 Y-2.909 E0.01976
G1 X2.909 Y-2.652 E0.01976
G1 X3.141 Y-2.372 E0.01976
G1 X3.347 Y-2.072 E0.01976
G1 X3.524 Y-1.755 E0.01975
G1 X3.671 Y-1.422 E0.01976
G1 X3.786 Y-1.077 E0.01976
G1 X3.869 Y-0.723 E0.01976
G1 X3.920 Y-0.363 E0.01976
G1 X3.936 Y0.000 E0.01976
G1 X3.920 Y0.363 E0.01975
G1 X3.869 Y0.723 E0.01976
G1 X3.786 Y1.077 E0.01976
G1 X3.690 Y1.365 E0.01650
G1 X3.277 Y1.227 F9000.000
G1 X3.133 Y1.560 E0.01972 F987.520
G1 X2.976 Y1.843 E0.01757
G1 X2.793 Y2.109 E0.01757
G1 X2.587 Y2.358 E0.01757
G1 X2.358 Y2.587 E0.01757
G1 X2.109 Y2.793 E0.01757
G1 X1.843 Y2.976 E0.01757
G1 X1.560 Y3.133 E0.01757
G1 X1.264 Y3.264 E0.01757
G1 X0.958 Y3.367 E0.01757
G1 X0.643 Y3.441 E0.01757
G1 X0.323 Y3.485 E0.01757
G1 X-0.000 Y3.500 E0.01757
G1 X-0.323 Y3.485 E0.01757
G1 X-0.643 Y3.441 E0.01757
G1 X-0.958 Y3.367 E0.01757
G1 X-1.264 Y3.264 E0.01757
G1 X-1.560 Y3.133 E0.01757
G1 X-1.843 Y2.976 E0.01757
G1 X-2.109 Y2.793 E0.01757
G1 X-2.358 Y2.587 E0.01757
G1 X-2.587 Y2.358 E0.01757
G1 X-2.793 Y2.109 E0.01757
G1 X-2.976 Y1.843 E0.01757
G1 X-3.133 Y1.560 E0.01757
G1 X-3.264 Y1.264 E0.01757
G1 X-3.367 Y0.958 E0.01757
