; generated by Slic3r 1.2.9 on 2016-11-15 at 17:09:46

; external perimeters extrusion width = 0.50mm
; perimeters extrusion width = 0.50mm
; infill extrusion width = 0.50mm
; solid infill extrusion width = 0.50mm
; top infill extrusion width = 0.50mm

M107
;Basic settings: Layer height: {layer_height} Walls: {wall_thickness} Fill: {fill_density}
;Print time: {print_time}
;Filament used: {filament_amount}m {filament_weight}g
;Filament cost: {filament_cost}
;M190 S{print_bed_temperature} ;Uncomment to add your own bed temperature line
;M109 S{print_temperature} ;Uncomment to add your own temperature line
G21        ;metric values
G90        ;absolute positioning
M83
G10 P0 S200
T0
M116


G21 ; set units to millimeters
G90 ; use absolute coordinates
M83 ; use relative distances for extrusion
G1 E-3.20000 F3000.00000
G1 Z0.400 F9000.000
G1 X0.000 Y20.186 F9000.000
G1 Z0.300 F9000.000
G1 E3.20000 F3000.00000
G1 X-23.998 Y20.186 E2.20186 F1200.000
G1 X-24.760 Y20.144 E0.06998
G1 X-25.244 Y20.080 E0.04483
G1 X-25.750 Y19.979 E0.04734
G1 X-26.223 Y19.853 E0.04489
G1 X-26.712 Y19.687 E0.04741
G1 X-27.164 Y19.500 E0.04483
G1 X-27.627 Y19.271 E0.04740
G1 X-28.050 Y19.027 E0.04477
G1 X-28.480 Y18.740 E0.04747
G1 X-28.867 Y18.442 E0.04480
G1 X-29.256 Y18.102 E0.04744
G1 X-29.602 Y17.756 E0.04483
G1 X-29.942 Y17.368 E0.04740
G1 X-30.239 Y16.981 E0.04475
G1 X-30.527 Y16.550 E0.04749
G1 X-30.771 Y16.127 E0.04483
G1 X-31.000 Y15.664 E0.04740
G1 X-31.187 Y15.212 E0.04483
G1 X-31.353 Y14.723 E0.04741
G1 X-31.479 Y14.251 E0.04483
G1 X-31.580 Y13.744 E0.04740
G1 X-31.644 Y13.260 E0.04483
G1 X-31.686 Y12.498 E0.06998
G1 X-31.678 Y-12.742 E2.31578
G1 X-31.644 Y-13.260 E0.04766
G1 X-31.580 Y-13.744 E0.04483
G1 X-31.479 Y-14.252 E0.04745
G1 X-31.353 Y-14.723 E0.04479
G1 X-31.186 Y-15.214 E0.04753
G1 X-31.000 Y-15.664 E0.04471
G1 X-30.771 Y-16.127 E0.04740
G1 X-30.527 Y-16.550 E0.04483
G1 X-30.240 Y-16.980 E0.04740
G1 X-29.943 Y-17.367 E0.04480
G1 X-29.602 Y-17.756 E0.04744
G1 X-29.256 Y-18.102 E0.04483
G1 X-28.868 Y-18.442 E0.04740
G1 X-28.480 Y-18.740 E0.04483
G1 X-28.050 Y-19.027 E0.04741
G1 X-27.629 Y-19.270 E0.04460
G1 X-27.164 Y-19.500 E0.04763
G1 X-26.712 Y-19.687 E0.04483
G1 X-26.223 Y-19.853 E0.04740
G1 X-25.751 Y-19.979 E0.04484
G1 X-25.244 Y-20.080 E0.04741
G1 X-24.760 Y-20.144 E0.04483
G1 X-24.243 Y-20.178 E0.04755
G1 X27.950 Y-20.186 E4.78870
G1 X29.621 Y-19.791 E0.15755
G1 X30.939 Y-18.690 E0.15755 F1200.000
G1 X31.686 Y-16.450 E0.21667
G1 X31.678 Y12.743 E2.67845
G1 X31.644 Y13.260 E0.04755
G1 X31.580 Y13.743 E0.04467
G1 X31.479 Y14.251 E0.04756
G1 X31.352 Y14.724 E0.04489
G1 X31.187 Y15.212 E0.04735
G1 X31.000 Y15.664 E0.04484
G1 X30.771 Y16.127 E0.04740
G1 X30.527 Y16.550 E0.04477
G1 X30.240 Y16.980 E0.04747
G1 X29.942 Y17.367 E0.04480
G1 X29.602 Y17.756 E0.04744
G1 X29.256 Y18.102 E0.04483
G1 X28.868 Y18.442 E0.04740
G1 X28.482 Y18.738 E0.04460
G1 X28.050 Y19.027 E0.04763
G1 X27.627 Y19.271 E0.04483
G1 X27.164 Y19.500 E0.04742
G1 X26.714 Y19.686 E0.04468
G1 X26.223 Y19.853 E0.04754
G1 X25.751 Y19.979 E0.04484
G1 X25.243 Y20.080 E0.04757
G1 X24.760 Y20.144 E0.04467
G1 X23.998 Y20.186 E0.06998
G1 X0.060 Y20.186 E2.19636
G1 E-3.20000 F3000.00000
G1 Z0.700 F9000.000
G1 X9.838 Y11.611 F9000.000
G1 Z0.300 F9000.000
G1 E3.20000 F3000.00000
G1 X9.479 Y11.202 E0.04992 F900.000
G1 X9.156 Y10.719 E0.05326
G1 X8.900 Y10.198 E0.05327
G1 X8.713 Y9.649 E0.05326
G1 X8.600 Y9.079 E0.05327
G1 X8.562 Y8.500 E0.05326
G1 X8.600 Y7.921 E0.05327
G1 X8.713 Y7.351 E0.05326
G1 X8.900 Y6.802 E0.05326
G1 X9.156 Y6.281 E0.05327
G1 X9.479 Y5.798 E0.05326
G1 X9.862 Y5.362 E0.05326
G1 X10.298 Y4.979 E0.05327
G1 X10.781 Y4.656 E0.05326
G1 X11.302 Y4.400 E0.05326
G1 X11.851 Y4.213 E0.05327
G1 X12.421 Y4.100 E0.05326
G1 X13.000 Y4.062 E0.05326 F900.000
G1 X13.579 Y4.100 E0.05326
G1 X14.149 Y4.213 E0.05327
G1 X14.698 Y4.400 E0.05326
G1 X15.219 Y4.656 E0.05326
G1 X15.702 Y4.979 E0.05327
G1 X16.138 Y5.362 E0.05327
G1 X16.521 Y5.798 E0.05326
G1 X16.844 Y6.281 E0.05327
G1 X17.100 Y6.802 E0.05326
G1 X17.287 Y7.351 E0.05326
G1 X17.400 Y7.921 E0.05327
G1 X17.438 Y8.500 E0.05326
G1 X17.400 Y9.079 E0.05327
G1 X17.287 Y9.649 E0.05326
G1 X17.100 Y10.198 E0.05326
G1 X16.844 Y10.719 E0.05327
G1 X16.521 Y11.202 E0.05326
G1 X16.138 Y11.638 E0.05326
G1 X15.702 Y12.021 E0.05327
G1 X15.219 Y12.344 E0.05326
G1 X14.698 Y12.600 E0.05326
G1 X14.149 Y12.787 E0.05327
G1 X13.579 Y12.900 E0.05326
G1 X13.000 Y12.938 E0.05327
G1 X12.421 Y12.900 E0.05326
G1 X11.851 Y12.787 E0.05326
G1 X11.302 Y12.600 E0.05327
G1 X10.781 Y12.344 E0.05326
G1 X10.298 Y12.021 E0.05326
G1 X9.879 Y11.654 E0.05110
G1 X10.383 Y11.117 F9000.000
G1 X10.064 Y10.753 E0.04442 F900.000
G1 X9.795 Y10.350 E0.04442
G1 X9.581 Y9.916 E0.04442
G1 X9.425 Y9.458 E0.04442
G1 X9.331 Y8.983 E0.04442
G1 X9.299 Y8.500 E0.04442
G1 X9.331 Y8.017 E0.04442
G1 X9.425 Y7.542 E0.04442
G1 X9.581 Y7.084 E0.04442
G1 X9.795 Y6.650 E0.04442
G1 X10.064 Y6.247 E0.04442
G1 X10.383 Y5.883 E0.04442
G1 X10.747 Y5.564 E0.04442
G1 X11.150 Y5.295 E0.04442
G1 X11.584 Y5.081 E0.04442
G1 X12.042 Y4.925 E0.04442
G1 X12.517 Y4.831 E0.04442
G1 X13.000 Y4.799 E0.04442 F900.000
G1 X13.483 Y4.831 E0.04442
G1 X13.958 Y4.925 E0.04442
G1 X14.416 Y5.081 E0.04442
G1 X14.850 Y5.295 E0.04442
G1 X15.253 Y5.564 E0.04442
G1 X15.617 Y5.883 E0.04442
G1 X15.936 Y6.247 E0.04442
G1 X16.205 Y6.650 E0.04442
G1 X16.419 Y7.084 E0.04442
G1 X16.575 Y7.542 E0.04442
G1 X16.669 Y8.017 E0.04442
G1 X16.701 Y8.500 E0.04442
G1 X16.669 Y8.983 E0.04442
G1 X16.575 Y9.458 E0.04442
G1 X16.419 Y9.916 E0.04442
G1 X16.205 Y10.350 E0.04442
G1 X15.936 Y10.753 E0.04442
G1 X15.617 Y11.117 E0.04442
G1 X15.253 Y11.436 E0.04442
G1 X14.850 Y11.705 E0.04442
G1 X14.416 Y11.919 E0.04442
G1 X13.958 Y12.075 E0.04442
G1 X13.483 Y12.169 E0.04442
G1 X13.000 Y12.201 E0.04442
G1 X12.517 Y12.169 E0.04442
G1 X12.042 Y12.075 E0.04442
G1 X11.584 Y11.919 E0.04442
G1 X11.150 Y11.705 E0.04442
G1 X10.747 Y11.436 E0.04442
G1 X10.428 Y11.157 E0.03891
G1 X9.994 Y11.212 F9000.000
G1 X19.284 Y15.314 F9000.000
G1 X7.039 Y15.314 E1.12349 F900.000
G1 X6.633 Y15.288 E0.03732
G1 X6.272 Y15.216 E0.03375
G1 X5.924 Y15.098 E0.03375
G1 X5.594 Y14.935 E0.03375
G1 X5.288 Y14.731 E0.03375
G1 X5.012 Y14.488 E0.03375
G1 X4.769 Y14.212 E0.03375
G1 X4.565 Y13.906 E0.03375
G1 X4.402 Y13.576 E0.03375
G1 X4.284 Y13.228 E0.03375
G1 X4.212 Y12.867 E0.03375
G1 X4.186 Y12.461 E0.03732
G1 X4.186 Y-12.461 E2.28664
G1 X4.212 Y-12.867 E0.03731
G1 X4.284 Y-13.228 E0.03375
G1 X4.402 Y-13.576 E0.03375
G1 X4.565 Y-13.906 E0.03375
G1 X4.769 Y-14.212 E0.03375
G1 X5.012 Y-14.488 E0.03375
G1 X5.288 Y-14.731 E0.03374
G1 X5.595 Y-14.935 E0.03381
G1 X5.924 Y-15.098 E0.03370
G1 X6.272 Y-15.216 E0.03375
G1 X6.633 Y-15.288 E0.03375
G1 X7.039 Y-15.314 E0.03731
G1 X26.814 Y-15.314 E1.81442
G1 X26.814 Y12.461 E2.54842
G1 X26.788 Y12.867 E0.03731 F900.000
G1 X26.716 Y13.228 E0.03380
G1 X26.598 Y13.576 E0.03370
G1 X26.435 Y13.906 E0.03375
G1 X26.231 Y14.212 E0.03375
G1 X25.988 Y14.488 E0.03375
G1 X25.712 Y14.731 E0.03375
G1 X25.406 Y14.935 E0.03375
G1 X25.076 Y15.098 E0.03375
G1 X24.728 Y15.216 E0.03375
G1 X24.367 Y15.288 E0.03375
G1 X23.961 Y15.314 E0.03732
G1 X19.344 Y15.314 E0.42364
G1 X19.344 Y16.050 F9000.000
G1 X7.015 Y16.050 E1.13120 F900.000
G1 X6.537 Y16.019 E0.04395
G1 X6.081 Y15.928 E0.04259
G1 X5.642 Y15.779 E0.04259
G1 X5.225 Y15.574 E0.04259
G1 X4.839 Y15.316 E0.04259
G1 X4.490 Y15.010 E0.04259
G1 X4.184 Y14.661 E0.04259
G1 X3.926 Y14.275 E0.04259
G1 X3.721 Y13.858 E0.04259
G1 X3.572 Y13.419 E0.04259
G1 X3.481 Y12.963 E0.04259
G1 X3.450 Y12.485 E0.04395
G1 X3.450 Y-12.485 E2.29106
G1 X3.481 Y-12.963 E0.04395
G1 X3.572 Y-13.419 E0.04259
G1 X3.721 Y-13.858 E0.04259
G1 X3.926 Y-14.275 E0.04259
G1 X4.184 Y-14.661 E0.04259
G1 X4.490 Y-15.010 E0.04259
G1 X4.839 Y-15.316 E0.04259
G1 X5.226 Y-15.574 E0.04265
G1 X5.642 Y-15.779 E0.04254
G1 X6.081 Y-15.928 E0.04259
G1 X6.537 Y-16.019 E0.04259
G1 X7.015 Y-16.050 E0.04395
G1 X27.550 Y-16.050 E1.88412
G1 X27.550 Y12.485 E2.61813
G1 X27.519 Y12.963 E0.04394 F900.000
G1 X27.428 Y13.419 E0.04265
G1 X27.279 Y13.858 E0.04254
G1 X27.074 Y14.275 E0.04259
G1 X26.816 Y14.661 E0.04259
G1 X26.510 Y15.010 E0.04259
G1 X26.161 Y15.316 E0.04259
G1 X25.775 Y15.574 E0.04259
G1 X25.358 Y15.779 E0.04259
G1 X24.919 Y15.928 E0.04259
G1 X24.463 Y16.019 E0.04259
G1 X23.985 Y16.050 E0.04395
G1 X19.404 Y16.050 E0.42035
G1 X19.144 Y15.704 F9000.000
G1 X11.537 Y14.865 F9000.000
G1 X4.635 Y7.963 E0.90614 F900.000
G1 X8.674 Y10.950 F9000.000
G1 X4.635 Y6.910 E0.53030 F900.000
G1 X4.635 Y5.858 E0.09770
G1 X8.170 Y9.393 E0.46409
G1 X8.134 Y8.305 E0.10107
G1 X4.635 Y4.805 E0.45941
G1 X4.635 Y3.753 E0.09770
G1 X8.275 Y7.393 E0.47785
G1 X8.550 Y6.615 E0.07656
G1 X4.635 Y2.700 E0.51395
G1 X4.635 Y1.647 E0.09770
G1 X8.921 Y5.934 E0.56266
G1 X9.374 Y5.334 E0.06975
G1 X4.635 Y0.595 E0.62213
G1 X4.635 Y-0.458 E0.09770
G1 X9.905 Y4.812 E0.69179
G1 X10.513 Y4.368 E0.06992
G1 X4.635 Y-1.510 E0.77165
G1 X4.635 Y-2.563 E0.09770
G1 X11.204 Y4.006 E0.86233
G1 X12.003 Y3.753 E0.07783
G1 X4.635 Y-3.615 E0.96725
G1 X4.635 Y-4.668 E0.09770
G1 X12.929 Y3.626 E1.08880
G1 X14.058 Y3.703 E0.10506
G1 X4.635 Y-5.720 E1.23703
G1 X4.635 Y-6.773 E0.09770
G1 X15.728 Y4.320 E1.45623
G1 X17.180 Y5.772 F9000.000
G1 X25.655 Y14.247 E1.11258 F900.000
G1 X26.116 Y13.656 E0.06961
G1 X4.635 Y-7.825 E2.82003
G1 X4.635 Y-8.878 E0.09770
G1 X26.349 Y12.837 E2.85063
G1 X26.365 Y11.800 E0.09626
G1 X4.635 Y-9.930 E2.85269
G1 X4.635 Y-10.983 E0.09770
G1 X26.365 Y10.748 E2.85269
G1 X26.365 Y9.695 E0.09770
G1 X4.635 Y-12.035 E2.85269
G1 X4.678 Y-13.045 E0.09381
G1 X26.365 Y8.642 E2.84707
G1 X26.365 Y7.590 E0.09770
G1 X4.967 Y-13.808 E2.80906
G1 X5.463 Y-14.365 E0.06920
G1 X26.365 Y6.537 E2.74402
G1 X26.365 Y5.485 E0.09770
G1 X6.139 Y-14.741 E2.65516
G1 X7.068 Y-14.865 E0.08693
G1 X26.365 Y4.432 E2.53332
G1 X26.365 Y3.380 E0.09770
G1 X8.120 Y-14.865 E2.39515
G1 X9.173 Y-14.865 E0.09770
G1 X26.365 Y2.327 E2.25697
G1 X26.365 Y1.275 E0.09770
G1 X10.225 Y-14.865 E2.11880
G1 X11.278 Y-14.865 E0.09770
G1 X26.365 Y0.222 E1.98063
G1 X26.365 Y-0.830 E0.09770
G1 X12.330 Y-14.865 E1.84246
G1 X13.383 Y-14.865 E0.09770
G1 X26.365 Y-1.883 E1.70429
G1 X26.365 Y-2.935 E0.09770
G1 X14.435 Y-14.865 E1.56611
G1 X15.488 Y-14.865 E0.09770
G1 X26.365 Y-3.988 E1.42794
G1 X26.365 Y-5.040 E0.09770
G1 X16.540 Y-14.865 E1.28977
G1 X17.593 Y-14.865 E0.09770
G1 X26.365 Y-6.093 E1.15160
G1 X26.365 Y-7.145 E0.09770
G1 X18.645 Y-14.865 E1.01343
G1 X19.698 Y-14.865 E0.09770
G1 X26.365 Y-8.198 E0.87525
G1 X26.365 Y-9.250 E0.09770
G1 X20.750 Y-14.865 E0.73708
G1 X21.803 Y-14.865 E0.09770
G1 X26.365 Y-10.303 E0.59891
G1 X26.365 Y-11.356 E0.09770
G1 X22.855 Y-14.865 E0.46074
G1 X23.908 Y-14.865 E0.09770
G1 X26.365 Y-12.408 E0.32257
G1 X26.365 Y-13.461 E0.09770
G1 X24.961 Y-14.865 E0.18439
G1 X26.013 Y-14.865 E0.09770
G1 X26.365 Y-14.513 E0.04622
G1 X17.797 Y7.442 F9000.000
G1 X25.032 Y14.677 E0.94984 F900.000
G1 X24.163 Y14.861 E0.08245
G1 X17.874 Y8.571 E0.82568
G1 X17.747 Y9.497 E0.08675
G1 X23.115 Y14.865 E0.70470
G1 X22.063 Y14.865 E0.09770
G1 X17.494 Y10.296 E0.59977
G1 X17.132 Y10.987 E0.07238
G1 X21.010 Y14.865 E0.50909
G1 X19.958 Y14.865 E0.09770
G1 X16.688 Y11.595 E0.42923
G1 X16.166 Y12.126 E0.06909
G1 X18.905 Y14.865 E0.35958
G1 X17.853 Y14.865 E0.09770
G1 X15.566 Y12.579 E0.30011
G1 X14.885 Y12.950 E0.07203
G1 X16.800 Y14.865 E0.25140
G1 X15.747 Y14.865 E0.09770
G1 X14.107 Y13.225 E0.21530
G1 X13.195 Y13.366 E0.08566
G1 X14.695 Y14.865 E0.19685
G1 X13.642 Y14.865 E0.09770
G1 X12.107 Y13.330 E0.20154
G1 X12.590 Y14.865 E0.14939
G1 X10.550 Y12.826 E0.26775
G1 X10.485 Y14.865 F9000.000
G1 X4.635 Y9.015 E0.76797 F900.000
G1 X4.635 Y10.068 E0.09770
G1 X9.432 Y14.865 E0.62980
G1 X8.380 Y14.865 E0.09770
G1 X4.635 Y11.120 E0.49163
G1 X4.635 Y12.173 E0.09770
G1 X7.327 Y14.865 E0.35345
G1 X5.818 Y14.409 E0.14632
G1 X5.091 Y13.682 E0.09549
G1 E-3.20000 F3000.00000
G1 Z0.700 F9000.000
G1 X-13.713 Y9.649 F9000.000
G1 Z0.300 F9000.000
G1 E3.20000 F3000.00000
G1 X-13.900 Y10.198 E0.05326 F900.000
G1 X-14.156 Y10.719 E0.05327
G1 X-14.479 Y11.202 E0.05326
G1 X-14.862 Y11.638 E0.05326
G1 X-15.298 Y12.021 E0.05327
G1 X-15.781 Y12.344 E0.05326
G1 X-16.302 Y12.600 E0.05326
G1 X-16.851 Y12.787 E0.05327
G1 X-17.421 Y12.900 E0.05326
G1 X-18.000 Y12.938 E0.05327
G1 X-18.579 Y12.900 E0.05326
G1 X-19.149 Y12.787 E0.05326
G1 X-19.698 Y12.600 E0.05327
G1 X-20.219 Y12.344 E0.05326
G1 X-20.702 Y12.021 E0.05326
G1 X-21.138 Y11.638 E0.05327
G1 X-21.521 Y11.202 E0.05326
G1 X-21.844 Y10.719 E0.05326
G1 X-22.100 Y10.198 E0.05327
G1 X-22.287 Y9.649 E0.05326
G1 X-22.400 Y9.079 E0.05327
G1 X-22.438 Y8.500 E0.05326
G1 X-22.400 Y7.921 E0.05327
G1 X-22.287 Y7.351 E0.05326
G1 X-22.100 Y6.802 E0.05326
G1 X-21.844 Y6.281 E0.05327
G1 X-21.521 Y5.798 E0.05326
G1 X-21.138 Y5.362 E0.05326
G1 X-20.702 Y4.979 E0.05327
G1 X-20.219 Y4.656 E0.05326
G1 X-19.698 Y4.400 E0.05326
G1 X-19.149 Y4.213 E0.05327
G1 X-18.579 Y4.100 E0.05326
G1 X-18.000 Y4.062 E0.05326 F900.000
G1 X-17.421 Y4.100 E0.05326
G1 X-16.851 Y4.213 E0.05327
G1 X-16.302 Y4.400 E0.05326
G1 X-15.781 Y4.656 E0.05326
G1 X-15.298 Y4.979 E0.05327
G1 X-14.862 Y5.362 E0.05327
G1 X-14.479 Y5.798 E0.05326
G1 X-14.156 Y6.281 E0.05327
G1 X-13.900 Y6.802 E0.05326
G1 X-13.713 Y7.351 E0.05326
G1 X-13.600 Y7.921 E0.05327
G1 X-13.562 Y8.500 E0.05326
G1 X-13.600 Y9.079 E0.05327
G1 X-13.701 Y9.590 E0.04776
G1 X-14.423 Y9.446 F9000.000
G1 X-14.581 Y9.916 E0.04549 F900.000
G1 X-14.795 Y10.350 E0.04442
G1 X-15.064 Y10.753 E0.04442
G1 X-15.383 Y11.117 E0.04442
G1 X-15.747 Y11.436 E0.04442
G1 X-16.150 Y11.705 E0.04442
G1 X-16.584 Y11.919 E0.04442
G1 X-17.042 Y12.075 E0.04442
G1 X-17.517 Y12.169 E0.04442
G1 X-18.000 Y12.201 E0.04442
G1 X-18.483 Y12.169 E0.04442
G1 X-18.958 Y12.075 E0.04442
G1 X-19.416 Y11.919 E0.04442
G1 X-19.850 Y11.705 E0.04442
G1 X-20.253 Y11.436 E0.04442
G1 X-20.617 Y11.117 E0.04442
G1 X-20.936 Y10.753 E0.04442
G1 X-21.205 Y10.350 E0.04442
G1 X-21.419 Y9.916 E0.04442
G1 X-21.575 Y9.458 E0.04442
G1 X-21.669 Y8.983 E0.04442
G1 X-21.701 Y8.500 E0.04442
G1 X-21.669 Y8.017 E0.04442
G1 X-21.575 Y7.542 E0.04442
G1 X-21.419 Y7.084 E0.04442
G1 X-21.205 Y6.650 E0.04442
G1 X-20.936 Y6.247 E0.04442
G1 X-20.617 Y5.883 E0.04442
G1 X-20.253 Y5.564 E0.04442
G1 X-19.850 Y5.295 E0.04442
G1 X-19.416 Y5.081 E0.04442
G1 X-18.958 Y4.925 E0.04442
G1 X-18.483 Y4.831 E0.04442
G1 X-18.000 Y4.799 E0.04442 F900.000
G1 X-17.517 Y4.831 E0.04442
G1 X-17.042 Y4.925 E0.04442
G1 X-16.584 Y5.081 E0.04442
G1 X-16.150 Y5.295 E0.04442
G1 X-15.747 Y5.564 E0.04442
G1 X-15.383 Y5.883 E0.04442
G1 X-15.064 Y6.247 E0.04442
G1 X-14.795 Y6.650 E0.04442
G1 X-14.581 Y7.084 E0.04442
G1 X-14.425 Y7.542 E0.04442
G1 X-14.331 Y8.017 E0.04442
G1 X-14.299 Y8.500 E0.04442
G1 X-14.331 Y8.983 E0.04442
G1 X-14.411 Y9.387 E0.03783
G1 X-14.146 Y9.735 F9000.000
G1 E-3.20000 F3000.00000
G1 Z0.700 F9000.000
G1 X-26.814 Y1.578 F9000.000
G1 Z0.300 F9000.000
G1 E3.20000 F3000.00000
G1 X-26.814 Y-12.461 E1.28806 F900.000
G1 X-26.788 Y-12.867 E0.03731
G1 X-26.716 Y-13.228 E0.03375
G1 X-26.598 Y-13.576 E0.03375
G1 X-26.435 Y-13.906 E0.03375
G1 X-26.231 Y-14.212 E0.03375
G1 X-25.988 Y-14.488 E0.03375
G1 X-25.712 Y-14.731 E0.03374
G1 X-25.405 Y-14.935 E0.03381
G1 X-25.076 Y-15.098 E0.03370
G1 X-24.728 Y-15.216 E0.03375
G1 X-24.367 Y-15.288 E0.03375
G1 X-23.961 Y-15.314 E0.03731
G1 X-4.186 Y-15.314 E1.81442
G1 X-4.186 Y12.461 E2.54842
G1 X-4.212 Y12.867 E0.03731 F900.000
G1 X-4.284 Y13.228 E0.03380
G1 X-4.402 Y13.576 E0.03370
G1 X-4.565 Y13.906 E0.03375
G1 X-4.769 Y14.212 E0.03375
G1 X-5.012 Y14.488 E0.03375
G1 X-5.288 Y14.731 E0.03375
G1 X-5.594 Y14.935 E0.03375
G1 X-5.924 Y15.098 E0.03375
G1 X-6.272 Y15.216 E0.03375
G1 X-6.633 Y15.288 E0.03375
G1 X-7.039 Y15.314 E0.03732
G1 X-23.961 Y15.314 E1.55264
G1 X-24.367 Y15.288 E0.03732
G1 X-24.728 Y15.216 E0.03375
G1 X-25.076 Y15.098 E0.03375
G1 X-25.406 Y14.935 E0.03375
G1 X-25.712 Y14.731 E0.03375
G1 X-25.988 Y14.488 E0.03375
G1 X-26.231 Y14.212 E0.03375
G1 X-26.435 Y13.906 E0.03375
G1 X-26.598 Y13.576 E0.03375
