; generated by Slic3r 1.2.9 on 2016-11-15 at 16:46:15

; external perimeters extrusion width = 0.50mm
; perimeters extrusion width = 0.50mm
; infill extrusion width = 0.50mm
; solid infill extrusion width = 0.50mm
; top infill extrusion width = 0.50mm

M107
;Basic settings: Layer height: {layer_height} Walls: {wall_thickness} Fill: {fill_density}
;Print time: {print_time}
;Filament used: {filament_amount}m {filament_weight}g
;Filament cost: {filament_cost}
;M190 S{print_bed_temperature} ;Uncomment to add your own bed temperature line
;M109 S{print_temperature} ;Uncomment to add your own temperature line
G21        ;metric values
G90        ;absolute positioning
M83
G10 P0 S200
T0
M116


G21 ; set units to millimeters
G90 ; use absolute coordinates
M83 ; use relative distances for extrusion
G1 E-3.20000 F3000.00000
G1 Z0.400 F9000.000
G1 X0.000 Y21.186 F9000.000
G1 Z0.300 F9000.000
G1 E3.20000 F3000.00000
G1 X-22.997 Y21.186 E2.10996 F1200.000
G1 X-23.484 Y21.154 E0.04483
G1 X-23.733 Y21.121 E0.02305
G1 X-24.675 Y20.868 E0.08948
G1 X-24.904 Y20.774 E0.02274
G1 X-25.749 Y20.286 E0.08947
G1 X-25.946 Y20.135 E0.02274
G1 X-26.634 Y19.447 E0.08935
G1 X-26.786 Y19.249 E0.02287
G1 X-27.274 Y18.404 E0.08947
G1 X-27.368 Y18.175 E0.02274
G1 X-27.621 Y17.234 E0.08943
G1 X-27.686 Y16.497 E0.06789
G1 X-27.686 Y-16.497 E3.02717
G1 X-27.621 Y-17.233 E0.06785
G1 X-27.368 Y-18.175 E0.08947
G1 X-27.274 Y-18.404 E0.02275
G1 X-26.786 Y-19.249 E0.08947
G1 X-26.635 Y-19.446 E0.02274
G1 X-25.946 Y-20.135 E0.08948
G1 X-25.748 Y-20.287 E0.02283
G1 X-24.904 Y-20.774 E0.08938
G1 X-24.675 Y-20.868 E0.02274
G1 X-23.733 Y-21.121 E0.08947
G1 X-22.997 Y-21.186 E0.06785
G1 X22.997 Y-21.186 E4.21992
G1 X23.484 Y-21.154 E0.04483
G1 X23.734 Y-21.121 E0.02309 F1200.000
G1 X24.675 Y-20.868 E0.08943
G1 X24.905 Y-20.773 E0.02285
G1 X25.749 Y-20.286 E0.08937
G1 X25.946 Y-20.135 E0.02282
G1 X26.635 Y-19.446 E0.08940
G1 X26.786 Y-19.249 E0.02274
G1 X27.274 Y-18.404 E0.08948
G1 X27.368 Y-18.175 E0.02274
G1 X27.621 Y-17.233 E0.08948
G1 X27.654 Y-16.984 E0.02305
G1 X27.686 Y-16.497 E0.04483
G1 X27.686 Y16.497 E3.02716
G1 X27.621 Y17.233 E0.06784
G1 X27.368 Y18.175 E0.08948
G1 X27.274 Y18.404 E0.02275
G1 X26.787 Y19.248 E0.08938
G1 X26.635 Y19.446 E0.02283
G1 X25.946 Y20.135 E0.08948
G1 X25.749 Y20.286 E0.02274
G1 X24.904 Y20.774 E0.08947
G1 X24.675 Y20.868 E0.02274
G1 X23.734 Y21.121 E0.08944
G1 X23.484 Y21.154 E0.02309
G1 X22.997 Y21.186 E0.04483
G1 X0.060 Y21.186 E2.10446
G1 E-3.20000 F3000.00000
G1 Z0.700 F9000.000
G1 X-17.080 Y-1.152 F9000.000
G1 Z0.300 F9000.000
G1 E3.20000 F3000.00000
G1 X-17.386 Y-0.956 E0.03335 F900.000
G1 X-17.691 Y-0.853 E0.02947
G1 X-18.199 Y-0.643 E0.05050
G1 X-19.000 Y-0.547 E0.07398
G1 X-19.801 Y-0.643 E0.07398
G1 X-20.309 Y-0.853 E0.05050
G1 X-20.614 Y-0.956 E0.02947
G1 X-20.816 Y-1.073 E0.02146
G1 X-21.410 Y-1.529 E0.06872
G1 X-21.992 Y-2.273 E0.08661
G1 X-22.345 Y-3.148 E0.08661
G1 X-22.443 Y-3.891 E0.06872
G1 X-22.443 Y-4.109 E0.02006
G1 X-22.346 Y-4.845 E0.06807
G1 X-21.990 Y-5.729 E0.08740
G1 X-21.410 Y-6.471 E0.08645
G1 X-20.816 Y-6.927 E0.06872
G1 X-20.614 Y-7.044 E0.02146
G1 X-20.309 Y-7.147 E0.02947
G1 X-19.801 Y-7.357 E0.05046
G1 X-19.063 Y-7.447 E0.06823 F900.000
G1 X-18.772 Y-7.432 E0.02669
G1 X-18.197 Y-7.356 E0.05323
G1 X-17.691 Y-7.147 E0.05028
G1 X-17.386 Y-7.044 E0.02947
G1 X-17.184 Y-6.927 E0.02146
G1 X-16.590 Y-6.471 E0.06872
G1 X-16.008 Y-5.727 E0.08661
G1 X-15.655 Y-4.852 E0.08661
G1 X-15.557 Y-4.109 E0.06872
G1 X-15.557 Y-3.891 E0.02006
G1 X-15.654 Y-3.155 E0.06807
G1 X-16.010 Y-2.271 E0.08740
G1 X-16.590 Y-1.529 E0.08645
G1 X-17.033 Y-1.189 E0.05127
G1 X-17.053 Y-0.790 F9000.000
G1 E-3.20000 F3000.00000
G1 Z0.700 F9000.000
G1 X-19.971 Y-11.515 F9000.000
G1 Z0.300 F9000.000
G1 E3.20000 F3000.00000
G1 X-20.527 Y-11.450 E0.05139 F900.000
G1 X-21.032 Y-11.516 E0.04666
G1 X-21.527 Y-11.721 E0.04919
G1 X-21.952 Y-12.048 E0.04919
G1 X-22.279 Y-12.473 E0.04919
G1 X-22.484 Y-12.968 E0.04919
G1 X-22.554 Y-13.500 E0.04919
G1 X-22.488 Y-14.004 E0.04666
G1 X-22.280 Y-14.525 E0.05139
G1 X-21.952 Y-14.952 E0.04946
G1 X-21.525 Y-15.280 E0.04946
G1 X-21.004 Y-15.488 E0.05139
G1 X-20.500 Y-15.554 E0.04666 F900.000
G1 X-19.968 Y-15.484 E0.04919
G1 X-19.473 Y-15.279 E0.04919
G1 X-19.048 Y-14.952 E0.04919
G1 X-18.721 Y-14.527 E0.04919
G1 X-18.515 Y-14.029 E0.04946
G1 X-18.450 Y-13.473 E0.05139
G1 X-18.516 Y-12.968 E0.04666
G1 X-18.721 Y-12.473 E0.04919
G1 X-19.048 Y-12.048 E0.04919
G1 X-19.473 Y-11.721 E0.04919
G1 X-19.916 Y-11.538 E0.04395
G1 X-20.095 Y-11.135 F9000.000
G1 E-3.20000 F3000.00000
G1 Z0.700 F9000.000
G1 X-22.787 Y-16.314 F9000.000
G1 Z0.300 F9000.000
G1 E3.20000 F3000.00000
G1 X-21.878 Y-16.314 E0.08344 F900.000
G1 X-21.776 Y-16.015 E0.02901 F900.000
G1 X-22.814 Y-15.218 E0.12005
G1 X-22.814 Y-16.281 E0.09756
G1 E-3.20000 F3000.00000
G1 Z0.700 F9000.000
G1 X-11.933 Y-6.998 F9000.000
G1 Z0.300 F9000.000
G1 E3.20000 F3000.00000
G1 X-11.226 Y-7.540 E0.08174 F900.000
G1 X-10.918 Y-7.718 E0.03261
G1 X-10.568 Y-7.836 E0.03391
G1 X-9.990 Y-8.075 E0.05739
G1 X-9.089 Y-8.185 E0.08330 F900.000
G1 X-8.705 Y-8.165 E0.03522
G1 X-8.005 Y-8.073 E0.06479
G1 X-7.432 Y-7.836 E0.05689
G1 X-7.082 Y-7.718 E0.03391
G1 X-6.774 Y-7.540 E0.03261
G1 X-6.068 Y-6.998 E0.08174
G1 X-5.365 Y-6.099 E0.10468
G1 X-4.938 Y-5.041 E0.10468
G1 X-4.821 Y-4.158 E0.08174
G1 X-4.821 Y-3.842 E0.02891
G1 X-4.935 Y-2.979 E0.07989
G1 X-5.368 Y-1.897 E0.10691
G1 X-6.068 Y-1.002 E0.10422
G1 X-6.774 Y-0.460 E0.08174
G1 X-7.082 Y-0.282 E0.03261
G1 X-7.432 Y-0.164 E0.03391
G1 X-8.011 Y0.076 E0.05752
G1 X-9.000 Y0.194 E0.09134
G1 X-9.989 Y0.076 E0.09134
G1 X-10.568 Y-0.164 E0.05752
G1 X-10.918 Y-0.282 E0.03391
G1 X-11.226 Y-0.460 E0.03261
G1 X-11.933 Y-1.002 E0.08174
G1 X-12.635 Y-1.901 E0.10468
G1 X-13.062 Y-2.959 E0.10468
G1 X-13.179 Y-3.842 E0.08174
G1 X-13.179 Y-4.158 E0.02891
G1 X-13.065 Y-5.021 E0.07989
G1 X-12.632 Y-6.103 E0.10691
G1 X-11.969 Y-6.950 E0.09872
G1 X-11.410 Y-6.471 F9000.000
G1 X-10.816 Y-6.927 E0.06872 F900.000
G1 X-10.614 Y-7.044 E0.02146
G1 X-10.309 Y-7.147 E0.02947
G1 X-9.801 Y-7.357 E0.05046
G1 X-9.063 Y-7.447 E0.06823 F900.000
G1 X-8.772 Y-7.432 E0.02669
G1 X-8.197 Y-7.356 E0.05323
G1 X-7.691 Y-7.147 E0.05028
G1 X-7.386 Y-7.044 E0.02947
G1 X-7.184 Y-6.927 E0.02146
G1 X-6.590 Y-6.471 E0.06872
G1 X-6.008 Y-5.727 E0.08661
G1 X-5.655 Y-4.852 E0.08661
G1 X-5.557 Y-4.109 E0.06872
G1 X-5.557 Y-3.891 E0.02006
G1 X-5.654 Y-3.155 E0.06807
G1 X-6.010 Y-2.271 E0.08740
G1 X-6.590 Y-1.529 E0.08645
G1 X-7.184 Y-1.073 E0.06872
G1 X-7.386 Y-0.956 E0.02146
G1 X-7.691 Y-0.853 E0.02947
G1 X-8.199 Y-0.643 E0.05050
G1 X-9.000 Y-0.547 E0.07398
G1 X-9.801 Y-0.643 E0.07398
G1 X-10.309 Y-0.853 E0.05050
G1 X-10.614 Y-0.956 E0.02947
G1 X-10.816 Y-1.073 E0.02146
G1 X-11.410 Y-1.529 E0.06872
G1 X-11.992 Y-2.273 E0.08661
G1 X-12.345 Y-3.148 E0.08661
G1 X-12.443 Y-3.891 E0.06872
G1 X-12.443 Y-4.109 E0.02006
G1 X-12.346 Y-4.845 E0.06807
G1 X-11.990 Y-5.729 E0.08740
G1 X-11.447 Y-6.424 E0.08095
G1 X-11.496 Y-6.862 F9000.000
G1 E-3.20000 F3000.00000
G1 Z0.700 F9000.000
G1 X-2.759 Y-5.280 F9000.000
G1 Z0.300 F9000.000
G1 E3.20000 F3000.00000
G1 X-2.701 Y-5.724 E0.04106 F900.000
G1 X-2.421 Y-6.398 E0.06697
G1 X-1.977 Y-6.977 E0.06697
G1 X-1.391 Y-7.426 E0.06771
G1 X-0.691 Y-7.705 E0.06916
G1 X0.000 Y-7.796 E0.06395 F900.000
G1 X0.724 Y-7.701 E0.06697
G1 X1.398 Y-7.421 E0.06697
G1 X1.977 Y-6.977 E0.06696
G1 X2.421 Y-6.398 E0.06697
G1 X2.704 Y-5.716 E0.06771
G1 X2.792 Y-4.967 E0.06916
G1 X2.701 Y-4.276 E0.06395
G1 X2.421 Y-3.602 E0.06697
G1 X1.977 Y-3.023 E0.06697
G1 X1.398 Y-2.579 E0.06697
G1 X0.724 Y-2.299 E0.06697
G1 X-0.000 Y-2.204 E0.06697
G1 X-0.724 Y-2.299 E0.06697
G1 X-1.398 Y-2.579 E0.06697
G1 X-1.977 Y-3.023 E0.06697
G1 X-2.421 Y-3.602 E0.06697
G1 X-2.701 Y-4.276 E0.06697
G1 X-2.796 Y-5.000 E0.06697
G1 X-2.767 Y-5.220 E0.02040
G1 X-2.038 Y-5.124 F9000.000
G1 X-1.984 Y-5.532 E0.03768 F900.000
G1 X-1.779 Y-6.027 E0.04919
G1 X-1.452 Y-6.452 E0.04919
G1 X-1.025 Y-6.780 E0.04946
G1 X-0.504 Y-6.988 E0.05139
G1 X0.000 Y-7.054 E0.04666 F900.000
G1 X0.532 Y-6.984 E0.04919
G1 X1.027 Y-6.779 E0.04919
G1 X1.452 Y-6.452 E0.04919
G1 X1.779 Y-6.027 E0.04919
G1 X1.985 Y-5.529 E0.04946
G1 X2.050 Y-4.973 E0.05139
G1 X1.984 Y-4.468 E0.04666
G1 X1.779 Y-3.973 E0.04919
G1 X1.452 Y-3.548 E0.04919
G1 X1.027 Y-3.221 E0.04919
G1 X0.532 Y-3.016 E0.04919
G1 X-0.000 Y-2.946 E0.04919
G1 X-0.532 Y-3.016 E0.04919
G1 X-1.027 Y-3.221 E0.04919
G1 X-1.452 Y-3.548 E0.04919
G1 X-1.779 Y-3.973 E0.04919
G1 X-1.984 Y-4.468 E0.04919
G1 X-2.054 Y-5.000 E0.04919
G1 X-2.045 Y-5.065 E0.00601
G1 X-2.355 Y-5.368 F9000.000
G1 E-3.20000 F3000.00000
G1 Z0.700 F9000.000
G1 X4.822 Y-4.161 F9000.000
G1 Z0.300 F9000.000
G1 E3.20000 F3000.00000
G1 X4.935 Y-5.021 E0.07958 F900.000
G1 X5.368 Y-6.103 E0.10691
G1 X6.067 Y-6.998 E0.10422
G1 X6.774 Y-7.540 E0.08174
G1 X7.082 Y-7.718 E0.03261
G1 X7.432 Y-7.836 E0.03391
G1 X8.005 Y-8.073 E0.05689
G1 X8.685 Y-8.163 E0.06294
G1 X9.018 Y-8.192 E0.03066 F900.000
G1 X9.989 Y-8.076 E0.08967
G1 X10.568 Y-7.836 E0.05752
G1 X10.918 Y-7.718 E0.03391
G1 X11.226 Y-7.540 E0.03261
G1 X11.933 Y-6.998 E0.08174
G1 X12.635 Y-6.099 E0.10468
G1 X13.062 Y-5.041 E0.10468
G1 X13.179 Y-4.158 E0.08174
G1 X13.179 Y-3.842 E0.02891
G1 X13.065 Y-2.979 E0.07989
G1 X12.632 Y-1.897 E0.10691
G1 X11.933 Y-1.002 E0.10422
G1 X11.226 Y-0.460 E0.08174
G1 X10.918 Y-0.282 E0.03261
G1 X10.568 Y-0.164 E0.03391
G1 X9.989 Y0.076 E0.05752
G1 X9.000 Y0.194 E0.09134
G1 X8.011 Y0.076 E0.09134
G1 X7.432 Y-0.164 E0.05752
G1 X7.082 Y-0.282 E0.03391
G1 X6.774 Y-0.460 E0.03261
G1 X6.067 Y-1.002 E0.08174
G1 X5.365 Y-1.901 E0.10468
G1 X4.938 Y-2.959 E0.10468
G1 X4.821 Y-3.842 E0.08174
G1 X4.821 Y-4.101 E0.02371
G1 X5.557 Y-4.101 F9000.000
G1 X5.654 Y-4.845 E0.06884 F900.000
G1 X6.010 Y-5.729 E0.08740
G1 X6.590 Y-6.471 E0.08645
G1 X7.184 Y-6.927 E0.06872
G1 X7.386 Y-7.044 E0.02146
G1 X7.691 Y-7.147 E0.02947
G1 X8.197 Y-7.356 E0.05028
G1 X8.765 Y-7.431 E0.05258
G1 X9.006 Y-7.452 E0.02220 F900.000
G1 X9.801 Y-7.357 E0.07339
G1 X10.309 Y-7.147 E0.05050
G1 X10.614 Y-7.044 E0.02947
G1 X10.816 Y-6.927 E0.02146
G1 X11.410 Y-6.471 E0.06872
G1 X11.992 Y-5.727 E0.08661
G1 X12.345 Y-4.852 E0.08661
G1 X12.443 Y-4.109 E0.06872
G1 X12.443 Y-3.891 E0.02006
G1 X12.346 Y-3.155 E0.06807
G1 X11.990 Y-2.271 E0.08740
G1 X11.410 Y-1.529 E0.08645
G1 X10.816 Y-1.073 E0.06872
G1 X10.614 Y-0.956 E0.02146
G1 X10.309 Y-0.853 E0.02947
G1 X9.801 Y-0.643 E0.05050
G1 X9.000 Y-0.547 E0.07398
G1 X8.199 Y-0.643 E0.07398
G1 X7.691 Y-0.853 E0.05050
G1 X7.386 Y-0.956 E0.02947
G1 X7.184 Y-1.073 E0.02146
G1 X6.590 Y-1.529 E0.06872
G1 X6.008 Y-2.273 E0.08661
G1 X5.655 Y-3.148 E0.08661
G1 X5.557 Y-3.891 E0.06872
G1 X5.557 Y-4.041 E0.01378
G1 X5.229 Y-4.330 F9000.000
G1 X6.377 Y16.314 F9000.000
G1 X-22.814 Y16.314 E2.67836 F900.000
G1 X-22.814 Y-1.648 E1.64802
G1 X-22.517 Y-1.750 E0.02889
G1 X-21.933 Y-1.002 E0.08707
G1 X-21.226 Y-0.460 E0.08174
G1 X-20.918 Y-0.282 E0.03261
G1 X-20.568 Y-0.164 E0.03391
G1 X-19.989 Y0.076 E0.05752
G1 X-19.000 Y0.194 E0.09134
G1 X-18.011 Y0.076 E0.09134
G1 X-17.432 Y-0.164 E0.05752
G1 X-17.082 Y-0.282 E0.03391
G1 X-16.774 Y-0.460 E0.03261
G1 X-16.068 Y-1.002 E0.08174
G1 X-15.368 Y-1.897 E0.10422
G1 X-14.935 Y-2.979 E0.10691
G1 X-14.821 Y-3.842 E0.07989
G1 X-14.821 Y-4.158 E0.02891
G1 X-14.938 Y-5.041 E0.08174
G1 X-15.365 Y-6.099 E0.10468
G1 X-16.068 Y-6.998 E0.10468
G1 X-16.774 Y-7.540 E0.08174
G1 X-17.082 Y-7.718 E0.03261
G1 X-17.432 Y-7.836 E0.03391
G1 X-18.005 Y-8.073 E0.05689
G1 X-18.705 Y-8.165 E0.06479
G1 X-19.089 Y-8.185 E0.03522
G1 X-19.990 Y-8.075 E0.08330
G1 X-20.568 Y-7.836 E0.05739
G1 X-20.918 Y-7.718 E0.03391
G1 X-21.226 Y-7.540 E0.03261
G1 X-21.933 Y-6.998 E0.08174
G1 X-22.517 Y-6.250 E0.08707
G1 X-22.814 Y-6.352 E0.02889
G1 X-22.814 Y-11.782 E0.49816
G1 X-21.898 Y-11.079 E0.10599
G1 X-21.224 Y-10.799 E0.06697
G1 X-20.533 Y-10.708 E0.06395
G1 X-19.784 Y-10.796 E0.06916
G1 X-19.102 Y-11.079 E0.06771
G1 X-18.523 Y-11.523 E0.06697
G1 X-18.079 Y-12.102 E0.06697
G1 X-17.799 Y-12.776 E0.06697
G1 X-17.708 Y-13.467 E0.06395
G1 X-17.796 Y-14.216 E0.06916
G1 X-18.079 Y-14.898 E0.06771
G1 X-18.483 Y-15.425 E0.06091
G1 X-18.217 Y-15.698 E0.03500
G1 X-17.670 Y-15.303 E0.06197
G1 X-16.460 Y-14.512 E0.13257 F900.000
G1 X-15.216 Y-13.778 E0.13257
G1 X-13.939 Y-13.102 E0.13257
G1 X-12.631 Y-12.487 E0.13257
G1 X-11.297 Y-11.932 E0.13257
G1 X-9.939 Y-11.440 E0.13257
G1 X-8.559 Y-11.012 E0.13257
G1 X-7.161 Y-10.647 E0.13257
G1 X-5.747 Y-10.348 E0.13257
G1 X-4.321 Y-10.115 E0.13257
G1 X-2.886 Y-9.948 E0.13257
G1 X-1.444 Y-9.848 E0.13257
G1 X0.000 Y-9.814 E0.13257
G1 X1.444 Y-9.848 E0.13257
G1 X2.886 Y-9.948 E0.13257
G1 X4.321 Y-10.115 E0.13257
G1 X5.747 Y-10.348 E0.13257
G1 X7.161 Y-10.647 E0.13257
G1 X8.517 Y-11.000 E0.12856
G1 X9.938 Y-11.440 E0.13650
G1 X11.297 Y-11.932 E0.13264
G1 X12.631 Y-12.487 E0.13257
G1 X13.939 Y-13.102 E0.13257
G1 X15.216 Y-13.778 E0.13257
G1 X16.460 Y-14.512 E0.13257
G1 X17.670 Y-15.303 E0.13257
G1 X18.217 Y-15.698 E0.06197
G1 X18.483 Y-15.425 E0.03500
G1 X18.079 Y-14.898 E0.06091
G1 X17.799 Y-14.224 E0.06697
G1 X17.704 Y-13.500 E0.06697
G1 X17.799 Y-12.776 E0.06696
G1 X18.079 Y-12.102 E0.06697
G1 X18.523 Y-11.523 E0.06697
G1 X19.102 Y-11.079 E0.06697
G1 X19.776 Y-10.799 E0.06697
G1 X20.467 Y-10.708 E0.06395
G1 X21.216 Y-10.796 E0.06916
G1 X21.898 Y-11.079 E0.06771
G1 X22.814 Y-11.782 E0.10599
G1 X22.814 Y-6.352 E0.49816
G1 X22.517 Y-6.250 E0.02889
G1 X21.933 Y-6.998 E0.08707
G1 X21.226 Y-7.540 E0.08174
G1 X20.918 Y-7.718 E0.03261
G1 X20.568 Y-7.836 E0.03391
G1 X19.989 Y-8.076 E0.05752
G1 X19.018 Y-8.192 E0.08967
G1 X18.005 Y-8.073 E0.09358
G1 X17.432 Y-7.836 E0.05689
G1 X17.082 Y-7.718 E0.03391
G1 X16.774 Y-7.540 E0.03261
G1 X16.067 Y-6.998 E0.08174
G1 X15.368 Y-6.103 E0.10422
G1 X14.935 Y-5.021 E0.10691
G1 X14.821 Y-4.158 E0.07989
G1 X14.821 Y-3.842 E0.02891
G1 X14.938 Y-2.959 E0.08174
G1 X15.365 Y-1.901 E0.10468
G1 X16.067 Y-1.002 E0.10468
G1 X16.774 Y-0.460 E0.08174
G1 X17.082 Y-0.282 E0.03261
G1 X17.432 Y-0.164 E0.03391
G1 X18.011 Y0.076 E0.05752
G1 X19.000 Y0.194 E0.09134
G1 X19.989 Y0.076 E0.09134
G1 X20.568 Y-0.164 E0.05752
G1 X20.918 Y-0.282 E0.03391
G1 X21.226 Y-0.460 E0.03261
G1 X21.933 Y-1.002 E0.08174
G1 X22.517 Y-1.750 E0.08707
G1 X22.814 Y-1.648 E0.02889
G1 X22.814 Y16.314 E1.64802
G1 X6.437 Y16.314 E1.50259
G1 X17.184 Y-1.073 F9000.000
G1 X16.590 Y-1.529 E0.06872 F900.000
G1 X16.008 Y-2.273 E0.08661
G1 X15.655 Y-3.148 E0.08661
G1 X15.557 Y-3.891 E0.06872
G1 X15.557 Y-4.109 E0.02006
G1 X15.654 Y-4.845 E0.06807
G1 X16.010 Y-5.729 E0.08740
G1 X16.590 Y-6.471 E0.08645
G1 X17.184 Y-6.927 E0.06872
G1 X17.386 Y-7.044 E0.02146
G1 X17.691 Y-7.147 E0.02947
G1 X18.197 Y-7.356 E0.05028
G1 X18.765 Y-7.431 E0.05258
G1 X19.006 Y-7.452 E0.02220 F900.000
G1 X19.801 Y-7.357 E0.07339
G1 X20.309 Y-7.147 E0.05050
G1 X20.614 Y-7.044 E0.02947
G1 X20.816 Y-6.927 E0.02146
G1 X21.410 Y-6.471 E0.06872
G1 X21.992 Y-5.727 E0.08661
G1 X22.345 Y-4.852 E0.08661
G1 X22.443 Y-4.109 E0.06872
G1 X22.443 Y-3.891 E0.02006
G1 X22.346 Y-3.155 E0.06807
G1 X21.990 Y-2.271 E0.08740
G1 X21.410 Y-1.529 E0.08645
G1 X20.816 Y-1.073 E0.06872
G1 X20.614 Y-0.956 E0.02146
G1 X20.309 Y-0.853 E0.02947
G1 X19.801 Y-0.643 E0.05050
G1 X19.000 Y-0.547 E0.07398
G1 X18.199 Y-0.643 E0.07398
G1 X17.691 Y-0.853 E0.05050
G1 X17.386 Y-0.956 E0.02947
G1 X17.236 Y-1.043 E0.01596
G1 X16.821 Y-0.904 F9000.000
G1 E-3.20000 F3000.00000
G1 Z0.700 F9000.000
G1 X19.968 Y-11.516 F9000.000
G1 Z0.300 F9000.000
G1 E3.20000 F3000.00000
G1 X19.473 Y-11.721 E0.04919 F900.000
G1 X19.048 Y-12.048 E0.04919
G1 X18.721 Y-12.473 E0.04919
G1 X18.516 Y-12.968 E0.04919
G1 X18.446 Y-13.500 E0.04919
G1 X18.516 Y-14.032 E0.04919
G1 X18.721 Y-14.527 E0.04919
G1 X19.048 Y-14.952 E0.04919
G1 X19.475 Y-15.280 E0.04946
G1 X19.996 Y-15.488 E0.05139
G1 X20.500 Y-15.554 E0.04666 F900.000
G1 X21.032 Y-15.484 E0.04919
G1 X21.527 Y-15.279 E0.04919
G1 X21.952 Y-14.952 E0.04919
G1 X22.279 Y-14.527 E0.04919
G1 X22.484 Y-14.032 E0.04919
G1 X22.554 Y-13.500 E0.04919
