; generated by Slic3r 1.2.9 on 2016-11-16 at 16:35:52

; external perimeters extrusion width = 0.50mm
; perimeters extrusion width = 0.50mm
; infill extrusion width = 0.50mm
; solid infill extrusion width = 0.50mm
; top infill extrusion width = 0.50mm

M107
;Basic settings: Layer height: {layer_height} Walls: {wall_thickness} Fill: {fill_density}
;Print time: {print_time}
;Filament used: {filament_amount}m {filament_weight}g
;Filament cost: {filament_cost}
;M190 S{print_bed_temperature} ;Uncomment to add your own bed temperature line
;M109 S{print_temperature} ;Uncomment to add your own temperature line
G21        ;metric values
G90        ;absolute positioning
M83
G10 P0 S200
T0
M116


G21 ; set units to millimeters
G90 ; use absolute coordinates
M83 ; use relative distances for extrusion
G1 E-3.20000 F3000.00000
G1 Z0.400 F9000.000
G1 X45.433 Y10.202 F9000.000
G1 Z0.300 F9000.000
G1 E3.20000 F3000.00000
G1 X45.158 Y11.406 E0.11327 F1200.000
G1 X44.597 Y13.433 E0.19294
G1 X43.823 Y15.777 E0.22657
G1 X43.066 Y17.739 E0.19295
G1 X42.395 Y19.288 E0.15486
G1 X41.428 Y21.286 E0.20365
G1 X41.048 Y22.010 E0.07499
G1 X40.322 Y23.315 E0.13708
G1 X39.214 Y25.132 E0.19524
G1 X38.697 Y25.923 E0.08670
G1 X37.433 Y27.717 E0.20135
G1 X36.588 Y28.823 E0.12767
G1 X35.233 Y30.464 E0.19525
G1 X34.480 Y31.314 E0.10426
G1 X33.742 Y32.108 E0.09940
G1 X32.966 Y32.904 E0.10196
G1 X32.108 Y33.742 E0.11011
G1 X31.248 Y34.539 E0.10756
G1 X30.464 Y35.233 E0.09610
G1 X29.587 Y35.973 E0.10526
G1 X28.751 Y36.645 E0.09841
G1 X27.047 Y37.920 E0.19524
G1 X25.923 Y38.697 E0.12538
G1 X25.132 Y39.214 E0.08670
G1 X23.995 Y39.920 E0.12281
G1 X23.236 Y40.367 E0.08085
G1 X21.368 Y41.387 E0.19525
G1 X19.972 Y42.078 E0.14292
G1 X19.268 Y42.404 E0.07117
G1 X17.228 Y43.273 E0.20343
G1 X15.318 Y43.986 E0.18709
G1 X13.207 Y44.665 E0.20339
G1 X10.894 Y45.284 E0.21970
G1 X8.902 Y45.718 E0.18709
G1 X6.716 Y46.090 E0.20340
G1 X4.339 Y46.374 E0.21970
G1 X2.127 Y46.528 E0.20339
G1 X0.089 Y46.576 E0.18709
G1 X-2.377 Y46.516 E0.22631
G1 X-4.657 Y46.343 E0.20975
G1 X-6.925 Y46.059 E0.20975
G1 X-8.997 Y45.699 E0.19293
G1 X-11.406 Y45.158 E0.22656
G1 X-13.433 Y44.597 E0.19294
G1 X-15.605 Y43.885 E0.20975
G1 X-17.886 Y43.006 E0.22429
G1 X-19.891 Y42.116 E0.20130
G1 X-21.368 Y41.387 E0.15109
G1 X-23.236 Y40.367 E0.19524
G1 X-23.995 Y39.921 E0.08085
G1 X-25.849 Y38.746 E0.20135
G1 X-27.047 Y37.920 E0.13353
G1 X-28.751 Y36.645 E0.19524
G1 X-29.587 Y35.973 E0.09841
G1 X-30.464 Y35.233 E0.10525
G1 X-31.248 Y34.539 E0.09611
G1 X-32.174 Y33.679 E0.11596
G1 X-33.679 Y32.174 E0.19524
G1 X-34.480 Y31.314 E0.10781
G1 X-35.233 Y30.464 E0.10426
G1 X-36.588 Y28.823 E0.19524
G1 X-37.433 Y27.717 E0.12767
G1 X-38.697 Y25.923 E0.20135
G1 X-39.214 Y25.132 E0.08670
G1 X-40.322 Y23.315 E0.19524
G1 X-41.091 Y21.932 E0.14523
G1 X-42.078 Y19.972 E0.20135
G1 X-42.404 Y19.268 E0.07117
G1 X-43.207 Y17.393 E0.18713
G1 X-44.044 Y15.150 E0.21970
G1 X-44.715 Y13.037 E0.20339
G1 X-45.242 Y11.067 E0.18709
G1 X-45.751 Y8.727 E0.21970
G1 X-46.090 Y6.716 E0.18709
G1 X-46.357 Y4.516 E0.20339
G1 X-46.528 Y2.127 E0.21970
G1 X-46.576 Y-0.092 E0.20365
G1 X-46.525 Y-2.194 E0.19294
G1 X-46.343 Y-4.657 E0.22657
G1 X-46.086 Y-6.743 E0.19293
G1 X-45.699 Y-8.997 E0.20975
G1 X-45.203 Y-11.228 E0.20975
G1 X-44.544 Y-13.608 E0.22657
G1 X-43.823 Y-15.777 E0.20975
G1 X-43.066 Y-17.739 E0.19295
G1 X-42.395 Y-19.288 E0.15486
G1 X-42.078 Y-19.972 E0.06914
G1 X-41.387 Y-21.368 E0.14293
G1 X-40.367 Y-23.236 E0.19524
G1 X-39.920 Y-23.995 E0.08085
G1 X-39.165 Y-25.210 E0.13122
G1 X-37.973 Y-26.972 E0.19524
G1 X-37.380 Y-27.788 E0.09256
G1 X-36.645 Y-28.751 E0.11111
G1 X-36.029 Y-29.518 E0.09025
G1 X-35.173 Y-30.533 E0.12182
G1 X-33.742 Y-32.108 E0.19524
G1 X-32.966 Y-32.904 E0.10196
G1 X-32.108 Y-33.742 E0.11012
G1 X-30.533 Y-35.173 E0.19524
G1 X-29.518 Y-36.029 E0.12182
G1 X-28.751 Y-36.645 E0.09025
G1 X-27.788 Y-37.380 E0.11111
G1 X-26.972 Y-37.973 E0.09255
G1 X-25.923 Y-38.697 E0.11696
G1 X-25.132 Y-39.214 E0.08670
G1 X-23.315 Y-40.322 E0.19524
G1 X-22.010 Y-41.048 E0.13708
G1 X-21.286 Y-41.428 E0.07499
G1 X-19.372 Y-42.358 E0.19523
G1 X-17.393 Y-43.207 E0.19758
G1 X-15.318 Y-43.986 E0.20340
G1 X-13.037 Y-44.715 E0.21970
G1 X-11.067 Y-45.242 E0.18709
G1 X-8.902 Y-45.718 E0.20340
G1 X-6.541 Y-46.115 E0.21970
G1 X-4.516 Y-46.357 E0.18709
G1 X-2.305 Y-46.519 E0.20340
G1 X0.092 Y-46.576 E0.21996
G1 X2.377 Y-46.516 E0.20975 F1200.000
G1 X4.474 Y-46.361 E0.19293
G1 X6.407 Y-46.127 E0.17863
G1 X6.925 Y-46.059 E0.04793
G1 X8.997 Y-45.699 E0.19293
G1 X11.228 Y-45.203 E0.20975
G1 X13.433 Y-44.597 E0.20975
G1 X15.605 Y-43.885 E0.20975
G1 X17.886 Y-43.006 E0.22429
G1 X19.972 Y-42.078 E0.20946
G1 X21.932 Y-41.091 E0.20135
G1 X23.236 Y-40.367 E0.13683
G1 X23.995 Y-39.921 E0.08085
G1 X25.210 Y-39.165 E0.13123
G1 X26.972 Y-37.973 E0.19524
G1 X27.788 Y-37.380 E0.09255
G1 X28.823 Y-36.588 E0.11952
G1 X30.464 Y-35.233 E0.19524
G1 X31.248 Y-34.539 E0.09610
G1 X32.108 Y-33.742 E0.10756
G1 X32.904 Y-32.966 E0.10196
G1 X33.742 Y-32.108 E0.11011
G1 X34.539 Y-31.248 E0.10755
G1 X35.233 Y-30.464 E0.09610
G1 X36.588 Y-28.823 E0.19525
G1 X37.380 Y-27.788 E0.11952
G1 X37.973 Y-26.972 E0.09256
G1 X39.165 Y-25.210 E0.19524
G1 X39.920 Y-23.995 E0.13122
G1 X40.367 Y-23.236 E0.08085
G1 X41.091 Y-21.932 E0.13682
G1 X42.078 Y-19.972 E0.20135
G1 X42.404 Y-19.268 E0.07117
G1 X43.207 Y-17.393 E0.18713
G1 X43.986 Y-15.318 E0.20340
G1 X44.665 Y-13.207 E0.20339
G1 X45.284 Y-10.894 E0.21970
G1 X45.751 Y-8.727 E0.20340
G1 X46.090 Y-6.716 E0.18709
G1 X46.357 Y-4.516 E0.20339
G1 X46.519 Y-2.305 E0.20340
G1 X46.576 Y-0.089 E0.20339
G1 X46.516 Y2.377 E0.22631
G1 X46.343 Y4.657 E0.20975
G1 X46.059 Y6.925 E0.20975
G1 X45.699 Y8.997 E0.19293
G1 X45.446 Y10.144 E0.10779
G1 E-3.20000 F3000.00000
G1 Z0.700 F9000.000
G1 X30.847 Y7.130 F9000.000
G1 Z0.300 F9000.000
G1 E3.20000 F3000.00000
G1 X30.335 Y9.082 E0.18518 F900.000
G1 X29.756 Y10.830 E0.16900
G1 X29.076 Y12.542 E0.16900
G1 X28.297 Y14.211 E0.16900
G1 X27.423 Y15.833 E0.16900
G1 X26.456 Y17.400 E0.16900
G1 X25.399 Y18.909 E0.16900
G1 X24.257 Y20.354 E0.16900
G1 X23.032 Y21.730 E0.16900
G1 X21.730 Y23.032 E0.16900
G1 X20.354 Y24.257 E0.16900
G1 X18.909 Y25.399 E0.16900
G1 X17.400 Y26.456 E0.16900
G1 X15.833 Y27.423 E0.16900
G1 X14.211 Y28.297 E0.16900
G1 X12.542 Y29.076 E0.16900
G1 X10.830 Y29.756 E0.16900
G1 X9.082 Y30.335 E0.16900
G1 X7.303 Y30.812 E0.16900
G1 X5.496 Y31.185 E0.16928
G1 X3.495 Y31.467 E0.18541
G1 X1.841 Y31.612 E0.15228
G1 X0.000 Y31.665 E0.16900
G1 X-1.841 Y31.612 E0.16900
G1 X-3.676 Y31.451 E0.16900
G1 X-5.499 Y31.184 E0.16900
G1 X-7.303 Y30.812 E0.16900
G1 X-9.082 Y30.335 E0.16900
G1 X-10.830 Y29.756 E0.16900
G1 X-12.542 Y29.076 E0.16900
G1 X-14.211 Y28.297 E0.16900
G1 X-15.833 Y27.423 E0.16900
G1 X-17.400 Y26.456 E0.16900
G1 X-18.909 Y25.399 E0.16900
G1 X-20.354 Y24.257 E0.16900
G1 X-21.730 Y23.032 E0.16900
G1 X-23.032 Y21.730 E0.16900
G1 X-24.257 Y20.354 E0.16900
G1 X-24.424 Y20.142 E0.02477
G1 X-24.734 Y20.273 E0.03084
G1 X-24.704 Y20.500 E0.02099
G1 X-24.799 Y21.224 E0.06696
G1 X-25.079 Y21.898 E0.06697
G1 X-25.523 Y22.477 E0.06697
G1 X-26.102 Y22.921 E0.06697
G1 X-26.776 Y23.201 E0.06696
G1 X-27.500 Y23.296 E0.06697
G1 X-28.224 Y23.201 E0.06696
G1 X-28.898 Y22.921 E0.06696
G1 X-29.477 Y22.477 E0.06697
G1 X-29.921 Y21.898 E0.06697
G1 X-30.201 Y21.224 E0.06697
G1 X-30.296 Y20.500 E0.06697
G1 X-30.201 Y19.776 E0.06697
G1 X-29.921 Y19.102 E0.06697
G1 X-29.477 Y18.523 E0.06697
G1 X-28.898 Y18.079 E0.06697
G1 X-28.224 Y17.799 E0.06697
G1 X-27.500 Y17.704 E0.06696
G1 X-26.776 Y17.799 E0.06697
G1 X-26.478 Y17.923 E0.02964
G1 X-26.271 Y17.665 E0.03038
G1 X-26.456 Y17.400 E0.02962
G1 X-27.423 Y15.833 E0.16900
G1 X-28.297 Y14.211 E0.16900
G1 X-29.076 Y12.542 E0.16900
G1 X-29.688 Y10.999 E0.15228
G1 X-30.334 Y9.085 E0.18541
G1 X-30.812 Y7.303 E0.16928
G1 X-31.184 Y5.499 E0.16900
G1 X-31.451 Y3.676 E0.16900
G1 X-31.612 Y1.841 E0.16900
G1 X-31.665 Y-0.000 E0.16900
G1 X-31.612 Y-1.841 E0.16900
G1 X-31.451 Y-3.676 E0.16900
G1 X-31.184 Y-5.499 E0.16900
G1 X-30.812 Y-7.303 E0.16900
G1 X-30.335 Y-9.082 E0.16900
G1 X-29.756 Y-10.830 E0.16900
G1 X-29.143 Y-12.373 E0.15228
G1 X-28.299 Y-14.209 E0.18541
G1 X-27.423 Y-15.833 E0.16928
G1 X-26.456 Y-17.400 E0.16900
G1 X-26.271 Y-17.665 E0.02962
G1 X-26.478 Y-17.923 E0.03038
G1 X-26.776 Y-17.799 E0.02964
G1 X-27.500 Y-17.704 E0.06696
G1 X-28.224 Y-17.799 E0.06697
G1 X-28.898 Y-18.079 E0.06697
G1 X-29.477 Y-18.523 E0.06697
G1 X-29.921 Y-19.102 E0.06696
G1 X-30.201 Y-19.776 E0.06697
G1 X-30.296 Y-20.500 E0.06697
G1 X-30.201 Y-21.224 E0.06697
G1 X-29.921 Y-21.898 E0.06697
G1 X-29.477 Y-22.477 E0.06696
G1 X-28.898 Y-22.921 E0.06697
G1 X-28.224 Y-23.201 E0.06697
G1 X-27.500 Y-23.296 E0.06697
G1 X-26.776 Y-23.201 E0.06696
G1 X-26.102 Y-22.921 E0.06697
G1 X-25.523 Y-22.477 E0.06697
G1 X-25.079 Y-21.898 E0.06696
G1 X-24.799 Y-21.224 E0.06697
G1 X-24.704 Y-20.500 E0.06697
G1 X-24.734 Y-20.273 E0.02099
G1 X-24.424 Y-20.142 E0.03084
G1 X-24.257 Y-20.354 E0.02477
G1 X-23.032 Y-21.730 E0.16900
G1 X-21.730 Y-23.032 E0.16900
G1 X-20.354 Y-24.257 E0.16900
G1 X-18.909 Y-25.399 E0.16900
G1 X-17.400 Y-26.456 E0.16900
G1 X-15.833 Y-27.423 E0.16900
G1 X-14.211 Y-28.297 E0.16900
G1 X-12.542 Y-29.076 E0.16900
G1 X-10.830 Y-29.756 E0.16900
G1 X-9.082 Y-30.335 E0.16900
G1 X-7.303 Y-30.812 E0.16900
G1 X-5.499 Y-31.184 E0.16900
G1 X-3.676 Y-31.451 E0.16900
G1 X-1.841 Y-31.612 E0.16900
G1 X-0.182 Y-31.660 E0.15228 F900.000
G1 X1.838 Y-31.612 E0.18541
G1 X3.676 Y-31.451 E0.16928
G1 X5.499 Y-31.184 E0.16900
G1 X7.303 Y-30.812 E0.16900
G1 X8.906 Y-30.382 E0.15228
G1 X10.827 Y-29.757 E0.18541
G1 X12.542 Y-29.076 E0.16928
G1 X14.211 Y-28.297 E0.16900
G1 X15.833 Y-27.423 E0.16900
G1 X17.400 Y-26.456 E0.16900
G1 X18.909 Y-25.399 E0.16900
G1 X20.354 Y-24.257 E0.16900
G1 X21.730 Y-23.032 E0.16900
G1 X23.032 Y-21.730 E0.16900
G1 X24.257 Y-20.354 E0.16900
G1 X25.399 Y-18.909 E0.16900
G1 X26.456 Y-17.400 E0.16900
G1 X27.423 Y-15.833 E0.16900
G1 X28.297 Y-14.211 E0.16900
G1 X29.076 Y-12.542 E0.16900
G1 X29.756 Y-10.830 E0.16900
G1 X30.335 Y-9.082 E0.16900
G1 X30.812 Y-7.303 E0.16900
G1 X31.184 Y-5.499 E0.16900
G1 X31.451 Y-3.676 E0.16900
G1 X31.612 Y-1.841 E0.16900
G1 X31.665 Y-0.000 E0.16900
G1 X31.612 Y1.841 E0.16900
G1 X31.451 Y3.676 E0.16900
G1 X31.184 Y5.499 E0.16900
G1 X30.860 Y7.071 E0.14729
G1 X30.139 Y6.922 F9000.000
G1 X29.630 Y8.871 E0.18479 F900.000
G1 X29.064 Y10.578 E0.16507
G1 X28.400 Y12.250 E0.16507
G1 X27.639 Y13.881 E0.16507
G1 X26.786 Y15.465 E0.16507
G1 X25.841 Y16.996 E0.16507
G1 X24.809 Y18.470 E0.16507
G1 X23.693 Y19.881 E0.16507
G1 X22.497 Y21.225 E0.16507
G1 X21.225 Y22.497 E0.16507
G1 X19.881 Y23.693 E0.16507
G1 X18.470 Y24.809 E0.16507
G1 X16.996 Y25.841 E0.16507
G1 X15.465 Y26.786 E0.16507
G1 X13.881 Y27.639 E0.16507
G1 X12.250 Y28.400 E0.16507
G1 X10.578 Y29.064 E0.16507
G1 X8.871 Y29.630 E0.16507
G1 X7.133 Y30.096 E0.16507
G1 X5.370 Y30.460 E0.16517
G1 X3.411 Y30.736 E0.18148
G1 X1.798 Y30.877 E0.14854
G1 X0.000 Y30.929 E0.16507
G1 X-1.798 Y30.877 E0.16507
G1 X-3.591 Y30.720 E0.16507
G1 X-5.371 Y30.459 E0.16507
G1 X-7.133 Y30.096 E0.16507
G1 X-8.871 Y29.630 E0.16507
G1 X-10.578 Y29.064 E0.16507
G1 X-12.250 Y28.400 E0.16507
G1 X-13.881 Y27.639 E0.16507
G1 X-15.465 Y26.786 E0.16507
G1 X-16.996 Y25.841 E0.16507
G1 X-18.470 Y24.809 E0.16507
G1 X-19.881 Y23.693 E0.16507
G1 X-21.225 Y22.497 E0.16507
G1 X-22.497 Y21.225 E0.16507
G1 X-23.693 Y19.881 E0.16507
G1 X-24.809 Y18.470 E0.16507
G1 X-25.841 Y16.996 E0.16507
G1 X-26.786 Y15.465 E0.16507
G1 X-27.639 Y13.881 E0.16507
G1 X-28.400 Y12.250 E0.16507
G1 X-28.998 Y10.746 E0.14854
G1 X-29.630 Y8.872 E0.18148
G1 X-30.096 Y7.133 E0.16517
G1 X-30.459 Y5.371 E0.16507
G1 X-30.720 Y3.591 E0.16507
G1 X-30.877 Y1.798 E0.16507
G1 X-30.929 Y-0.000 E0.16507
G1 X-30.877 Y-1.798 E0.16507
G1 X-30.720 Y-3.591 E0.16507
G1 X-30.459 Y-5.371 E0.16507
G1 X-30.096 Y-7.133 E0.16507
G1 X-29.630 Y-8.871 E0.16507
G1 X-29.064 Y-10.578 E0.16507
G1 X-28.466 Y-12.083 E0.14854
G1 X-27.640 Y-13.880 E0.18148
G1 X-26.786 Y-15.465 E0.16517
G1 X-25.841 Y-16.996 E0.16507
G1 X-24.809 Y-18.470 E0.16507
G1 X-23.693 Y-19.881 E0.16507
G1 X-22.497 Y-21.225 E0.16507
G1 X-21.225 Y-22.497 E0.16507
G1 X-19.881 Y-23.693 E0.16507
G1 X-18.470 Y-24.809 E0.16507
G1 X-16.996 Y-25.841 E0.16507
G1 X-15.465 Y-26.786 E0.16507
G1 X-13.881 Y-27.639 E0.16507
G1 X-12.250 Y-28.400 E0.16507
G1 X-10.578 Y-29.064 E0.16507
G1 X-8.871 Y-29.630 E0.16507
G1 X-7.133 Y-30.096 E0.16507
G1 X-5.371 Y-30.459 E0.16507
G1 X-3.591 Y-30.720 E0.16507
G1 X-1.798 Y-30.877 E0.16507
G1 X-0.180 Y-30.924 E0.14854 F900.000
G1 X1.797 Y-30.877 E0.18148
G1 X3.591 Y-30.720 E0.16517
G1 X5.371 Y-30.459 E0.16507
G1 X7.133 Y-30.096 E0.16507
G1 X8.697 Y-29.677 E0.14854
G1 X10.577 Y-29.064 E0.18148
G1 X12.250 Y-28.400 E0.16517
G1 X13.881 Y-27.639 E0.16507
G1 X15.465 Y-26.786 E0.16507
G1 X16.996 Y-25.841 E0.16507
G1 X18.470 Y-24.809 E0.16507
G1 X19.881 Y-23.693 E0.16507
G1 X21.225 Y-22.497 E0.16507
G1 X22.497 Y-21.225 E0.16507
G1 X23.693 Y-19.881 E0.16507
G1 X24.809 Y-18.470 E0.16507
G1 X25.841 Y-16.996 E0.16507
G1 X26.786 Y-15.465 E0.16507
G1 X27.639 Y-13.881 E0.16507
G1 X28.400 Y-12.250 E0.16507
G1 X29.064 Y-10.578 E0.16507
G1 X29.630 Y-8.871 E0.16507
G1 X30.096 Y-7.133 E0.16507
G1 X30.459 Y-5.371 E0.16507
G1 X30.720 Y-3.591 E0.16507
G1 X30.877 Y-1.798 E0.16507
G1 X30.929 Y-0.000 E0.16507
G1 X30.877 Y1.798 E0.16507
G1 X30.720 Y3.591 E0.16507
G1 X30.459 Y5.371 E0.16507
G1 X30.151 Y6.863 E0.13982
G1 X30.429 Y7.198 F9000.000
G1 E-3.20000 F3000.00000
G1 Z0.700 F9000.000
G1 X-25.721 Y-19.473 F9000.000
G1 Z0.300 F9000.000
G1 E3.20000 F3000.00000
G1 X-26.048 Y-19.048 E0.04919 F900.000
G1 X-26.473 Y-18.721 E0.04919
G1 X-26.968 Y-18.516 E0.04919
G1 X-27.500 Y-18.446 E0.04919
G1 X-28.032 Y-18.516 E0.04919
G1 X-28.527 Y-18.721 E0.04919
G1 X-28.952 Y-19.048 E0.04919
G1 X-29.279 Y-19.473 E0.04919
G1 X-29.484 Y-19.968 E0.04919
G1 X-29.554 Y-20.500 E0.04919
G1 X-29.484 Y-21.032 E0.04919
G1 X-29.279 Y-21.527 E0.04919
G1 X-28.952 Y-21.952 E0.04919
G1 X-28.527 Y-22.279 E0.04919
G1 X-28.032 Y-22.484 E0.04919
G1 X-27.500 Y-22.554 E0.04919 F900.000
G1 X-26.968 Y-22.484 E0.04919
G1 X-26.473 Y-22.279 E0.04919
G1 X-26.048 Y-21.952 E0.04919
G1 X-25.721 Y-21.527 E0.04919
G1 X-25.516 Y-21.032 E0.04919
G1 X-25.446 Y-20.500 E0.04919
G1 X-25.516 Y-19.968 E0.04919
G1 X-25.698 Y-19.528 E0.04369
G1 X-25.537 Y-19.118 F9000.000
G1 E-3.20000 F3000.00000
G1 Z0.700 F9000.000
G1 X-27.500 Y18.446 F9000.000
G1 Z0.300 F9000.000
G1 E3.20000 F3000.00000
G1 X-26.968 Y18.516 E0.04919 F900.000
G1 X-26.473 Y18.721 E0.04919
G1 X-26.048 Y19.048 E0.04919
G1 X-25.721 Y19.473 E0.04919
G1 X-25.516 Y19.968 E0.04919
G1 X-25.446 Y20.500 E0.04919
G1 X-25.516 Y21.032 E0.04919
G1 X-25.721 Y21.527 E0.04919
G1 X-26.048 Y21.952 E0.04919
G1 X-26.473 Y22.279 E0.04919
G1 X-26.968 Y22.484 E0.04919
G1 X-27.500 Y22.554 E0.04919
G1 X-28.032 Y22.484 E0.04919
G1 X-28.527 Y22.279 E0.04919
G1 X-28.952 Y21.952 E0.04919
G1 X-29.279 Y21.527 E0.04919
G1 X-29.484 Y21.032 E0.04919
G1 X-29.554 Y20.500 E0.04919
G1 X-29.484 Y19.968 E0.04919
G1 X-29.279 Y19.473 E0.04919
G1 X-28.952 Y19.048 E0.04919
G1 X-28.527 Y18.721 E0.04919
G1 X-28.032 Y18.516 E0.04919
G1 X-27.559 Y18.454 E0.04369 F900.000
G1 X-27.285 Y18.109 F9000.000
G1 X-34.602 Y2.421 F9000.000
G1 X-35.276 Y2.701 E0.06696 F900.000
G1 X-36.000 Y2.796 E0.06697
G1 X-36.724 Y2.701 E0.06697
G1 X-37.398 Y2.421 E0.06697
G1 X-37.977 Y1.977 E0.06697
G1 X-38.421 Y1.398 E0.06697
G1 X-38.701 Y0.724 E0.06697
G1 X-38.796 Y0.000 E0.06697
G1 X-38.701 Y-0.724 E0.06697
G1 X-38.421 Y-1.398 E0.06697
G1 X-37.977 Y-1.977 E0.06697
G1 X-37.398 Y-2.421 E0.06697
G1 X-36.724 Y-2.701 E0.06697
G1 X-36.000 Y-2.796 E0.06696 F900.000
G1 X-35.276 Y-2.701 E0.06697
G1 X-34.602 Y-2.421 E0.06696
G1 X-34.023 Y-1.977 E0.06697
G1 X-33.579 Y-1.398 E0.06697
G1 X-33.299 Y-0.724 E0.06696
G1 X-33.204 Y-0.000 E0.06697
G1 X-33.299 Y0.724 E0.06697
G1 X-33.579 Y1.398 E0.06697
G1 X-34.023 Y1.977 E0.06696
G1 X-34.554 Y2.385 E0.06146
G1 X-34.973 Y1.779 F9000.000
