; generated by Slic3r 1.2.9 on 2016-11-21 at 10:15:04

; external perimeters extrusion width = 0.50mm
; perimeters extrusion width = 0.50mm
; infill extrusion width = 0.50mm
; solid infill extrusion width = 0.50mm
; top infill extrusion width = 0.50mm

M107
;Basic settings: Layer height: {layer_height} Walls: {wall_thickness} Fill: {fill_density}
;Print time: {print_time}
;Filament used: {filament_amount}m {filament_weight}g
;Filament cost: {filament_cost}
;M190 S{print_bed_temperature} ;Uncomment to add your own bed temperature line
;M109 S{print_temperature} ;Uncomment to add your own temperature line
G21        ;metric values
G90        ;absolute positioning
M83
G10 P0 S200
T0
M116


G21 ; set units to millimeters
G90 ; use absolute coordinates
M83 ; use relative distances for extrusion
G1 E-3.20000 F3000.00000
G1 Z0.400 F9000.000
G1 X42.169 Y-7.816 F9000.000
G1 Z0.300 F9000.000
G1 E3.20000 F3000.00000
G1 X42.387 Y-6.614 E0.11200 F1200.000
G1 X42.654 Y-4.581 E0.18813
G1 X42.846 Y-2.148 E0.22400
G1 X42.900 Y-0.098 E0.18813
G1 X42.849 Y2.078 E0.19971
G1 X42.670 Y4.434 E0.21678
G1 X42.419 Y6.403 E0.18206
G1 X42.041 Y8.543 E0.19942
G1 X41.506 Y10.845 E0.21678
G1 X40.961 Y12.752 E0.18206
G1 X40.262 Y14.811 E0.19942
G1 X39.460 Y16.831 E0.19947
G1 X39.163 Y17.512 E0.06816
G1 X38.504 Y18.919 E0.14254
G1 X37.542 Y20.762 E0.19074
G1 X37.121 Y21.505 E0.07831
G1 X36.440 Y22.639 E0.12142
G1 X35.999 Y23.336 E0.07570
G1 X35.190 Y24.539 E0.13299
G1 X33.959 Y26.215 E0.19075
G1 X33.306 Y27.040 E0.09654
G1 X32.586 Y27.904 E0.10319
G1 X31.848 Y28.743 E0.10261
G1 X31.129 Y29.520 E0.09711
G1 X30.369 Y30.302 E0.10001
G1 X29.520 Y31.129 E0.10870
G1 X28.743 Y31.848 E0.09711
G1 X27.978 Y32.522 E0.09364
G1 X26.966 Y33.366 E0.12084
G1 X26.215 Y33.959 E0.08785
G1 X25.262 Y34.674 E0.10927
G1 X24.459 Y35.245 E0.09046
G1 X22.723 Y36.389 E0.19075
G1 X21.423 Y37.169 E0.13906
G1 X19.535 Y38.194 E0.19712
G1 X18.831 Y38.546 E0.07223
G1 X16.942 Y39.414 E0.19074
G1 X15.442 Y40.025 E0.14857
G1 X13.164 Y40.830 E0.22171
G1 X11.198 Y41.412 E0.18813
G1 X9.015 Y41.942 E0.20607
G1 X6.614 Y42.387 E0.22400
G1 X4.581 Y42.654 E0.18813
G1 X2.343 Y42.836 E0.20607
G1 X-0.095 Y42.900 E0.22372
G1 X-2.078 Y42.849 E0.18206
G1 X-4.246 Y42.689 E0.19942
G1 X-6.590 Y42.391 E0.21678
G1 X-8.728 Y42.002 E0.19943
G1 X-10.661 Y41.554 E0.18206
G1 X-12.933 Y40.904 E0.21678
G1 X-14.988 Y40.196 E0.19942
G1 X-16.942 Y39.414 E0.19310
G1 X-18.831 Y38.546 E0.19073
G1 X-19.535 Y38.194 E0.07223
G1 X-21.423 Y37.169 E0.19711
G1 X-22.723 Y36.389 E0.13907
G1 X-24.459 Y35.245 E0.19074
G1 X-25.262 Y34.674 E0.09046
G1 X-26.292 Y33.900 E0.11823
G1 X-27.904 Y32.586 E0.19075
G1 X-28.743 Y31.848 E0.10261
G1 X-29.520 Y31.129 E0.09712
G1 X-30.302 Y30.369 E0.10001
G1 X-31.129 Y29.520 E0.10869
G1 X-31.848 Y28.744 E0.09711
G1 X-32.522 Y27.978 E0.09364
G1 X-33.366 Y26.966 E0.12085
G1 X-33.959 Y26.215 E0.08785
G1 X-34.674 Y25.262 E0.10927
G1 X-35.245 Y24.459 E0.09046
G1 X-36.389 Y22.723 E0.19074
G1 X-37.169 Y21.423 E0.13907
G1 X-38.194 Y19.535 E0.19711
G1 X-38.546 Y18.831 E0.07223
G1 X-39.414 Y16.942 E0.19074
G1 X-40.085 Y15.283 E0.16420
G1 X-40.770 Y13.350 E0.18815
G1 X-41.463 Y11.009 E0.22401
G1 X-41.942 Y9.015 E0.18813
G1 X-42.137 Y7.992 E0.09555
G1 X-42.387 Y6.614 E0.12846
G1 X-42.654 Y4.581 E0.18813
G1 X-42.846 Y2.148 E0.22400
G1 X-42.900 Y0.098 E0.18813
G1 X-42.849 Y-2.078 E0.19971
G1 X-42.689 Y-4.246 E0.19942
G1 X-42.523 Y-5.591 E0.12432
G1 X-42.391 Y-6.590 E0.09247
G1 X-42.002 Y-8.728 E0.19942
G1 X-41.554 Y-10.661 E0.18206
G1 X-40.961 Y-12.752 E0.19942
G1 X-40.196 Y-14.988 E0.21678
G1 X-39.460 Y-16.831 E0.18211
G1 X-39.163 Y-17.512 E0.06816
G1 X-38.238 Y-19.451 E0.19711
G1 X-37.495 Y-20.848 E0.14515
G1 X-36.440 Y-22.639 E0.19074
G1 X-35.947 Y-23.415 E0.08438
G1 X-35.245 Y-24.459 E0.11534
G1 X-34.730 Y-25.186 E0.08178
G1 X-33.900 Y-26.292 E0.12692
G1 X-32.586 Y-27.904 E0.19074
G1 X-31.848 Y-28.744 E0.10261
G1 X-31.129 Y-29.520 E0.09711
G1 X-30.369 Y-30.302 E0.10001
G1 X-29.520 Y-31.129 E0.10869
G1 X-28.744 Y-31.848 E0.09711
G1 X-27.978 Y-32.522 E0.09364
G1 X-27.040 Y-33.306 E0.11216
G1 X-26.215 Y-33.959 E0.09654
G1 X-25.262 Y-34.674 E0.10927
G1 X-24.459 Y-35.245 E0.09046
G1 X-22.723 Y-36.389 E0.19074
G1 X-21.505 Y-37.121 E0.13039
G1 X-20.762 Y-37.542 E0.07831
G1 X-18.919 Y-38.504 E0.19074
G1 X-17.426 Y-39.202 E0.15123
G1 X-15.442 Y-40.025 E0.19706
G1 X-13.164 Y-40.830 E0.22171
G1 X-11.198 Y-41.412 E0.18813
G1 X-9.015 Y-41.942 E0.20607
G1 X-6.614 Y-42.387 E0.22401
G1 X-4.387 Y-42.675 E0.20607
G1 X-2.343 Y-42.836 E0.18813
G1 X-0.098 Y-42.900 E0.20607
G1 X0.964 Y-42.878 E0.09745
G1 X2.267 Y-42.840 E0.11962 F1200.000
G1 X4.434 Y-42.670 E0.19942
G1 X6.403 Y-42.419 E0.18206
G1 X8.543 Y-42.041 E0.19942
G1 X10.845 Y-41.506 E0.21678
G1 X12.933 Y-40.904 E0.19942
G1 X14.988 Y-40.196 E0.19942
G1 X16.942 Y-39.414 E0.19310
G1 X18.831 Y-38.546 E0.19073
G1 X19.535 Y-38.194 E0.07223
G1 X20.762 Y-37.542 E0.12750
G1 X21.505 Y-37.121 E0.07831
G1 X22.639 Y-36.440 E0.12142
G1 X23.336 Y-35.999 E0.07570
G1 X24.539 Y-35.190 E0.13300
G1 X25.262 Y-34.674 E0.08149
G1 X26.292 Y-33.900 E0.11824
G1 X27.904 Y-32.586 E0.19074
G1 X28.673 Y-31.911 E0.09393
G1 X29.520 Y-31.129 E0.10579
G1 X30.302 Y-30.369 E0.10001
G1 X31.061 Y-29.591 E0.09972
G1 X31.911 Y-28.673 E0.11476
G1 X32.586 Y-27.904 E0.09393
G1 X33.306 Y-27.040 E0.10319
G1 X33.959 Y-26.215 E0.09654
G1 X34.674 Y-25.262 E0.10927
G1 X35.245 Y-24.459 E0.09046
G1 X36.389 Y-22.723 E0.19074
G1 X37.169 Y-21.423 E0.13906
G1 X38.194 Y-19.535 E0.19712
G1 X38.546 Y-18.831 E0.07223
G1 X39.414 Y-16.942 E0.19074
G1 X40.085 Y-15.283 E0.16420
G1 X40.770 Y-13.350 E0.18814
G1 X41.412 Y-11.198 E0.20607
G1 X41.942 Y-9.015 E0.20607
G1 X42.158 Y-7.875 E0.10649
G1 E-3.20000 F3000.00000
G1 Z0.700 F9000.000
G1 X-11.279 Y24.488 F9000.000
G1 Z0.300 F9000.000
G1 E3.20000 F3000.00000
G1 X-10.744 Y25.373 E0.09484 F900.000
G1 X-10.327 Y26.753 E0.13233
G1 X-10.267 Y28.194 E0.13232
G1 X-10.566 Y29.605 E0.13233
G1 X-11.208 Y30.897 E0.13232
G1 X-12.150 Y31.989 E0.13233
G1 X-13.334 Y32.812 E0.13233
G1 X-14.686 Y33.314 E0.13233
G1 X-16.120 Y33.465 E0.13232
G1 X-17.547 Y33.254 E0.13233
G1 X-18.877 Y32.696 E0.13233
G1 X-20.026 Y31.824 E0.13233
G1 X-20.921 Y30.693 E0.13233
G1 X-21.508 Y29.376 E0.13233
G1 X-21.749 Y27.954 E0.13233
G1 X-21.628 Y26.517 E0.13232
G1 X-21.154 Y25.155 E0.13233
G1 X-20.355 Y23.953 E0.13233
G1 X-19.284 Y22.988 E0.13233
G1 X-18.006 Y22.320 E0.13233
G1 X-17.905 Y22.296 E0.00949
G1 X-16.601 Y21.991 E0.12284 F900.000
G1 X-15.160 Y22.021 E0.13233
G1 X-13.770 Y22.409 E0.13233
G1 X-12.521 Y23.130 E0.13233
G1 X-11.491 Y24.139 E0.13233
G1 X-11.310 Y24.437 E0.03198
G1 X-10.879 Y24.480 F9000.000
G1 X-10.656 Y23.111 F9000.000
G1 X-11.899 Y22.497 E0.12717 F900.000
G1 X-14.316 Y21.043 E0.25883
G1 X-15.101 Y20.459 E0.08982
G1 X-16.617 Y19.277 E0.17627
G1 X-17.545 Y18.398 E0.11735
G1 X-18.721 Y17.241 E0.15134
G1 X-19.746 Y15.997 E0.14794
G1 X-20.754 Y14.731 E0.14839
G1 X-21.999 Y12.784 E0.21212
G1 X-22.355 Y12.162 E0.06577
G1 X-23.227 Y10.339 E0.18536
G1 X-23.698 Y9.277 E0.10660
G1 X-24.101 Y8.170 E0.10809
G1 X-24.691 Y6.166 E0.19165
G1 X-25.259 Y3.111 E0.28515
G1 X-25.449 Y0.162 E0.27106
G1 X-25.373 Y-1.985 E0.19712
G1 X-25.288 Y-2.863 E0.08092
G1 X-25.136 Y-3.990 E0.10437
G1 X-24.774 Y-5.828 E0.17192
G1 X-24.434 Y-7.121 E0.12265
G1 X-23.841 Y-8.906 E0.17254
G1 X-23.465 Y-9.855 E0.09370
G1 X-22.675 Y-11.559 E0.17229
G1 X-22.249 Y-12.393 E0.08594
G1 X-21.307 Y-14.031 E0.17340
G1 X-20.462 Y-15.279 E0.13826
G1 X-19.535 Y-16.505 E0.14096
G1 X-17.974 Y-18.265 E0.21584
G1 X-17.416 Y-18.818 E0.07211
G1 X-15.665 Y-20.367 E0.21447
G1 X-15.130 Y-20.778 E0.06195
G1 X-13.139 Y-22.159 E0.22233
G1 X-12.612 Y-22.475 E0.05636
G1 X-10.381 Y-23.649 E0.23132
G1 X-9.885 Y-23.874 E0.04994
G1 X-7.619 Y-24.743 E0.22269
G1 X-7.051 Y-24.922 E0.05463
G1 X-4.866 Y-25.488 E0.20712
G1 X-4.149 Y-25.627 E0.06697
G1 X-1.816 Y-25.946 E0.21605
G1 X-0.972 Y-26.010 E0.07767
G1 X1.088 Y-26.047 E0.18900 F900.000
G1 X1.882 Y-26.024 E0.07289
G1 X4.067 Y-25.818 E0.20136
G1 X4.717 Y-25.725 E0.06026
G1 X6.983 Y-25.252 E0.21242
G1 X7.501 Y-25.119 E0.04908
G1 X9.891 Y-24.333 E0.23080
G1 X12.178 Y-23.334 E0.22897
G1 X12.552 Y-23.145 E0.03844
G1 X14.252 Y-22.186 E0.17906
G1 X15.026 Y-21.695 E0.08411
G1 X16.449 Y-20.678 E0.16052
G1 X17.383 Y-19.939 E0.10926
G1 X18.774 Y-18.689 E0.17157
G1 X19.565 Y-17.896 E0.10283
G1 X20.862 Y-16.392 E0.18214
G1 X21.448 Y-15.620 E0.08895
G1 X22.788 Y-13.586 E0.22351
G1 X23.532 Y-12.237 E0.14131
G1 X24.326 Y-10.587 E0.16805
G1 X24.811 Y-9.376 E0.11967
G1 X25.153 Y-8.435 E0.09184
G1 X25.447 Y-7.506 E0.08945
G1 X25.858 Y-5.945 E0.14810
G1 X26.147 Y-4.501 E0.13507
G1 X26.365 Y-2.974 E0.14151
G1 X26.418 Y-2.346 E0.05782
G1 X26.738 Y-2.278 E0.03009
G1 X27.345 Y-3.382 E0.11557
G1 X28.333 Y-4.433 E0.13233
G1 X29.550 Y-5.206 E0.13233
G1 X30.922 Y-5.652 E0.13233
G1 X32.361 Y-5.742 E0.13233
G1 X33.778 Y-5.472 E0.13232
G1 X35.083 Y-4.858 E0.13233
G1 X36.194 Y-3.939 E0.13233
G1 X37.042 Y-2.772 E0.13232
G1 X37.573 Y-1.431 E0.13233
G1 X37.754 Y0.000 E0.13233
G1 X37.573 Y1.431 E0.13233
G1 X37.042 Y2.772 E0.13233
G1 X36.194 Y3.939 E0.13232
G1 X35.083 Y4.858 E0.13233
G1 X33.778 Y5.472 E0.13233
G1 X32.361 Y5.742 E0.13232
G1 X30.922 Y5.652 E0.13233
G1 X29.550 Y5.206 E0.13233
G1 X28.333 Y4.433 E0.13233
G1 X27.345 Y3.382 E0.13233
G1 X26.735 Y2.271 E0.11630
G1 X26.422 Y2.328 E0.02913
G1 X26.135 Y4.300 E0.18290
G1 X25.893 Y5.431 E0.10611
G1 X25.397 Y7.276 E0.17526
G1 X24.884 Y8.756 E0.14375
G1 X24.359 Y10.067 E0.12953
G1 X23.890 Y11.083 E0.10274
G1 X22.961 Y12.813 E0.18014
G1 X21.978 Y14.336 E0.16633
G1 X21.334 Y15.266 E0.10373
G1 X19.562 Y17.390 E0.25380
G1 X19.051 Y17.922 E0.06766
G1 X17.637 Y19.253 E0.17822
G1 X16.815 Y19.948 E0.09872
G1 X15.193 Y21.158 E0.18568
G1 X14.333 Y21.716 E0.09402
G1 X12.485 Y22.778 E0.19563
G1 X11.759 Y23.150 E0.07484
G1 X9.751 Y24.007 E0.20031
G1 X9.050 Y24.271 E0.06873
G1 X6.713 Y24.954 E0.22340
G1 X5.952 Y25.142 E0.07190
G1 X3.253 Y25.573 E0.25078
G1 X2.833 Y25.613 E0.03870
G1 X0.059 Y25.710 E0.25466
G1 X-0.336 Y25.699 E0.03623
G1 X-2.683 Y25.510 E0.21609
G1 X-3.218 Y25.436 E0.04950
G1 X-5.353 Y25.027 E0.19950
G1 X-6.039 Y24.854 E0.06494
G1 X-7.898 Y24.285 E0.17830
G1 X-9.047 Y23.852 E0.11268
G1 X-9.770 Y23.548 E0.07199
G1 X-10.602 Y23.137 E0.08512
G1 X-10.988 Y23.333 F9000.000
G1 E-3.20000 F3000.00000
G1 Z0.700 F9000.000
G1 X-15.160 Y-22.021 F9000.000
G1 Z0.300 F9000.000
G1 E3.20000 F3000.00000
G1 X-16.601 Y-21.991 E0.13233 F900.000
G1 X-18.006 Y-22.320 E0.13233
G1 X-19.284 Y-22.988 E0.13233
G1 X-20.355 Y-23.953 E0.13233
G1 X-21.154 Y-25.155 E0.13233
G1 X-21.628 Y-26.517 E0.13233
G1 X-21.749 Y-27.954 E0.13233
G1 X-21.508 Y-29.376 E0.13233
G1 X-20.921 Y-30.693 E0.13233
G1 X-20.026 Y-31.824 E0.13232
G1 X-18.877 Y-32.696 E0.13233
G1 X-17.547 Y-33.254 E0.13232
G1 X-17.445 Y-33.270 E0.00949
G1 X-16.120 Y-33.465 E0.12284 F900.000
G1 X-14.686 Y-33.314 E0.13232
G1 X-13.334 Y-32.812 E0.13233
G1 X-12.150 Y-31.989 E0.13233
G1 X-11.208 Y-30.897 E0.13233
G1 X-10.566 Y-29.605 E0.13233
G1 X-10.267 Y-28.194 E0.13233
G1 X-10.327 Y-26.753 E0.13233
G1 X-10.744 Y-25.373 E0.13233
G1 X-11.491 Y-24.139 E0.13233
G1 X-12.521 Y-23.130 E0.13233
G1 X-13.770 Y-22.409 E0.13233
G1 X-15.102 Y-22.037 E0.12682
G1 X-15.322 Y-21.656 F9000.000
G1 X-35.695 Y-13.112 F9000.000
G1 X-34.947 Y-14.997 E0.18608 F900.000
G1 X-34.143 Y-16.748 E0.17676
G1 X-33.251 Y-18.456 E0.17678
G1 X-32.273 Y-20.116 E0.17678
G1 X-31.213 Y-21.725 E0.17678
G1 X-30.073 Y-23.278 E0.17678
G1 X-28.850 Y-24.777 E0.17748
G1 X-27.563 Y-26.201 E0.17612
G1 X-26.201 Y-27.563 E0.17669
G1 X-25.446 Y-28.262 E0.09443
G1 X-24.773 Y-28.854 E0.08228
G1 X-23.931 Y-29.556 E0.10051
G1 X-23.280 Y-30.071 E0.07620
G1 X-21.909 Y-31.082 E0.15629
G1 X-21.648 Y-30.869 E0.03091
G1 X-22.218 Y-29.590 E0.12845 F900.000
G1 X-22.489 Y-27.985 E0.14938
G1 X-22.353 Y-26.362 E0.14938
G1 X-21.818 Y-24.825 E0.14938
G1 X-20.917 Y-23.469 E0.14938
G1 X-19.707 Y-22.379 E0.14938
G1 X-18.264 Y-21.625 E0.14938
G1 X-16.679 Y-21.253 E0.14938
G1 X-15.752 Y-21.273 E0.08511
G1 X-17.920 Y-19.355 E0.26556
G1 X-18.509 Y-18.770 E0.07620
G1 X-20.105 Y-16.971 E0.22062
G1 X-21.060 Y-15.708 E0.14537
G1 X-21.931 Y-14.421 E0.14249
G1 X-22.896 Y-12.744 E0.17756
G1 X-23.337 Y-11.881 E0.08893
G1 X-24.141 Y-10.146 E0.17547
G1 X-24.533 Y-9.158 E0.09753
G1 X-25.139 Y-7.331 E0.17660
G1 X-25.491 Y-5.993 E0.12692
G1 X-25.862 Y-4.110 E0.17606
G1 X-26.019 Y-2.947 E0.10770
G1 X-26.107 Y-2.033 E0.08427
G1 X-26.185 Y0.173 E0.20252
G1 X-25.991 Y3.202 E0.27847
G1 X-25.407 Y6.338 E0.29266
G1 X-24.800 Y8.400 E0.19720
G1 X-24.381 Y9.552 E0.11252
G1 X-23.895 Y10.647 E0.10989
G1 X-23.007 Y12.504 E0.18882
G1 X-22.629 Y13.165 E0.06992
G1 X-21.353 Y15.160 E0.21726
G1 X-20.318 Y16.460 E0.15245
G1 X-19.264 Y17.739 E0.15203
G1 X-18.056 Y18.927 E0.15551
G1 X-17.097 Y19.836 E0.12123
G1 X-15.638 Y20.973 E0.16967
G1 X-15.745 Y21.273 E0.02922
G1 X-16.679 Y21.253 E0.08570
G1 X-18.264 Y21.625 E0.14938
G1 X-19.707 Y22.379 E0.14938
G1 X-20.917 Y23.469 E0.14938
G1 X-21.818 Y24.825 E0.14938
G1 X-22.353 Y26.362 E0.14938
G1 X-22.489 Y27.985 E0.14938
G1 X-22.218 Y29.590 E0.14938
G1 X-21.653 Y30.859 E0.12740
G1 X-21.918 Y31.072 E0.03116
G1 X-23.278 Y30.073 E0.15487
G1 X-24.777 Y28.850 E0.17748
G1 X-26.201 Y27.563 E0.17612
G1 X-27.563 Y26.201 E0.17669
G1 X-28.262 Y25.446 E0.09443
G1 X-28.850 Y24.777 E0.08170
G1 X-30.073 Y23.278 E0.17748
G1 X-31.213 Y21.725 E0.17678
G1 X-32.273 Y20.116 E0.17678
G1 X-33.251 Y18.456 E0.17678
G1 X-34.143 Y16.748 E0.17678
G1 X-34.949 Y14.994 E0.17709
G1 X-35.502 Y13.632 E0.13489
G1 X-36.168 Y11.752 E0.18304
G1 X-36.733 Y9.843 E0.18267
G1 X-37.198 Y7.907 E0.18267
G1 X-37.561 Y5.949 E0.18267
G1 X-37.821 Y3.975 E0.18267
G1 X-37.977 Y1.990 E0.18267
G1 X-38.029 Y-0.001 E0.18272
G1 X-37.980 Y-1.926 E0.17674
G1 X-37.834 Y-3.847 E0.17678
G1 X-37.591 Y-5.759 E0.17678
G1 X-37.251 Y-7.655 E0.17678
G1 X-36.815 Y-9.532 E0.17678
G1 X-36.285 Y-11.385 E0.17678
G1 X-35.714 Y-13.055 E0.16201
G1 E-3.20000 F3000.00000
G1 Z0.700 F9000.000
G1 X16.174 Y-21.778 F9000.000
G1 Z0.300 F9000.000
G1 E3.20000 F3000.00000
G1 X15.437 Y-22.305 E0.08313 F900.000
G1 X14.630 Y-22.818 E0.08772
G1 X12.898 Y-23.794 E0.18234
G1 X12.491 Y-24.000 E0.04187
G1 X10.153 Y-25.021 E0.23406
G1 X7.708 Y-25.825 E0.23618
G1 X7.150 Y-25.969 E0.05286
G1 X4.844 Y-26.450 E0.21617
G1 X4.153 Y-26.548 E0.06403
G1 X1.927 Y-26.758 E0.20514
G1 X1.092 Y-26.783 E0.07668
G1 X-1.007 Y-26.745 E0.19256
G1 X-1.894 Y-26.678 E0.08166
G1 X-4.269 Y-26.353 E0.21993
G1 X-5.028 Y-26.206 E0.07094
G1 X-7.254 Y-25.629 E0.21096
G1 X-7.861 Y-25.438 E0.05844
G1 X-9.990 Y-24.621 E0.20918
G1 X-10.192 Y-24.863 E0.02894
G1 X-10.066 Y-25.071 E0.02229
G1 X-9.596 Y-26.630 E0.14938
G1 X-9.528 Y-28.256 E0.14938
G1 X-9.866 Y-29.849 E0.14938
G1 X-10.590 Y-31.307 E0.14938
G1 X-11.654 Y-32.540 E0.14938
G1 X-12.991 Y-33.469 E0.14938
G1 X-14.517 Y-34.036 E0.14938
G1 X-15.896 Y-34.181 E0.12719
G1 X-15.952 Y-34.510 E0.03065
G1 X-15.468 Y-34.742 E0.04925
G1 X-13.629 Y-35.503 E0.18263
G1 X-11.752 Y-36.168 E0.18269
G1 X-9.843 Y-36.733 E0.18267
G1 X-7.907 Y-37.198 E0.18267
G1 X-5.949 Y-37.561 E0.18267
G1 X-3.975 Y-37.821 E0.18267
G1 X-1.990 Y-37.977 E0.18267
G1 X0.001 Y-38.029 E0.18272
G1 X1.926 Y-37.980 E0.17674
G1 X3.847 Y-37.834 E0.17678
G1 X5.759 Y-37.591 E0.17678
G1 X7.655 Y-37.251 E0.17678
G1 X9.532 Y-36.815 E0.17678
G1 X11.385 Y-36.285 E0.17678
G1 X13.208 Y-35.662 E0.17678
G1 X14.997 Y-34.947 E0.17682
G1 X16.748 Y-34.143 E0.17676
G1 X18.456 Y-33.251 E0.17678
G1 X20.116 Y-32.273 E0.17678
G1 X21.725 Y-31.213 E0.17678
G1 X23.278 Y-30.073 E0.17678
G1 X24.777 Y-28.850 E0.17748
G1 X25.446 Y-28.262 E0.08170
G1 X26.201 Y-27.563 E0.09443
G1 X26.891 Y-26.891 E0.08835
G1 X27.563 Y-26.201 E0.08835
G1 X28.262 Y-25.446 E0.09443
G1 X28.850 Y-24.777 E0.08170
G1 X30.073 Y-23.278 E0.17748
G1 X31.213 Y-21.725 E0.17678
G1 X32.273 Y-20.116 E0.17678
G1 X33.251 Y-18.456 E0.17678
G1 X34.143 Y-16.748 E0.17678
G1 X34.949 Y-14.994 E0.17709
G1 X35.502 Y-13.632 E0.13489
G1 X36.168 Y-11.752 E0.18304
G1 X36.733 Y-9.843 E0.18267
