; generated by Slic3r 1.2.9 on 2016-11-18 at 14:39:48

; external perimeters extrusion width = 0.50mm
; perimeters extrusion width = 0.50mm
; infill extrusion width = 0.50mm
; solid infill extrusion width = 0.50mm
; top infill extrusion width = 0.50mm

M107
;Basic settings: Layer height: {layer_height} Walls: {wall_thickness} Fill: {fill_density}
;Print time: {print_time}
;Filament used: {filament_amount}m {filament_weight}g
;Filament cost: {filament_cost}
;M190 S{print_bed_temperature} ;Uncomment to add your own bed temperature line
;M109 S{print_temperature} ;Uncomment to add your own temperature line
G21        ;metric values
G90        ;absolute positioning
M83
G10 P0 S200
T0
M116


G21 ; set units to millimeters
G90 ; use absolute coordinates
M83 ; use relative distances for extrusion
G1 E-3.20000 F3000.00000
G1 Z0.400 F9000.000
G1 X14.316 Y40.427 F9000.000
G1 Z0.300 F9000.000
G1 E3.20000 F3000.00000
G1 X13.164 Y40.830 E0.11200 F1200.000
G1 X11.198 Y41.412 E0.18813
G1 X9.015 Y41.942 E0.20607
G1 X6.808 Y42.356 E0.20607
G1 X4.581 Y42.654 E0.20607
G1 X2.343 Y42.836 E0.20607
G1 X0.098 Y42.900 E0.20607
G1 X-2.078 Y42.849 E0.19971
G1 X-4.246 Y42.689 E0.19942
G1 X-6.403 Y42.419 E0.19942
G1 X-8.543 Y42.041 E0.19942
G1 X-10.661 Y41.554 E0.19942
G1 X-12.933 Y40.904 E0.21678
G1 X-14.988 Y40.196 E0.19943
G1 X-16.831 Y39.460 E0.18211
G1 X-17.426 Y39.202 E0.05948
G1 X-19.451 Y38.238 E0.20579
G1 X-20.762 Y37.542 E0.13618
G1 X-21.505 Y37.121 E0.07831
G1 X-22.639 Y36.440 E0.12142
G1 X-23.336 Y35.999 E0.07570
G1 X-24.459 Y35.245 E0.12403
G1 X-25.186 Y34.730 E0.08178
G1 X-26.215 Y33.959 E0.11795
G1 X-26.966 Y33.366 E0.08786
G1 X-27.904 Y32.586 E0.11187
G1 X-28.744 Y31.848 E0.10261
G1 X-29.591 Y31.061 E0.10609
G1 X-30.369 Y30.302 E0.09972
G1 X-31.129 Y29.520 E0.10001
G1 X-31.911 Y28.673 E0.10580
G1 X-32.586 Y27.904 E0.09393
G1 X-33.900 Y26.292 E0.19074
G1 X-34.674 Y25.262 E0.11824
G1 X-35.245 Y24.459 E0.09046
G1 X-36.389 Y22.723 E0.19074
G1 X-37.121 Y21.505 E0.13039
G1 X-37.542 Y20.762 E0.07831
G1 X-38.194 Y19.535 E0.12749
G1 X-38.546 Y18.831 E0.07223
G1 X-39.202 Y17.426 E0.14225
G1 X-40.025 Y15.442 E0.19706
G1 X-40.770 Y13.350 E0.20377
G1 X-41.412 Y11.198 E0.20607
G1 X-41.942 Y9.015 E0.20607
G1 X-42.356 Y6.808 E0.20607
G1 X-42.654 Y4.581 E0.20607
G1 X-42.836 Y2.343 E0.20607
G1 X-42.900 Y0.098 E0.20607
G1 X-42.849 Y-2.078 E0.19971
G1 X-42.689 Y-4.246 E0.19942
G1 X-42.419 Y-6.403 E0.19942
G1 X-42.041 Y-8.543 E0.19942
G1 X-41.506 Y-10.845 E0.21678
G1 X-40.904 Y-12.933 E0.19942
G1 X-40.196 Y-14.988 E0.19942
G1 X-39.460 Y-16.831 E0.18211
G1 X-39.202 Y-17.426 E0.05948
G1 X-38.546 Y-18.831 E0.14226
G1 X-38.194 Y-19.535 E0.07223
G1 X-37.169 Y-21.423 E0.19711
G1 X-36.440 Y-22.639 E0.13010
G1 X-35.947 Y-23.415 E0.08438
G1 X-35.190 Y-24.539 E0.12431
G1 X-33.959 Y-26.215 E0.19074
G1 X-33.306 Y-27.040 E0.09654
G1 X-32.522 Y-27.978 E0.11216
G1 X-31.848 Y-28.744 E0.09364
G1 X-31.129 Y-29.520 E0.09712
G1 X-30.369 Y-30.302 E0.10001
G1 X-29.591 Y-31.061 E0.09972
G1 X-28.744 Y-31.848 E0.10609
G1 X-27.904 Y-32.586 E0.10261
G1 X-26.966 Y-33.366 E0.11187
G1 X-26.215 Y-33.959 E0.08786
G1 X-25.262 Y-34.674 E0.10927
G1 X-24.459 Y-35.245 E0.09046
G1 X-23.336 Y-35.999 E0.12403
G1 X-22.639 Y-36.440 E0.07570
G1 X-21.423 Y-37.169 E0.13010
G1 X-20.762 Y-37.542 E0.06963
G1 X-19.451 Y-38.238 E0.13618
G1 X-17.426 Y-39.202 E0.20579
G1 X-15.442 Y-40.025 E0.19706
G1 X-13.164 Y-40.830 E0.22171
G1 X-11.009 Y-41.463 E0.20607
G1 X-8.824 Y-41.982 E0.20607
G1 X-6.614 Y-42.387 E0.20607
G1 X-4.387 Y-42.675 E0.20607
G1 X-2.148 Y-42.846 E0.20607
G1 X-0.098 Y-42.900 E0.18813
G1 X0.913 Y-42.879 E0.09275
G1 X2.267 Y-42.840 E0.12432 F1200.000
G1 X4.434 Y-42.670 E0.19942
G1 X6.403 Y-42.419 E0.18206
G1 X8.543 Y-42.041 E0.19942
G1 X10.845 Y-41.506 E0.21678
G1 X12.933 Y-40.904 E0.19942
G1 X14.988 Y-40.196 E0.19942
G1 X16.942 Y-39.414 E0.19310
G1 X18.831 Y-38.546 E0.19073
G1 X19.535 Y-38.194 E0.07223
G1 X20.762 Y-37.542 E0.12750
G1 X21.505 Y-37.121 E0.07831
G1 X22.639 Y-36.440 E0.12142
G1 X23.336 Y-35.999 E0.07570
G1 X24.539 Y-35.190 E0.13299
G1 X25.262 Y-34.674 E0.08149
G1 X26.292 Y-33.900 E0.11824
G1 X27.040 Y-33.306 E0.08757
G1 X27.978 Y-32.522 E0.11216
G1 X28.744 Y-31.848 E0.09364
G1 X29.591 Y-31.061 E0.10609
G1 X30.302 Y-30.369 E0.09104
G1 X31.061 Y-29.591 E0.09972
G1 X31.911 Y-28.673 E0.11477
G1 X32.586 Y-27.904 E0.09393
G1 X33.306 Y-27.040 E0.10319
G1 X33.959 Y-26.215 E0.09654
G1 X34.674 Y-25.262 E0.10927
G1 X35.245 Y-24.459 E0.09046
G1 X36.389 Y-22.723 E0.19074
G1 X37.495 Y-20.848 E0.19971
G1 X38.504 Y-18.919 E0.19972
G1 X39.414 Y-16.942 E0.19971
G1 X40.085 Y-15.283 E0.16419
G1 X40.770 Y-13.350 E0.18815
G1 X41.463 Y-11.009 E0.22401
G1 X41.942 Y-9.015 E0.18813
G1 X42.356 Y-6.808 E0.20607
G1 X42.675 Y-4.387 E0.22401
G1 X42.846 Y-2.148 E0.20607
G1 X42.900 Y0.095 E0.20578
G1 X42.840 Y2.267 E0.19942
G1 X42.670 Y4.434 E0.19942
G1 X42.419 Y6.403 E0.18206
G1 X42.041 Y8.543 E0.19942
G1 X41.506 Y10.845 E0.21678
G1 X40.904 Y12.933 E0.19942
G1 X40.196 Y14.988 E0.19943
G1 X39.414 Y16.942 E0.19310
G1 X38.546 Y18.831 E0.19073
G1 X38.194 Y19.535 E0.07223
G1 X37.542 Y20.762 E0.12749
G1 X37.121 Y21.505 E0.07831
G1 X36.440 Y22.639 E0.12142
G1 X35.999 Y23.336 E0.07570
G1 X35.190 Y24.539 E0.13299
G1 X34.674 Y25.262 E0.08149
G1 X33.900 Y26.292 E0.11824
G1 X32.586 Y27.904 E0.19074
G1 X31.911 Y28.673 E0.09393
G1 X31.129 Y29.520 E0.10580
G1 X30.369 Y30.302 E0.10001
G1 X29.591 Y31.061 E0.09972
G1 X28.673 Y31.911 E0.11477
G1 X27.904 Y32.586 E0.09393
G1 X27.040 Y33.306 E0.10319
G1 X26.215 Y33.959 E0.09654
G1 X25.262 Y34.674 E0.10927
G1 X24.459 Y35.245 E0.09046
G1 X22.723 Y36.389 E0.19074
G1 X20.848 Y37.495 E0.19972
G1 X18.919 Y38.504 E0.19971
G1 X17.426 Y39.202 E0.15123
G1 X15.442 Y40.025 E0.19706
G1 X14.373 Y40.407 E0.10420
G1 E-3.20000 F3000.00000
G1 Z0.700 F9000.000
G1 X-10.566 Y29.605 F9000.000
G1 Z0.300 F9000.000
G1 E3.20000 F3000.00000
G1 X-11.208 Y30.897 E0.13233 F900.000
G1 X-12.150 Y31.989 E0.13233
G1 X-13.334 Y32.812 E0.13233
G1 X-14.686 Y33.314 E0.13233
G1 X-16.120 Y33.465 E0.13232
G1 X-17.501 Y33.261 E0.12802
G1 X-18.875 Y32.697 E0.13635
G1 X-20.026 Y31.824 E0.13248
G1 X-20.892 Y30.730 E0.12802
G1 X-21.508 Y29.377 E0.13635
G1 X-21.749 Y27.954 E0.13248
G1 X-21.628 Y26.517 E0.13232
G1 X-21.154 Y25.155 E0.13233
G1 X-20.355 Y23.953 E0.13233
G1 X-19.284 Y22.988 E0.13233
G1 X-18.006 Y22.320 E0.13233
G1 X-16.647 Y22.001 E0.12802 F900.000
G1 X-15.161 Y22.021 E0.13635
G1 X-13.770 Y22.409 E0.13248
G1 X-12.521 Y23.130 E0.13233
G1 X-11.491 Y24.139 E0.13233
G1 X-10.744 Y25.373 E0.13233
G1 X-10.327 Y26.753 E0.13233
G1 X-10.267 Y28.194 E0.13232
G1 X-10.554 Y29.546 E0.12682
G1 X-10.318 Y29.918 F9000.000
G1 E-3.20000 F3000.00000
G1 Z0.700 F9000.000
G1 X-15.160 Y-22.021 F9000.000
G1 Z0.300 F9000.000
G1 E3.20000 F3000.00000
G1 X-16.601 Y-21.991 E0.13233 F900.000
G1 X-18.006 Y-22.320 E0.13233
G1 X-19.284 Y-22.988 E0.13233
G1 X-20.355 Y-23.953 E0.13233
G1 X-21.154 Y-25.155 E0.13233
G1 X-21.628 Y-26.517 E0.13233
G1 X-21.749 Y-27.954 E0.13232
G1 X-21.508 Y-29.376 E0.13233
G1 X-20.921 Y-30.693 E0.13233
G1 X-20.026 Y-31.824 E0.13232
G1 X-18.877 Y-32.696 E0.13233
G1 X-17.547 Y-33.254 E0.13233
G1 X-16.167 Y-33.458 E0.12802 F900.000
G1 X-14.688 Y-33.315 E0.13635
G1 X-13.311 Y-32.803 E0.13478
G1 X-12.150 Y-31.988 E0.13018
G1 X-11.208 Y-30.897 E0.13224
G1 X-10.566 Y-29.605 E0.13233
G1 X-10.267 Y-28.194 E0.13233
G1 X-10.327 Y-26.753 E0.13233
G1 X-10.744 Y-25.373 E0.13233
G1 X-11.491 Y-24.139 E0.13233
G1 X-12.521 Y-23.130 E0.13233
G1 X-13.770 Y-22.409 E0.13233
G1 X-15.102 Y-22.037 E0.12682
G1 X-15.322 Y-21.656 F9000.000
G1 X-2.848 Y-4.933 F9000.000
G1 X-1.474 Y-5.502 E0.13643 F900.000
G1 X-1.266 Y-5.529 E0.01930
G1 X-0.000 Y-5.696 E0.11713 F900.000
G1 X1.474 Y-5.502 E0.13643
G1 X2.848 Y-4.933 E0.13643
G1 X4.028 Y-4.028 E0.13643
G1 X4.933 Y-2.848 E0.13643
G1 X5.502 Y-1.474 E0.13643
G1 X5.696 Y-0.000 E0.13643
G1 X5.502 Y1.474 E0.13643
G1 X4.933 Y2.848 E0.13643
G1 X4.028 Y4.028 E0.13643
G1 X2.848 Y4.933 E0.13643
G1 X1.474 Y5.502 E0.13643
G1 X-0.000 Y5.696 E0.13643
G1 X-1.474 Y5.502 E0.13643
G1 X-2.848 Y4.933 E0.13643
G1 X-4.028 Y4.028 E0.13643
G1 X-4.933 Y2.848 E0.13643
G1 X-5.502 Y1.474 E0.13643
G1 X-5.696 Y0.000 E0.13642
G1 X-5.502 Y-1.474 E0.13643
G1 X-4.933 Y-2.848 E0.13643
G1 X-4.028 Y-4.028 E0.13643
G1 X-2.896 Y-4.896 E0.13092
G1 X-2.477 Y-4.290 F9000.000
G1 X-1.282 Y-4.785 E0.11865 F900.000
G1 X-1.170 Y-4.800 E0.01041
G1 X-0.000 Y-4.954 E0.10824 F900.000
G1 X1.282 Y-4.785 E0.11865
G1 X2.477 Y-4.290 E0.11865
G1 X3.503 Y-3.503 E0.11865
G1 X4.290 Y-2.477 E0.11865
G1 X4.785 Y-1.282 E0.11865
G1 X4.954 Y-0.000 E0.11865
G1 X4.785 Y1.282 E0.11865
G1 X4.290 Y2.477 E0.11865
G1 X3.503 Y3.503 E0.11865
G1 X2.477 Y4.290 E0.11865
G1 X1.282 Y4.785 E0.11865
G1 X-0.000 Y4.954 E0.11865
G1 X-1.282 Y4.785 E0.11865
G1 X-2.477 Y4.290 E0.11865
G1 X-3.503 Y3.503 E0.11865
G1 X-4.290 Y2.477 E0.11865
G1 X-4.785 Y1.282 E0.11865
G1 X-4.954 Y0.000 E0.11865
G1 X-4.785 Y-1.282 E0.11865
G1 X-4.290 Y-2.477 E0.11865
G1 X-3.503 Y-3.503 E0.11865
G1 X-2.525 Y-4.254 E0.11315
G1 X-2.459 Y-4.690 F9000.000
G1 X33.031 Y-18.829 F9000.000
G1 X33.251 Y-18.456 E0.03972 F900.000
G1 X34.143 Y-16.748 E0.17678
G1 X34.949 Y-14.994 E0.17709
G1 X35.502 Y-13.632 E0.13489
G1 X36.168 Y-11.752 E0.18304
G1 X36.733 Y-9.843 E0.18267
G1 X37.198 Y-7.907 E0.18267
G1 X37.561 Y-5.949 E0.18267
G1 X37.821 Y-3.975 E0.18267
G1 X37.863 Y-3.440 E0.04923
G1 X37.550 Y-3.325 E0.03065
G1 X36.735 Y-4.446 E0.12719
G1 X35.480 Y-5.484 E0.14938
G1 X34.007 Y-6.177 E0.14938
G1 X32.408 Y-6.482 E0.14938
G1 X30.833 Y-6.383 E0.14480
G1 X29.238 Y-5.879 E0.15340
G1 X27.860 Y-5.005 E0.14981
G1 X26.745 Y-3.818 E0.14938
G1 X25.961 Y-2.391 E0.14938
G1 X25.569 Y-0.862 E0.14480
G1 X25.555 Y0.810 E0.15340
G1 X25.961 Y2.391 E0.14981
G1 X26.745 Y3.818 E0.14938
G1 X27.860 Y5.005 E0.14938
G1 X29.235 Y5.877 E0.14938
G1 X30.783 Y6.380 E0.14938
G1 X32.408 Y6.482 E0.14938
G1 X34.007 Y6.177 E0.14938
G1 X35.435 Y5.505 E0.14480
G1 X36.732 Y4.450 E0.15340
G1 X37.552 Y3.321 E0.12805
G1 X37.865 Y3.436 E0.03061
G1 X37.834 Y3.847 E0.03786
G1 X37.591 Y5.759 E0.17678
G1 X37.251 Y7.655 E0.17678
G1 X36.815 Y9.532 E0.17678
G1 X36.285 Y11.385 E0.17678
G1 X35.662 Y13.208 E0.17678
G1 X34.947 Y14.997 E0.17682
G1 X34.143 Y16.748 E0.17676
G1 X33.251 Y18.456 E0.17678
G1 X32.273 Y20.116 E0.17678
G1 X31.213 Y21.725 E0.17678
G1 X30.073 Y23.278 E0.17678
G1 X28.850 Y24.777 E0.17748
G1 X27.563 Y26.201 E0.17612
G1 X26.201 Y27.563 E0.17669
G1 X25.446 Y28.262 E0.09443
G1 X24.777 Y28.850 E0.08170
G1 X23.278 Y30.073 E0.17748
G1 X21.725 Y31.213 E0.17678
G1 X20.116 Y32.273 E0.17678
G1 X18.456 Y33.251 E0.17678
G1 X16.748 Y34.143 E0.17678
G1 X14.994 Y34.949 E0.17709
G1 X13.632 Y35.502 E0.13489
G1 X11.752 Y36.168 E0.18304
G1 X9.843 Y36.733 E0.18267
G1 X7.907 Y37.198 E0.18267
G1 X5.949 Y37.561 E0.18267
G1 X3.975 Y37.821 E0.18267
G1 X1.990 Y37.977 E0.18267
G1 X-0.001 Y38.029 E0.18272
G1 X-1.926 Y37.980 E0.17674
G1 X-3.847 Y37.834 E0.17678
G1 X-5.759 Y37.591 E0.17678
G1 X-7.655 Y37.251 E0.17678
G1 X-9.532 Y36.815 E0.17678
G1 X-11.385 Y36.285 E0.17678
G1 X-13.208 Y35.662 E0.17678
G1 X-14.997 Y34.947 E0.17682
G1 X-15.943 Y34.513 E0.09549
G1 X-15.889 Y34.180 E0.03088
G1 X-14.517 Y34.036 E0.12655
G1 X-12.991 Y33.469 E0.14938
G1 X-11.654 Y32.540 E0.14938
G1 X-10.590 Y31.307 E0.14938
G1 X-9.866 Y29.849 E0.14938
G1 X-9.528 Y28.256 E0.14938
G1 X-9.596 Y26.630 E0.14938
G1 X-10.066 Y25.071 E0.14938
G1 X-10.910 Y23.678 E0.14938
G1 X-12.073 Y22.539 E0.14938
G1 X-13.483 Y21.725 E0.14938
G1 X-15.056 Y21.286 E0.14981
G1 X-16.728 Y21.265 E0.15340
G1 X-18.264 Y21.625 E0.14480
G1 X-19.707 Y22.379 E0.14938
G1 X-20.917 Y23.469 E0.14938
G1 X-21.818 Y24.825 E0.14938
G1 X-22.353 Y26.362 E0.14938
G1 X-22.489 Y27.985 E0.14938
G1 X-22.217 Y29.595 E0.14981
G1 X-21.638 Y30.868 E0.12831
G1 X-21.903 Y31.083 E0.03129
G1 X-23.278 Y30.073 E0.15657
G1 X-24.777 Y28.850 E0.17748
G1 X-26.201 Y27.563 E0.17612
G1 X-27.563 Y26.201 E0.17669
G1 X-28.262 Y25.446 E0.09443
G1 X-28.850 Y24.777 E0.08170
G1 X-30.073 Y23.278 E0.17748
G1 X-31.213 Y21.725 E0.17678
G1 X-32.273 Y20.116 E0.17678
G1 X-33.251 Y18.456 E0.17678
G1 X-34.143 Y16.748 E0.17678
G1 X-34.949 Y14.994 E0.17709
G1 X-35.502 Y13.632 E0.13489
G1 X-36.168 Y11.752 E0.18304
G1 X-36.733 Y9.843 E0.18267
G1 X-37.198 Y7.907 E0.18267
G1 X-37.561 Y5.949 E0.18267
G1 X-37.821 Y3.975 E0.18267
G1 X-37.977 Y1.990 E0.18267
G1 X-38.029 Y-0.001 E0.18272
G1 X-37.980 Y-1.926 E0.17674
G1 X-37.834 Y-3.847 E0.17678
G1 X-37.591 Y-5.759 E0.17678
G1 X-37.251 Y-7.655 E0.17678
G1 X-36.815 Y-9.532 E0.17678
G1 X-36.285 Y-11.385 E0.17678
G1 X-35.662 Y-13.208 E0.17678
G1 X-34.947 Y-14.997 E0.17682
G1 X-34.143 Y-16.748 E0.17676
G1 X-33.251 Y-18.456 E0.17678
G1 X-32.273 Y-20.116 E0.17678
G1 X-31.213 Y-21.725 E0.17678
G1 X-30.073 Y-23.278 E0.17678
G1 X-28.850 Y-24.777 E0.17748
G1 X-27.563 Y-26.201 E0.17612
G1 X-26.891 Y-26.891 E0.08835
G1 X-26.201 Y-27.563 E0.08835
G1 X-24.773 Y-28.854 E0.17669
G1 X-23.280 Y-30.071 E0.17669
G1 X-21.909 Y-31.082 E0.15629
G1 X-21.648 Y-30.869 E0.03091
G1 X-22.218 Y-29.590 E0.12845
G1 X-22.489 Y-27.985 E0.14938
G1 X-22.353 Y-26.362 E0.14938
G1 X-21.818 Y-24.825 E0.14938
G1 X-20.917 Y-23.469 E0.14938
G1 X-19.707 Y-22.379 E0.14938
G1 X-18.264 Y-21.625 E0.14938
G1 X-16.679 Y-21.253 E0.14938
G1 X-15.051 Y-21.287 E0.14938
G1 X-13.483 Y-21.725 E0.14938
G1 X-12.073 Y-22.539 E0.14938
G1 X-10.910 Y-23.678 E0.14938
G1 X-10.066 Y-25.071 E0.14938
G1 X-9.596 Y-26.630 E0.14938
G1 X-9.528 Y-28.256 E0.14938
G1 X-9.866 Y-29.849 E0.14938
G1 X-10.590 Y-31.307 E0.14938
G1 X-11.652 Y-32.538 E0.14914
G1 X-12.966 Y-33.459 E0.14723
G1 X-14.521 Y-34.038 E0.15227
G1 X-15.910 Y-34.172 E0.12800
G1 X-15.968 Y-34.503 E0.03078
G1 X-15.468 Y-34.742 E0.05087
G1 X-13.629 Y-35.503 E0.18263
G1 X-11.752 Y-36.168 E0.18269
G1 X-9.843 Y-36.733 E0.18267
G1 X-7.907 Y-37.198 E0.18267
G1 X-5.949 Y-37.561 E0.18267
G1 X-3.975 Y-37.821 E0.18267
G1 X-1.990 Y-37.977 E0.18267
G1 X0.001 Y-38.029 E0.18272
G1 X1.288 Y-37.997 E0.11817
G1 X1.926 Y-37.980 E0.05856 F900.000
G1 X3.847 Y-37.834 E0.17678
G1 X5.759 Y-37.591 E0.17678
G1 X7.655 Y-37.251 E0.17678
G1 X9.532 Y-36.815 E0.17678
G1 X11.385 Y-36.285 E0.17678
G1 X13.208 Y-35.662 E0.17678
G1 X14.997 Y-34.947 E0.17682
G1 X16.748 Y-34.143 E0.17676
G1 X18.456 Y-33.251 E0.17678
G1 X20.116 Y-32.273 E0.17678
G1 X21.725 Y-31.213 E0.17678
G1 X23.278 Y-30.073 E0.17678
G1 X24.777 Y-28.850 E0.17748
G1 X25.446 Y-28.262 E0.08170
G1 X26.201 Y-27.563 E0.09443
G1 X27.563 Y-26.201 E0.17669
G1 X28.850 Y-24.777 E0.17612
G1 X30.073 Y-23.278 E0.17748
G1 X31.213 Y-21.725 E0.17678
G1 X32.273 Y-20.116 E0.17678
G1 X33.001 Y-18.881 E0.13155
G1 X32.361 Y-5.742 F9000.000
G1 X33.778 Y-5.472 E0.13232 F900.000
G1 X35.083 Y-4.858 E0.13233
G1 X36.194 Y-3.939 E0.13233
G1 X37.042 Y-2.772 E0.13233
G1 X37.573 Y-1.431 E0.13232
G1 X37.754 Y0.000 E0.13233
G1 X37.573 Y1.431 E0.13233
G1 X37.042 Y2.772 E0.13232
G1 X36.193 Y3.940 E0.13248
G1 X35.040 Y4.878 E0.13635
G1 X33.778 Y5.472 E0.12802
G1 X32.361 Y5.742 E0.13232
G1 X30.922 Y5.652 E0.13233
G1 X29.550 Y5.206 E0.13233
G1 X28.333 Y4.433 E0.13233
G1 X27.345 Y3.382 E0.13233
G1 X26.650 Y2.118 E0.13232
G1 X26.291 Y0.720 E0.13248
G1 X26.303 Y-0.767 E0.13635
G1 X26.650 Y-2.118 E0.12802
G1 X27.345 Y-3.382 E0.13232
G1 X28.333 Y-4.433 E0.13233
G1 X29.552 Y-5.207 E0.13248
G1 X30.969 Y-5.655 E0.13635
G1 X32.301 Y-5.738 E0.12252 F900.000
G1 X32.596 Y-6.066 F9000.000
G1 X38.147 Y-6.822 F9000.000
G1 X38.288 Y-6.064 E0.07071 F900.000
G1 X38.553 Y-4.052 E0.18621
G1 X38.712 Y-2.029 E0.18621
G1 X38.765 Y0.000 E0.18623
G1 X38.715 Y1.963 E0.18019
G1 X38.566 Y3.922 E0.18020
G1 X38.318 Y5.870 E0.18020
G1 X37.972 Y7.803 E0.18020
G1 X37.528 Y9.717 E0.18020
G1 X36.987 Y11.605 E0.18020
G1 X36.352 Y13.463 E0.18020
G1 X35.623 Y15.288 E0.18024
G1 X34.803 Y17.072 E0.18019
G1 X33.894 Y18.813 E0.18020
G1 X32.898 Y20.506 E0.18020
G1 X31.817 Y22.145 E0.18020
G1 X30.654 Y23.728 E0.18020
G1 X29.412 Y25.253 E0.18045
G1 X28.097 Y26.708 E0.17997
G1 X26.708 Y28.097 E0.18017
G1 X25.939 Y28.808 E0.09617
G1 X25.253 Y29.412 E0.08381
G1 X23.728 Y30.654 E0.18045
