; generated by Slic3r 1.2.9 on 2016-11-17 at 16:31:40

; external perimeters extrusion width = 0.50mm
; perimeters extrusion width = 0.50mm
; infill extrusion width = 0.50mm
; solid infill extrusion width = 0.50mm
; top infill extrusion width = 0.50mm

M107
;Basic settings: Layer height: {layer_height} Walls: {wall_thickness} Fill: {fill_density}
;Print time: {print_time}
;Filament used: {filament_amount}m {filament_weight}g
;Filament cost: {filament_cost}
;M190 S{print_bed_temperature} ;Uncomment to add your own bed temperature line
;M109 S{print_temperature} ;Uncomment to add your own temperature line
G21        ;metric values
G90        ;absolute positioning
M83
G10 P0 S200
T0
M116


G21 ; set units to millimeters
G90 ; use absolute coordinates
M83 ; use relative distances for extrusion
G1 E-3.20000 F3000.00000
G1 Z0.400 F9000.000
G1 X17.452 Y6.662 F9000.000
G1 Z0.300 F9000.000
G1 E3.20000 F3000.00000
G1 X17.222 Y7.247 E0.05769 F1200.000
G1 X16.879 Y8.012 E0.07694
G1 X16.403 Y8.946 E0.09617
G1 X15.765 Y10.029 E0.11536
G1 X15.177 Y10.897 E0.09617
G1 X14.543 Y11.731 E0.09616
G1 X14.001 Y12.372 E0.07695
G1 X13.286 Y13.138 E0.09616
G1 X12.372 Y14.001 E0.11537
G1 X11.567 Y14.673 E0.09616
G1 X10.727 Y15.299 E0.09616
G1 X10.029 Y15.765 E0.07695
G1 X9.130 Y16.302 E0.09615
G1 X8.201 Y16.788 E0.09616
G1 X7.247 Y17.222 E0.09616
G1 X6.270 Y17.601 E0.09617
G1 X5.072 Y17.983 E0.11537
G1 X4.055 Y18.239 E0.09616
G1 X3.233 Y18.403 E0.07694
G1 X2.196 Y18.555 E0.09616
G1 X1.152 Y18.649 E0.09616
G1 X-0.105 Y18.684 E0.11538
G1 X-1.152 Y18.649 E0.09616
G1 X-2.196 Y18.555 E0.09615
G1 X-3.026 Y18.438 E0.07696
G1 X-4.056 Y18.239 E0.09616
G1 X-5.273 Y17.925 E0.11537
G1 X-6.072 Y17.670 E0.07694
G1 X-7.053 Y17.302 E0.09616
G1 X-8.012 Y16.879 E0.09616
G1 X-8.946 Y16.403 E0.09617
G1 X-10.029 Y15.765 E0.11535
G1 X-10.897 Y15.177 E0.09617
G1 X-11.731 Y14.543 E0.09616
G1 X-12.372 Y14.001 E0.07694
G1 X-13.138 Y13.286 E0.09616
G1 X-13.862 Y12.528 E0.09616
G1 X-14.543 Y11.731 E0.09616
G1 X-15.299 Y10.727 E0.11538
G1 X-15.765 Y10.029 E0.07694
G1 X-16.302 Y9.130 E0.09616
G1 X-16.788 Y8.201 E0.09616
G1 X-17.222 Y7.247 E0.09616
G1 X-17.670 Y6.072 E0.11538
G1 X-17.983 Y5.072 E0.09616
G1 X-18.192 Y4.260 E0.07694
G1 X-18.403 Y3.233 E0.09616
G1 X-18.578 Y1.988 E0.11537
G1 X-18.661 Y0.943 E0.09616
G1 X-18.684 Y-0.105 E0.09616
G1 X-18.649 Y-1.152 E0.09616
G1 X-18.555 Y-2.196 E0.09616
G1 X-18.403 Y-3.233 E0.09615
G1 X-18.239 Y-4.055 E0.07695
G1 X-17.983 Y-5.072 E0.09616
G1 X-17.601 Y-6.270 E0.11538
G1 X-17.222 Y-7.247 E0.09616
G1 X-16.879 Y-8.012 E0.07695
G1 X-16.403 Y-8.946 E0.09615
G1 X-15.876 Y-9.852 E0.09616
G1 X-15.177 Y-10.897 E0.11538
G1 X-14.543 Y-11.731 E0.09616
G1 X-13.862 Y-12.528 E0.09616
G1 X-13.138 Y-13.286 E0.09616
G1 X-12.528 Y-13.862 E0.07694
G1 X-11.731 Y-14.543 E0.09616
G1 X-10.897 Y-15.177 E0.09616
G1 X-9.852 Y-15.876 E0.11537
G1 X-8.946 Y-16.403 E0.09616
G1 X-8.201 Y-16.788 E0.07694
G1 X-7.247 Y-17.222 E0.09616
G1 X-6.270 Y-17.601 E0.09616
G1 X-5.072 Y-17.983 E0.11538
G1 X-4.260 Y-18.192 E0.07694
G1 X-3.273 Y-18.395 E0.09243
G1 X-2.196 Y-18.555 E0.09988
G1 X-1.152 Y-18.649 E0.09616
G1 X0.105 Y-18.684 E0.11538
G1 X1.152 Y-18.649 E0.09616 F1200.000
G1 X1.988 Y-18.578 E0.07694
G1 X2.986 Y-18.443 E0.09244
G1 X4.055 Y-18.239 E0.09988
G1 X5.072 Y-17.983 E0.09616
G1 X6.072 Y-17.670 E0.09617
G1 X7.053 Y-17.302 E0.09615
G1 X8.012 Y-16.879 E0.09616
G1 X8.946 Y-16.403 E0.09616
G1 X9.852 Y-15.876 E0.09616
G1 X10.727 Y-15.299 E0.09616
G1 X11.567 Y-14.673 E0.09616
G1 X12.372 Y-14.001 E0.09617
G1 X13.138 Y-13.286 E0.09616
G1 X13.862 Y-12.528 E0.09616
G1 X14.673 Y-11.567 E0.11538
G1 X15.299 Y-10.727 E0.09616
G1 X15.876 Y-9.852 E0.09616
G1 X16.403 Y-8.946 E0.09616
G1 X16.879 Y-8.012 E0.09616
G1 X17.222 Y-7.247 E0.07694
G1 X17.587 Y-6.308 E0.09243
G1 X17.925 Y-5.273 E0.09988
G1 X18.192 Y-4.260 E0.09616
G1 X18.403 Y-3.233 E0.09616
G1 X18.555 Y-2.196 E0.09616
G1 X18.649 Y-1.152 E0.09616
G1 X18.684 Y-0.105 E0.09616
G1 X18.661 Y0.943 E0.09616
G1 X18.555 Y2.196 E0.11538
G1 X18.403 Y3.233 E0.09616
G1 X18.192 Y4.260 E0.09616
G1 X17.925 Y5.273 E0.09616
G1 X17.670 Y6.072 E0.07694
G1 X17.473 Y6.606 E0.05218
G1 E-3.20000 F3000.00000
G1 Z0.700 F9000.000
G1 X5.855 Y2.425 F9000.000
G1 Z0.300 F9000.000
G1 E3.20000 F3000.00000
G1 X5.589 Y2.987 E0.05706 F900.000
G1 X5.269 Y3.521 E0.05706
G1 X4.899 Y4.020 E0.05706
G1 X4.481 Y4.481 E0.05706
G1 X4.020 Y4.899 E0.05706
G1 X3.521 Y5.269 E0.05706
G1 X2.987 Y5.589 E0.05706
G1 X2.425 Y5.855 E0.05706
G1 X1.840 Y6.064 E0.05706
G1 X1.236 Y6.215 E0.05706
G1 X0.621 Y6.307 E0.05706
G1 X0.000 Y6.337 E0.05706
G1 X-0.621 Y6.307 E0.05706
G1 X-1.236 Y6.215 E0.05706
G1 X-1.840 Y6.064 E0.05706
G1 X-2.425 Y5.855 E0.05706
G1 X-2.987 Y5.589 E0.05706
G1 X-3.521 Y5.269 E0.05706
G1 X-4.020 Y4.899 E0.05706
G1 X-4.481 Y4.481 E0.05706
G1 X-4.899 Y4.020 E0.05706
G1 X-5.269 Y3.521 E0.05706
G1 X-5.589 Y2.987 E0.05706
G1 X-5.855 Y2.425 E0.05706
G1 X-6.064 Y1.840 E0.05706
G1 X-6.215 Y1.236 E0.05706
G1 X-6.307 Y0.621 E0.05706
G1 X-6.337 Y-0.000 E0.05706
G1 X-6.307 Y-0.621 E0.05706
G1 X-6.215 Y-1.236 E0.05706
G1 X-6.064 Y-1.840 E0.05706
G1 X-5.855 Y-2.425 E0.05706
G1 X-5.589 Y-2.987 E0.05706
G1 X-5.269 Y-3.521 E0.05706
G1 X-4.899 Y-4.020 E0.05706
G1 X-4.481 Y-4.481 E0.05706
G1 X-4.020 Y-4.899 E0.05706
G1 X-3.521 Y-5.269 E0.05706
G1 X-2.987 Y-5.589 E0.05706
G1 X-2.425 Y-5.855 E0.05706
G1 X-1.840 Y-6.064 E0.05706
G1 X-1.236 Y-6.215 E0.05706
G1 X-0.621 Y-6.307 E0.05706
G1 X-0.031 Y-6.336 E0.05425 F900.000
G1 X0.618 Y-6.307 E0.05959
G1 X1.236 Y-6.215 E0.05732
G1 X1.840 Y-6.064 E0.05706
G1 X2.425 Y-5.855 E0.05706
G1 X2.987 Y-5.589 E0.05706
G1 X3.521 Y-5.269 E0.05706
G1 X4.020 Y-4.899 E0.05706
G1 X4.481 Y-4.481 E0.05706
G1 X4.899 Y-4.020 E0.05706
G1 X5.269 Y-3.521 E0.05706
G1 X5.589 Y-2.987 E0.05706
G1 X5.855 Y-2.425 E0.05706
G1 X6.064 Y-1.840 E0.05706
G1 X6.215 Y-1.236 E0.05706
G1 X6.307 Y-0.621 E0.05706
G1 X6.337 Y0.000 E0.05706
G1 X6.307 Y0.621 E0.05706
G1 X6.215 Y1.236 E0.05706
G1 X6.064 Y1.840 E0.05706
G1 X5.875 Y2.369 E0.05155
G1 X5.182 Y2.121 F9000.000
G1 X4.939 Y2.640 E0.05261 F900.000
G1 X4.657 Y3.111 E0.05043
G1 X4.329 Y3.553 E0.05043
G1 X3.960 Y3.960 E0.05043
G1 X3.553 Y4.329 E0.05043
G1 X3.111 Y4.657 E0.05043
G1 X2.640 Y4.939 E0.05043
G1 X2.143 Y5.174 E0.05043
G1 X1.626 Y5.359 E0.05043
G1 X1.093 Y5.493 E0.05043
G1 X0.549 Y5.574 E0.05043
G1 X0.000 Y5.601 E0.05043
G1 X-0.549 Y5.574 E0.05043
G1 X-1.093 Y5.493 E0.05043
G1 X-1.626 Y5.359 E0.05043
G1 X-2.143 Y5.174 E0.05043
G1 X-2.640 Y4.939 E0.05043
G1 X-3.111 Y4.657 E0.05043
G1 X-3.553 Y4.329 E0.05043
G1 X-3.960 Y3.960 E0.05043
G1 X-4.329 Y3.553 E0.05043
G1 X-4.657 Y3.111 E0.05043
G1 X-4.939 Y2.640 E0.05043
G1 X-5.174 Y2.143 E0.05043
G1 X-5.359 Y1.626 E0.05043
G1 X-5.493 Y1.093 E0.05043
G1 X-5.574 Y0.549 E0.05043
G1 X-5.601 Y-0.000 E0.05043
G1 X-5.574 Y-0.549 E0.05043
G1 X-5.493 Y-1.093 E0.05043
G1 X-5.359 Y-1.626 E0.05043
G1 X-5.174 Y-2.143 E0.05043
G1 X-4.939 Y-2.640 E0.05043
G1 X-4.657 Y-3.111 E0.05043
G1 X-4.329 Y-3.553 E0.05043
G1 X-3.960 Y-3.960 E0.05043
G1 X-3.553 Y-4.329 E0.05043
G1 X-3.111 Y-4.657 E0.05043
G1 X-2.640 Y-4.939 E0.05043
G1 X-2.143 Y-5.174 E0.05043
G1 X-1.626 Y-5.359 E0.05043
G1 X-1.093 Y-5.493 E0.05043
G1 X-0.549 Y-5.574 E0.05043
G1 X-0.029 Y-5.599 E0.04779 F900.000
G1 X0.548 Y-5.574 E0.05296
G1 X1.093 Y-5.493 E0.05052
G1 X1.626 Y-5.359 E0.05043
G1 X2.143 Y-5.174 E0.05043
G1 X2.640 Y-4.939 E0.05043
G1 X3.111 Y-4.657 E0.05043
G1 X3.553 Y-4.329 E0.05043
G1 X3.960 Y-3.960 E0.05043
G1 X4.329 Y-3.553 E0.05043
G1 X4.657 Y-3.111 E0.05043
G1 X4.939 Y-2.640 E0.05043
G1 X5.174 Y-2.143 E0.05043
G1 X5.359 Y-1.626 E0.05043
G1 X5.493 Y-1.093 E0.05043
G1 X5.574 Y-0.549 E0.05043
G1 X5.601 Y0.000 E0.05043
G1 X5.574 Y0.549 E0.05043
G1 X5.493 Y1.093 E0.05043
G1 X5.359 Y1.626 E0.05043
G1 X5.202 Y2.064 E0.04273
G1 X5.421 Y2.441 F9000.000
G1 X10.771 Y-8.647 F9000.000
G1 X11.266 Y-7.994 E0.07521 F900.000
G1 X11.697 Y-7.349 E0.07109
G1 X12.070 Y-6.716 E0.06750
G1 X12.447 Y-5.992 E0.07482
G1 X12.762 Y-5.286 E0.07096
G1 X13.039 Y-4.562 E0.07109
G1 X13.274 Y-3.824 E0.07109
G1 X13.468 Y-3.074 E0.07109
G1 X13.619 Y-2.314 E0.07109
G1 X13.727 Y-1.547 E0.07109
G1 X13.792 Y-0.775 E0.07109
G1 X13.814 Y-0.000 E0.07109
G1 X13.792 Y0.775 E0.07109
G1 X13.727 Y1.547 E0.07109
G1 X13.619 Y2.314 E0.07109
G1 X13.468 Y3.074 E0.07109
G1 X13.274 Y3.824 E0.07109
G1 X13.039 Y4.562 E0.07109
G1 X12.762 Y5.286 E0.07109
G1 X12.446 Y5.994 E0.07109
G1 X12.090 Y6.682 E0.07109
G1 X11.697 Y7.349 E0.07109
G1 X11.266 Y7.994 E0.07109
G1 X10.824 Y8.582 E0.06750
G1 X10.299 Y9.206 E0.07482
G1 X9.768 Y9.768 E0.07096
G1 X9.205 Y10.300 E0.07109
G1 X8.613 Y10.800 E0.07109
G1 X7.994 Y11.266 E0.07109
G1 X7.349 Y11.697 E0.07109
G1 X6.682 Y12.090 E0.07109
G1 X5.994 Y12.446 E0.07109
G1 X5.286 Y12.762 E0.07109
G1 X4.562 Y13.039 E0.07109
G1 X3.824 Y13.274 E0.07109
G1 X3.074 Y13.468 E0.07109
G1 X2.314 Y13.619 E0.07109
G1 X1.547 Y13.727 E0.07109
G1 X0.775 Y13.792 E0.07109
G1 X-0.000 Y13.814 E0.07109
G1 X-0.775 Y13.792 E0.07109
G1 X-1.547 Y13.727 E0.07109
G1 X-2.314 Y13.619 E0.07109
G1 X-3.074 Y13.468 E0.07109
G1 X-3.824 Y13.274 E0.07109
G1 X-4.562 Y13.039 E0.07109
G1 X-5.286 Y12.762 E0.07109
G1 X-5.994 Y12.446 E0.07109
G1 X-6.682 Y12.090 E0.07109
G1 X-7.349 Y11.697 E0.07109
G1 X-7.994 Y11.266 E0.07109
G1 X-8.582 Y10.824 E0.06750
G1 X-9.206 Y10.299 E0.07482
G1 X-9.768 Y9.768 E0.07096
G1 X-10.300 Y9.205 E0.07109
G1 X-10.800 Y8.613 E0.07109
G1 X-11.266 Y7.994 E0.07109
G1 X-11.697 Y7.349 E0.07109
G1 X-12.090 Y6.682 E0.07109
G1 X-12.446 Y5.994 E0.07109
G1 X-12.759 Y5.294 E0.07036
G1 X-13.039 Y4.562 E0.07186
G1 X-13.274 Y3.824 E0.07106
G1 X-13.467 Y3.075 E0.07096
G1 X-13.624 Y2.275 E0.07482
G1 X-13.727 Y1.547 E0.06750
G1 X-13.792 Y0.775 E0.07109
G1 X-13.814 Y-0.000 E0.07109
G1 X-13.792 Y-0.775 E0.07109
G1 X-13.727 Y-1.547 E0.07109
G1 X-13.619 Y-2.314 E0.07109
G1 X-13.468 Y-3.074 E0.07109
G1 X-13.274 Y-3.824 E0.07109
G1 X-13.039 Y-4.562 E0.07109
G1 X-12.776 Y-5.250 E0.06750
G1 X-12.445 Y-5.995 E0.07482
G1 X-12.090 Y-6.682 E0.07096
G1 X-11.697 Y-7.349 E0.07109
G1 X-11.266 Y-7.994 E0.07109
G1 X-10.824 Y-8.582 E0.06750
G1 X-10.299 Y-9.206 E0.07482
G1 X-9.768 Y-9.768 E0.07096
G1 X-9.205 Y-10.300 E0.07109
G1 X-8.613 Y-10.800 E0.07109
G1 X-7.995 Y-11.265 E0.07096
G1 X-7.316 Y-11.716 E0.07482
G1 X-6.682 Y-12.090 E0.06750
G1 X-5.994 Y-12.446 E0.07109
G1 X-5.286 Y-12.762 E0.07109
G1 X-4.562 Y-13.039 E0.07109
G1 X-3.824 Y-13.274 E0.07109
G1 X-3.074 Y-13.468 E0.07109
G1 X-2.314 Y-13.619 E0.07109
G1 X-1.547 Y-13.727 E0.07109
G1 X-0.775 Y-13.792 E0.07109
G1 X-0.000 Y-13.814 E0.07109
G1 X0.735 Y-13.793 E0.06750
G1 X1.548 Y-13.727 E0.07482 F900.000
G1 X2.314 Y-13.619 E0.07096
G1 X3.074 Y-13.468 E0.07109
G1 X3.824 Y-13.274 E0.07109
G1 X4.562 Y-13.039 E0.07109
G1 X5.286 Y-12.762 E0.07109
G1 X5.994 Y-12.446 E0.07109
G1 X6.682 Y-12.090 E0.07109
G1 X7.349 Y-11.697 E0.07109
G1 X7.994 Y-11.266 E0.07109
G1 X8.613 Y-10.800 E0.07109
G1 X9.205 Y-10.300 E0.07109
G1 X9.768 Y-9.768 E0.07109
G1 X10.300 Y-9.205 E0.07109
G1 X10.732 Y-8.693 E0.06146
G1 X11.294 Y-9.168 F9000.000
G1 X11.866 Y-8.420 E0.08639 F900.000
G1 X12.320 Y-7.741 E0.07488
G1 X12.714 Y-7.073 E0.07120
G1 X13.109 Y-6.312 E0.07861
G1 X13.442 Y-5.568 E0.07483
G1 X13.733 Y-4.806 E0.07488
G1 X13.981 Y-4.028 E0.07488
G1 X14.185 Y-3.238 E0.07488
G1 X14.344 Y-2.437 E0.07488
G1 X14.458 Y-1.629 E0.07488
G1 X14.527 Y-0.816 E0.07488
G1 X14.550 Y-0.000 E0.07488
G1 X14.527 Y0.816 E0.07488
G1 X14.458 Y1.629 E0.07488
G1 X14.344 Y2.437 E0.07488
G1 X14.185 Y3.238 E0.07488
G1 X13.981 Y4.028 E0.07488
G1 X13.733 Y4.805 E0.07488
G1 X13.442 Y5.568 E0.07488
G1 X13.109 Y6.313 E0.07488
G1 X12.734 Y7.038 E0.07488
G1 X12.320 Y7.741 E0.07488
G1 X11.866 Y8.420 E0.07488
G1 X11.400 Y9.040 E0.07120
G1 X10.849 Y9.696 E0.07861
G1 X10.288 Y10.288 E0.07483
G1 X9.695 Y10.849 E0.07488
G1 X9.072 Y11.376 E0.07488
G1 X8.420 Y11.866 E0.07488
G1 X7.741 Y12.320 E0.07488
G1 X7.038 Y12.734 E0.07488
G1 X6.313 Y13.109 E0.07488
G1 X5.568 Y13.442 E0.07488
G1 X4.806 Y13.733 E0.07488
G1 X4.028 Y13.981 E0.07488
G1 X3.238 Y14.185 E0.07488
G1 X2.437 Y14.344 E0.07488
G1 X1.629 Y14.458 E0.07488
G1 X0.816 Y14.527 E0.07488
G1 X-0.000 Y14.550 E0.07488
G1 X-0.816 Y14.527 E0.07488
G1 X-1.629 Y14.458 E0.07488
G1 X-2.437 Y14.344 E0.07488
G1 X-3.238 Y14.185 E0.07488
G1 X-4.028 Y13.981 E0.07488
G1 X-4.806 Y13.733 E0.07488
G1 X-5.568 Y13.442 E0.07488
G1 X-6.313 Y13.109 E0.07488
G1 X-7.038 Y12.734 E0.07488
G1 X-7.741 Y12.320 E0.07488
G1 X-8.420 Y11.866 E0.07488
G1 X-9.040 Y11.400 E0.07120
G1 X-9.696 Y10.849 E0.07861
G1 X-10.288 Y10.288 E0.07483
G1 X-10.849 Y9.695 E0.07488
G1 X-11.376 Y9.072 E0.07488
G1 X-11.866 Y8.420 E0.07488
G1 X-12.320 Y7.741 E0.07488
G1 X-12.734 Y7.038 E0.07488
G1 X-13.109 Y6.313 E0.07488
G1 X-13.439 Y5.575 E0.07413
G1 X-13.733 Y4.805 E0.07564
G1 X-13.981 Y4.028 E0.07487
G1 X-14.185 Y3.238 E0.07483
G1 X-14.350 Y2.397 E0.07861
G1 X-14.458 Y1.629 E0.07120
G1 X-14.527 Y0.816 E0.07488
G1 X-14.550 Y-0.000 E0.07488
G1 X-14.527 Y-0.816 E0.07488
G1 X-14.458 Y-1.629 E0.07488
G1 X-14.344 Y-2.437 E0.07488
G1 X-14.185 Y-3.238 E0.07488
G1 X-13.981 Y-4.028 E0.07488
G1 X-13.733 Y-4.806 E0.07488
G1 X-13.457 Y-5.530 E0.07120
G1 X-13.109 Y-6.313 E0.07861
G1 X-12.734 Y-7.038 E0.07483
G1 X-12.320 Y-7.741 E0.07488
G1 X-11.866 Y-8.420 E0.07488
G1 X-11.400 Y-9.040 E0.07120
G1 X-10.849 Y-9.696 E0.07861
G1 X-10.288 Y-10.288 E0.07483
G1 X-9.695 Y-10.849 E0.07488
G1 X-9.072 Y-11.376 E0.07488
G1 X-8.420 Y-11.866 E0.07483
G1 X-7.706 Y-12.340 E0.07861
G1 X-7.038 Y-12.734 E0.07120
G1 X-6.313 Y-13.109 E0.07488
G1 X-5.568 Y-13.442 E0.07488
G1 X-4.806 Y-13.733 E0.07488
G1 X-4.028 Y-13.981 E0.07488
G1 X-3.238 Y-14.185 E0.07488
G1 X-2.437 Y-14.344 E0.07488
G1 X-1.629 Y-14.458 E0.07488
G1 X-0.816 Y-14.527 E0.07488
G1 X-0.000 Y-14.550 E0.07488
G1 X0.776 Y-14.528 E0.07120
G1 X1.630 Y-14.458 E0.07861 F900.000
G1 X2.437 Y-14.344 E0.07483
G1 X3.238 Y-14.185 E0.07488
G1 X4.028 Y-13.981 E0.07488
G1 X4.806 Y-13.733 E0.07488
G1 X5.568 Y-13.442 E0.07488
G1 X6.313 Y-13.109 E0.07488
G1 X7.038 Y-12.734 E0.07488
G1 X7.741 Y-12.320 E0.07488
G1 X8.420 Y-11.866 E0.07488
G1 X9.072 Y-11.376 E0.07488
G1 X9.695 Y-10.849 E0.07488
G1 X10.288 Y-10.288 E0.07488
G1 X10.849 Y-9.695 E0.07488
G1 X11.256 Y-9.213 E0.05785
G1 X11.147 Y-8.796 F9000.000
G1 X9.986 Y-8.665 F9000.000
G1 X8.665 Y-9.986 E0.17554 F900.000
G1 X5.492 Y-12.094 F9000.000
G1 X12.094 Y-5.492 E0.87756 F900.000
G1 X12.768 Y-3.751 F9000.000
G1 X3.751 Y-12.768 E1.19863 F900.000
G1 X2.331 Y-13.123 E0.13766
G1 X13.123 Y-2.331 E1.43469
G1 X13.301 Y-1.087 E0.11810
G1 X1.088 Y-13.301 E1.62358
G1 X-0.039 Y-13.361 E0.10604
G1 X13.361 Y0.039 E1.78128
G1 X13.329 Y1.072 E0.09719
G1 X-1.072 Y-13.329 E1.91436
G1 X-2.034 Y-13.225 E0.09094
G1 X13.225 Y2.034 E2.02843
G1 X13.064 Y2.939 E0.08640
G1 X-2.939 Y-13.064 E2.12738
G1 X-3.794 Y-12.853 E0.08274
G1 X2.794 Y-6.265 E0.87571
G1 X1.310 Y-6.683 E0.14489
G1 X-4.599 Y-12.592 E0.78551
G1 X-5.363 Y-12.291 E0.07722
G1 X0.143 Y-6.785 E0.73195
G1 X-0.844 Y-6.706 E0.09310
G1 X-6.090 Y-11.952 E0.69729
G1 X-6.781 Y-11.577 E0.07390
G1 X-1.726 Y-6.522 E0.67205
G1 X-2.519 Y-6.250 E0.07888
G1 X-7.438 Y-11.168 E0.65383
G1 X-8.064 Y-10.729 E0.07192
G1 X-3.233 Y-5.898 E0.64223
G1 X-3.883 Y-5.482 E0.07253
G1 X-8.659 Y-10.257 E0.63478
G1 X-9.215 Y-9.748 E0.07091
G1 X-4.474 Y-5.007 E0.63027
G1 X-5.007 Y-4.474 E0.07084
G1 X-9.748 Y-9.215 E0.63027
G1 X-10.256 Y-8.658 E0.07091
G1 X-5.482 Y-3.883 E0.63467
G1 X-5.898 Y-3.233 E0.07253
G1 X-10.729 Y-8.064 E0.64223
G1 X-11.169 Y-7.439 E0.07190
G1 X-6.250 Y-2.519 E0.65395
G1 X-6.522 Y-1.726 E0.07888
G1 X-11.577 Y-6.781 E0.67205
G1 X-11.952 Y-6.090 E0.07390
G1 X-6.706 Y-0.844 E0.69729
G1 X-6.786 Y0.141 E0.09295
G1 X-12.290 Y-5.362 E0.73156
G1 X-12.592 Y-4.599 E0.07715
G1 X-6.683 Y1.310 E0.78551
G1 X-6.265 Y2.794 E0.14490
G1 X-12.853 Y-3.794 E0.87571
G1 X-13.064 Y-2.939 E0.08274
G1 X2.939 Y13.064 E2.12737
G1 X3.794 Y12.853 E0.08274
G1 X-2.794 Y6.265 E0.87571
G1 X-1.310 Y6.683 E0.14490
G1 X4.599 Y12.592 E0.78551
G1 X5.363 Y12.291 E0.07722
G1 X-0.141 Y6.786 E0.73172
G1 X0.844 Y6.706 E0.09295
