; generated by Slic3r 1.2.9 on 2016-11-21 at 11:38:29

; external perimeters extrusion width = 0.50mm
; perimeters extrusion width = 0.50mm
; infill extrusion width = 0.50mm
; solid infill extrusion width = 0.50mm
; top infill extrusion width = 0.50mm

M107
;Basic settings: Layer height: {layer_height} Walls: {wall_thickness} Fill: {fill_density}
;Print time: {print_time}
;Filament used: {filament_amount}m {filament_weight}g
;Filament cost: {filament_cost}
;M190 S{print_bed_temperature} ;Uncomment to add your own bed temperature line
;M109 S{print_temperature} ;Uncomment to add your own temperature line
G21        ;metric values
G90        ;absolute positioning
M83
G10 P0 S200
T0
M116


G21 ; set units to millimeters
G90 ; use absolute coordinates
M83 ; use relative distances for extrusion
G1 E-3.20000 F3000.00000
G1 Z0.400 F9000.000
G1 X-26.203 Y-35.683 F9000.000
G1 Z0.300 F9000.000
G1 E3.20000 F3000.00000
G1 X-25.180 Y-36.428 E0.11607 F1200.000
G1 X-23.430 Y-37.577 E0.19207
G1 X-21.428 Y-38.755 E0.21310
G1 X-19.677 Y-39.670 E0.18132
G1 X-17.374 Y-40.733 E0.23268
G1 X-15.307 Y-41.553 E0.20404
G1 X-13.325 Y-42.232 E0.19230
G1 X-11.110 Y-42.867 E0.21132
G1 X-9.072 Y-43.344 E0.19204
G1 X-6.612 Y-43.788 E0.22942
G1 X-4.450 Y-44.060 E0.19987
G1 X-2.325 Y-44.223 E0.19560
G1 X0.151 Y-44.282 E0.22721
G1 X2.251 Y-44.228 E0.19270 F1200.000
G1 X4.407 Y-44.064 E0.19844
G1 X6.704 Y-43.774 E0.21236
G1 X8.722 Y-43.415 E0.18808
G1 X11.183 Y-42.849 E0.23168
G1 X13.200 Y-42.271 E0.19259
G1 X15.433 Y-41.508 E0.21649
G1 X17.510 Y-40.676 E0.20527
G1 X19.517 Y-39.752 E0.20274
G1 X21.473 Y-38.730 E0.20245
G1 X23.324 Y-37.644 E0.19686
G1 X25.444 Y-36.243 E0.23315
G1 X27.131 Y-35.001 E0.19227
G1 X28.872 Y-33.578 E0.20629
G1 X30.482 Y-32.125 E0.19896
G1 X31.956 Y-30.655 E0.19101
G1 X33.735 Y-28.684 E0.24360
G1 X35.061 Y-27.053 E0.19282
G1 X36.354 Y-25.287 E0.20085
G1 X37.596 Y-23.404 E0.20699
G1 X38.691 Y-21.543 E0.19809
G1 X39.715 Y-19.592 E0.20215
G1 X40.611 Y-17.653 E0.19600
G1 X41.557 Y-15.300 E0.23262
G1 X42.262 Y-13.229 E0.20079
G1 X42.885 Y-11.042 E0.20864
G1 X43.370 Y-8.953 E0.19673
G1 X43.774 Y-6.702 E0.20982
G1 X44.050 Y-4.550 E0.19906
G1 X44.226 Y-2.262 E0.21053
G1 X44.284 Y-0.094 E0.19903
G1 X44.240 Y1.842 E0.17765
G1 X44.217 Y2.429 E0.05393
G1 X44.026 Y4.755 E0.21415
G1 X43.759 Y6.803 E0.18946
G1 X43.346 Y9.066 E0.21109
G1 X42.853 Y11.172 E0.19839
G1 X42.214 Y13.382 E0.21107
G1 X41.536 Y15.362 E0.19206
G1 X40.829 Y17.139 E0.17543
G1 X40.626 Y17.624 E0.04829
G1 X39.741 Y19.539 E0.19351
G1 X38.681 Y21.564 E0.20976
G1 X37.611 Y23.379 E0.19330
G1 X36.359 Y25.283 E0.20907
G1 X35.169 Y26.910 E0.18490
G1 X33.529 Y28.930 E0.23878
G1 X31.985 Y30.626 E0.21042
G1 X30.588 Y32.025 E0.18139
G1 X28.760 Y33.673 E0.22578
G1 X27.209 Y34.941 E0.18387
G1 X25.277 Y36.362 E0.22002
G1 X23.610 Y37.465 E0.18335
G1 X21.362 Y38.792 E0.23952
G1 X19.641 Y39.689 E0.17810
G1 X17.459 Y40.700 E0.22062
G1 X15.241 Y41.578 E0.21887
G1 X13.348 Y42.226 E0.18364
G1 X11.070 Y42.878 E0.21734
G1 X9.119 Y43.335 E0.18389
G1 X6.475 Y43.808 E0.24644
G1 X4.479 Y44.058 E0.18454
G1 X2.153 Y44.233 E0.21401
G1 X0.033 Y44.285 E0.19461
G1 X-2.240 Y44.230 E0.20856
G1 X-4.358 Y44.070 E0.19487
G1 X-6.715 Y43.774 E0.21801
G1 X-8.956 Y43.370 E0.20894
G1 X-10.900 Y42.922 E0.18299
G1 X-13.384 Y42.214 E0.23699
G1 X-15.425 Y41.512 E0.19803
G1 X-17.501 Y40.681 E0.20518
G1 X-19.506 Y39.759 E0.20252
G1 X-21.445 Y38.747 E0.20063
G1 X-23.414 Y37.590 E0.20955
G1 X-25.146 Y36.453 E0.19006
G1 X-27.219 Y34.933 E0.23586
G1 X-28.897 Y33.558 E0.19906
G1 X-30.484 Y32.125 E0.19615
G1 X-32.085 Y30.524 E0.20775
G1 X-33.463 Y29.005 E0.18816
G1 X-35.138 Y26.951 E0.24317
G1 X-36.340 Y25.309 E0.18672
G1 X-37.596 Y23.405 E0.20926
G1 X-38.668 Y21.582 E0.19404
G1 X-39.713 Y19.596 E0.20592
G1 X-40.746 Y17.342 E0.22746
G1 X-41.489 Y15.485 E0.18359
G1 X-42.312 Y13.065 E0.23449
G1 X-42.881 Y11.061 E0.19110
G1 X-43.410 Y8.755 E0.21710
G1 X-43.769 Y6.734 E0.18830
G1 X-44.051 Y4.540 E0.20298
G1 X-44.221 Y2.343 E0.20214
G1 X-44.284 Y0.095 E0.20634
G1 X-44.220 Y-2.380 E0.22718
G1 X-44.060 Y-4.456 E0.19101
G1 X-43.767 Y-6.753 E0.21247
G1 X-43.363 Y-8.988 E0.20842
G1 X-42.910 Y-10.946 E0.18440
G1 X-42.201 Y-13.420 E0.23607
G1 X-41.539 Y-15.352 E0.18745
G1 X-40.641 Y-17.589 E0.22110
G1 X-39.732 Y-19.556 E0.19887
G1 X-38.684 Y-21.556 E0.20712
G1 X-37.587 Y-23.416 E0.19819
G1 X-36.414 Y-25.201 E0.19596
G1 X-35.060 Y-27.053 E0.21051
G1 X-33.682 Y-28.751 E0.20060
G1 X-31.962 Y-30.650 E0.23507
G1 X-30.571 Y-32.040 E0.18046
G1 X-28.816 Y-33.625 E0.21697
G1 X-27.183 Y-34.960 E0.19350
G1 X-26.251 Y-35.648 E0.10627
G1 E-3.20000 F3000.00000
G1 Z0.700 F9000.000
G1 X-2.848 Y15.068 F9000.000
G1 Z0.300 F9000.000
G1 E3.20000 F3000.00000
G1 X-1.474 Y14.499 E0.13643 F900.000
G1 X-0.027 Y14.308 E0.13393 F900.000
G1 X1.471 Y14.498 E0.13857
G1 X2.848 Y15.068 E0.13670
G1 X4.030 Y15.975 E0.13670
G1 X4.943 Y17.178 E0.13857
G1 X5.502 Y18.527 E0.13393
G1 X5.696 Y20.001 E0.13643
G1 X5.502 Y21.475 E0.13643
G1 X4.933 Y22.849 E0.13643
G1 X4.028 Y24.028 E0.13643
G1 X2.848 Y24.933 E0.13642
G1 X1.474 Y25.503 E0.13643
G1 X-0.000 Y25.697 E0.13642
G1 X-1.474 Y25.503 E0.13642
G1 X-2.848 Y24.933 E0.13643
G1 X-4.028 Y24.028 E0.13642
G1 X-4.933 Y22.849 E0.13643
G1 X-5.502 Y21.475 E0.13643
G1 X-5.696 Y20.001 E0.13643
G1 X-5.502 Y18.527 E0.13643
G1 X-4.943 Y17.178 E0.13393
G1 X-4.030 Y15.975 E0.13857
G1 X-2.896 Y15.105 E0.13119
G1 X-2.477 Y15.711 F9000.000
G1 X-1.282 Y15.216 E0.11865 F900.000
G1 X-0.025 Y15.050 E0.11634 F900.000
G1 X1.281 Y15.215 E0.12080
G1 X2.477 Y15.711 E0.11875
G1 X3.504 Y16.498 E0.11875
G1 X4.300 Y17.547 E0.12080
G1 X4.785 Y18.719 E0.11634
G1 X4.954 Y20.001 E0.11865
G1 X4.785 Y21.283 E0.11865
G1 X4.290 Y22.478 E0.11865
G1 X3.503 Y23.504 E0.11865
G1 X2.477 Y24.291 E0.11865
G1 X1.282 Y24.786 E0.11865
G1 X-0.000 Y24.955 E0.11865
G1 X-1.282 Y24.786 E0.11865
G1 X-2.477 Y24.291 E0.11865
G1 X-3.503 Y23.504 E0.11865
G1 X-4.290 Y22.478 E0.11865
G1 X-4.785 Y21.283 E0.11865
G1 X-4.954 Y20.001 E0.11865
G1 X-4.785 Y18.719 E0.11865
G1 X-4.300 Y17.547 E0.11634
G1 X-3.504 Y16.498 E0.12080
G1 X-2.525 Y15.747 E0.11325
G1 X-2.459 Y15.311 F9000.000
G1 X-11.968 Y11.835 F9000.000
G1 X-12.388 Y12.849 E0.10062 F900.000
G1 X-13.293 Y14.028 E0.13643
G1 X-14.473 Y14.933 E0.13642
G1 X-15.846 Y15.503 E0.13643
G1 X-17.321 Y15.697 E0.13643
G1 X-18.795 Y15.503 E0.13643
G1 X-20.168 Y14.933 E0.13643
G1 X-21.348 Y14.028 E0.13643
G1 X-22.253 Y12.849 E0.13643
G1 X-22.822 Y11.475 E0.13642
G1 X-23.016 Y10.001 E0.13643
G1 X-22.822 Y8.527 E0.13643
G1 X-22.264 Y7.178 E0.13393
G1 X-21.350 Y5.975 E0.13857
G1 X-20.168 Y5.068 E0.13670
G1 X-18.795 Y4.499 E0.13643
G1 X-17.347 Y4.308 E0.13393 F900.000
G1 X-15.849 Y4.498 E0.13857
G1 X-14.473 Y5.068 E0.13670
G1 X-13.293 Y5.973 E0.13643
G1 X-12.388 Y7.153 E0.13643
G1 X-11.819 Y8.527 E0.13643
G1 X-11.625 Y10.001 E0.13643
G1 X-11.819 Y11.475 E0.13643
G1 X-11.945 Y11.780 E0.03030
G1 X-12.625 Y11.499 F9000.000
G1 X-13.030 Y12.478 E0.09724 F900.000
G1 X-13.818 Y13.504 E0.11865
G1 X-14.844 Y14.291 E0.11865
G1 X-16.038 Y14.786 E0.11865
G1 X-17.321 Y14.955 E0.11865
G1 X-18.603 Y14.786 E0.11865
G1 X-19.797 Y14.291 E0.11865
G1 X-20.823 Y13.504 E0.11865
G1 X-21.611 Y12.478 E0.11865
G1 X-22.106 Y11.283 E0.11865
G1 X-22.274 Y10.001 E0.11865
G1 X-22.106 Y8.719 E0.11865
G1 X-21.620 Y7.547 E0.11634
G1 X-20.824 Y6.498 E0.12080
G1 X-19.797 Y5.711 E0.11875
G1 X-18.603 Y5.216 E0.11865
G1 X-17.346 Y5.050 E0.11634 F900.000
G1 X-16.039 Y5.215 E0.12080
G1 X-14.844 Y5.711 E0.11875
G1 X-13.818 Y6.498 E0.11865
G1 X-13.030 Y7.524 E0.11865
G1 X-12.535 Y8.719 E0.11865
G1 X-12.367 Y10.001 E0.11865
G1 X-12.535 Y11.283 E0.11865
G1 X-12.602 Y11.443 E0.01591
G1 X-12.381 Y11.816 F9000.000
G1 E-3.20000 F3000.00000
G1 Z0.700 F9000.000
G1 X-31.200 Y1.540 F9000.000
G1 Z0.300 F9000.000
G1 E3.20000 F3000.00000
G1 X-31.671 Y2.188 E0.07348 F900.000
G1 X-32.288 Y2.698 E0.07348
G1 X-33.013 Y3.039 E0.07348
G1 X-33.799 Y3.189 E0.07348
G1 X-34.599 Y3.139 E0.07348
G1 X-35.360 Y2.892 E0.07348
G1 X-36.037 Y2.463 E0.07348
G1 X-36.585 Y1.879 E0.07348
G1 X-36.971 Y1.177 E0.07348
G1 X-37.170 Y0.401 E0.07348
G1 X-37.170 Y-0.400 E0.07348
G1 X-36.971 Y-1.175 E0.07348
G1 X-36.585 Y-1.877 E0.07348
G1 X-36.037 Y-2.461 E0.07348
G1 X-35.360 Y-2.890 E0.07348
G1 X-34.599 Y-3.138 E0.07348
G1 X-33.799 Y-3.188 E0.07348 F900.000
G1 X-33.013 Y-3.038 E0.07348
G1 X-32.288 Y-2.697 E0.07348
G1 X-31.671 Y-2.186 E0.07348
G1 X-31.200 Y-1.538 E0.07348
G1 X-30.905 Y-0.794 E0.07348
G1 X-30.805 Y0.001 E0.07348
G1 X-30.905 Y0.795 E0.07348
G1 X-31.178 Y1.484 E0.06798
G1 X-31.850 Y1.183 F9000.000
G1 X-32.211 Y1.680 E0.05643 F900.000
G1 X-32.685 Y2.072 E0.05643
G1 X-33.242 Y2.334 E0.05643
G1 X-33.846 Y2.449 E0.05643
G1 X-34.460 Y2.411 E0.05643
G1 X-35.045 Y2.221 E0.05643
G1 X-35.564 Y1.891 E0.05643
G1 X-35.985 Y1.443 E0.05643
G1 X-36.281 Y0.904 E0.05643
G1 X-36.434 Y0.308 E0.05643
G1 X-36.434 Y-0.307 E0.05643
G1 X-36.281 Y-0.902 E0.05643
G1 X-35.985 Y-1.441 E0.05643
G1 X-35.564 Y-1.890 E0.05643
G1 X-35.045 Y-2.219 E0.05643
G1 X-34.460 Y-2.409 E0.05643
G1 X-33.846 Y-2.448 E0.05643 F900.000
G1 X-33.242 Y-2.333 E0.05643
G1 X-32.685 Y-2.071 E0.05643
G1 X-32.211 Y-1.679 E0.05643
G1 X-31.850 Y-1.181 E0.05643
G1 X-31.624 Y-0.609 E0.05643
G1 X-31.546 Y0.001 E0.05643
G1 X-31.624 Y0.611 E0.05643
G1 X-31.828 Y1.127 E0.05092
G1 X-31.657 Y1.533 F9000.000
G1 X-21.803 Y-6.565 F9000.000
G1 X-22.253 Y-7.151 E0.06780 F900.000
G1 X-22.822 Y-8.525 E0.13642
G1 X-23.016 Y-9.999 E0.13643
G1 X-22.822 Y-11.473 E0.13643
G1 X-22.264 Y-12.822 E0.13393
G1 X-21.350 Y-14.025 E0.13857
G1 X-20.168 Y-14.932 E0.13670
G1 X-18.795 Y-15.501 E0.13643
G1 X-17.347 Y-15.692 E0.13393 F900.000
G1 X-15.849 Y-15.502 E0.13857
G1 X-14.473 Y-14.932 E0.13670
G1 X-13.293 Y-14.027 E0.13643
G1 X-12.388 Y-12.847 E0.13643
G1 X-11.819 Y-11.473 E0.13642
G1 X-11.625 Y-9.999 E0.13643
G1 X-11.819 Y-8.525 E0.13643
G1 X-12.388 Y-7.151 E0.13643
G1 X-13.293 Y-5.972 E0.13643
G1 X-14.473 Y-5.067 E0.13643
G1 X-15.846 Y-4.497 E0.13643
G1 X-17.321 Y-4.303 E0.13643
G1 X-18.795 Y-4.497 E0.13643
G1 X-20.168 Y-5.067 E0.13643
G1 X-21.348 Y-5.972 E0.13643
G1 X-21.767 Y-6.517 E0.06312
G1 X-21.183 Y-6.965 F9000.000
G1 X-21.611 Y-7.522 E0.06442 F900.000
G1 X-22.106 Y-8.717 E0.11865
G1 X-22.274 Y-9.999 E0.11865
G1 X-22.106 Y-11.281 E0.11865
G1 X-21.620 Y-12.453 E0.11634
G1 X-20.824 Y-13.502 E0.12080
G1 X-19.797 Y-14.289 E0.11875
G1 X-18.603 Y-14.784 E0.11865
G1 X-17.346 Y-14.950 E0.11634 F900.000
G1 X-16.039 Y-14.785 E0.12080
G1 X-14.844 Y-14.289 E0.11875
G1 X-13.818 Y-13.502 E0.11865
G1 X-13.030 Y-12.476 E0.11865
G1 X-12.535 Y-11.281 E0.11865
G1 X-12.367 Y-9.999 E0.11865
G1 X-12.535 Y-8.717 E0.11865
G1 X-13.030 Y-7.522 E0.11865
G1 X-13.818 Y-6.496 E0.11865
G1 X-14.844 Y-5.709 E0.11865
G1 X-16.038 Y-5.214 E0.11865
G1 X-17.321 Y-5.045 E0.11865
G1 X-18.603 Y-5.214 E0.11865
G1 X-19.797 Y-5.709 E0.11865
G1 X-20.823 Y-6.496 E0.11865
G1 X-21.147 Y-6.918 E0.04873
G1 X-21.580 Y-6.913 F9000.000
G1 E-3.20000 F3000.00000
G1 Z0.700 F9000.000
G1 X-6.178 Y-1.655 F9000.000
G1 Z0.300 F9000.000
G1 E3.20000 F3000.00000
G1 X-5.539 Y-3.197 E0.15319 F900.000
G1 X-4.523 Y-4.522 E0.15319
G1 X-3.196 Y-5.540 E0.15346
G1 X-1.626 Y-6.181 E0.15558
G1 X-0.000 Y-6.395 E0.15045 F900.000
G1 X1.655 Y-6.177 E0.15319
G1 X3.198 Y-5.538 E0.15319
G1 X4.523 Y-4.522 E0.15319
G1 X5.539 Y-3.197 E0.15319
G1 X6.178 Y-1.655 E0.15319
G1 X6.396 Y0.001 E0.15319
G1 X6.178 Y1.656 E0.15319
G1 X5.539 Y3.199 E0.15319
G1 X4.523 Y4.523 E0.15319
G1 X3.198 Y5.540 E0.15319
G1 X1.655 Y6.179 E0.15319
G1 X-0.000 Y6.397 E0.15319
G1 X-1.655 Y6.179 E0.15319
G1 X-3.201 Y5.539 E0.15346
G1 X-4.541 Y4.500 E0.15558
G1 X-5.539 Y3.199 E0.15045
G1 X-6.178 Y1.656 E0.15319
G1 X-6.396 Y0.001 E0.15319
G1 X-6.186 Y-1.595 E0.14769
G1 X-5.461 Y-1.463 F9000.000
G1 X-4.896 Y-2.826 E0.13542 F900.000
G1 X-3.998 Y-3.997 E0.13542
G1 X-2.826 Y-4.896 E0.13551
G1 X-1.436 Y-5.464 E0.13781
G1 X-0.000 Y-5.653 E0.13285 F900.000
G1 X1.463 Y-5.460 E0.13542
G1 X2.827 Y-4.896 E0.13542
G1 X3.998 Y-3.997 E0.13542
G1 X4.896 Y-2.826 E0.13542
G1 X5.461 Y-1.463 E0.13542
G1 X5.654 Y0.001 E0.13542
G1 X5.461 Y1.464 E0.13542
G1 X4.896 Y2.828 E0.13542
G1 X3.998 Y3.999 E0.13542
G1 X2.827 Y4.897 E0.13542
G1 X1.463 Y5.462 E0.13542
G1 X-0.000 Y5.655 E0.13542
G1 X-1.463 Y5.462 E0.13542
G1 X-2.828 Y4.897 E0.13551
G1 X-4.015 Y3.976 E0.13781
G1 X-4.896 Y2.828 E0.13285
G1 X-5.461 Y1.464 E0.13542
G1 X-5.654 Y0.001 E0.13542
G1 X-5.469 Y-1.403 E0.12991
G1 X-5.731 Y-1.757 F9000.000
G1 X-1.474 Y-14.497 F9000.000
G1 X-2.848 Y-15.067 E0.13643 F900.000
G1 X-4.028 Y-15.972 E0.13643
G1 X-4.933 Y-17.151 E0.13643
G1 X-5.502 Y-18.525 E0.13642
G1 X-5.696 Y-19.999 E0.13643
G1 X-5.502 Y-21.473 E0.13643
G1 X-4.933 Y-22.847 E0.13643
G1 X-4.028 Y-24.027 E0.13643
G1 X-2.846 Y-24.934 E0.13670
G1 X-1.447 Y-25.505 E0.13857
G1 X-0.000 Y-25.695 E0.13393 F900.000
G1 X1.474 Y-25.501 E0.13643
G1 X2.848 Y-24.932 E0.13643
G1 X4.028 Y-24.027 E0.13643
G1 X4.933 Y-22.847 E0.13643
G1 X5.502 Y-21.473 E0.13643
G1 X5.696 Y-19.999 E0.13643
G1 X5.502 Y-18.525 E0.13643
G1 X4.933 Y-17.151 E0.13643
G1 X4.028 Y-15.972 E0.13643
G1 X2.848 Y-15.067 E0.13643
G1 X1.471 Y-14.496 E0.13670
G1 X-0.027 Y-14.307 E0.13857
G1 X-1.415 Y-14.490 E0.12843
G1 X-1.282 Y-15.214 F9000.000
G1 X-2.477 Y-15.709 E0.11865 F900.000
G1 X-3.503 Y-16.496 E0.11865
G1 X-4.290 Y-17.522 E0.11865
G1 X-4.785 Y-18.717 E0.11865
G1 X-4.954 Y-19.999 E0.11865
G1 X-4.785 Y-21.281 E0.11865
G1 X-4.290 Y-22.476 E0.11865
G1 X-3.503 Y-23.502 E0.11865
G1 X-2.476 Y-24.290 E0.11875
G1 X-1.257 Y-24.788 E0.12080
G1 X-0.000 Y-24.953 E0.11634 F900.000
G1 X1.282 Y-24.784 E0.11865
G1 X2.477 Y-24.289 E0.11865
G1 X3.503 Y-23.502 E0.11865
G1 X4.290 Y-22.476 E0.11865
G1 X4.785 Y-21.281 E0.11865
G1 X4.954 Y-19.999 E0.11865
G1 X4.785 Y-18.717 E0.11865
G1 X4.290 Y-17.522 E0.11865
G1 X3.503 Y-16.496 E0.11865
G1 X2.477 Y-15.709 E0.11865
G1 X1.281 Y-15.214 E0.11875
G1 X-0.025 Y-15.049 E0.12080
G1 X-1.223 Y-15.206 E0.11083
G1 X-1.577 Y-14.944 F9000.000
G1 X11.819 Y-11.473 F9000.000
G1 X12.377 Y-12.822 E0.13393 F900.000
G1 X13.291 Y-14.025 E0.13857
G1 X14.473 Y-14.932 E0.13670
G1 X15.846 Y-15.501 E0.13643
G1 X17.294 Y-15.692 E0.13393 F900.000
G1 X18.792 Y-15.502 E0.13857
G1 X20.168 Y-14.932 E0.13670
G1 X21.348 Y-14.027 E0.13642
G1 X22.253 Y-12.847 E0.13643
G1 X22.822 Y-11.473 E0.13643
G1 X23.016 Y-9.999 E0.13643
G1 X22.822 Y-8.525 E0.13643
G1 X22.253 Y-7.151 E0.13643
G1 X21.348 Y-5.972 E0.13643
G1 X20.168 Y-5.067 E0.13642
G1 X18.795 Y-4.497 E0.13643
G1 X17.321 Y-4.303 E0.13642
G1 X15.846 Y-4.497 E0.13643
G1 X14.473 Y-5.067 E0.13643
G1 X13.293 Y-5.972 E0.13642
G1 X12.388 Y-7.151 E0.13643
G1 X11.819 Y-8.525 E0.13643
G1 X11.625 Y-9.999 E0.13643
G1 X11.811 Y-11.414 E0.13092
G1 X12.535 Y-11.281 F9000.000
G1 X13.021 Y-12.453 E0.11634 F900.000
G1 X13.817 Y-13.502 E0.12080
G1 X14.844 Y-14.289 E0.11875
G1 X16.038 Y-14.784 E0.11865
G1 X17.295 Y-14.950 E0.11634 F900.000
G1 X18.602 Y-14.785 E0.12080
G1 X19.797 Y-14.289 E0.11875
G1 X20.823 Y-13.502 E0.11865
G1 X21.611 Y-12.476 E0.11865
G1 X22.106 Y-11.281 E0.11865
G1 X22.274 Y-9.999 E0.11865
G1 X22.106 Y-8.717 E0.11865
G1 X21.611 Y-7.522 E0.11865
G1 X20.823 Y-6.496 E0.11865
G1 X19.797 Y-5.709 E0.11865
G1 X18.603 Y-5.214 E0.11865
G1 X17.321 Y-5.045 E0.11865
G1 X16.038 Y-5.214 E0.11865
G1 X14.844 Y-5.709 E0.11865
G1 X13.818 Y-6.496 E0.11865
G1 X13.030 Y-7.522 E0.11865
G1 X12.535 Y-8.717 E0.11865
G1 X12.367 Y-9.999 E0.11865
G1 X12.528 Y-11.222 E0.11315
G1 X12.265 Y-11.576 F9000.000
G1 E-3.20000 F3000.00000
G1 Z0.700 F9000.000
G1 X15.846 Y4.499 F9000.000
G1 Z0.300 F9000.000
G1 E3.20000 F3000.00000
G1 X17.294 Y4.308 E0.13393 F900.000
G1 X18.792 Y4.498 E0.13857
G1 X20.168 Y5.068 E0.13670
G1 X21.348 Y5.973 E0.13642
G1 X22.253 Y7.153 E0.13643
G1 X22.822 Y8.527 E0.13643
G1 X23.016 Y10.001 E0.13643
G1 X22.822 Y11.475 E0.13643
G1 X22.253 Y12.849 E0.13643
G1 X21.348 Y14.028 E0.13643
G1 X20.168 Y14.933 E0.13642
G1 X18.795 Y15.503 E0.13643
G1 X17.321 Y15.697 E0.13642
G1 X15.846 Y15.503 E0.13643
G1 X14.473 Y14.933 E0.13643
G1 X13.293 Y14.028 E0.13642
G1 X12.388 Y12.849 E0.13643
