; generated by Slic3r 1.2.9 on 2016-11-21 at 14:56:17

; external perimeters extrusion width = 0.50mm
; perimeters extrusion width = 0.50mm
; infill extrusion width = 0.50mm
; solid infill extrusion width = 0.50mm
; top infill extrusion width = 0.50mm

M107
;Basic settings: Layer height: {layer_height} Walls: {wall_thickness} Fill: {fill_density}
;Print time: {print_time}
;Filament used: {filament_amount}m {filament_weight}g
;Filament cost: {filament_cost}
;M190 S{print_bed_temperature} ;Uncomment to add your own bed temperature line
;M109 S{print_temperature} ;Uncomment to add your own temperature line
G21        ;metric values
G90        ;absolute positioning
M83
G10 P0 S200
T0
M116


G21 ; set units to millimeters
G90 ; use absolute coordinates
M83 ; use relative distances for extrusion
G1 E-3.20000 F3000.00000
G1 Z0.400 F9000.000
G1 X41.114 Y16.423 F9000.000
G1 Z0.300 F9000.000
G1 E3.20000 F3000.00000
G1 X40.658 Y17.551 E0.11161 F1200.000
G1 X39.800 Y19.418 E0.18850
G1 X38.674 Y21.574 E0.22321
G1 X37.632 Y23.345 E0.18851
G1 X36.401 Y25.221 E0.20586
G1 X35.077 Y27.032 E0.20586
G1 X33.540 Y28.917 E0.22321
G1 X32.162 Y30.442 E0.18851
G1 X30.579 Y32.032 E0.20586
G1 X28.917 Y33.540 E0.20586
G1 X27.032 Y35.077 E0.22322
G1 X25.119 Y36.468 E0.21705
G1 X23.345 Y37.632 E0.19466
G1 X21.574 Y38.674 E0.18850
G1 X19.418 Y39.800 E0.22322
G1 X17.263 Y40.778 E0.21705
G1 X15.291 Y41.561 E0.19466
G1 X13.347 Y42.225 E0.18850
G1 X11.008 Y42.894 E0.22322
G1 X8.701 Y43.419 E0.21706
G1 X6.612 Y43.788 E0.19465
G1 X4.574 Y44.048 E0.18850
G1 X2.337 Y44.223 E0.20586
G1 X-0.095 Y44.284 E0.22322
G1 X-2.148 Y44.232 E0.18850
G1 X-4.386 Y44.067 E0.20586
G1 X-6.799 Y43.759 E0.22322
G1 X-9.126 Y43.331 E0.21704
G1 X-11.192 Y42.847 E0.19466
G1 X-13.167 Y42.282 E0.18850
G1 X-15.469 Y41.495 E0.22322
G1 X-17.662 Y40.607 E0.21705
G1 X-19.588 Y39.717 E0.19465
G1 X-21.409 Y38.766 E0.18850
G1 X-23.505 Y37.532 E0.22322
G1 X-25.376 Y36.293 E0.20586
G1 X-27.032 Y35.077 E0.18850
G1 X-28.774 Y33.663 E0.20586
G1 X-30.579 Y32.032 E0.22322
G1 X-32.032 Y30.579 E0.18850
G1 X-33.458 Y29.008 E0.19465
G1 X-34.961 Y27.182 E0.21706
G1 X-36.401 Y25.221 E0.22322
G1 X-37.632 Y23.345 E0.20586
G1 X-38.674 Y21.574 E0.18850
G1 X-39.717 Y19.588 E0.20586
G1 X-40.733 Y17.377 E0.22322
G1 X-41.495 Y15.469 E0.18850
G1 X-42.186 Y13.463 E0.19465
G1 X-42.847 Y11.192 E0.21706
G1 X-43.397 Y8.822 E0.22322
G1 X-43.759 Y6.799 E0.18850
G1 X-44.032 Y4.696 E0.19465
G1 X-44.223 Y2.337 E0.21706
G1 X-44.284 Y0.095 E0.20587
G1 X-44.223 Y-2.337 E0.22321
G1 X-44.067 Y-4.386 E0.18850
G1 X-43.788 Y-6.612 E0.20586
G1 X-43.359 Y-9.007 E0.22322
G1 X-42.894 Y-11.008 E0.18850
G1 X-42.282 Y-13.167 E0.20586
G1 X-41.495 Y-15.469 E0.22322
G1 X-40.658 Y-17.551 E0.20586
G1 X-39.800 Y-19.418 E0.18850
G1 X-38.766 Y-21.409 E0.20586
G1 X-37.532 Y-23.505 E0.22322
G1 X-36.401 Y-25.221 E0.18850
G1 X-35.149 Y-26.933 E0.19465
G1 X-33.663 Y-28.774 E0.21706
G1 X-32.032 Y-30.579 E0.22322
G1 X-30.442 Y-32.162 E0.20586
G1 X-28.917 Y-33.540 E0.18850
G1 X-27.182 Y-34.961 E0.20586
G1 X-25.221 Y-36.401 E0.22322
G1 X-23.505 Y-37.532 E0.18850
G1 X-21.574 Y-38.674 E0.20586
G1 X-19.588 Y-39.717 E0.20586
G1 X-17.377 Y-40.733 E0.22322
G1 X-15.469 Y-41.495 E0.18850
G1 X-13.347 Y-42.225 E0.20586
G1 X-11.008 Y-42.894 E0.22322
G1 X-8.822 Y-43.397 E0.20586
G1 X-6.612 Y-43.788 E0.20586
G1 X-4.574 Y-44.048 E0.18850
G1 X-2.148 Y-44.232 E0.22322
G1 X0.217 Y-44.281 E0.21705
G1 X2.337 Y-44.223 E0.19466 F1200.000
G1 X4.386 Y-44.067 E0.18850
G1 X6.612 Y-43.788 E0.20586
G1 X8.822 Y-43.397 E0.20586
G1 X11.192 Y-42.847 E0.22322
G1 X13.463 Y-42.186 E0.21705
G1 X15.469 Y-41.495 E0.19465
G1 X17.377 Y-40.733 E0.18850
G1 X19.418 Y-39.800 E0.20586
G1 X21.409 Y-38.766 E0.20586
G1 X23.345 Y-37.632 E0.20586
G1 X25.376 Y-36.293 E0.22322
G1 X27.182 Y-34.961 E0.20586
G1 X28.917 Y-33.540 E0.20586
G1 X30.442 Y-32.162 E0.18850
G1 X32.032 Y-30.579 E0.20586
G1 X33.540 Y-28.917 E0.20586
G1 X35.077 Y-27.032 E0.22322
G1 X36.401 Y-25.221 E0.20586
G1 X37.632 Y-23.345 E0.20586
G1 X38.766 Y-21.409 E0.20586
G1 X39.717 Y-19.588 E0.18850
G1 X40.658 Y-17.551 E0.20586
G1 X41.495 Y-15.469 E0.20586
G1 X42.282 Y-13.167 E0.22322
G1 X42.894 Y-11.008 E0.20586
G1 X43.418 Y-8.702 E0.21705
G1 X43.788 Y-6.612 E0.19466
G1 X44.048 Y-4.574 E0.18850
G1 X44.223 Y-2.337 E0.20586
G1 X44.284 Y0.095 E0.22322
G1 X44.223 Y2.337 E0.20586
G1 X44.067 Y4.386 E0.18850
G1 X43.788 Y6.612 E0.20586
G1 X43.359 Y9.007 E0.22321
G1 X42.847 Y11.192 E0.20587
G1 X42.225 Y13.347 E0.20586
G1 X41.561 Y15.291 E0.18850
G1 X41.136 Y16.367 E0.10610
G1 E-3.20000 F3000.00000
G1 Z0.700 F9000.000
G1 X27.171 Y10.582 F9000.000
G1 Z0.300 F9000.000
G1 E3.20000 F3000.00000
G1 X26.596 Y11.970 E0.13779 F900.000
G1 X25.825 Y13.554 E0.16164
G1 X24.959 Y15.088 E0.16164
G1 X24.003 Y16.568 E0.16164
G1 X22.958 Y17.987 E0.16164
G1 X21.831 Y19.340 E0.16164
G1 X20.623 Y20.623 E0.16164
G1 X19.340 Y21.831 E0.16164
G1 X17.987 Y22.958 E0.16164
G1 X16.568 Y24.003 E0.16164
G1 X15.086 Y24.961 E0.16193
G1 X13.397 Y25.901 E0.17729
G1 X11.970 Y26.596 E0.14568
G1 X10.342 Y27.270 E0.16164
G1 X8.677 Y27.845 E0.16164
G1 X6.980 Y28.318 E0.16164
G1 X5.257 Y28.688 E0.16164
G1 X3.515 Y28.953 E0.16164
G1 X1.934 Y29.096 E0.14568
G1 X0.000 Y29.165 E0.17758
G1 X-1.934 Y29.096 E0.17758
G1 X-3.515 Y28.953 E0.14568
G1 X-5.257 Y28.688 E0.16164
G1 X-6.980 Y28.318 E0.16164
G1 X-8.677 Y27.845 E0.16164
G1 X-10.342 Y27.270 E0.16164
G1 X-11.970 Y26.596 E0.16164
G1 X-13.557 Y25.823 E0.16193
G1 X-15.234 Y24.865 E0.17729
G1 X-16.568 Y24.003 E0.14568
G1 X-17.987 Y22.958 E0.16164
G1 X-19.340 Y21.831 E0.16164
G1 X-20.623 Y20.623 E0.16164
G1 X-21.831 Y19.340 E0.16164
G1 X-22.958 Y17.987 E0.16164
G1 X-24.003 Y16.568 E0.16164
G1 X-24.959 Y15.088 E0.16164
G1 X-25.825 Y13.554 E0.16164
G1 X-26.596 Y11.970 E0.16164
G1 X-27.270 Y10.342 E0.16164
G1 X-27.845 Y8.677 E0.16164
G1 X-28.318 Y6.980 E0.16164
G1 X-28.688 Y5.257 E0.16164
G1 X-28.953 Y3.515 E0.16164
G1 X-29.112 Y1.761 E0.16164
G1 X-29.165 Y-0.000 E0.16164
G1 X-29.112 Y-1.761 E0.16164
G1 X-28.953 Y-3.515 E0.16164
G1 X-28.688 Y-5.257 E0.16164
G1 X-28.318 Y-6.980 E0.16164
G1 X-27.845 Y-8.677 E0.16164
G1 X-27.270 Y-10.342 E0.16164
G1 X-26.596 Y-11.970 E0.16164
G1 X-25.825 Y-13.554 E0.16164
G1 X-24.959 Y-15.088 E0.16164
G1 X-24.003 Y-16.568 E0.16164
G1 X-22.958 Y-17.987 E0.16164
G1 X-21.831 Y-19.340 E0.16164
G1 X-20.623 Y-20.623 E0.16164
G1 X-19.340 Y-21.831 E0.16164
G1 X-18.120 Y-22.847 E0.14568
G1 X-16.570 Y-24.001 E0.17729
G1 X-15.088 Y-24.959 E0.16193
G1 X-13.554 Y-25.825 E0.16164
G1 X-11.970 Y-26.596 E0.16164
G1 X-10.342 Y-27.270 E0.16164
G1 X-8.677 Y-27.845 E0.16164
G1 X-6.980 Y-28.318 E0.16164
G1 X-5.257 Y-28.688 E0.16164
G1 X-3.515 Y-28.953 E0.16164
G1 X-1.761 Y-29.112 E0.16164
G1 X-0.223 Y-29.159 E0.14117 F900.000
G1 X1.757 Y-29.112 E0.18172
G1 X3.515 Y-28.953 E0.16200
G1 X5.257 Y-28.688 E0.16164
G1 X6.980 Y-28.318 E0.16164
G1 X8.677 Y-27.845 E0.16164
G1 X10.342 Y-27.270 E0.16164
G1 X11.970 Y-26.596 E0.16164
G1 X13.554 Y-25.825 E0.16164
G1 X15.088 Y-24.959 E0.16164
G1 X16.422 Y-24.097 E0.14568
G1 X17.984 Y-22.960 E0.17729
G1 X19.340 Y-21.831 E0.16193
G1 X20.623 Y-20.623 E0.16164
G1 X21.831 Y-19.340 E0.16164
G1 X22.958 Y-17.987 E0.16164
G1 X24.003 Y-16.568 E0.16164
G1 X24.959 Y-15.088 E0.16164
G1 X25.825 Y-13.554 E0.16164
G1 X26.596 Y-11.970 E0.16164
G1 X27.270 Y-10.342 E0.16164
G1 X27.845 Y-8.677 E0.16164
G1 X28.318 Y-6.980 E0.16164
G1 X28.688 Y-5.257 E0.16164
G1 X28.953 Y-3.515 E0.16164
G1 X29.112 Y-1.761 E0.16164
G1 X29.165 Y0.000 E0.16164
G1 X29.112 Y1.761 E0.16164
G1 X28.953 Y3.515 E0.16164
G1 X28.688 Y5.257 E0.16164
G1 X28.318 Y6.980 E0.16164
G1 X27.844 Y8.680 E0.16193
G1 X27.193 Y10.527 E0.17967
G1 X26.514 Y10.245 F9000.000
G1 X25.925 Y11.668 E0.14126 F900.000
G1 X25.173 Y13.212 E0.15756
G1 X24.329 Y14.708 E0.15756
G1 X23.397 Y16.150 E0.15756
G1 X22.379 Y17.533 E0.15756
G1 X21.280 Y18.852 E0.15756
G1 X20.103 Y20.103 E0.15756
G1 X18.852 Y21.280 E0.15756
G1 X17.533 Y22.379 E0.15756
G1 X16.150 Y23.397 E0.15756
G1 X14.707 Y24.330 E0.15767
G1 X13.057 Y25.248 E0.17321
G1 X11.668 Y25.925 E0.14179
G1 X10.081 Y26.582 E0.15756
G1 X8.458 Y27.142 E0.15756
G1 X6.804 Y27.603 E0.15756
G1 X5.125 Y27.964 E0.15756
G1 X3.427 Y28.222 E0.15756
G1 X1.888 Y28.362 E0.14179
G1 X0.000 Y28.429 E0.17331
G1 X-1.888 Y28.362 E0.17331
G1 X-3.427 Y28.222 E0.14179
G1 X-5.125 Y27.964 E0.15756
G1 X-6.804 Y27.603 E0.15756
G1 X-8.458 Y27.142 E0.15756
G1 X-10.081 Y26.582 E0.15756
G1 X-11.668 Y25.925 E0.15756
G1 X-13.213 Y25.172 E0.15766
G1 X-14.852 Y24.236 E0.17321
G1 X-16.150 Y23.397 E0.14179
G1 X-17.533 Y22.379 E0.15756
G1 X-18.852 Y21.280 E0.15756
G1 X-20.103 Y20.103 E0.15756
G1 X-21.280 Y18.852 E0.15756
G1 X-22.379 Y17.533 E0.15756
G1 X-23.397 Y16.150 E0.15756
G1 X-24.329 Y14.708 E0.15756
G1 X-25.173 Y13.212 E0.15756
G1 X-25.925 Y11.668 E0.15756
G1 X-26.582 Y10.081 E0.15756
G1 X-27.142 Y8.458 E0.15756
G1 X-27.603 Y6.804 E0.15756
G1 X-27.964 Y5.125 E0.15756
G1 X-28.222 Y3.427 E0.15756
G1 X-28.377 Y1.717 E0.15756
G1 X-28.429 Y0.000 E0.15756
G1 X-28.377 Y-1.717 E0.15756
G1 X-28.222 Y-3.427 E0.15756
G1 X-27.964 Y-5.125 E0.15756
G1 X-27.603 Y-6.804 E0.15756
G1 X-27.142 Y-8.458 E0.15756
G1 X-26.582 Y-10.081 E0.15756
G1 X-25.925 Y-11.668 E0.15756
G1 X-25.173 Y-13.212 E0.15756
G1 X-24.329 Y-14.708 E0.15756
G1 X-23.397 Y-16.150 E0.15756
G1 X-22.379 Y-17.533 E0.15756
G1 X-21.280 Y-18.852 E0.15756
G1 X-20.103 Y-20.103 E0.15756
G1 X-18.852 Y-21.280 E0.15756
G1 X-17.665 Y-22.269 E0.14179
G1 X-16.151 Y-23.396 E0.17321
G1 X-14.708 Y-24.329 E0.15767
G1 X-13.212 Y-25.173 E0.15756
G1 X-11.668 Y-25.925 E0.15756
G1 X-10.081 Y-26.582 E0.15756
G1 X-8.458 Y-27.142 E0.15756
G1 X-6.804 Y-27.603 E0.15756
G1 X-5.125 Y-27.964 E0.15756
G1 X-3.427 Y-28.222 E0.15756
G1 X-1.717 Y-28.377 E0.15756
G1 X-0.221 Y-28.423 E0.13732 F900.000
G1 X1.715 Y-28.378 E0.17764
G1 X3.427 Y-28.222 E0.15769
G1 X5.125 Y-27.964 E0.15756
G1 X6.804 Y-27.603 E0.15756
G1 X8.458 Y-27.142 E0.15756
G1 X10.081 Y-26.582 E0.15756
G1 X11.668 Y-25.925 E0.15756
G1 X13.212 Y-25.173 E0.15756
G1 X14.708 Y-24.329 E0.15756
G1 X16.005 Y-23.490 E0.14179
G1 X17.532 Y-22.380 E0.17321
G1 X18.852 Y-21.280 E0.15767
G1 X20.103 Y-20.103 E0.15756
G1 X21.280 Y-18.852 E0.15756
G1 X22.379 Y-17.533 E0.15756
G1 X23.397 Y-16.150 E0.15756
G1 X24.329 Y-14.708 E0.15756
G1 X25.173 Y-13.212 E0.15756
G1 X25.925 Y-11.668 E0.15756
G1 X26.582 Y-10.081 E0.15756
G1 X27.142 Y-8.458 E0.15756
G1 X27.603 Y-6.804 E0.15756
G1 X27.964 Y-5.125 E0.15756
G1 X28.222 Y-3.427 E0.15756
G1 X28.377 Y-1.717 E0.15756
G1 X28.429 Y0.000 E0.15756
G1 X28.377 Y1.717 E0.15756
G1 X28.222 Y3.427 E0.15756
G1 X27.964 Y5.125 E0.15756
G1 X27.603 Y6.804 E0.15756
G1 X27.142 Y8.459 E0.15766
G1 X26.534 Y10.189 E0.16824
G1 X26.763 Y10.558 F9000.000
G1 E-3.20000 F3000.00000
G1 Z0.700 F9000.000
G1 X-30.905 Y0.795 F9000.000
G1 Z0.300 F9000.000
G1 E3.20000 F3000.00000
G1 X-31.200 Y1.539 E0.07348 F900.000
G1 X-31.671 Y2.187 E0.07348
G1 X-32.288 Y2.698 E0.07348
G1 X-33.013 Y3.039 E0.07348
G1 X-33.799 Y3.189 E0.07348
G1 X-34.599 Y3.138 E0.07348
G1 X-35.360 Y2.891 E0.07348
G1 X-36.037 Y2.462 E0.07348
G1 X-36.585 Y1.878 E0.07348
G1 X-36.971 Y1.176 E0.07348
G1 X-37.170 Y0.400 E0.07348
G1 X-37.170 Y-0.400 E0.07348
G1 X-36.971 Y-1.176 E0.07348
G1 X-36.585 Y-1.878 E0.07348
G1 X-36.037 Y-2.462 E0.07348
G1 X-35.356 Y-2.894 E0.07401
G1 X-34.572 Y-3.140 E0.07538
G1 X-33.799 Y-3.189 E0.07100 F900.000
G1 X-33.013 Y-3.039 E0.07348
G1 X-32.288 Y-2.698 E0.07348
G1 X-31.671 Y-2.187 E0.07348
G1 X-31.200 Y-1.539 E0.07348
G1 X-30.905 Y-0.795 E0.07348
G1 X-30.805 Y0.000 E0.07348
G1 X-30.898 Y0.735 E0.06798
G1 X-31.624 Y0.610 F9000.000
G1 X-31.850 Y1.182 E0.05643 F900.000
G1 X-32.211 Y1.680 E0.05643
G1 X-32.685 Y2.072 E0.05643
G1 X-33.242 Y2.333 E0.05643
G1 X-33.846 Y2.449 E0.05643
G1 X-34.460 Y2.410 E0.05643
G1 X-35.045 Y2.220 E0.05643
G1 X-35.564 Y1.891 E0.05643
G1 X-35.985 Y1.442 E0.05643
G1 X-36.281 Y0.903 E0.05643
G1 X-36.434 Y0.308 E0.05643
G1 X-36.434 Y-0.308 E0.05643
G1 X-36.281 Y-0.903 E0.05643
G1 X-35.985 Y-1.442 E0.05643
G1 X-35.564 Y-1.891 E0.05643
G1 X-35.043 Y-2.221 E0.05661
G1 X-34.436 Y-2.412 E0.05833
G1 X-33.846 Y-2.449 E0.05428 F900.000
G1 X-33.242 Y-2.333 E0.05643
G1 X-32.685 Y-2.072 E0.05643
G1 X-32.211 Y-1.680 E0.05643
G1 X-31.850 Y-1.182 E0.05643
G1 X-31.624 Y-0.610 E0.05643
G1 X-31.546 Y0.000 E0.05643
G1 X-31.616 Y0.551 E0.05092
G1 X-31.350 Y0.902 F9000.000
G1 E-3.20000 F3000.00000
G1 Z0.700 F9000.000
G1 X30.830 Y0.400 F9000.000
G1 Z0.300 F9000.000
G1 E3.20000 F3000.00000
G1 X30.830 Y-0.400 E0.07348 F900.000
G1 X31.029 Y-1.176 E0.07348
G1 X31.415 Y-1.878 E0.07348
G1 X31.963 Y-2.462 E0.07348
G1 X32.644 Y-2.894 E0.07401
G1 X33.428 Y-3.140 E0.07538
G1 X34.201 Y-3.189 E0.07100 F900.000
G1 X34.987 Y-3.039 E0.07348
G1 X35.712 Y-2.698 E0.07348
G1 X36.329 Y-2.187 E0.07348
G1 X36.800 Y-1.539 E0.07348
G1 X37.095 Y-0.795 E0.07348
G1 X37.195 Y0.000 E0.07348
G1 X37.095 Y0.795 E0.07348
G1 X36.800 Y1.539 E0.07348
G1 X36.326 Y2.192 E0.07401
G1 X35.687 Y2.709 E0.07538
G1 X34.987 Y3.039 E0.07100
G1 X34.201 Y3.189 E0.07348
G1 X33.401 Y3.138 E0.07348
G1 X32.665 Y2.899 E0.07100
G1 X31.962 Y2.463 E0.07591
G1 X31.402 Y1.854 E0.07591
G1 X31.029 Y1.176 E0.07100
G1 X30.845 Y0.459 E0.06798
G1 X31.566 Y0.308 F9000.000
G1 X31.566 Y-0.308 E0.05643 F900.000
G1 X31.719 Y-0.903 E0.05643
G1 X32.015 Y-1.442 E0.05643
G1 X32.436 Y-1.891 E0.05643
G1 X32.957 Y-2.221 E0.05661
G1 X33.564 Y-2.412 E0.05833
G1 X34.154 Y-2.449 E0.05428 F900.000
G1 X34.758 Y-2.333 E0.05643
G1 X35.315 Y-2.072 E0.05643
G1 X35.789 Y-1.680 E0.05643
G1 X36.150 Y-1.182 E0.05643
G1 X36.376 Y-0.610 E0.05643
G1 X36.454 Y0.000 E0.05643
G1 X36.376 Y0.610 E0.05643
G1 X36.150 Y1.182 E0.05643
G1 X35.787 Y1.681 E0.05661
G1 X35.294 Y2.082 E0.05833
G1 X34.758 Y2.333 E0.05429
G1 X34.154 Y2.449 E0.05643
G1 X33.540 Y2.410 E0.05643
G1 X32.978 Y2.227 E0.05428
G1 X32.436 Y1.891 E0.05852
G1 X32.004 Y1.422 E0.05852
G1 X31.719 Y0.903 E0.05428
G1 X31.581 Y0.366 E0.05092
G1 X31.204 Y0.137 F9000.000
G1 E-3.20000 F3000.00000
G1 Z0.700 F9000.000
G1 X-23.072 Y-31.942 F9000.000
G1 Z0.300 F9000.000
G1 E3.20000 F3000.00000
G1 X-22.516 Y-32.350 E0.06325 F900.000
G1 X-20.849 Y-33.448 E0.18322
G1 X-19.128 Y-34.462 E0.18322
G1 X-17.358 Y-35.386 E0.18322
G1 X-15.543 Y-36.220 E0.18322
G1 X-13.689 Y-36.961 E0.18322
G1 X-11.799 Y-37.606 E0.18322
G1 X-9.879 Y-38.156 E0.18322
G1 X-7.934 Y-38.607 E0.18322
G1 X-5.968 Y-38.959 E0.18322
G1 X-3.987 Y-39.212 E0.18322
G1 X-1.998 Y-39.363 E0.18307
G1 X0.120 Y-39.411 E0.19441
G1 X1.996 Y-39.363 E0.17216
G1 X3.987 Y-39.212 E0.18322 F900.000
G1 X5.968 Y-38.959 E0.18322
G1 X7.934 Y-38.607 E0.18322
G1 X9.879 Y-38.156 E0.18322
G1 X11.799 Y-37.606 E0.18322
G1 X13.689 Y-36.961 E0.18322
G1 X15.543 Y-36.220 E0.18322
G1 X17.358 Y-35.386 E0.18322
G1 X19.128 Y-34.462 E0.18322
G1 X20.849 Y-33.448 E0.18322
G1 X22.516 Y-32.350 E0.18322
G1 X24.126 Y-31.168 E0.18322
G1 X25.673 Y-29.906 E0.18322
G1 X27.155 Y-28.567 E0.18322
G1 X28.567 Y-27.155 E0.18322
G1 X29.906 Y-25.673 E0.18322
G1 X31.168 Y-24.126 E0.18322
G1 X32.350 Y-22.516 E0.18322
G1 X33.448 Y-20.849 E0.18322
G1 X34.461 Y-19.128 E0.18322
G1 X35.385 Y-17.359 E0.18307
G1 X36.265 Y-15.431 E0.19441
G1 X36.961 Y-13.689 E0.17216
G1 X37.606 Y-11.799 E0.18322
G1 X38.156 Y-9.879 E0.18322
G1 X38.607 Y-7.934 E0.18322
G1 X38.959 Y-5.968 E0.18322
G1 X39.212 Y-3.987 E0.18322
G1 X39.363 Y-1.996 E0.18322
G1 X39.414 Y-0.000 E0.18322
G1 X39.363 Y1.996 E0.18322
G1 X39.212 Y3.987 E0.18322
G1 X38.959 Y5.968 E0.18322
G1 X38.607 Y7.934 E0.18322
G1 X38.156 Y9.879 E0.18322
G1 X37.606 Y11.799 E0.18322
G1 X36.961 Y13.689 E0.18322
G1 X36.220 Y15.543 E0.18322
G1 X35.386 Y17.358 E0.18322
G1 X34.461 Y19.128 E0.18322
G1 X33.448 Y20.849 E0.18322
G1 X32.350 Y22.516 E0.18322
G1 X31.168 Y24.126 E0.18322
G1 X29.906 Y25.673 E0.18322
G1 X28.567 Y27.155 E0.18322
G1 X27.155 Y28.567 E0.18322
G1 X25.673 Y29.906 E0.18322
G1 X24.126 Y31.168 E0.18322
G1 X22.516 Y32.350 E0.18322
G1 X20.849 Y33.448 E0.18322
G1 X19.128 Y34.461 E0.18322
G1 X17.358 Y35.386 E0.18322
G1 X15.543 Y36.220 E0.18322
G1 X13.689 Y36.961 E0.18322
