; generated by Slic3r 1.2.9 on 2016-11-23 at 14:01:34

; external perimeters extrusion width = 0.50mm
; perimeters extrusion width = 0.50mm
; infill extrusion width = 0.50mm
; solid infill extrusion width = 0.50mm
; top infill extrusion width = 0.50mm

M107
;Basic settings: Layer height: {layer_height} Walls: {wall_thickness} Fill: {fill_density}
;Print time: {print_time}
;Filament used: {filament_amount}m {filament_weight}g
;Filament cost: {filament_cost}
;M190 S{print_bed_temperature} ;Uncomment to add your own bed temperature line
;M109 S{print_temperature} ;Uncomment to add your own temperature line
G21        ;metric values
G90        ;absolute positioning
M83
G10 P0 S200
T0
M116


G21 ; set units to millimeters
G90 ; use absolute coordinates
M83 ; use relative distances for extrusion
G1 E-3.20000 F3000.00000
G1 Z0.400 F9000.000
G1 X-9.020 Y9.020 F9000.000
G1 Z0.300 F9000.000
G1 E3.20000 F3000.00000
G1 X-14.067 Y3.972 E0.65488 F660.762
G1 X-14.489 Y3.488 E0.05900
G1 X-14.717 Y3.173 E0.03561
G1 X-14.922 Y2.844 E0.03561
G1 X-15.163 Y2.380 E0.04793
G1 X-15.398 Y1.783 E0.05889
G1 X-15.539 Y1.281 E0.04782
G1 X-15.613 Y0.899 E0.03572
G1 X-15.661 Y0.515 E0.03551
G1 X-15.683 Y-0.128 E0.05900
G1 X-15.648 Y-0.648 E0.04783
G1 X-15.538 Y-1.283 E0.05919
G1 X-15.439 Y-1.655 E0.03532
G1 X-15.313 Y-2.023 E0.03571
G1 X-15.105 Y-2.502 E0.04783
G1 X-14.790 Y-3.062 E0.05897
G1 X-14.489 Y-3.488 E0.04791
G1 X-14.067 Y-3.972 E0.05892
G1 X-3.787 Y-14.240 E1.33309
G1 X-3.488 Y-14.489 E0.03568
G1 X-3.062 Y-14.790 E0.04783
G1 X-2.503 Y-15.104 E0.05885
G1 X-2.023 Y-15.313 E0.04799
G1 X-1.411 Y-15.507 E0.05897
G1 X-0.900 Y-15.613 E0.04782
G1 X-0.261 Y-15.679 E0.05892
G1 X0.258 Y-15.679 E0.04767
G1 X0.648 Y-15.648 E0.03584 F660.762
G1 X1.281 Y-15.539 E0.05900
G1 X1.657 Y-15.438 E0.03574
G1 X2.147 Y-15.264 E0.04770
G1 X2.501 Y-15.105 E0.03561
G1 X3.062 Y-14.790 E0.05898
G1 X3.383 Y-14.569 E0.03579
G1 X3.786 Y-14.241 E0.04767
G1 X14.067 Y-3.972 E1.33315
G1 X14.328 Y-3.686 E0.03561
G1 X14.570 Y-3.382 E0.03561
G1 X14.790 Y-3.062 E0.03561
G1 X14.988 Y-2.728 E0.03562
G1 X15.264 Y-2.147 E0.05899
G1 X15.398 Y-1.784 E0.03557
G1 X15.507 Y-1.411 E0.03566
G1 X15.613 Y-0.900 E0.04783
G1 X15.661 Y-0.515 E0.03561
G1 X15.683 Y-0.128 E0.03561
G1 X15.683 Y10.128 E0.94091
G1 X15.661 Y10.517 E0.03580
G1 X15.590 Y11.031 E0.04764
G1 X15.507 Y11.411 E0.03562
G1 X15.313 Y12.023 E0.05900
G1 X15.163 Y12.380 E0.03551
G1 X14.988 Y12.728 E0.03572
G1 X14.717 Y13.173 E0.04782
G1 X14.489 Y13.488 E0.03561
G1 X14.241 Y13.786 E0.03562
G1 X13.972 Y14.067 E0.03561
G1 X13.686 Y14.328 E0.03561
G1 X13.381 Y14.570 E0.03569
G1 X13.064 Y14.788 E0.03532
G1 X12.502 Y15.105 E0.05922
G1 X12.023 Y15.313 E0.04782
G1 X11.655 Y15.439 E0.03571
G1 X11.281 Y15.539 E0.03552
G1 X10.648 Y15.648 E0.05900
G1 X10.000 Y15.686 E0.05952
G1 X-0.000 Y15.686 E0.91751
G1 X-0.648 Y15.648 E0.05951
G1 X-1.031 Y15.590 E0.03562
G1 X-1.411 Y15.507 E0.03562
G1 X-1.784 Y15.398 E0.03566
G1 X-2.147 Y15.264 E0.03557
G1 X-2.503 Y15.104 E0.03577
G1 X-2.844 Y14.922 E0.03546
G1 X-3.173 Y14.717 E0.03562
G1 X-3.488 Y14.489 E0.03561
G1 X-3.972 Y14.067 E0.05900
G1 X-8.977 Y9.062 E0.64938
G1 E-3.20000 F3000.00000
G1 Z0.700 F9000.000
G1 X0.773 Y-0.224 F9000.000
G1 Z0.300 F9000.000
G1 E3.20000 F3000.00000
G1 X0.801 Y-0.110 E0.01073 F600.000
G1 X0.806 Y0.055 E0.01517
G1 X0.778 Y0.218 E0.01517
G1 X0.718 Y0.372 E0.01517
G1 X0.627 Y0.510 E0.01519
G1 X0.437 Y0.683 E0.02351
G1 X0.271 Y0.762 E0.01692
G1 X0.110 Y0.801 E0.01517
G1 X-0.055 Y0.806 E0.01517
G1 X-0.218 Y0.778 E0.01517
G1 X-0.372 Y0.718 E0.01517
G1 X-0.510 Y0.627 E0.01517
G1 X-0.627 Y0.510 E0.01517
G1 X-0.718 Y0.372 E0.01519
G1 X-0.785 Y0.201 E0.01679
G1 X-0.807 Y-0.075 E0.02542
G1 X-0.741 Y-0.322 E0.02348
G1 X-0.660 Y-0.466 E0.01517
G1 X-0.552 Y-0.591 E0.01517
G1 X-0.420 Y-0.691 E0.01517
G1 X-0.271 Y-0.762 E0.01517
G1 X-0.110 Y-0.801 E0.01519
G1 X0.146 Y-0.797 E0.02351
G1 X0.322 Y-0.741 E0.01692 F600.000
G1 X0.466 Y-0.660 E0.01517
G1 X0.591 Y-0.552 E0.01517
G1 X0.691 Y-0.420 E0.01517
G1 X0.757 Y-0.281 E0.01410
G1 X1.421 Y-0.597 F9000.000
G1 X1.458 Y-0.518 E0.00800 F600.000
G1 X1.533 Y-0.211 E0.02905
G1 X1.544 Y0.106 E0.02905
G1 X1.490 Y0.418 E0.02905
G1 X1.374 Y0.712 E0.02905
G1 X1.201 Y0.977 E0.02905
G1 X0.974 Y1.204 E0.02948
G1 X0.810 Y1.320 E0.01835
G1 X0.518 Y1.458 E0.02966
G1 X0.211 Y1.533 E0.02905
G1 X-0.106 Y1.544 E0.02905
G1 X-0.418 Y1.490 E0.02905
G1 X-0.712 Y1.374 E0.02905
G1 X-0.977 Y1.201 E0.02905
G1 X-1.201 Y0.977 E0.02905
G1 X-1.374 Y0.712 E0.02905
G1 X-1.492 Y0.413 E0.02948
G1 X-1.533 Y0.217 E0.01835
G1 X-1.544 Y-0.113 E0.03029
G1 X-1.518 Y-0.308 E0.01814
G1 X-1.420 Y-0.617 E0.02968
G1 X-1.265 Y-0.893 E0.02905
G1 X-1.056 Y-1.131 E0.02905
G1 X-0.804 Y-1.323 E0.02905
G1 X-0.518 Y-1.458 E0.02905
G1 X-0.211 Y-1.533 E0.02905
G1 X0.110 Y-1.545 E0.02948
G1 X0.309 Y-1.518 E0.01835
G1 X0.617 Y-1.420 E0.02966 F600.000
G1 X0.893 Y-1.265 E0.02905
G1 X1.131 Y-1.056 E0.02905
G1 X1.323 Y-0.804 E0.02905
G1 X1.395 Y-0.651 E0.01554
G1 X1.372 Y-0.525 F9000.000
G1 X0.345 Y0.091 F9000.000
G1 X-0.089 Y-0.344 E0.05634 F600.000
G1 E-3.20000 F3000.00000
G1 Z0.700 F9000.000
G1 X-9.987 Y-0.805 F9000.000
G1 Z0.300 F9000.000
G1 E3.20000 F3000.00000
G1 X-9.854 Y-0.797 E0.01225 F600.000
G1 X-9.678 Y-0.741 E0.01692 F600.000
G1 X-9.534 Y-0.660 E0.01517
G1 X-9.409 Y-0.552 E0.01517
G1 X-9.309 Y-0.420 E0.01517
G1 X-9.238 Y-0.271 E0.01517
G1 X-9.199 Y-0.110 E0.01517
G1 X-9.194 Y0.055 E0.01517
G1 X-9.222 Y0.218 E0.01517
G1 X-9.282 Y0.372 E0.01517
G1 X-9.373 Y0.510 E0.01519
G1 X-9.502 Y0.640 E0.01679
G1 X-9.729 Y0.762 E0.02363
G1 X-9.890 Y0.801 E0.01517
G1 X-10.055 Y0.806 E0.01517
G1 X-10.218 Y0.778 E0.01517
G1 X-10.372 Y0.718 E0.01517
G1 X-10.510 Y0.627 E0.01517
G1 X-10.627 Y0.510 E0.01517
G1 X-10.718 Y0.372 E0.01519
G1 X-10.785 Y0.201 E0.01679
G1 X-10.807 Y-0.075 E0.02542
G1 X-10.741 Y-0.322 E0.02348
G1 X-10.660 Y-0.466 E0.01517
G1 X-10.552 Y-0.591 E0.01517
G1 X-10.420 Y-0.691 E0.01517
G1 X-10.271 Y-0.762 E0.01517
G1 X-10.047 Y-0.803 E0.02088
G1 X-10.072 Y-1.538 F9000.000
G1 X-9.890 Y-1.545 E0.01678 F600.000
G1 X-9.691 Y-1.518 E0.01835
G1 X-9.383 Y-1.420 E0.02966 F600.000
G1 X-9.107 Y-1.265 E0.02905
G1 X-8.869 Y-1.056 E0.02905
G1 X-8.677 Y-0.804 E0.02905
G1 X-8.542 Y-0.518 E0.02905
G1 X-8.467 Y-0.211 E0.02905
G1 X-8.456 Y0.106 E0.02905
G1 X-8.510 Y0.418 E0.02905
G1 X-8.626 Y0.712 E0.02905
G1 X-8.799 Y0.977 E0.02905
G1 X-9.026 Y1.204 E0.02948
G1 X-9.190 Y1.320 E0.01835
G1 X-9.482 Y1.458 E0.02966
G1 X-9.789 Y1.533 E0.02905
G1 X-10.106 Y1.544 E0.02905
G1 X-10.418 Y1.490 E0.02905
G1 X-10.712 Y1.374 E0.02905
G1 X-10.977 Y1.201 E0.02905
G1 X-11.201 Y0.977 E0.02905
G1 X-11.374 Y0.712 E0.02905
G1 X-11.492 Y0.413 E0.02948
G1 X-11.533 Y0.217 E0.01835
G1 X-11.544 Y-0.113 E0.03029
G1 X-11.518 Y-0.308 E0.01814
G1 X-11.420 Y-0.617 E0.02968
G1 X-11.265 Y-0.893 E0.02905
G1 X-11.056 Y-1.131 E0.02905
G1 X-10.804 Y-1.323 E0.02905
G1 X-10.518 Y-1.458 E0.02905
G1 X-10.211 Y-1.533 E0.02905
G1 X-10.132 Y-1.536 E0.00720
G1 X-9.976 Y-1.383 F9000.000
G1 X-10.089 Y-0.344 F9000.000
G1 X-9.655 Y0.091 E0.05634 F600.000
G1 E-3.20000 F3000.00000
G1 Z0.700 F9000.000
G1 X-0.318 Y-9.261 F9000.000
G1 Z0.300 F9000.000
G1 E3.20000 F3000.00000
G1 X-0.510 Y-9.373 E0.02045 F600.000
G1 X-0.627 Y-9.490 E0.01517
G1 X-0.718 Y-9.628 E0.01519
G1 X-0.800 Y-9.871 E0.02351
G1 X-0.797 Y-10.146 E0.02523
G1 X-0.741 Y-10.322 E0.01696
G1 X-0.660 Y-10.466 E0.01517
G1 X-0.552 Y-10.591 E0.01517
G1 X-0.420 Y-10.691 E0.01517
G1 X-0.271 Y-10.762 E0.01517
G1 X-0.110 Y-10.801 E0.01519
G1 X0.146 Y-10.797 E0.02351
G1 X0.322 Y-10.741 E0.01692 F600.000
G1 X0.466 Y-10.660 E0.01517
G1 X0.591 Y-10.552 E0.01517
G1 X0.691 Y-10.420 E0.01517
G1 X0.762 Y-10.271 E0.01517
G1 X0.801 Y-10.110 E0.01517
G1 X0.806 Y-9.945 E0.01517
G1 X0.778 Y-9.782 E0.01517
G1 X0.718 Y-9.628 E0.01517
G1 X0.627 Y-9.490 E0.01519
G1 X0.437 Y-9.317 E0.02351
G1 X0.271 Y-9.238 E0.01692
G1 X0.110 Y-9.199 E0.01517
G1 X-0.055 Y-9.194 E0.01517
G1 X-0.262 Y-9.239 E0.01940
G1 X-0.532 Y-8.554 F9000.000
G1 X-0.712 Y-8.626 E0.01780 F600.000
G1 X-0.977 Y-8.799 E0.02905
G1 X-1.201 Y-9.023 E0.02905
G1 X-1.374 Y-9.288 E0.02905
G1 X-1.492 Y-9.587 E0.02948
G1 X-1.533 Y-9.783 E0.01835
G1 X-1.544 Y-10.113 E0.03029
G1 X-1.518 Y-10.308 E0.01814
G1 X-1.420 Y-10.617 E0.02968
G1 X-1.265 Y-10.893 E0.02905
G1 X-1.056 Y-11.131 E0.02905
G1 X-0.804 Y-11.323 E0.02905
G1 X-0.518 Y-11.458 E0.02905
G1 X-0.211 Y-11.533 E0.02905
G1 X0.110 Y-11.545 E0.02948
G1 X0.309 Y-11.518 E0.01835
G1 X0.617 Y-11.420 E0.02966 F600.000
G1 X0.893 Y-11.265 E0.02905
G1 X1.131 Y-11.056 E0.02905
G1 X1.323 Y-10.804 E0.02905
G1 X1.458 Y-10.518 E0.02905
G1 X1.533 Y-10.211 E0.02905
G1 X1.544 Y-9.894 E0.02905
G1 X1.490 Y-9.582 E0.02905
G1 X1.374 Y-9.288 E0.02905
G1 X1.201 Y-9.023 E0.02905
G1 X0.974 Y-8.796 E0.02948
G1 X0.810 Y-8.680 E0.01835
G1 X0.518 Y-8.542 E0.02966
G1 X0.211 Y-8.467 E0.02905
G1 X-0.106 Y-8.456 E0.02905
G1 X-0.476 Y-8.532 E0.03468
G1 X-0.570 Y-8.745 F9000.000
G1 X0.345 Y-9.909 F9000.000
G1 X-0.089 Y-10.344 E0.05634 F600.000
G1 E-3.20000 F3000.00000
G1 Z0.700 F9000.000
G1 X10.520 Y-0.613 F9000.000
G1 Z0.300 F9000.000
G1 E3.20000 F3000.00000
G1 X10.691 Y-0.420 E0.02365 F600.000
G1 X10.762 Y-0.271 E0.01517
G1 X10.801 Y-0.110 E0.01517
G1 X10.806 Y0.055 E0.01517
G1 X10.778 Y0.218 E0.01517
G1 X10.718 Y0.372 E0.01517
G1 X10.627 Y0.510 E0.01519
G1 X10.437 Y0.683 E0.02351
G1 X10.271 Y0.762 E0.01692
G1 X10.110 Y0.801 E0.01517
G1 X9.945 Y0.806 E0.01517
G1 X9.782 Y0.778 E0.01517
G1 X9.628 Y0.718 E0.01517
G1 X9.490 Y0.627 E0.01517
G1 X9.373 Y0.510 E0.01517
G1 X9.282 Y0.372 E0.01519
G1 X9.215 Y0.201 E0.01679
G1 X9.193 Y-0.075 E0.02542
G1 X9.259 Y-0.322 E0.02348
G1 X9.340 Y-0.466 E0.01517
G1 X9.448 Y-0.591 E0.01517
G1 X9.580 Y-0.691 E0.01517
G1 X9.729 Y-0.762 E0.01517
G1 X9.890 Y-0.801 E0.01519
G1 X10.146 Y-0.797 E0.02351
G1 X10.322 Y-0.741 E0.01692 F600.000
G1 X10.475 Y-0.653 E0.01622
G1 X10.958 Y-1.207 F9000.000
G1 X11.131 Y-1.056 E0.02104 F600.000
G1 X11.323 Y-0.804 E0.02905
G1 X11.458 Y-0.518 E0.02905
G1 X11.533 Y-0.211 E0.02905
G1 X11.544 Y0.106 E0.02905
G1 X11.490 Y0.418 E0.02905
G1 X11.374 Y0.712 E0.02905
G1 X11.201 Y0.977 E0.02905
G1 X10.974 Y1.204 E0.02948
G1 X10.810 Y1.320 E0.01835
G1 X10.518 Y1.458 E0.02966
G1 X10.211 Y1.533 E0.02905
G1 X9.894 Y1.544 E0.02905
G1 X9.582 Y1.490 E0.02905
G1 X9.288 Y1.374 E0.02905
G1 X9.023 Y1.201 E0.02905
G1 X8.799 Y0.977 E0.02905
G1 X8.626 Y0.712 E0.02905
G1 X8.508 Y0.413 E0.02948
G1 X8.467 Y0.217 E0.01835
G1 X8.456 Y-0.113 E0.03029
G1 X8.482 Y-0.308 E0.01814
G1 X8.580 Y-0.617 E0.02968
G1 X8.735 Y-0.893 E0.02905
G1 X8.944 Y-1.131 E0.02905
G1 X9.196 Y-1.323 E0.02905
G1 X9.482 Y-1.458 E0.02905
G1 X9.789 Y-1.533 E0.02905
G1 X10.110 Y-1.545 E0.02948
G1 X10.309 Y-1.518 E0.01835
G1 X10.617 Y-1.420 E0.02966 F600.000
G1 X10.913 Y-1.247 E0.03150
G1 X10.926 Y-0.980 F9000.000
G1 X9.911 Y-0.344 F9000.000
G1 X10.345 Y0.091 E0.05634 F600.000
G1 E-3.20000 F3000.00000
G1 Z0.700 F9000.000
G1 X10.401 Y9.303 F9000.000
G1 Z0.300 F9000.000
G1 E3.20000 F3000.00000
G1 X10.591 Y9.448 E0.02197 F600.000
G1 X10.691 Y9.580 E0.01517
G1 X10.762 Y9.729 E0.01517
G1 X10.801 Y9.890 E0.01517
G1 X10.806 Y10.055 E0.01517
G1 X10.778 Y10.218 E0.01517
G1 X10.718 Y10.372 E0.01517
G1 X10.627 Y10.510 E0.01519
G1 X10.498 Y10.640 E0.01679
G1 X10.271 Y10.762 E0.02363
G1 X10.110 Y10.801 E0.01517
G1 X9.945 Y10.806 E0.01517
G1 X9.782 Y10.778 E0.01517
G1 X9.628 Y10.718 E0.01517
G1 X9.490 Y10.627 E0.01517
G1 X9.373 Y10.510 E0.01517
G1 X9.282 Y10.372 E0.01519
G1 X9.200 Y10.129 E0.02351
G1 X9.203 Y9.854 E0.02523
G1 X9.259 Y9.678 E0.01696
G1 X9.340 Y9.534 E0.01517
G1 X9.448 Y9.409 E0.01517
G1 X9.580 Y9.309 E0.01517
G1 X9.729 Y9.238 E0.01517
G1 X9.890 Y9.199 E0.01519
G1 X10.146 Y9.203 E0.02351
G1 X10.348 Y9.273 E0.01963 F600.000
G1 X10.709 Y8.632 F9000.000
G1 X10.893 Y8.735 E0.01935 F600.000
G1 X11.131 Y8.944 E0.02905
G1 X11.323 Y9.196 E0.02905
G1 X11.458 Y9.482 E0.02905
G1 X11.533 Y9.789 E0.02905
G1 X11.544 Y10.106 E0.02905
G1 X11.490 Y10.418 E0.02905
G1 X11.374 Y10.712 E0.02905
G1 X11.201 Y10.977 E0.02905
G1 X10.974 Y11.204 E0.02948
G1 X10.810 Y11.320 E0.01835
G1 X10.518 Y11.458 E0.02966
G1 X10.211 Y11.533 E0.02905
G1 X9.894 Y11.544 E0.02905
G1 X9.582 Y11.490 E0.02905
G1 X9.288 Y11.374 E0.02905
G1 X9.023 Y11.201 E0.02905
G1 X8.799 Y10.977 E0.02905
G1 X8.626 Y10.712 E0.02905
G1 X8.508 Y10.413 E0.02948
G1 X8.467 Y10.217 E0.01835
G1 X8.456 Y9.887 E0.03029
G1 X8.482 Y9.692 E0.01814
G1 X8.580 Y9.383 E0.02968
G1 X8.735 Y9.107 E0.02905
G1 X8.944 Y8.869 E0.02905
G1 X9.196 Y8.677 E0.02905
G1 X9.482 Y8.542 E0.02905
G1 X9.789 Y8.467 E0.02905
G1 X10.110 Y8.455 E0.02948
G1 X10.309 Y8.482 E0.01835
G1 X10.657 Y8.603 E0.03378 F600.000
G1 X10.722 Y8.843 F9000.000
G1 X9.911 Y9.656 F9000.000
G1 X10.345 Y10.091 E0.05634 F600.000
G1 E-3.20000 F3000.00000
G1 Z0.700 F9000.000
G1 X-0.803 Y9.897 F9000.000
G1 Z0.300 F9000.000
G1 E3.20000 F3000.00000
G1 X-0.741 Y9.678 E0.02084 F600.000
G1 X-0.660 Y9.534 E0.01517
G1 X-0.552 Y9.409 E0.01517
G1 X-0.420 Y9.309 E0.01517
G1 X-0.271 Y9.238 E0.01517
G1 X-0.110 Y9.199 E0.01519
G1 X0.146 Y9.203 E0.02351
G1 X0.322 Y9.259 E0.01692 F600.000
G1 X0.466 Y9.340 E0.01517
G1 X0.591 Y9.448 E0.01517
G1 X0.691 Y9.580 E0.01517
G1 X0.762 Y9.729 E0.01517
G1 X0.801 Y9.890 E0.01517
G1 X0.806 Y10.055 E0.01517
G1 X0.778 Y10.218 E0.01517
G1 X0.718 Y10.372 E0.01517
G1 X0.627 Y10.510 E0.01519
G1 X0.498 Y10.640 E0.01679
G1 X0.271 Y10.762 E0.02363
G1 X0.110 Y10.801 E0.01517
G1 X-0.055 Y10.806 E0.01517
G1 X-0.218 Y10.778 E0.01517
G1 X-0.372 Y10.718 E0.01517
G1 X-0.510 Y10.627 E0.01517
G1 X-0.627 Y10.510 E0.01517
G1 X-0.718 Y10.372 E0.01519
G1 X-0.785 Y10.201 E0.01679
G1 X-0.806 Y9.956 E0.02258
G1 X-1.541 Y9.981 F9000.000
G1 X-1.518 Y9.692 E0.02667 F600.000
G1 X-1.420 Y9.383 E0.02968
G1 X-1.265 Y9.107 E0.02905
G1 X-1.056 Y8.869 E0.02905
G1 X-0.804 Y8.677 E0.02905
G1 X-0.518 Y8.542 E0.02905
G1 X-0.211 Y8.467 E0.02905
G1 X0.110 Y8.455 E0.02948
G1 X0.309 Y8.482 E0.01835
G1 X0.617 Y8.580 E0.02966 F600.000
G1 X0.893 Y8.735 E0.02905
G1 X1.131 Y8.944 E0.02905
G1 X1.323 Y9.196 E0.02905
G1 X1.458 Y9.482 E0.02905
G1 X1.533 Y9.789 E0.02905
G1 X1.544 Y10.106 E0.02905
G1 X1.490 Y10.418 E0.02905
G1 X1.374 Y10.712 E0.02905
G1 X1.201 Y10.977 E0.02905
G1 X0.974 Y11.204 E0.02948
G1 X0.810 Y11.320 E0.01835
G1 X0.518 Y11.458 E0.02966
G1 X0.211 Y11.533 E0.02905
G1 X-0.106 Y11.544 E0.02905
G1 X-0.418 Y11.490 E0.02905
G1 X-0.712 Y11.374 E0.02905
G1 X-0.977 Y11.201 E0.02905
G1 X-1.201 Y10.977 E0.02905
G1 X-1.374 Y10.712 E0.02905
G1 X-1.492 Y10.413 E0.02948
G1 X-1.533 Y10.217 E0.01835
G1 X-1.539 Y10.041 E0.01617
G1 X-1.284 Y9.847 F9000.000
G1 X-0.089 Y9.656 F9000.000
G1 X0.345 Y10.091 E0.05634 F600.000
G1 E-3.20000 F3000.00000
G1 Z0.700 F9000.000
G1 X-1.166 Y0.469 F9000.000
G1 Z0.600 F9000.000
G1 E3.20000 F3000.00000
G1 X-1.249 Y0.172 E0.01677 F600.000
G1 X-1.258 Y-0.098 E0.01465
G1 X-1.238 Y-0.245 E0.00808
G1 X-1.156 Y-0.502 E0.01465
G1 X-1.030 Y-0.727 E0.01401
G1 X-0.861 Y-0.921 E0.01401
G1 X-0.655 Y-1.077 E0.01401
G1 X-0.422 Y-1.188 E0.01401
G1 X-0.171 Y-1.249 E0.01405
G1 X0.089 Y-1.259 E0.01415
G1 X0.247 Y-1.238 E0.00862
G1 X0.502 Y-1.156 E0.01458 F600.000
G1 X0.727 Y-1.030 E0.01401
G1 X0.921 Y-0.861 E0.01401
G1 X1.077 Y-0.655 E0.01401
G1 X1.188 Y-0.422 E0.01401
G1 X1.249 Y-0.172 E0.01401
G1 X1.258 Y0.086 E0.01401
G1 X1.214 Y0.340 E0.01401
G1 X1.119 Y0.580 E0.01401
G1 X0.978 Y0.796 E0.01405
G1 X0.794 Y0.981 E0.01415
G1 X0.665 Y1.073 E0.00862
G1 X0.422 Y1.188 E0.01458
G1 X0.172 Y1.249 E0.01401
G1 X-0.098 Y1.258 E0.01465
G1 X-0.245 Y1.238 E0.00808
G1 X-0.502 Y1.156 E0.01465
G1 X-0.727 Y1.030 E0.01401
G1 X-0.921 Y0.861 E0.01401
G1 X-1.077 Y0.655 E0.01401
G1 X-1.140 Y0.523 E0.00794
G1 X-1.533 Y0.710 F9000.000
G1 X-1.601 Y0.569 E0.00850 F600.000
G1 X-1.683 Y0.231 E0.01888
G1 X-1.695 Y-0.120 E0.01911
G1 X-1.664 Y-0.341 E0.01214
G1 X-1.558 Y-0.677 E0.01911
G1 X-1.388 Y-0.980 E0.01888
G1 X-1.159 Y-1.241 E0.01888
G1 X-0.883 Y-1.451 E0.01888
G1 X-0.569 Y-1.601 E0.01888
G1 X-0.231 Y-1.683 E0.01889
G1 X0.110 Y-1.695 E0.01856
G1 X0.342 Y-1.664 E0.01269
