; generated by Slic3r 1.2.9 on 2016-11-18 at 11:59:28

; external perimeters extrusion width = 0.50mm
; perimeters extrusion width = 0.50mm
; infill extrusion width = 0.50mm
; solid infill extrusion width = 0.50mm
; top infill extrusion width = 0.50mm

M107
;Basic settings: Layer height: {layer_height} Walls: {wall_thickness} Fill: {fill_density}
;Print time: {print_time}
;Filament used: {filament_amount}m {filament_weight}g
;Filament cost: {filament_cost}
;M190 S{print_bed_temperature} ;Uncomment to add your own bed temperature line
;M109 S{print_temperature} ;Uncomment to add your own temperature line
G21        ;metric values
G90        ;absolute positioning
M83
G10 P0 S200
T0
M116


G21 ; set units to millimeters
G90 ; use absolute coordinates
M83 ; use relative distances for extrusion
G1 E-3.20000 F3000.00000
G1 Z0.400 F9000.000
G1 X3.870 Y10.489 F9000.000
G1 Z0.300 F9000.000
G1 E3.20000 F3000.00000
G1 X3.316 Y10.681 E0.05374 F1024.100
G1 X2.753 Y10.839 E0.05367
G1 X1.605 Y11.068 E0.10745
G1 X1.021 Y11.137 E0.05387
G1 X0.147 Y11.183 E0.08037
G1 X-1.021 Y11.137 E0.10717
G1 X-1.894 Y11.022 E0.08085
G1 X-2.468 Y10.908 E0.05367
G1 X-3.316 Y10.681 E0.08057
G1 X-4.415 Y10.275 E0.10745
G1 X-5.206 Y9.898 E0.08042
G1 X-5.718 Y9.611 E0.05382
G1 X-6.692 Y8.961 E0.10745
G1 X-7.151 Y8.599 E0.05367
G1 X-7.803 Y8.011 E0.08052
G1 X-8.598 Y7.152 E0.10735
G1 X-9.133 Y6.454 E0.08077
G1 X-9.611 Y5.718 E0.08053
G1 X-9.897 Y5.208 E0.05367
G1 X-10.388 Y4.144 E0.10745
G1 X-10.680 Y3.317 E0.08046
G1 X-10.839 Y2.753 E0.05378
G1 X-11.068 Y1.605 E0.10745
G1 X-11.160 Y0.731 E0.08057
G1 X-11.183 Y0.147 E0.05367
G1 X-11.160 Y-0.731 E0.08057
G1 X-11.022 Y-1.892 E0.10726
G1 X-10.908 Y-2.468 E0.05386
G1 X-10.681 Y-3.316 E0.08057
G1 X-10.276 Y-4.414 E0.10736
G1 X-9.899 Y-5.204 E0.08031
G1 X-9.611 Y-5.718 E0.05402
G1 X-9.132 Y-6.456 E0.08080
G1 X-8.408 Y-7.374 E0.10727
G1 X-7.804 Y-8.011 E0.08049
G1 X-7.374 Y-8.408 E0.05371
G1 X-6.454 Y-9.133 E0.10745
G1 X-5.717 Y-9.612 E0.08062
G1 X-4.951 Y-10.028 E0.08003
G1 X-4.415 Y-10.275 E0.05416
G1 X-3.316 Y-10.681 E0.10746
G1 X-2.753 Y-10.839 E0.05367
G1 X-1.894 Y-11.022 E0.08057
G1 X-0.731 Y-11.160 E0.10745
G1 X-0.147 Y-11.183 E0.05367
G1 X0.731 Y-11.160 E0.08052
G1 X1.604 Y-11.068 E0.08061 F1024.100
G1 X2.468 Y-10.908 E0.08057
G1 X3.316 Y-10.681 E0.08057
G1 X4.414 Y-10.276 E0.10731
G1 X5.204 Y-9.899 E0.08036
G1 X5.968 Y-9.458 E0.08092
G1 X6.692 Y-8.961 E0.08057
G1 X7.374 Y-8.408 E0.08057
G1 X8.011 Y-7.804 E0.08057
G1 X8.599 Y-7.151 E0.08057
G1 X9.131 Y-6.458 E0.08015
G1 X9.458 Y-5.968 E0.05409
G1 X9.897 Y-5.208 E0.08057
G1 X10.275 Y-4.415 E0.08057
G1 X10.590 Y-3.595 E0.08057
G1 X10.839 Y-2.753 E0.08057
G1 X11.068 Y-1.605 E0.10745
G1 X11.160 Y-0.731 E0.08057
G1 X11.183 Y0.147 E0.08057
G1 X11.137 Y1.018 E0.08004
G1 X11.022 Y1.894 E0.08110
G1 X10.839 Y2.753 E0.08057
G1 X10.590 Y3.595 E0.08057
G1 X10.388 Y4.144 E0.05367
G1 X10.031 Y4.946 E0.08052
G1 X9.611 Y5.718 E0.08061
G1 X9.131 Y6.458 E0.08099
G1 X8.408 Y7.374 E0.10704
G1 X7.804 Y8.011 E0.08057
G1 X7.151 Y8.599 E0.08057
G1 X6.456 Y9.132 E0.08035
G1 X5.718 Y9.611 E0.08079
G1 X4.946 Y10.030 E0.08056
G1 X4.415 Y10.275 E0.05368
G1 X3.926 Y10.468 E0.04823
G1 E-3.20000 F3000.00000
G1 Z0.700 F9000.000
G1 X1.556 Y4.103 F9000.000
G1 Z0.300 F9000.000
G1 E3.20000 F3000.00000
G1 X1.050 Y4.260 E0.04861 F768.075
G1 X0.529 Y4.356 E0.04861
G1 X0.000 Y4.388 E0.04861
G1 X-0.529 Y4.356 E0.04861
G1 X-1.050 Y4.260 E0.04861
G1 X-1.556 Y4.103 E0.04861
G1 X-2.039 Y3.885 E0.04861
G1 X-2.493 Y3.611 E0.04861
G1 X-2.910 Y3.284 E0.04861
G1 X-3.284 Y2.910 E0.04861
G1 X-3.611 Y2.493 E0.04862
G1 X-3.885 Y2.039 E0.04861
G1 X-4.103 Y1.556 E0.04861
G1 X-4.260 Y1.050 E0.04861
G1 X-4.356 Y0.529 E0.04861
G1 X-4.388 Y-0.000 E0.04862
G1 X-4.356 Y-0.529 E0.04861
G1 X-4.260 Y-1.050 E0.04861
G1 X-4.103 Y-1.556 E0.04861
G1 X-3.885 Y-2.039 E0.04861
G1 X-3.611 Y-2.493 E0.04862
G1 X-3.284 Y-2.910 E0.04861
G1 X-2.910 Y-3.284 E0.04861
G1 X-2.493 Y-3.611 E0.04861
G1 X-2.039 Y-3.885 E0.04861
G1 X-1.556 Y-4.103 E0.04861
G1 X-1.050 Y-4.260 E0.04861
G1 X-0.529 Y-4.356 E0.04861
G1 X0.000 Y-4.388 E0.04862 F768.075
G1 X0.529 Y-4.356 E0.04861
G1 X1.050 Y-4.260 E0.04861
G1 X1.556 Y-4.103 E0.04861
G1 X2.039 Y-3.885 E0.04861
G1 X2.493 Y-3.611 E0.04861
G1 X2.910 Y-3.284 E0.04862
G1 X3.284 Y-2.910 E0.04861
G1 X3.611 Y-2.493 E0.04861
G1 X3.885 Y-2.039 E0.04862
G1 X4.103 Y-1.556 E0.04861
G1 X4.260 Y-1.050 E0.04861
G1 X4.356 Y-0.529 E0.04861
G1 X4.388 Y-0.000 E0.04861
G1 X4.356 Y0.529 E0.04862
G1 X4.260 Y1.050 E0.04861
G1 X4.103 Y1.556 E0.04861
G1 X3.885 Y2.039 E0.04861
G1 X3.611 Y2.493 E0.04862
G1 X3.284 Y2.910 E0.04861
G1 X2.910 Y3.284 E0.04861
G1 X2.493 Y3.611 E0.04861
G1 X2.039 Y3.885 E0.04862
G1 X1.611 Y4.078 E0.04311
G1 X1.309 Y3.407 F9000.000
G1 X0.874 Y3.545 E0.04186 F768.075
G1 X0.440 Y3.624 E0.04045
G1 X0.000 Y3.651 E0.04045
G1 X-0.440 Y3.624 E0.04045
G1 X-0.874 Y3.545 E0.04045
G1 X-1.295 Y3.414 E0.04045
G1 X-1.697 Y3.233 E0.04045
G1 X-2.074 Y3.005 E0.04045
G1 X-2.421 Y2.733 E0.04045
G1 X-2.733 Y2.421 E0.04045
G1 X-3.005 Y2.074 E0.04045
G1 X-3.233 Y1.697 E0.04045
G1 X-3.414 Y1.295 E0.04045
G1 X-3.545 Y0.874 E0.04045
G1 X-3.624 Y0.440 E0.04045
G1 X-3.651 Y-0.000 E0.04045
G1 X-3.624 Y-0.440 E0.04045
G1 X-3.545 Y-0.874 E0.04045
G1 X-3.414 Y-1.295 E0.04045
G1 X-3.233 Y-1.697 E0.04045
G1 X-3.005 Y-2.074 E0.04045
G1 X-2.733 Y-2.421 E0.04045
G1 X-2.421 Y-2.733 E0.04045
G1 X-2.074 Y-3.005 E0.04045
G1 X-1.697 Y-3.233 E0.04045
G1 X-1.295 Y-3.414 E0.04045
G1 X-0.874 Y-3.545 E0.04045
G1 X-0.440 Y-3.624 E0.04045
G1 X0.000 Y-3.651 E0.04045 F768.075
G1 X0.440 Y-3.624 E0.04045
G1 X0.874 Y-3.545 E0.04045
G1 X1.295 Y-3.414 E0.04045
G1 X1.697 Y-3.233 E0.04045
G1 X2.074 Y-3.005 E0.04045
G1 X2.421 Y-2.733 E0.04045
G1 X2.733 Y-2.421 E0.04045
G1 X3.005 Y-2.074 E0.04045
G1 X3.233 Y-1.697 E0.04045
G1 X3.414 Y-1.295 E0.04045
G1 X3.545 Y-0.874 E0.04045
G1 X3.624 Y-0.440 E0.04045
G1 X3.651 Y-0.000 E0.04045
G1 X3.624 Y0.440 E0.04045
G1 X3.545 Y0.874 E0.04045
G1 X3.414 Y1.295 E0.04045
G1 X3.233 Y1.697 E0.04045
G1 X3.005 Y2.074 E0.04045
G1 X2.733 Y2.421 E0.04045
G1 X2.421 Y2.733 E0.04045
G1 X2.074 Y3.005 E0.04045
G1 X1.697 Y3.233 E0.04045
G1 X1.363 Y3.383 E0.03352
G1 X1.238 Y3.801 F9000.000
G1 X2.633 Y5.733 F9000.000
G1 X2.416 Y5.833 E0.02188 F768.075
G1 X1.951 Y6.004 E0.04548
G1 X1.474 Y6.139 E0.04548
G1 X0.988 Y6.236 E0.04548
G1 X0.495 Y6.294 E0.04548
G1 X0.000 Y6.313 E0.04544
G1 X-0.495 Y6.294 E0.04553
G1 X-0.988 Y6.236 E0.04548
G1 X-1.474 Y6.139 E0.04548
G1 X-1.951 Y6.004 E0.04548
G1 X-2.416 Y5.833 E0.04548
G1 X-2.866 Y5.625 E0.04548
G1 X-3.299 Y5.383 E0.04553
G1 X-3.711 Y5.108 E0.04544
G1 X-4.100 Y4.801 E0.04548
G1 X-4.464 Y4.464 E0.04548
G1 X-4.801 Y4.100 E0.04548
G1 X-5.108 Y3.711 E0.04548
G1 X-5.383 Y3.299 E0.04548
G1 X-5.625 Y2.866 E0.04548
G1 X-5.833 Y2.416 E0.04548
G1 X-6.004 Y1.951 E0.04548
G1 X-6.139 Y1.474 E0.04548
G1 X-6.236 Y0.988 E0.04544
G1 X-6.294 Y0.495 E0.04553
G1 X-6.313 Y-0.000 E0.04548
G1 X-6.294 Y-0.495 E0.04548
G1 X-6.236 Y-0.988 E0.04548
G1 X-6.139 Y-1.474 E0.04548
G1 X-6.004 Y-1.951 E0.04548
G1 X-5.833 Y-2.416 E0.04549
G1 X-5.625 Y-2.866 E0.04548
G1 X-5.383 Y-3.299 E0.04548
G1 X-5.108 Y-3.711 E0.04548
G1 X-4.801 Y-4.100 E0.04544
G1 X-4.464 Y-4.464 E0.04553
G1 X-4.100 Y-4.801 E0.04548
G1 X-3.711 Y-5.108 E0.04548
G1 X-3.299 Y-5.383 E0.04548
G1 X-2.866 Y-5.625 E0.04548
G1 X-2.416 Y-5.833 E0.04548
G1 X-1.951 Y-6.004 E0.04548
G1 X-1.474 Y-6.139 E0.04548
G1 X-0.987 Y-6.236 E0.04553
G1 X-0.495 Y-6.294 E0.04544
G1 X-0.000 Y-6.313 E0.04548
G1 X0.495 Y-6.294 E0.04544
G1 X0.988 Y-6.236 E0.04553 F768.075
G1 X1.474 Y-6.139 E0.04548
G1 X1.951 Y-6.004 E0.04548
G1 X2.416 Y-5.833 E0.04548
G1 X2.866 Y-5.625 E0.04548
G1 X3.299 Y-5.383 E0.04548
G1 X3.711 Y-5.108 E0.04548
G1 X4.100 Y-4.801 E0.04548
G1 X4.464 Y-4.464 E0.04548
G1 X4.801 Y-4.100 E0.04548
G1 X5.108 Y-3.711 E0.04548
G1 X5.383 Y-3.298 E0.04553
G1 X5.625 Y-2.866 E0.04544
G1 X5.833 Y-2.416 E0.04548
G1 X6.004 Y-1.951 E0.04548
G1 X6.139 Y-1.474 E0.04548
G1 X6.236 Y-0.988 E0.04544
G1 X6.294 Y-0.495 E0.04553
G1 X6.313 Y-0.000 E0.04548
G1 X6.294 Y0.495 E0.04548
G1 X6.236 Y0.988 E0.04548
G1 X6.139 Y1.474 E0.04548
G1 X6.004 Y1.951 E0.04548
G1 X5.833 Y2.416 E0.04548
G1 X5.625 Y2.866 E0.04548
G1 X5.383 Y3.299 E0.04548
G1 X5.108 Y3.711 E0.04548
G1 X4.801 Y4.100 E0.04548
G1 X4.464 Y4.464 E0.04548
G1 X4.100 Y4.801 E0.04548
G1 X3.711 Y5.108 E0.04548
G1 X3.299 Y5.383 E0.04548
G1 X2.687 Y5.708 E0.06354
G1 X2.995 Y6.376 F9000.000
G1 X2.698 Y6.513 E0.03004 F768.075
G1 X2.178 Y6.705 E0.05079
G1 X1.646 Y6.855 E0.05079
G1 X1.103 Y6.963 E0.05079
G1 X0.553 Y7.028 E0.05079
G1 X0.000 Y7.050 E0.05074
G1 X-0.553 Y7.028 E0.05083
G1 X-1.103 Y6.963 E0.05079
G1 X-1.646 Y6.855 E0.05079
G1 X-2.178 Y6.705 E0.05079
G1 X-2.698 Y6.513 E0.05079
G1 X-3.200 Y6.281 E0.05079
G1 X-3.684 Y6.011 E0.05083
G1 X-4.144 Y5.703 E0.05074
G1 X-4.578 Y5.361 E0.05079
G1 X-4.985 Y4.985 E0.05079
G1 X-5.361 Y4.578 E0.05079
G1 X-5.703 Y4.144 E0.05079
G1 X-6.011 Y3.683 E0.05079
G1 X-6.281 Y3.200 E0.05079
G1 X-6.513 Y2.698 E0.05079
G1 X-6.705 Y2.178 E0.05079
G1 X-6.855 Y1.646 E0.05079
G1 X-6.963 Y1.103 E0.05074
G1 X-7.028 Y0.553 E0.05083
G1 X-7.050 Y-0.000 E0.05079
G1 X-7.028 Y-0.553 E0.05079
G1 X-6.963 Y-1.103 E0.05079
G1 X-6.855 Y-1.646 E0.05079
G1 X-6.705 Y-2.178 E0.05079
G1 X-6.513 Y-2.698 E0.05079
G1 X-6.281 Y-3.200 E0.05079
G1 X-6.011 Y-3.683 E0.05079
G1 X-5.703 Y-4.144 E0.05079
G1 X-5.361 Y-4.578 E0.05074
G1 X-4.985 Y-4.985 E0.05083
G1 X-4.578 Y-5.361 E0.05079
G1 X-4.144 Y-5.703 E0.05079
G1 X-3.683 Y-6.011 E0.05079
G1 X-3.200 Y-6.281 E0.05079
G1 X-2.698 Y-6.513 E0.05079
G1 X-2.178 Y-6.705 E0.05079
G1 X-1.646 Y-6.855 E0.05078
G1 X-1.102 Y-6.963 E0.05083
G1 X-0.553 Y-7.028 E0.05074
G1 X-0.000 Y-7.050 E0.05079
G1 X0.553 Y-7.028 E0.05074
G1 X1.103 Y-6.963 E0.05083 F768.075
G1 X1.646 Y-6.855 E0.05079
G1 X2.178 Y-6.705 E0.05079
G1 X2.698 Y-6.513 E0.05079
G1 X3.200 Y-6.281 E0.05079
G1 X3.683 Y-6.011 E0.05079
G1 X4.144 Y-5.703 E0.05079
G1 X4.578 Y-5.361 E0.05079
G1 X4.985 Y-4.985 E0.05079
G1 X5.361 Y-4.578 E0.05079
G1 X5.703 Y-4.144 E0.05079
G1 X6.011 Y-3.683 E0.05083
G1 X6.281 Y-3.200 E0.05074
G1 X6.513 Y-2.698 E0.05079
G1 X6.705 Y-2.178 E0.05079
G1 X6.855 Y-1.646 E0.05079
G1 X6.963 Y-1.103 E0.05074
G1 X7.028 Y-0.553 E0.05083
G1 X7.050 Y-0.000 E0.05079
G1 X7.028 Y0.553 E0.05079
G1 X6.963 Y1.103 E0.05079
G1 X6.855 Y1.646 E0.05079
G1 X6.705 Y2.178 E0.05079
G1 X6.513 Y2.698 E0.05079
G1 X6.281 Y3.200 E0.05079
G1 X6.011 Y3.683 E0.05079
G1 X5.703 Y4.144 E0.05079
G1 X5.361 Y4.578 E0.05079
G1 X4.985 Y4.985 E0.05079
G1 X4.578 Y5.361 E0.05079
G1 X4.144 Y5.703 E0.05079
G1 X3.683 Y6.011 E0.05079
G1 X3.050 Y6.351 E0.06599
G1 X2.724 Y6.192 F9000.000
G1 X3.867 Y-3.104 F9000.000
G1 X5.671 Y-1.300 E0.24135 F768.075
G1 X4.726 Y-1.173 E0.09024
G1 X5.856 Y-0.043 E0.15120
G1 X5.802 Y0.976 E0.09649
G1 X4.829 Y0.002 E0.13024
G1 X4.708 Y0.955 E0.09080
G1 X5.604 Y1.850 E0.11980
G1 X5.301 Y2.619 E0.07820
G1 X4.446 Y1.765 E0.11431
G1 X4.081 Y2.472 E0.07528
G1 X4.912 Y3.304 E0.11127
G1 X4.446 Y3.910 E0.07234
G1 X3.630 Y3.094 E0.10911
G1 X3.094 Y3.630 E0.07173
G1 X3.910 Y4.446 E0.10911
G1 X3.304 Y4.912 E0.07234
G1 X2.472 Y4.081 E0.11127
G1 X1.765 Y4.446 E0.07528
G1 X2.619 Y5.301 E0.11431
G1 X1.850 Y5.604 E0.07820
G1 X0.955 Y4.708 E0.11980
G1 X0.002 Y4.829 E0.09080
G1 X0.976 Y5.802 E0.13024
G1 X-0.043 Y5.856 E0.09649
G1 X-1.173 Y4.726 E0.15120
G1 X-1.300 Y5.671 E0.09024
G1 X-3.104 Y3.867 E0.24136
G1 X-3.535 Y4.509 E0.07311
G1 X-4.509 Y3.535 E0.13032
G1 X-3.867 Y3.104 E0.07311
G1 X-5.671 Y1.300 E0.24136
G1 X-4.726 Y1.173 E0.09024
G1 X-5.856 Y0.043 E0.15120
G1 X-5.802 Y-0.976 E0.09649
G1 X-4.829 Y-0.002 E0.13024
G1 X-4.708 Y-0.955 E0.09080
G1 X-5.604 Y-1.850 E0.11980
G1 X-5.301 Y-2.619 E0.07820
G1 X-4.446 Y-1.765 E0.11431
G1 X-4.081 Y-2.472 E0.07528
G1 X-4.912 Y-3.304 E0.11127
G1 X-4.446 Y-3.910 E0.07234
G1 X-3.630 Y-3.094 E0.10911
G1 X-3.094 Y-3.630 E0.07173
G1 X-3.910 Y-4.446 E0.10911
G1 X-3.304 Y-4.912 E0.07234
G1 X-2.472 Y-4.081 E0.11127
G1 X-1.765 Y-4.446 E0.07528
G1 X-2.619 Y-5.301 E0.11431
G1 X-1.850 Y-5.604 E0.07820
G1 X-0.955 Y-4.708 E0.11980
G1 X-0.002 Y-4.829 E0.09080
G1 X-0.976 Y-5.802 E0.13024
G1 X0.043 Y-5.856 E0.09649
G1 X1.173 Y-4.726 E0.15120
G1 X1.300 Y-5.671 E0.09024
G1 X3.104 Y-3.867 E0.24135
G1 X3.535 Y-4.509 E0.07311
G1 X4.509 Y-3.535 E0.13033
G1 E-3.20000 F3000.00000
G1 Z0.700 F9000.000
G1 X3.092 Y-2.425 F9000.000
G1 Z0.600 F9000.000
G1 E3.20000 F3000.00000
G1 X3.240 Y-2.236 E0.01300 F988.052
G1 X3.486 Y-1.830 E0.02583
G1 X3.681 Y-1.396 E0.02583
G1 X3.823 Y-0.942 E0.02583
G1 X3.908 Y-0.475 E0.02583
G1 X3.937 Y-0.000 E0.02583
G1 X3.908 Y0.475 E0.02583
G1 X3.823 Y0.942 E0.02583
G1 X3.681 Y1.396 E0.02583
G1 X3.486 Y1.830 E0.02583
G1 X3.240 Y2.236 E0.02583
G1 X2.947 Y2.611 E0.02583
G1 X2.611 Y2.947 E0.02583
G1 X2.236 Y3.240 E0.02583
G1 X1.837 Y3.482 E0.02536
G1 X1.397 Y3.681 E0.02625
G1 X0.942 Y3.823 E0.02587
G1 X0.475 Y3.908 E0.02583
G1 X0.000 Y3.937 E0.02583
G1 X-0.475 Y3.908 E0.02583
G1 X-0.942 Y3.823 E0.02583
G1 X-1.388 Y3.684 E0.02536
G1 X-1.829 Y3.486 E0.02625
G1 X-2.236 Y3.240 E0.02588
G1 X-2.611 Y2.947 E0.02583
G1 X-2.947 Y2.611 E0.02583
G1 X-3.240 Y2.236 E0.02583
G1 X-3.486 Y1.830 E0.02583
G1 X-3.681 Y1.396 E0.02583
G1 X-3.823 Y0.942 E0.02583
G1 X-3.908 Y0.475 E0.02583
G1 X-3.937 Y0.000 E0.02583
G1 X-3.908 Y-0.475 E0.02583
G1 X-3.823 Y-0.942 E0.02583
G1 X-3.681 Y-1.396 E0.02583
G1 X-3.486 Y-1.830 E0.02583
G1 X-3.245 Y-2.229 E0.02536
G1 X-2.947 Y-2.610 E0.02625
G1 X-2.611 Y-2.947 E0.02587
G1 X-2.236 Y-3.240 E0.02583
G1 X-1.830 Y-3.486 E0.02583
G1 X-1.396 Y-3.681 E0.02583
G1 X-0.941 Y-3.823 E0.02587
G1 X-0.466 Y-3.909 E0.02625
G1 X-0.000 Y-3.937 E0.02536 F988.052
G1 X0.475 Y-3.908 E0.02583
G1 X0.942 Y-3.823 E0.02583
G1 X1.396 Y-3.681 E0.02583
G1 X1.830 Y-3.486 E0.02583
G1 X2.236 Y-3.240 E0.02583
G1 X2.611 Y-2.946 E0.02587
G1 X2.952 Y-2.604 E0.02625
G1 X3.055 Y-2.472 E0.00909
G1 X2.713 Y-2.203 F9000.000
G1 X2.881 Y-1.989 E0.01483 F988.052
G1 X3.100 Y-1.627 E0.02297
G1 X3.273 Y-1.241 E0.02297
G1 X3.399 Y-0.838 E0.02297
G1 X3.475 Y-0.422 E0.02297
G1 X3.501 Y-0.000 E0.02297
G1 X3.475 Y0.422 E0.02297
G1 X3.399 Y0.838 E0.02297
G1 X3.273 Y1.241 E0.02297
G1 X3.100 Y1.627 E0.02297
G1 X2.881 Y1.989 E0.02297
G1 X2.620 Y2.321 E0.02297
G1 X2.321 Y2.620 E0.02297
G1 X1.989 Y2.881 E0.02297
G1 X1.634 Y3.095 E0.02252
G1 X1.242 Y3.273 E0.02339
G1 X0.838 Y3.399 E0.02298
G1 X0.422 Y3.475 E0.02297
G1 X0.000 Y3.501 E0.02297
G1 X-0.422 Y3.475 E0.02297
G1 X-0.838 Y3.399 E0.02297
G1 X-1.234 Y3.275 E0.02252
G1 X-1.627 Y3.100 E0.02339
G1 X-1.989 Y2.881 E0.02298
G1 X-2.321 Y2.620 E0.02297
G1 X-2.620 Y2.321 E0.02297
G1 X-2.881 Y1.989 E0.02297
G1 X-3.100 Y1.627 E0.02297
G1 X-3.273 Y1.241 E0.02297
G1 X-3.399 Y0.838 E0.02297
G1 X-3.475 Y0.422 E0.02297
G1 X-3.501 Y0.000 E0.02297
G1 X-3.475 Y-0.422 E0.02297
G1 X-3.399 Y-0.838 E0.02297
G1 X-3.273 Y-1.241 E0.02297
G1 X-3.100 Y-1.627 E0.02297
G1 X-2.885 Y-1.982 E0.02252
G1 X-2.620 Y-2.321 E0.02339
G1 X-2.321 Y-2.620 E0.02298
G1 X-1.989 Y-2.881 E0.02297
G1 X-1.627 Y-3.100 E0.02297
G1 X-1.241 Y-3.273 E0.02297
G1 X-0.837 Y-3.399 E0.02298
G1 X-0.414 Y-3.476 E0.02339
G1 X-0.000 Y-3.501 E0.02252 F988.052
G1 X0.422 Y-3.475 E0.02297
G1 X0.838 Y-3.399 E0.02297
G1 X1.241 Y-3.273 E0.02297
G1 X1.627 Y-3.100 E0.02297
G1 X1.989 Y-2.881 E0.02297
G1 X2.322 Y-2.620 E0.02298
G1 X2.676 Y-2.251 E0.02780
G1 X2.982 Y-2.250 F9000.000
G1 X-3.270 Y-5.915 F9000.000
G1 X-3.071 Y-6.027 E0.01244 F988.052
G1 X-2.588 Y-6.249 E0.02886
G1 X-2.090 Y-6.433 E0.02886
G1 X-1.579 Y-6.577 E0.02886
G1 X-1.058 Y-6.681 E0.02886
G1 X-0.531 Y-6.743 E0.02886
G1 X0.000 Y-6.764 E0.02886
G1 X0.526 Y-6.743 E0.02858
G1 X1.058 Y-6.680 E0.02915 F988.052
G1 X1.579 Y-6.577 E0.02883
G1 X2.095 Y-6.431 E0.02915
G1 X2.588 Y-6.249 E0.02858
G1 X3.071 Y-6.027 E0.02886
G1 X3.534 Y-5.767 E0.02886
G1 X3.976 Y-5.472 E0.02886
G1 X4.393 Y-5.143 E0.02886
G1 X4.783 Y-4.783 E0.02886
G1 X5.143 Y-4.393 E0.02886
G1 X5.472 Y-3.976 E0.02886
G1 X5.767 Y-3.534 E0.02886
G1 X6.027 Y-3.071 E0.02886
G1 X6.249 Y-2.588 E0.02886
G1 X6.433 Y-2.090 E0.02886
G1 X6.577 Y-1.579 E0.02886
