; generated by Slic3r 1.2.9 on 2016-11-18 at 13:00:32

; external perimeters extrusion width = 0.50mm
; perimeters extrusion width = 0.50mm
; infill extrusion width = 0.50mm
; solid infill extrusion width = 0.50mm
; top infill extrusion width = 0.50mm

M107
;Basic settings: Layer height: {layer_height} Walls: {wall_thickness} Fill: {fill_density}
;Print time: {print_time}
;Filament used: {filament_amount}m {filament_weight}g
;Filament cost: {filament_cost}
;M190 S{print_bed_temperature} ;Uncomment to add your own bed temperature line
;M109 S{print_temperature} ;Uncomment to add your own temperature line
G21        ;metric values
G90        ;absolute positioning
M83
G10 P0 S200
T0
M116


G21 ; set units to millimeters
G90 ; use absolute coordinates
M83 ; use relative distances for extrusion
G1 E-3.20000 F3000.00000
G1 Z0.400 F9000.000
G1 X8.639 Y9.275 F9000.000
G1 Z0.300 F9000.000
G1 E3.20000 F3000.00000
G1 X8.132 Y9.734 E0.06277 F942.843
G1 X7.545 Y10.194 E0.06839
G1 X6.791 Y10.712 E0.08389
G1 X6.030 Y11.157 E0.08092
G1 X5.434 Y11.457 E0.06128
G1 X4.788 Y11.744 E0.06484
G1 X4.072 Y12.011 E0.07011
G1 X3.184 Y12.276 E0.08497
G1 X2.640 Y12.403 E0.05123
G1 X1.760 Y12.560 E0.08207
G1 X1.134 Y12.633 E0.05781
G1 X0.153 Y12.681 E0.09017
G1 X-0.638 Y12.662 E0.07258
G1 X-1.293 Y12.614 E0.06025
G1 X-2.092 Y12.509 E0.07396
G1 X-3.050 Y12.311 E0.08972
G1 X-3.875 Y12.078 E0.07863
G1 X-4.554 Y11.833 E0.06622
G1 X-5.081 Y11.620 E0.05217
G1 X-5.853 Y11.250 E0.07856
G1 X-6.563 Y10.852 E0.07470
G1 X-7.279 Y10.386 E0.07839
G1 X-8.377 Y9.523 E0.12807
G1 X-8.940 Y8.997 E0.07078
G1 X-9.527 Y8.373 E0.07857
G1 X-9.759 Y8.101 E0.03278
G1 X-10.347 Y7.335 E0.08856
G1 X-10.901 Y6.484 E0.09323
G1 X-11.333 Y5.695 E0.08253
G1 X-11.742 Y4.798 E0.09044
G1 X-11.999 Y4.108 E0.06756
G1 X-12.289 Y3.138 E0.09285
G1 X-12.378 Y2.765 E0.03526
G1 X-12.521 Y2.028 E0.06884
G1 X-12.635 Y1.116 E0.08437
G1 X-12.683 Y0.145 E0.08914
G1 X-12.682 Y-0.202 E0.03181
G1 X-12.646 Y-0.989 E0.07233
G1 X-12.532 Y-1.970 E0.09058
G1 X-12.285 Y-3.155 E0.11110
G1 X-12.082 Y-3.866 E0.06786
G1 X-11.729 Y-4.831 E0.09423
G1 X-11.339 Y-5.687 E0.08635
G1 X-10.902 Y-6.483 E0.08333
G1 X-10.694 Y-6.818 E0.03613
G1 X-10.175 Y-7.574 E0.08412
G1 X-9.642 Y-8.241 E0.07837
G1 X-9.048 Y-8.891 E0.08076
G1 X-8.099 Y-9.762 E0.11819
G1 X-7.368 Y-10.324 E0.08456
G1 X-6.730 Y-10.751 E0.07050
G1 X-5.924 Y-11.216 E0.08538
G1 X-5.576 Y-11.392 E0.03579
G1 X-4.831 Y-11.730 E0.07503
G1 X-4.020 Y-12.032 E0.07941
G1 X-2.803 Y-12.371 E0.11594
G1 X-1.948 Y-12.536 E0.07990
G1 X-1.079 Y-12.640 E0.08024
G1 X-0.148 Y-12.684 E0.08549
G1 X0.779 Y-12.659 E0.08517
G1 X1.194 Y-12.627 E0.03818 F942.843
G1 X2.163 Y-12.498 E0.08966
G1 X3.062 Y-12.310 E0.08424
G1 X4.058 Y-12.018 E0.09525
G1 X4.835 Y-11.727 E0.07615
G1 X5.874 Y-11.242 E0.10524
G1 X6.760 Y-10.733 E0.09371
G1 X7.532 Y-10.206 E0.08574
G1 X8.340 Y-9.558 E0.09503
G1 X8.972 Y-8.968 E0.07931
G1 X9.635 Y-8.252 E0.08955
G1 X10.195 Y-7.548 E0.08258
G1 X10.755 Y-6.725 E0.09137
G1 X11.228 Y-5.901 E0.08708
G1 X11.660 Y-4.994 E0.09225
G1 X12.009 Y-4.083 E0.08947
G1 X12.336 Y-2.959 E0.10739
G1 X12.841 Y-0.803 E0.20318
G1 X12.913 Y0.492 E0.11900
G1 X12.754 Y1.728 E0.11430
G1 X12.668 Y2.173 E0.04165
G1 X12.312 Y3.472 E0.12352
G1 X12.169 Y3.891 E0.04070
G1 X11.569 Y5.255 E0.13671
G1 X10.971 Y6.367 E0.11581
G1 X10.536 Y7.061 E0.07513
G1 X10.066 Y7.709 E0.07346
G1 X9.443 Y8.468 E0.09006
G1 X9.131 Y8.803 E0.04205
G1 X8.683 Y9.234 E0.05704
G1 E-3.20000 F3000.00000
G1 Z0.700 F9000.000
G1 X5.151 Y5.374 F9000.000
G1 Z0.300 F9000.000
G1 E3.20000 F3000.00000
G1 X4.785 Y5.710 E0.04560 F707.132
G1 X4.273 Y6.102 E0.05913
G1 X3.725 Y6.451 E0.05963
G1 X3.149 Y6.751 E0.05964
G1 X2.548 Y7.000 E0.05963
G1 X1.928 Y7.196 E0.05963
G1 X1.294 Y7.336 E0.05964
G1 X0.649 Y7.421 E0.05963
G1 X-0.000 Y7.449 E0.05964
G1 X-0.649 Y7.421 E0.05963
G1 X-1.294 Y7.336 E0.05965
G1 X-1.934 Y7.194 E0.06012
G1 X-2.548 Y7.000 E0.05913
G1 X-3.149 Y6.751 E0.05963
G1 X-3.725 Y6.451 E0.05963
G1 X-4.273 Y6.102 E0.05963
G1 X-4.789 Y5.706 E0.05963
G1 X-5.268 Y5.267 E0.05963
G1 X-5.707 Y4.788 E0.05963
G1 X-6.103 Y4.272 E0.05965
G1 X-6.455 Y3.719 E0.06012
G1 X-6.752 Y3.148 E0.05913
G1 X-7.001 Y2.547 E0.05964
G1 X-7.197 Y1.927 E0.05963
G1 X-7.337 Y1.293 E0.05964
G1 X-7.422 Y0.648 E0.05963
G1 X-7.450 Y-0.001 E0.05964
G1 X-7.422 Y-0.650 E0.05963
G1 X-7.337 Y-1.295 E0.05965
G1 X-7.195 Y-1.935 E0.06012
G1 X-7.001 Y-2.549 E0.05913
G1 X-6.752 Y-3.150 E0.05964
G1 X-6.452 Y-3.726 E0.05963
G1 X-6.103 Y-4.274 E0.05963
G1 X-5.707 Y-4.790 E0.05965
G1 X-5.264 Y-5.273 E0.06012
G1 X-4.789 Y-5.708 E0.05913
G1 X-4.273 Y-6.104 E0.05963
G1 X-3.725 Y-6.453 E0.05963
G1 X-3.149 Y-6.753 E0.05964
G1 X-2.548 Y-7.002 E0.05963
G1 X-1.928 Y-7.198 E0.05963
G1 X-1.294 Y-7.338 E0.05965
G1 X-0.644 Y-7.423 E0.06012
G1 X0.000 Y-7.451 E0.05913 F707.132
G1 X0.649 Y-7.423 E0.05963
G1 X1.294 Y-7.338 E0.05963
G1 X1.928 Y-7.198 E0.05964
G1 X2.548 Y-7.002 E0.05963
G1 X3.149 Y-6.753 E0.05963
G1 X3.725 Y-6.453 E0.05964
G1 X4.273 Y-6.104 E0.05963
G1 X4.789 Y-5.708 E0.05963
G1 X5.268 Y-5.269 E0.05963
G1 X5.707 Y-4.790 E0.05963
G1 X6.103 Y-4.274 E0.05963
G1 X6.452 Y-3.726 E0.05964
G1 X6.752 Y-3.150 E0.05963
G1 X7.001 Y-2.549 E0.05964
G1 X7.197 Y-1.929 E0.05964
G1 X7.337 Y-1.295 E0.05964
G1 X7.422 Y-0.650 E0.05963
G1 X7.450 Y-0.001 E0.05963
G1 X7.422 Y0.648 E0.05963
G1 X7.337 Y1.293 E0.05963
G1 X7.197 Y1.927 E0.05964
G1 X7.001 Y2.547 E0.05964
G1 X6.752 Y3.148 E0.05963
G1 X6.452 Y3.724 E0.05963
G1 X6.103 Y4.272 E0.05963
G1 X5.707 Y4.788 E0.05963
G1 X5.196 Y5.334 E0.06864
G1 X5.247 Y5.763 F9000.000
G1 X6.441 Y5.616 F9000.000
G1 X6.245 Y5.835 E0.02699 F707.132
G1 X5.517 Y6.530 E0.09231
G1 X5.153 Y6.819 E0.04267
G1 X4.505 Y7.265 E0.07215
G1 X4.019 Y7.543 E0.05140
G1 X3.325 Y7.875 E0.07061
G1 X2.644 Y8.129 E0.06671
G1 X1.823 Y8.348 E0.07794
G1 X1.261 Y8.455 E0.05250
G1 X0.698 Y8.520 E0.05198
G1 X0.002 Y8.549 E0.06389
G1 X-0.820 Y8.506 E0.07551
G1 X-1.325 Y8.445 E0.04666
G1 X-1.979 Y8.316 E0.06117
G1 X-2.617 Y8.138 E0.06079
G1 X-3.362 Y7.858 E0.07304
G1 X-3.846 Y7.635 E0.04887
G1 X-4.514 Y7.259 E0.07037
G1 X-5.159 Y6.807 E0.07221
G1 X-5.586 Y6.471 E0.04983
G1 X-5.993 Y6.095 E0.05092
G1 X-6.521 Y5.528 E0.07105
G1 X-6.916 Y5.025 E0.05869
G1 X-7.299 Y4.450 E0.06336
G1 X-7.663 Y3.782 E0.06979
G1 X-7.896 Y3.279 E0.05090
G1 X-8.114 Y2.690 E0.05762
G1 X-8.304 Y2.030 E0.06298
G1 X-8.453 Y1.272 E0.07086
G1 X-8.521 Y0.697 E0.05317
G1 X-8.550 Y-0.002 E0.06419
G1 X-8.526 Y-0.625 E0.05715
G1 X-8.448 Y-1.316 E0.06384
G1 X-8.300 Y-2.047 E0.06840
G1 X-8.130 Y-2.646 E0.05713
G1 X-7.930 Y-3.189 E0.05314
G1 X-7.619 Y-3.881 E0.06957
G1 X-7.247 Y-4.532 E0.06879
G1 X-6.917 Y-5.026 E0.05448
G1 X-6.554 Y-5.487 E0.05388
G1 X-6.059 Y-6.033 E0.06764
G1 X-5.526 Y-6.524 E0.06643
G1 X-5.055 Y-6.895 E0.05509
G1 X-4.443 Y-7.305 E0.06761
G1 X-3.916 Y-7.600 E0.05538
G1 X-3.288 Y-7.893 E0.06359
G1 X-2.642 Y-8.132 E0.06316
G1 X-1.981 Y-8.318 E0.06298
G1 X-1.296 Y-8.451 E0.06402
G1 X-0.680 Y-8.524 E0.05695
G1 X0.000 Y-8.551 E0.06245
G1 X0.603 Y-8.527 E0.05534
G1 X1.334 Y-8.446 E0.06751 F707.132
G1 X1.990 Y-8.316 E0.06132
G1 X2.641 Y-8.133 E0.06204
G1 X3.307 Y-7.884 E0.06520
G1 X3.867 Y-7.626 E0.05666
G1 X4.401 Y-7.327 E0.05606
G1 X5.004 Y-6.933 E0.06614
G1 X5.566 Y-6.490 E0.06563
G1 X6.075 Y-6.016 E0.06383
G1 X6.509 Y-5.544 E0.05884
G1 X6.917 Y-5.027 E0.06043
G1 X7.259 Y-4.515 E0.05651
G1 X7.612 Y-3.893 E0.06561
G1 X7.897 Y-3.277 E0.06229
G1 X8.141 Y-2.609 E0.06522
G1 X8.309 Y-2.013 E0.05680
G1 X8.440 Y-1.364 E0.06074
G1 X8.522 Y-0.685 E0.06282
G1 X8.568 Y0.449 E0.10410
G1 X8.749 Y0.449 E0.01662
G1 X8.657 Y1.165 E0.06623
G1 X8.335 Y2.338 E0.11157
G1 X7.799 Y3.555 E0.12210
G1 X7.366 Y4.339 E0.08209
G1 X6.917 Y5.024 E0.07516
G1 X6.478 Y5.569 E0.06420
G1 X6.152 Y5.561 F9000.000
G1 X6.062 Y5.212 F9000.000
G1 X5.657 Y5.646 E0.05449 F600.000
G1 X5.156 Y6.115 E0.06303
G1 X4.593 Y6.545 E0.06495
G1 X4.214 Y6.795 E0.04163
G1 X3.763 Y7.054 E0.04778
G1 X3.109 Y7.366 E0.06650
G1 X2.476 Y7.602 E0.06200
G1 X2.062 Y7.722 E0.03954
G1 X1.177 Y7.908 E0.08290
G1 X0.655 Y7.971 E0.04830
G1 X-0.008 Y7.998 E0.06085
G1 X-0.705 Y7.965 E0.06401
G1 X-1.381 Y7.877 E0.06261
G1 X-2.068 Y7.724 E0.06452
G1 X-2.742 Y7.509 E0.06490
G1 X-3.149 Y7.348 E0.04018
G1 X-3.594 Y7.142 E0.04502
G1 X-4.225 Y6.788 E0.06641
G1 X-4.647 Y6.508 E0.04643
G1 X-5.147 Y6.121 E0.05802
G1 X-5.650 Y5.660 E0.06258
G1 X-6.123 Y5.147 E0.06402
G1 X-6.547 Y4.592 E0.06405
G1 X-6.826 Y4.164 E0.04688
G1 X-7.171 Y3.535 E0.06585
G1 X-7.385 Y3.066 E0.04727
G1 X-7.590 Y2.517 E0.05378
G1 X-7.768 Y1.901 E0.05887
G1 X-7.908 Y1.187 E0.06674
G1 X-7.972 Y0.653 E0.04931
G1 X-8.000 Y-0.003 E0.06027
G1 X-7.968 Y-0.690 E0.06312 F600.000
G1 X-7.902 Y-1.230 E0.04990
G1 X-7.764 Y-1.917 E0.06426
G1 X-7.512 Y-2.743 E0.07929
G1 X-7.125 Y-3.630 E0.08872
G1 X-6.920 Y-4.005 E0.03926
G1 X-6.556 Y-4.582 E0.06258
G1 X-6.132 Y-5.137 E0.06404
G1 X-5.668 Y-5.646 E0.06319
G1 X-5.170 Y-6.105 E0.06222
G1 X-4.593 Y-6.547 E0.06663
G1 X-3.992 Y-6.931 E0.06544
G1 X-3.386 Y-7.245 E0.06258
G1 X-3.075 Y-7.382 E0.03126
G1 X-2.471 Y-7.606 E0.05905
G1 X-2.077 Y-7.723 E0.03772
G1 X-1.211 Y-7.905 E0.08119
G1 X-0.637 Y-7.975 E0.05310
G1 X-0.008 Y-8.001 E0.05774
G1 X0.689 Y-7.968 E0.06403
G1 X1.250 Y-7.900 E0.05183
G1 X1.861 Y-7.778 E0.05717
G1 X2.728 Y-7.518 E0.08303
G1 X3.094 Y-7.374 E0.03612
G1 X3.616 Y-7.133 E0.05276
G1 X4.115 Y-6.857 E0.05235
G1 X4.594 Y-6.548 E0.05224
G1 X5.207 Y-6.072 E0.07124
G1 X5.662 Y-5.651 E0.05680
G1 X6.090 Y-5.187 E0.05799
G1 X6.556 Y-4.582 E0.07005
G1 X6.921 Y-4.006 E0.06258
G1 X7.120 Y-3.640 E0.03823
G1 X7.386 Y-3.065 E0.05806
G1 X7.511 Y-2.743 E0.03173
G1 X7.727 Y-2.063 E0.06544
G1 X7.878 Y-1.382 E0.06402
G1 X7.973 Y-0.640 E0.06861
G1 X8.000 Y0.007 E0.05945
G1 X7.993 Y0.826 E0.07513
G1 X8.024 Y1.020 E0.01804
G1 X7.946 Y1.411 E0.03663
G1 X7.764 Y2.135 E0.06846
G1 X7.539 Y2.734 E0.05870
G1 X7.299 Y3.297 E0.05616
G1 X6.891 Y4.060 E0.07937
G1 X6.471 Y4.699 E0.07023
G1 X6.102 Y5.166 E0.05462
G1 E-3.20000 F3000.00000
G1 Z0.700 F9000.000
G1 X5.909 Y4.990 F9000.000
G1 Z0.600 F9000.000
G1 E3.20000 F3000.00000
G1 X5.470 Y5.469 E0.03531 F833.622
G1 X4.973 Y5.925 E0.03667
G1 X4.437 Y6.336 E0.03667
G1 X3.868 Y6.699 E0.03667
G1 X3.270 Y7.010 E0.03667
G1 X2.646 Y7.269 E0.03667
G1 X2.002 Y7.472 E0.03667
G1 X1.343 Y7.618 E0.03667
G1 X0.674 Y7.706 E0.03667
G1 X0.000 Y7.735 E0.03667
G1 X-0.662 Y7.706 E0.03601
G1 X-1.343 Y7.618 E0.03730
G1 X-2.002 Y7.472 E0.03670
G1 X-2.646 Y7.269 E0.03667
G1 X-3.270 Y7.010 E0.03667
G1 X-3.868 Y6.699 E0.03667
G1 X-4.437 Y6.336 E0.03667
G1 X-4.973 Y5.925 E0.03670
G1 X-5.479 Y5.460 E0.03730
G1 X-5.926 Y4.972 E0.03601
G1 X-6.337 Y4.436 E0.03667
G1 X-6.700 Y3.867 E0.03667
G1 X-7.011 Y3.268 E0.03667
G1 X-7.270 Y2.645 E0.03667
G1 X-7.473 Y2.001 E0.03667
G1 X-7.619 Y1.342 E0.03667
G1 X-7.707 Y0.673 E0.03667
G1 X-7.736 Y-0.001 E0.03667
G1 X-7.707 Y-0.675 E0.03667
G1 X-7.619 Y-1.344 E0.03667
G1 X-7.473 Y-2.004 E0.03670
G1 X-7.265 Y-2.658 E0.03730
G1 X-7.011 Y-3.271 E0.03601
G1 X-6.700 Y-3.869 E0.03667
G1 X-6.337 Y-4.438 E0.03667
G1 X-5.926 Y-4.974 E0.03667
G1 X-5.470 Y-5.472 E0.03670
G1 X-4.963 Y-5.935 E0.03730
G1 X-4.437 Y-6.338 E0.03601
G1 X-3.868 Y-6.701 E0.03667
G1 X-3.270 Y-7.012 E0.03667
G1 X-2.646 Y-7.271 E0.03667
G1 X-2.002 Y-7.474 E0.03667
G1 X-1.343 Y-7.620 E0.03670
G1 X-0.662 Y-7.708 E0.03730
G1 X-0.000 Y-7.737 E0.03601 F833.622
G1 X0.674 Y-7.708 E0.03667
G1 X1.343 Y-7.620 E0.03667
G1 X2.002 Y-7.474 E0.03667
G1 X2.646 Y-7.271 E0.03667
G1 X3.270 Y-7.012 E0.03667
G1 X3.868 Y-6.701 E0.03667
G1 X4.437 Y-6.338 E0.03667
G1 X4.973 Y-5.927 E0.03667
G1 X5.470 Y-5.471 E0.03667
G1 X5.926 Y-4.974 E0.03667
G1 X6.337 Y-4.438 E0.03667
G1 X6.700 Y-3.869 E0.03667
G1 X7.011 Y-3.271 E0.03667
G1 X7.270 Y-2.647 E0.03667
G1 X7.473 Y-2.003 E0.03667
G1 X7.619 Y-1.344 E0.03667
G1 X7.707 Y-0.675 E0.03667
G1 X7.736 Y-0.001 E0.03667
G1 X7.707 Y0.673 E0.03667
G1 X7.619 Y1.342 E0.03667
G1 X7.473 Y2.001 E0.03667
G1 X7.270 Y2.645 E0.03667
G1 X7.011 Y3.268 E0.03667
G1 X6.700 Y3.867 E0.03667
G1 X6.337 Y4.436 E0.03667
G1 X5.948 Y4.944 E0.03477
G1 X5.602 Y4.679 F9000.000
G1 X5.162 Y5.161 E0.03547 F833.622
G1 X4.693 Y5.591 E0.03460
G1 X4.187 Y5.979 E0.03460
G1 X3.650 Y6.321 E0.03460
G1 X3.085 Y6.615 E0.03460
G1 X2.497 Y6.859 E0.03460
G1 X1.889 Y7.051 E0.03460
G1 X1.268 Y7.188 E0.03460
G1 X0.636 Y7.271 E0.03460
G1 X0.000 Y7.299 E0.03460
G1 X-0.624 Y7.272 E0.03396
G1 X-1.267 Y7.188 E0.03523
G1 X-1.889 Y7.051 E0.03461
G1 X-2.497 Y6.859 E0.03460
G1 X-3.085 Y6.615 E0.03460
G1 X-3.650 Y6.321 E0.03460
G1 X-4.187 Y5.979 E0.03460
G1 X-4.693 Y5.591 E0.03461
G1 X-5.170 Y5.152 E0.03523
G1 X-5.592 Y4.692 E0.03396
G1 X-5.980 Y4.186 E0.03460
G1 X-6.322 Y3.649 E0.03460
G1 X-6.616 Y3.084 E0.03460
G1 X-6.860 Y2.496 E0.03460
G1 X-7.052 Y1.888 E0.03460
G1 X-7.189 Y1.267 E0.03460
G1 X-7.273 Y0.635 E0.03460
G1 X-7.300 Y-0.001 E0.03460
G1 X-7.273 Y-0.637 E0.03460
G1 X-7.189 Y-1.269 E0.03460
G1 X-7.051 Y-1.891 E0.03461
G1 X-6.855 Y-2.509 E0.03523
G1 X-6.616 Y-3.086 E0.03396
G1 X-6.322 Y-3.651 E0.03460
G1 X-5.980 Y-4.188 E0.03460
G1 X-5.592 Y-4.694 E0.03460
G1 X-5.162 Y-5.163 E0.03461
G1 X-4.683 Y-5.601 E0.03523
G1 X-4.187 Y-5.981 E0.03396
G1 X-3.650 Y-6.323 E0.03460
G1 X-3.085 Y-6.617 E0.03460
G1 X-2.497 Y-6.861 E0.03460
G1 X-1.889 Y-7.053 E0.03460
G1 X-1.267 Y-7.190 E0.03461
G1 X-0.624 Y-7.274 E0.03523
G1 X-0.000 Y-7.301 E0.03396 F833.622
G1 X0.636 Y-7.274 E0.03460
G1 X1.268 Y-7.190 E0.03460
G1 X1.889 Y-7.053 E0.03460
G1 X2.497 Y-6.861 E0.03460
G1 X3.085 Y-6.617 E0.03460
G1 X3.650 Y-6.323 E0.03460
G1 X4.187 Y-5.981 E0.03460
G1 X4.693 Y-5.593 E0.03460
G1 X5.162 Y-5.163 E0.03460
G1 X5.592 Y-4.694 E0.03460
G1 X5.980 Y-4.188 E0.03460
G1 X6.322 Y-3.651 E0.03460
G1 X6.616 Y-3.086 E0.03460
G1 X6.860 Y-2.498 E0.03460
G1 X7.052 Y-1.890 E0.03460
G1 X7.189 Y-1.269 E0.03460
G1 X7.273 Y-0.637 E0.03460
G1 X7.300 Y-0.001 E0.03460
G1 X7.273 Y0.635 E0.03460
G1 X7.189 Y1.267 E0.03460
G1 X7.052 Y1.888 E0.03460
G1 X6.860 Y2.496 E0.03460
G1 X6.616 Y3.084 E0.03460
G1 X6.322 Y3.649 E0.03460
G1 X5.980 Y4.186 E0.03460
G1 X5.639 Y4.631 E0.03047
G1 X5.734 Y5.056 F9000.000
G1 X2.913 Y7.837 F9000.000
G1 X2.627 Y7.927 E0.01630 F833.622
G1 X2.143 Y8.038 E0.02695
G1 X1.475 Y8.143 E0.03672
G1 X0.728 Y8.231 E0.04091
G1 X0.008 Y8.262 E0.03914
G1 X-1.076 Y8.190 E0.05900
G1 X-1.883 Y8.045 E0.04456
G1 X-2.548 Y7.860 E0.03749
G1 X-3.644 Y7.416 E0.06427
G1 X-4.460 Y6.955 E0.05088
G1 X-4.688 Y6.803 E0.01489
G1 X-5.459 Y6.201 E0.05320
G1 X-6.045 Y5.629 E0.04448
G1 X-6.339 Y5.300 E0.02399
G1 X-6.684 Y4.859 E0.03040
G1 X-7.078 Y4.263 E0.03882
G1 X-7.321 Y3.832 E0.02689
G1 X-7.704 Y2.983 E0.05061
G1 X-7.809 Y2.700 E0.01637
G1 X-8.010 Y2.028 E0.03814
G1 X-8.133 Y1.452 E0.03197
G1 X-8.231 Y0.726 E0.03982
G1 X-8.260 Y-0.155 E0.04788
G1 X-8.214 Y-0.871 E0.03897
G1 X-8.172 Y-1.227 E0.01947
G1 X-8.077 Y-1.730 E0.02784
G1 X-7.855 Y-2.567 E0.04702
G1 X-7.583 Y-3.283 E0.04164
G1 X-7.366 Y-3.747 E0.02779
G1 X-7.079 Y-4.263 E0.03213
G1 X-6.701 Y-4.836 E0.03730
G1 X-6.174 Y-5.490 E0.04564
G1 X-5.887 Y-5.800 E0.02292
G1 X-5.289 Y-6.349 E0.04415
G1 X-4.946 Y-6.620 E0.02371
G1 X-4.244 Y-7.091 E0.04593
G1 X-3.857 Y-7.308 E0.02410
G1 X-3.102 Y-7.660 E0.04527
G1 X-2.555 Y-7.860 E0.03167
G1 X-2.123 Y-7.982 E0.02438
G1 X-1.342 Y-8.155 E0.04348
G1 X-0.672 Y-8.237 E0.03663
G1 X0.001 Y-8.265 E0.03660
G1 X0.445 Y-8.247 E0.02415
G1 X1.259 Y-8.168 E0.04447 F833.622
G1 X1.911 Y-8.041 E0.03610
G1 X2.550 Y-7.861 E0.03605
G1 X3.267 Y-7.590 E0.04162
G1 X3.710 Y-7.385 E0.02653
G1 X4.132 Y-7.149 E0.02625
G1 X4.374 Y-7.011 E0.01516
G1 X4.788 Y-6.735 E0.02704
G1 X5.410 Y-6.248 E0.04291
G1 X5.778 Y-5.907 E0.02728
G1 X6.258 Y-5.398 E0.03798
G1 X6.684 Y-4.861 E0.03726
G1 X7.109 Y-4.210 E0.04224
G1 X7.345 Y-3.788 E0.02627
G1 X7.629 Y-3.177 E0.03663
G1 X7.890 Y-2.452 E0.04185
G1 X8.023 Y-1.980 E0.02663
G1 X8.148 Y-1.371 E0.03379
G1 X8.235 Y-0.686 E0.03751
G1 X8.294 Y0.735 E0.07726
G1 X8.948 Y0.735 E0.03551
G1 X8.897 Y1.151 E0.02279
G1 X8.588 Y2.316 E0.06549
G1 X8.066 Y3.545 E0.07253
G1 X7.596 Y4.350 E0.05067
G1 X7.198 Y4.903 E0.03700
G1 X6.910 Y5.253 E0.02464
G1 X6.263 Y5.929 E0.05081
