; generated by Slic3r 1.2.9 on 2017-09-12 at 14:12:25

; external perimeters extrusion width = 0.40mm
; perimeters extrusion width = 0.40mm
; infill extrusion width = 0.40mm
; solid infill extrusion width = 0.40mm
; top infill extrusion width = 0.40mm

M107
M83
T0
M116
G21 ; set units to millimeters
G90 ; use absolute coordinates
M83 ; use relative distances for extrusion
G1 E-3.50000 F1500.00000
G1 Z0.400 F15000.000
G1 X-4.966 Y-8.602 F15000.000
G1 Z0.300 F15000.000
G1 E3.50000 F1500.00000
G1 X18.613 Y-22.211 E2.09812 F960.000
G1 X20.237 Y-22.693 E0.13052
G1 X21.903 Y-22.386 E0.13052
G1 X23.249 Y-21.358 E0.13052 F960.000
G1 X24.066 Y-19.062 E0.18781
G1 X24.065 Y1.315 E1.57036
G1 X23.982 Y3.063 E0.13490
G1 X23.947 Y3.413 E0.02709
G1 X23.722 Y4.930 E0.11820
G1 X23.654 Y5.274 E0.02700
G1 X23.238 Y6.932 E0.13179
G1 X20.038 Y17.586 E0.85730
G1 X19.186 Y19.050 E0.13052
G1 X18.374 Y19.689 E0.07966
G1 X13.212 Y22.669 E0.45934
G1 X11.588 Y23.151 E0.13052
G1 X10.559 Y23.059 E0.07966
G1 X-0.268 Y20.503 E0.85730
G1 X-1.913 Y20.035 E0.13179
G1 X-2.244 Y19.922 E0.02699
G1 X-3.670 Y19.358 E0.11820
G1 X-3.992 Y19.212 E0.02720
G1 X-5.560 Y18.404 E0.13598
G1 X-23.198 Y8.221 E1.56953
G1 X-24.427 Y7.056 E0.13052
G1 X-24.995 Y5.460 E0.13052
G1 X-24.778 Y3.780 E0.13052
G1 X-23.198 Y1.924 E0.18790
G1 X-5.018 Y-8.572 E1.61774
G1 E-3.50000 F1500.00000
G1 Z0.700 F15000.000
G1 X-11.342 Y2.381 F15000.000
G1 Z0.300 F15000.000
G1 E3.50000 F1500.00000
G1 X-0.825 Y8.453 E0.93591 F600.000
G1 X-0.659 Y8.568 E0.01555
G1 X-0.502 Y8.723 E0.01703
G1 X-0.363 Y8.919 E0.01853
G1 X-0.241 Y9.210 E0.02432
G1 X-0.191 Y9.553 E0.02670
G1 X-0.240 Y9.909 E0.02770
G1 X-0.356 Y10.187 E0.02318
G1 X-1.739 Y12.582 E0.21311
G1 X-1.924 Y12.825 E0.02358
G1 X-2.191 Y13.033 E0.02607
G1 X-2.534 Y13.171 E0.02847
G1 X-2.856 Y13.210 E0.02500
G1 X-3.153 Y13.170 E0.02310
G1 X-3.465 Y13.048 E0.02585
G1 X-14.911 Y6.440 E1.01857
G1 X-15.156 Y6.253 E0.02374
G1 X-15.367 Y5.978 E0.02667
G1 X-15.495 Y5.667 E0.02596
G1 X-15.539 Y5.334 E0.02585
G1 X-15.495 Y5.000 E0.02601
G1 X-15.376 Y4.712 E0.02398
G1 X-13.984 Y2.302 E0.21451
G1 X-13.791 Y2.057 E0.02403
G1 X-13.536 Y1.861 E0.02478
G1 X-13.237 Y1.735 E0.02502
G1 X-12.912 Y1.688 E0.02527 F600.000
G1 X-12.557 Y1.727 E0.02750
G1 X-12.264 Y1.849 E0.02450
G1 X-11.394 Y2.351 E0.07738
G1 X-10.996 Y2.181 F15000.000
G1 X-4.238 Y5.748 F15000.000
G1 X-11.982 Y1.277 E0.68911 F600.000
G1 X-12.480 Y1.072 E0.04148
G1 X-11.000 Y0.217 E0.13171
G1 X-5.558 Y3.360 E0.48431
G1 X-4.639 Y3.950 E0.08413 F600.000
G1 X-3.792 Y4.606 E0.08259
G1 X-3.003 Y5.332 E0.08259
G1 X-2.281 Y6.124 E0.08259
G1 X-1.732 Y6.841 E0.06958
G1 X-1.939 Y7.076 E0.02411
G1 X-4.186 Y5.778 E0.20003
G1 E-3.50000 F1500.00000
G1 Z0.700 F15000.000
G1 X9.123 Y12.372 F15000.000
G1 Z0.300 F15000.000
G1 E3.50000 F1500.00000
G1 X9.559 Y11.803 E0.05522 F600.000
G1 X10.128 Y11.367 E0.05522
G1 X10.790 Y11.093 E0.05521
G1 X11.007 Y11.064 E0.01692
G1 X11.500 Y10.999 E0.03830 F600.000
G1 X12.210 Y11.093 E0.05521
G1 X12.872 Y11.367 E0.05522
G1 X13.441 Y11.803 E0.05521
G1 X13.877 Y12.372 E0.05522
G1 X14.151 Y13.034 E0.05521
G1 X14.245 Y13.744 E0.05522
G1 X14.160 Y14.386 E0.04994
G1 X13.815 Y15.675 E0.10282
G1 X12.015 Y16.714 E0.16013
G1 X10.726 Y16.369 E0.10282
G1 X10.128 Y16.121 E0.04994
G1 X9.559 Y15.685 E0.05522
G1 X9.123 Y15.116 E0.05522
G1 X8.849 Y14.454 E0.05521
G1 X8.755 Y13.744 E0.05522
G1 X8.849 Y13.034 E0.05522
G1 X9.100 Y12.427 E0.05059
G1 X9.678 Y12.692 F15000.000
G1 X10.013 Y12.257 E0.04232 F600.000
G1 X10.448 Y11.922 E0.04232
G1 X10.956 Y11.712 E0.04232
G1 X11.090 Y11.694 E0.01047
G1 X11.500 Y11.641 E0.03185 F600.000
G1 X12.044 Y11.712 E0.04232
G1 X12.552 Y11.922 E0.04232
G1 X12.987 Y12.257 E0.04232
G1 X13.322 Y12.692 E0.04232
G1 X13.532 Y13.200 E0.04232
G1 X13.603 Y13.744 E0.04232
G1 X13.535 Y14.262 E0.04028
G1 X13.269 Y15.256 E0.07932
G1 X11.925 Y16.032 E0.11955
G1 X10.931 Y15.766 E0.07932
G1 X10.448 Y15.566 E0.04028
G1 X10.013 Y15.231 E0.04232
G1 X9.678 Y14.796 E0.04232
G1 X9.468 Y14.288 E0.04232
G1 X9.397 Y13.744 E0.04232
G1 X9.468 Y13.200 E0.04232
G1 X9.655 Y12.748 E0.03769
G1 X9.494 Y12.337 F15000.000
G1 X12.444 Y-1.159 F15000.000
G1 X12.444 Y0.452 E0.12417 F720.000
G1 X12.468 Y0.734 E0.02181
G1 X12.552 Y1.054 E0.02551
G1 X12.705 Y1.387 E0.02822
G1 X12.987 Y1.758 E0.03593
G1 X13.393 Y2.079 E0.03987
G1 X13.886 Y2.280 E0.04103
G1 X14.307 Y2.333 E0.03268
G1 X17.153 Y2.333 E0.21936
G1 X17.579 Y2.279 E0.03304
G1 X18.051 Y2.087 E0.03931
G1 X18.478 Y1.752 E0.04183
G1 X18.772 Y1.362 E0.03763
G1 X18.947 Y0.939 E0.03524
G1 X19.016 Y0.484 E0.03550
G1 X19.016 Y-12.822 E1.02542
G1 X18.960 Y-13.252 E0.03338
G1 X18.763 Y-13.727 E0.03967
G1 X18.455 Y-14.127 E0.03889
G1 X18.057 Y-14.433 E0.03870
G1 X17.590 Y-14.626 E0.03890
G1 X17.158 Y-14.683 E0.03363
G1 X15.377 Y-14.683 E0.13726
G1 X15.301 Y-14.965 E0.02256
G1 X19.444 Y-17.356 E0.36863
G1 X19.444 Y1.290 E1.43693
G1 X19.369 Y2.782 E0.11517 F720.000
G1 X19.158 Y4.205 E0.11086
G1 X18.805 Y5.626 E0.11280
G1 X15.724 Y15.883 E0.82533
G1 X11.240 Y18.472 E0.39906
G1 X0.817 Y16.011 E0.82533
G1 X-0.590 Y15.607 E0.11280
G1 X-1.927 Y15.078 E0.11084
G1 X-3.271 Y14.389 E0.11636
G1 X-19.409 Y5.072 E1.43606
G1 X-15.261 Y2.677 E0.36910
G1 X-15.054 Y2.884 E0.02255
G1 X-15.947 Y4.430 E0.13759
G1 X-16.114 Y4.834 E0.03364
G1 X-16.180 Y5.334 E0.03890
G1 X-16.115 Y5.832 E0.03869
G1 X-15.923 Y6.299 E0.03889
G1 X-15.609 Y6.707 E0.03967
G1 X-15.265 Y6.970 E0.03338
G1 X-3.741 Y13.623 E1.02542
G1 X-3.312 Y13.791 E0.03550
G1 X-2.859 Y13.850 E0.03524
G1 X-2.374 Y13.792 E0.03763
G1 X-1.871 Y13.589 E0.04183
G1 X-1.468 Y13.276 E0.03931
G1 X-1.208 Y12.935 E0.03304
G1 X0.215 Y10.469 E0.21936
G1 X0.378 Y10.078 E0.03268
G1 X0.461 Y9.478 E0.04671
G1 X0.816 Y9.747 E0.03430
G1 X2.053 Y10.247 E0.10284
G1 X3.378 Y10.405 E0.10284
G1 X4.698 Y10.210 E0.10284
G1 X5.921 Y9.676 E0.10284
G1 X6.961 Y8.840 E0.10284
G1 X7.745 Y7.760 E0.10284
G1 X8.219 Y6.513 E0.10284
G1 X8.340 Y5.276 E0.09575
G1 X8.350 Y4.111 E0.08981
G1 X8.452 Y3.041 E0.08278
G1 X8.646 Y1.985 E0.08278
G1 X8.931 Y0.949 E0.08278
G1 X9.305 Y-0.058 E0.08278
G1 X9.791 Y-1.087 E0.08774
G1 X10.467 Y-2.667 E0.13242
G1 X10.895 Y-4.398 E0.13739
G1 X11.036 Y-6.133 E0.13415
G1 X11.036 Y-12.505 E0.49106
G1 X12.516 Y-13.358 E0.13167
G1 X12.444 Y-12.826 E0.04141
G1 X12.444 Y-1.219 E0.89446
G1 X13.080 Y-1.219 F15000.000
G1 X13.080 Y-12.784 E0.89120 F600.000
G1 X13.122 Y-13.096 E0.02432
G1 X13.254 Y-13.410 E0.02621
G1 X13.448 Y-13.663 E0.02460
G1 X13.748 Y-13.889 E0.02891
G1 X14.050 Y-14.009 E0.02505
G1 X14.347 Y-14.047 E0.02308 F600.000
G1 X17.116 Y-14.047 E0.21343
G1 X17.425 Y-14.006 E0.02397
G1 X17.736 Y-13.877 E0.02601
G1 X18.003 Y-13.673 E0.02585
G1 X18.208 Y-13.406 E0.02596
G1 X18.340 Y-13.087 E0.02667
G1 X18.380 Y-12.781 E0.02374
G1 X18.380 Y0.436 E1.01857
G1 X18.330 Y0.768 E0.02585
G1 X18.215 Y1.045 E0.02310
G1 X18.020 Y1.304 E0.02500
G1 X17.730 Y1.532 E0.02847
G1 X17.416 Y1.659 E0.02606
G1 X17.113 Y1.698 E0.02358
G1 X14.347 Y1.698 E0.21311
G1 X14.049 Y1.660 E0.02318
G1 X13.716 Y1.524 E0.02770
G1 X13.444 Y1.309 E0.02670
G1 X13.253 Y1.058 E0.02432
G1 X13.153 Y0.840 E0.01853
G1 X13.097 Y0.626 E0.01703
G1 X13.080 Y0.425 E0.01555
G1 X13.080 Y-1.159 E0.12209
G1 X12.734 Y-1.419 F15000.000
G1 X9.742 Y-2.587 F15000.000
G1 X9.862 Y-2.870 E0.02367 F720.000
G1 X10.266 Y-4.500 E0.12945
G1 X10.400 Y-6.158 E0.12820
G1 X10.400 Y-12.872 E0.51737
G1 X20.080 Y-18.456 E0.86123
G1 X20.080 Y1.306 E1.52297
G1 X20.002 Y2.845 E0.11878 F720.000
G1 X19.782 Y4.329 E0.11559
G1 X19.418 Y5.794 E0.11634
G1 X16.261 Y16.307 E0.84595
G1 X11.339 Y19.148 E0.43793
G1 X0.656 Y16.626 E0.84595
G1 X-0.795 Y16.209 E0.11634
G1 X-2.190 Y15.658 E0.11558
G1 X-3.575 Y14.948 E0.11997
G1 X-20.680 Y5.072 E1.52213
G1 X-11.000 Y-0.517 E0.86140
G1 X-5.226 Y2.817 E0.51377
G1 X-4.272 Y3.431 E0.08742
G1 X-3.381 Y4.120 E0.08683
G1 X-2.553 Y4.883 E0.08683
G1 X-1.793 Y5.715 E0.08683
G1 X-1.108 Y6.610 E0.08683
G1 X-0.484 Y7.590 E0.08954
G1 X0.205 Y8.485 E0.08703
G1 X1.133 Y9.189 E0.08977
G1 X2.213 Y9.626 E0.08977
G1 X3.369 Y9.764 E0.08977
G1 X4.521 Y9.593 E0.08977
G1 X5.589 Y9.127 E0.08977
G1 X6.497 Y8.397 E0.08977
G1 X7.181 Y7.455 E0.08977
G1 X7.595 Y6.366 E0.08977
G1 X7.705 Y5.242 E0.08703
G1 X7.715 Y4.078 E0.08974
G1 X7.822 Y2.954 E0.08703
G1 X8.026 Y1.843 E0.08703
G1 X8.326 Y0.754 E0.08703
G1 X8.718 Y-0.305 E0.08703
G1 X9.212 Y-1.348 E0.08894
G1 X9.718 Y-2.532 E0.09924
G1 X10.046 Y-2.624 F15000.000
G1 X12.059 Y-2.864 F15000.000
G1 X11.116 Y-3.806 E0.10274 F960.000
G1 X10.938 Y-3.085 E0.05723
G1 X12.059 Y-1.965 E0.12218
G1 X12.059 Y-1.065 E0.06930
G1 X10.726 Y-2.399 E0.14535
G1 X10.456 Y-1.769 E0.05279
G1 X12.059 Y-0.166 E0.17471
G1 X12.070 Y0.744 F15000.000
G1 X10.187 Y-1.139 E0.20533 F960.000
G1 X9.902 Y-0.525 E0.05220
G1 X17.886 Y7.459 E0.87035
G1 X17.679 Y8.151 E0.05565
G1 X9.619 Y0.091 E0.87856
G1 X9.376 Y0.747 E0.05392
G1 X17.471 Y8.842 E0.88243
G1 X17.263 Y9.533 E0.05565
G1 X9.165 Y1.435 E0.88279
G1 X8.985 Y2.154 E0.05711
G1 X17.056 Y10.225 E0.87983
G1 X16.848 Y10.916 E0.05565
G1 X8.845 Y2.913 E0.87241
G1 X8.762 Y3.729 E0.06319
G1 X16.640 Y11.608 E0.85887
G1 X16.433 Y12.299 E0.05565
G1 X8.730 Y4.597 E0.83963
G1 X8.697 Y5.462 E0.06676
G1 X16.225 Y12.991 E0.82066
G1 X16.017 Y13.682 E0.05565
G1 X8.617 Y6.281 E0.80677
G1 X8.413 Y6.977 E0.05587
G1 X12.108 Y10.672 E0.40278
G1 X11.203 Y10.666 E0.06973
G1 X8.166 Y7.628 E0.33115
G1 X7.837 Y8.199 E0.05074
G1 X10.485 Y10.847 E0.28866
G1 X9.879 Y11.140 E0.05187
G1 X7.458 Y8.719 E0.26389
G1 X7.040 Y9.200 E0.04912
G1 X9.371 Y11.531 E0.25404
G1 X8.969 Y12.028 E0.04928
G1 X6.542 Y9.601 E0.26461
G1 X6.040 Y9.998 E0.04934
G1 X8.652 Y12.610 E0.28477
G1 X8.442 Y13.299 E0.05552
G1 X5.414 Y10.271 E0.33008
G1 X4.788 Y10.545 E0.05263
G1 X8.402 Y14.159 E0.39399
G1 X8.765 Y15.421 E0.10120
G1 X4.025 Y10.680 E0.51672
G1 X3.239 Y10.793 E0.06122
G1 X10.252 Y17.807 E0.76456
G1 X11.359 Y18.015 E0.08680
G1 X9.823 Y16.479 E0.16743
G1 X9.076 Y17.529 F15000.000
G1 X2.218 Y10.672 E0.74754 F960.000
G1 X0.915 Y10.268 E0.10515
G1 X7.899 Y17.251 E0.76128
G1 X6.722 Y16.974 E0.09322
G1 X0.462 Y10.714 E0.68238
G1 X0.133 Y11.284 E0.05073
G1 X5.545 Y16.696 E0.58996
G1 X4.368 Y16.418 E0.09322
G1 X-0.196 Y11.854 E0.49753
G1 X-0.525 Y12.424 E0.05073
G1 X3.191 Y16.140 E0.40511
G1 X2.014 Y15.862 E0.09322
G1 X-0.855 Y12.994 E0.31268
G1 X-1.234 Y13.513 E0.04959
G1 X0.819 Y15.566 E0.22384
G1 X-0.471 Y15.176 E0.10388
G1 X-1.740 Y13.907 E0.13831
G1 X-2.049 Y14.497 E0.05134
G1 X-2.380 Y14.166 E0.03609
G1 X11.172 Y16.928 F15000.000
G1 X11.929 Y17.686 E0.08260 F960.000
G1 X14.231 Y15.492 F15000.000
G1 X14.779 Y16.040 E0.05974 F960.000
G1 X15.349 Y15.711 E0.05073
G1 X14.421 Y14.783 E0.10115
G1 X14.578 Y14.040 E0.05850
G1 X15.602 Y15.065 E0.11168
G1 X15.810 Y14.373 E0.05565
G1 X14.572 Y13.136 E0.13491
G1 X14.031 Y2.705 F15000.000
G1 X18.094 Y6.768 E0.44287 F960.000
G1 X18.302 Y6.076 E0.05565
G1 X14.944 Y2.719 E0.36600
G1 X15.843 Y2.719 E0.06930
G1 X18.499 Y5.375 E0.28955
G1 X18.678 Y4.655 E0.05720
G1 X16.742 Y2.719 E0.21105
G1 X17.574 Y2.652 E0.06435
G1 X18.831 Y3.908 E0.13695
G1 X18.947 Y3.125 E0.06101
G1 X18.207 Y2.386 E0.08062
G1 X18.711 Y1.990 E0.04936
G1 X19.014 Y2.293 E0.03303
G1 E-3.50000 F1500.00000
G1 Z0.700 F15000.000
G1 X11.670 Y-4.385 F15000.000
G1 Z0.300 F15000.000
G1 E3.50000 F1500.00000
G1 X11.740 Y-6.120 E0.28111 F960.000
G1 X11.740 Y-12.544 E1.04032
G1 X12.849 Y-13.313 F15000.000
G1 X12.925 Y-13.593 E0.02232 F960.000
G1 X13.040 Y-13.873 E0.02340
G1 X13.159 Y-13.975 E0.01205
G1 X13.544 Y-14.230 E0.03560
G1 X13.955 Y-14.429 E0.03520
G1 X14.327 Y-14.553 E0.03017
G1 X15.032 Y-14.742 E0.05627
G1 X16.983 Y-15.068 F15000.000
G1 X16.694 Y-15.358 E0.03832 F960.000
G1 X17.371 Y-15.771 E0.07423
G1 X18.345 Y-14.797 E0.12885
G1 X19.059 Y-15.174 E0.07551
G1 X18.063 Y-16.171 E0.13176
G1 X18.755 Y-16.570 E0.07470
G1 X19.059 Y-16.265 E0.04025
G1 E-3.50000 F1500.00000
G1 Z0.700 F15000.000
G1 X-1.602 Y7.174 F15000.000
G1 Z0.300 F15000.000
G1 E3.50000 F1500.00000
G1 X-0.424 Y8.278 E0.12443 F960.000
G1 X-0.231 Y8.497 E0.02249
G1 X0.107 Y8.943 E0.04315
G1 X0.129 Y9.116 E0.01339
G1 X0.130 Y9.424 E0.02372
G1 X-2.534 Y6.345 F15000.000
G1 X-3.409 Y5.641 E0.08655 F960.000
G1 X-3.411 Y5.643 F15000.000
G1 X-4.186 Y5.073 E0.15587 F960.000
G1 X-5.032 Y4.506 E0.16489
G1 X-5.924 Y3.961 E0.16932
G1 X-11.387 Y0.808 E1.02137
G1 X-12.604 Y1.384 F15000.000
G1 X-12.911 Y1.305 E0.02442 F960.000
G1 X-13.189 Y1.270 E0.02159
G1 X-13.362 Y1.332 E0.01423
G1 X-13.726 Y1.513 E0.03132
G1 X-14.100 Y1.763 E0.03462
G1 X-14.408 Y2.031 E0.03145
G1 X-14.933 Y2.556 E0.05725
G1 X-16.098 Y4.021 F15000.000
G1 X-16.397 Y3.722 E0.03965 F960.000
G1 X-17.091 Y4.122 E0.07509
G1 X-16.455 Y4.758 E0.08431
G1 X-16.529 Y5.777 E0.09585
G1 X-17.784 Y4.522 E0.16641
G1 X-18.463 Y4.937 E0.07461
G1 X-18.139 Y5.262 E0.04301
G1 E-3.50000 F1500.00000
G1 Z0.700 F15000.000
G1 X12.401 Y17.146 F15000.000
G1 Z0.300 F15000.000
G1 E3.50000 F1500.00000
G1 X13.996 Y16.225 E0.29831 F960.000
G1 E-3.50000 F1500.00000
G1 Z0.700 F15000.000
G1 X13.447 Y15.393 F15000.000
G1 Z0.500 F15000.000
G1 E3.50000 F1500.00000
G1 X11.955 Y16.254 E0.04973 F2400.000
G1 X10.864 Y15.962 E0.03258
G1 X10.344 Y15.746 E0.01626
G1 X9.865 Y15.379 E0.01742
G1 X9.497 Y14.900 E0.01742
G1 X9.266 Y14.342 E0.01742
G1 X9.188 Y13.744 E0.01742
G1 X9.266 Y13.145 E0.01742
G1 X9.497 Y12.588 E0.01742
G1 X9.865 Y12.109 E0.01742
G1 X10.344 Y11.741 E0.01742
G1 X10.902 Y11.510 E0.01742 F2400.000
G1 X11.500 Y11.432 E0.01742
G1 X12.098 Y11.510 E0.01742
G1 X12.656 Y11.741 E0.01742
G1 X13.135 Y12.109 E0.01742
G1 X13.503 Y12.588 E0.01742
G1 X13.734 Y13.145 E0.01742
G1 X13.812 Y13.744 E0.01742
G1 X13.739 Y14.303 E0.01626
G1 X13.462 Y15.335 E0.03084
G1 X13.140 Y15.158 F15000.000
G1 X11.904 Y15.871 E0.04119 F2400.000
G1 X10.979 Y15.623 E0.02763
G1 X10.524 Y15.435 E0.01423
G1 X10.120 Y15.124 E0.01471
G1 X9.809 Y14.720 E0.01471
G1 X9.614 Y14.249 E0.01471
G1 X9.548 Y13.744 E0.01471
G1 X9.614 Y13.239 E0.01471
G1 X9.809 Y12.768 E0.01471
G1 X10.120 Y12.364 E0.01471
G1 X10.524 Y12.053 E0.01471
G1 X10.995 Y11.858 E0.01471
G1 X11.247 Y11.825 E0.00735
G1 X11.500 Y11.792 E0.00735 F2400.000
G1 X12.005 Y11.858 E0.01471
G1 X12.476 Y12.053 E0.01471
G1 X12.880 Y12.364 E0.01471
G1 X13.191 Y12.768 E0.01471
G1 X13.386 Y13.239 E0.01471
G1 X13.452 Y13.744 E0.01471
G1 X13.388 Y14.233 E0.01423
G1 X13.156 Y15.100 E0.02590
G1 X13.244 Y15.544 F15000.000
G1 E-3.50000 F1500.00000
G1 Z0.900 F15000.000
G1 X-0.046 Y9.985 F15000.000
G1 Z0.500 F15000.000
G1 E3.50000 F1500.00000
G1 X-0.171 Y10.280 E0.00923 F2400.000
G1 X-1.565 Y12.696 E0.08052
G1 X-1.768 Y12.963 E0.00968
G1 X-2.076 Y13.209 E0.01138
G1 X-2.512 Y13.379 E0.01350
G1 X-2.871 Y13.417 E0.01043
G1 X-3.171 Y13.378 E0.00871
G1 X-3.550 Y13.238 E0.01168
G1 X-15.026 Y6.613 E0.38245
G1 X-15.298 Y6.406 E0.00989
G1 X-15.550 Y6.079 E0.01189
G1 X-15.697 Y5.720 E0.01122
G1 X-15.748 Y5.334 E0.01123
G1 X-15.697 Y4.945 E0.01131
G1 X-15.562 Y4.620 E0.01016
G1 X-14.146 Y2.171 E0.08165
G1 X-13.926 Y1.898 E0.01013
G1 X-13.645 Y1.684 E0.01020
G1 X-13.316 Y1.542 E0.01034
G1 X-12.951 Y1.481 E0.01069 F2400.000
G1 X-12.516 Y1.521 E0.01260
G1 X-12.172 Y1.662 E0.01072
G1 X-0.551 Y8.386 E0.38751
G1 X-0.355 Y8.576 E0.00790
G1 X-0.180 Y8.819 E0.00865
G1 X-0.030 Y9.188 E0.01148
G1 X0.018 Y9.547 E0.01047
G1 X-0.037 Y9.926 E0.01104
G1 X-0.391 Y9.874 F15000.000
G1 X-0.491 Y10.120 E0.00767 F2400.000
G1 X-1.864 Y12.498 E0.07924
G1 X-2.025 Y12.712 E0.00774
G1 X-2.257 Y12.896 E0.00853
G1 X-2.597 Y13.029 E0.01057
G1 X-2.867 Y13.058 E0.00782
G1 X-3.084 Y13.029 E0.00634
G1 X-3.398 Y12.914 E0.00965
G1 X-14.828 Y6.315 E0.38092
G1 X-15.045 Y6.150 E0.00787
G1 X-15.238 Y5.900 E0.00913
G1 X-15.349 Y5.627 E0.00849
G1 X-15.388 Y5.334 E0.00854
G1 X-15.349 Y5.039 E0.00860
G1 X-15.241 Y4.779 E0.00812
G1 X-13.851 Y2.374 E0.08018
G1 X-13.676 Y2.156 E0.00807
G1 X-13.464 Y1.995 E0.00769
G1 X-13.215 Y1.887 E0.00783
G1 X-12.938 Y1.841 E0.00810 F2400.000
G1 X-12.602 Y1.872 E0.00973
G1 X-12.330 Y1.983 E0.00849
G1 X-0.768 Y8.673 E0.38554
G1 X-0.626 Y8.810 E0.00571
G1 X-0.494 Y8.993 E0.00650
G1 X-0.378 Y9.280 E0.00893
