; generated by Slic3r 1.2.9 on 2017-09-11 at 15:39:57

; external perimeters extrusion width = 0.40mm
; perimeters extrusion width = 0.40mm
; infill extrusion width = 0.40mm
; solid infill extrusion width = 0.40mm
; top infill extrusion width = 0.40mm

M107
M83
T0
M116
G21 ; set units to millimeters
G90 ; use absolute coordinates
M83 ; use relative distances for extrusion
G1 E-3.50000 F1500.00000
G1 Z0.400 F15000.000
G1 X10.246 Y5.916 F15000.000
G1 Z0.300 F15000.000
G1 E3.50000 F1500.00000
G1 X3.757 Y17.146 E0.99951 F960.000
G1 X3.337 Y17.810 E0.06053
G1 X-3.538 Y28.232 E0.96217
G1 X-3.813 Y28.597 E0.03526
G1 X-4.462 Y29.352 E0.07671
G1 X-5.139 Y29.965 E0.07038
G1 X-5.952 Y30.533 E0.07646
G1 X-6.760 Y30.958 E0.07038
G1 X-7.690 Y31.306 E0.07646
G1 X-8.578 Y31.516 E0.07038
G1 X-9.565 Y31.621 E0.07646
G1 X-10.478 Y31.603 E0.07038
G1 X-11.460 Y31.459 E0.07646
G1 X-12.339 Y31.214 E0.07038
G1 X-13.257 Y30.828 E0.07671
G1 X-13.667 Y30.625 E0.03527
G1 X-14.257 Y30.248 E0.05396
G1 X-15.078 Y29.618 E0.07971
G1 X-15.749 Y28.947 E0.07314
G1 X-16.377 Y28.129 E0.07946
G1 X-16.851 Y27.307 E0.07314
G1 X-17.318 Y26.166 E0.09505
G1 X-25.738 Y2.137 E1.96216
G1 X-25.905 Y1.455 E0.05416
G1 X-26.074 Y0.283 E0.09122
G1 X-26.084 Y-0.684 E0.07454
G1 X-25.938 Y-1.859 E0.09122
G1 X-25.692 Y-2.794 E0.07453
G1 X-25.241 Y-3.892 E0.09148
G1 X-25.027 Y-4.327 E0.03735
G1 X-20.130 Y-12.808 E0.75474
G1 X-19.875 Y-13.192 E0.03554
G1 X-19.191 Y-14.091 E0.08708
G1 X-18.545 Y-14.748 E0.07095
G1 X-17.659 Y-15.444 E0.08683
G1 X-17.062 Y-15.826 E0.05464
G1 X12.705 Y-30.984 E2.57433
G1 X13.434 Y-31.298 E0.06115
G1 X14.351 Y-31.544 E0.07314
G1 X14.855 Y-31.610 E0.03922
G1 X15.805 Y-31.610 E0.07314
G1 X16.300 Y-31.545 E0.03852 F960.000
G1 X17.202 Y-31.306 E0.07189
G1 X17.684 Y-31.108 E0.04015
G1 X18.126 Y-30.892 E0.03791
G1 X23.316 Y-27.895 E0.46189
G1 X23.712 Y-27.631 E0.03665
G1 X24.118 Y-27.319 E0.03948
G1 X24.789 Y-26.648 E0.07314
G1 X25.099 Y-26.244 E0.03922
G1 X25.573 Y-25.422 E0.07314
G1 X25.768 Y-24.952 E0.03922
G1 X26.014 Y-24.035 E0.07314
G1 X26.080 Y-23.531 E0.03922
G1 X26.080 Y-22.582 E0.07314
G1 X26.014 Y-22.077 E0.03922
G1 X25.768 Y-21.160 E0.07314
G1 X25.572 Y-20.687 E0.03948
G1 X25.362 Y-20.260 E0.03667
G1 X10.276 Y5.864 E2.32489
G1 E-3.50000 F1500.00000
G1 Z0.700 F15000.000
G1 X-1.002 Y12.777 F15000.000
G1 Z0.300 F15000.000
G1 E3.50000 F1500.00000
G1 X-0.746 Y13.396 E0.05163 F600.000
G1 X-0.664 Y14.073 E0.05256
G1 X-0.748 Y14.708 E0.04935
G1 X-1.002 Y15.321 E0.05119
G1 X-1.407 Y15.848 E0.05119
G1 X-1.934 Y16.253 E0.05119
G1 X-2.547 Y16.507 E0.05119
G1 X-3.206 Y16.593 E0.05119
G1 X-3.864 Y16.507 E0.05119
G1 X-4.478 Y16.253 E0.05119
G1 X-5.005 Y15.848 E0.05119
G1 X-5.410 Y15.321 E0.05119
G1 X-5.664 Y14.708 E0.05119
G1 X-5.750 Y14.049 E0.05119
G1 X-5.667 Y13.414 E0.04934
G1 X-5.413 Y12.781 E0.05256
G1 X-5.005 Y12.250 E0.05163
G1 X-4.474 Y11.842 E0.05163
G1 X-3.841 Y11.588 E0.05256
G1 X-3.206 Y11.504 E0.04935 F600.000
G1 X-2.547 Y11.591 E0.05119
G1 X-1.934 Y11.845 E0.05119
G1 X-1.407 Y12.250 E0.05119
G1 X-1.039 Y12.729 E0.04657
G1 X-1.557 Y13.097 F15000.000
G1 X-1.367 Y13.558 E0.03845 F600.000
G1 X-1.305 Y14.069 E0.03966
G1 X-1.367 Y14.542 E0.03673
G1 X-1.557 Y15.001 E0.03829
G1 X-1.860 Y15.395 E0.03829
G1 X-2.254 Y15.697 E0.03829
G1 X-2.713 Y15.888 E0.03829
G1 X-3.206 Y15.952 E0.03829
G1 X-3.699 Y15.888 E0.03829
G1 X-4.158 Y15.697 E0.03829
G1 X-4.552 Y15.395 E0.03829
G1 X-4.854 Y15.001 E0.03829
G1 X-5.044 Y14.542 E0.03829
G1 X-5.109 Y14.049 E0.03829
G1 X-5.047 Y13.576 E0.03673
G1 X-4.856 Y13.099 E0.03966
G1 X-4.552 Y12.703 E0.03845
G1 X-4.156 Y12.399 E0.03845
G1 X-3.678 Y12.208 E0.03966
G1 X-3.206 Y12.145 E0.03673 F600.000
G1 X-2.713 Y12.210 E0.03829
G1 X-2.254 Y12.400 E0.03829
G1 X-1.860 Y12.703 E0.03829
G1 X-1.594 Y13.050 E0.03367
G1 X-1.158 Y13.115 F15000.000
G1 X-16.334 Y1.444 F15000.000
G1 X-16.817 Y1.814 E0.04689 F600.000
G1 X-17.400 Y2.056 E0.04868
G1 X-18.026 Y2.138 E0.04868
G1 X-18.653 Y2.056 E0.04868
G1 X-19.236 Y1.814 E0.04868
G1 X-19.737 Y1.430 E0.04868
G1 X-20.122 Y0.929 E0.04868
G1 X-20.364 Y0.345 E0.04868
G1 X-20.446 Y-0.281 E0.04868
G1 X-20.364 Y-0.907 E0.04868
G1 X-20.122 Y-1.491 E0.04868
G1 X-19.737 Y-1.992 E0.04868
G1 X-19.232 Y-2.380 E0.04912
G1 X-18.630 Y-2.621 E0.04997
G1 X-18.026 Y-2.701 E0.04690 F600.000
G1 X-17.400 Y-2.618 E0.04868
G1 X-16.817 Y-2.377 E0.04868
G1 X-16.316 Y-1.992 E0.04868
G1 X-15.931 Y-1.491 E0.04868
G1 X-15.689 Y-0.907 E0.04868
G1 X-15.607 Y-0.281 E0.04868
G1 X-15.689 Y0.345 E0.04868
G1 X-15.933 Y0.934 E0.04912
G1 X-16.297 Y1.397 E0.04535
G1 X-16.784 Y0.988 F15000.000
G1 X-17.137 Y1.259 E0.03428 F600.000
G1 X-17.566 Y1.437 E0.03578
G1 X-18.026 Y1.497 E0.03578
G1 X-18.487 Y1.437 E0.03578
G1 X-18.916 Y1.259 E0.03578
G1 X-19.284 Y0.976 E0.03578
G1 X-19.567 Y0.608 E0.03578
G1 X-19.744 Y0.179 E0.03578
G1 X-19.805 Y-0.281 E0.03578
G1 X-19.744 Y-0.742 E0.03578
G1 X-19.567 Y-1.170 E0.03578
G1 X-19.284 Y-1.539 E0.03578
G1 X-18.914 Y-1.823 E0.03594
G1 X-18.467 Y-2.002 E0.03707
G1 X-18.026 Y-2.060 E0.03428 F600.000
G1 X-17.566 Y-1.999 E0.03578
G1 X-17.137 Y-1.821 E0.03578
G1 X-16.769 Y-1.539 E0.03578
G1 X-16.486 Y-1.170 E0.03578
G1 X-16.309 Y-0.742 E0.03578
G1 X-16.248 Y-0.281 E0.03578
G1 X-16.309 Y0.179 E0.03578
G1 X-16.487 Y0.610 E0.03594
G1 X-16.747 Y0.941 E0.03245
G1 X-16.699 Y1.379 F15000.000
G1 X-14.130 Y-5.735 F15000.000
G1 X-14.732 Y-5.977 E0.04997 F600.000
G1 X-15.237 Y-6.365 E0.04912
G1 X-15.622 Y-6.866 E0.04868
G1 X-15.864 Y-7.449 E0.04868
G1 X-15.946 Y-8.075 E0.04868
G1 X-15.864 Y-8.702 E0.04868
G1 X-15.622 Y-9.285 E0.04868
G1 X-15.237 Y-9.786 E0.04868
G1 X-14.732 Y-10.174 E0.04912
G1 X-14.130 Y-10.416 E0.04997
G1 X-13.526 Y-10.495 E0.04689 F600.000
G1 X-12.900 Y-10.413 E0.04868
G1 X-12.317 Y-10.171 E0.04868
G1 X-11.816 Y-9.786 E0.04868
G1 X-11.431 Y-9.285 E0.04868
G1 X-11.189 Y-8.702 E0.04868
G1 X-11.107 Y-8.075 E0.04868
G1 X-11.189 Y-7.449 E0.04868
G1 X-11.433 Y-6.860 E0.04912
G1 X-11.834 Y-6.350 E0.04997
G1 X-12.317 Y-5.980 E0.04689
G1 X-12.900 Y-5.738 E0.04868
G1 X-13.526 Y-5.656 E0.04868
G1 X-14.070 Y-5.727 E0.04227
G1 X-13.967 Y-6.355 F15000.000
G1 X-14.414 Y-6.534 E0.03707 F600.000
G1 X-14.784 Y-6.818 E0.03594
G1 X-15.067 Y-7.186 E0.03578
G1 X-15.244 Y-7.615 E0.03578
G1 X-15.305 Y-8.075 E0.03578
G1 X-15.244 Y-8.536 E0.03578
G1 X-15.067 Y-8.965 E0.03578
G1 X-14.784 Y-9.333 E0.03578
G1 X-14.414 Y-9.617 E0.03594
G1 X-13.967 Y-9.796 E0.03707
G1 X-13.526 Y-9.854 E0.03428 F600.000
G1 X-13.066 Y-9.793 E0.03578
G1 X-12.637 Y-9.616 E0.03578
G1 X-12.269 Y-9.333 E0.03578
G1 X-11.986 Y-8.965 E0.03578
G1 X-11.809 Y-8.536 E0.03578
G1 X-11.748 Y-8.075 E0.03578
G1 X-11.809 Y-7.615 E0.03578
G1 X-11.987 Y-7.184 E0.03594
G1 X-12.284 Y-6.806 E0.03707
G1 X-12.637 Y-6.535 E0.03428
G1 X-13.066 Y-6.358 E0.03578
G1 X-13.526 Y-6.297 E0.03578
G1 X-13.908 Y-6.347 E0.02966
G1 X-14.260 Y-6.083 F15000.000
G1 X9.327 Y-1.734 F15000.000
G1 X-0.160 Y14.695 E1.46207 F720.000
G1 X-0.525 Y15.273 E0.05270
G1 X-7.361 Y25.635 E0.95663
G1 X-7.887 Y26.248 E0.06230
G1 X-8.496 Y26.674 E0.05723
G1 X-9.192 Y26.934 E0.05723
G1 X-9.930 Y27.013 E0.05723
G1 X-10.665 Y26.905 E0.05723
G1 X-11.495 Y26.542 E0.06982
G1 X-12.162 Y26.031 E0.06473
G1 X-12.631 Y25.419 E0.05946
G1 X-12.927 Y24.706 E0.05946
G1 X-13.027 Y23.941 E0.05946
G1 X-12.927 Y23.176 E0.05946
G1 X-12.605 Y22.400 E0.06473
G1 X-8.619 Y15.497 E0.61435
G1 X-8.303 Y14.838 E0.05630
G1 X-8.080 Y14.101 E0.05936
G1 X-7.973 Y13.347 E0.05869
G1 X-7.968 Y12.196 E0.08870
G1 X-8.099 Y11.061 E0.08804
G1 X-8.364 Y9.950 E0.08804
G1 X-8.761 Y8.878 E0.08804
G1 X-9.282 Y7.862 E0.08804
G1 X-9.921 Y6.915 E0.08804
G1 X-10.669 Y6.051 E0.08804
G1 X-11.514 Y5.283 E0.08804
G1 X-12.445 Y4.621 E0.08804
G1 X-13.448 Y4.075 E0.08804
G1 X-14.510 Y3.652 E0.08804
G1 X-15.614 Y3.360 E0.08804
G1 X-16.745 Y3.201 E0.08804
G1 X-17.787 Y3.181 E0.08032
G1 X-18.803 Y3.086 E0.07861
G1 X-19.663 Y2.762 E0.07083
G1 X-20.407 Y2.222 E0.07083
G1 X-20.983 Y1.506 E0.07083
G1 X-21.350 Y0.663 E0.07083
G1 X-21.481 Y-0.247 E0.07083
G1 X-21.368 Y-1.159 E0.07083
G1 X-20.992 Y-2.073 E0.07621
G1 X-16.160 Y-10.443 E0.74484
G1 X-15.589 Y-11.193 E0.07256
G1 X-14.901 Y-11.734 E0.06744
G1 X-14.039 Y-12.111 E0.07256
G1 X9.184 Y-18.927 E1.86522
G1 X9.830 Y-19.210 E0.05429
G1 X10.436 Y-19.686 E0.05940
G1 X10.862 Y-20.247 E0.05429
G1 X14.461 Y-26.480 E0.55465
G1 X14.654 Y-26.732 E0.02450
G1 X14.852 Y-26.884 E0.01922
G1 X15.083 Y-26.979 E0.01922
G1 X15.330 Y-27.012 E0.01922
G1 X15.571 Y-26.980 E0.01870
G1 X15.873 Y-26.856 E0.02518 F720.000
G1 X20.950 Y-23.925 E0.45176
G1 X21.202 Y-23.732 E0.02450
G1 X21.354 Y-23.534 E0.01922
G1 X21.449 Y-23.303 E0.01922
G1 X21.482 Y-23.056 E0.01922
G1 X21.449 Y-22.809 E0.01922
G1 X21.327 Y-22.515 E0.02450
G1 X9.357 Y-1.786 E1.84474
G1 X9.908 Y-1.468 F15000.000
G1 X0.384 Y15.024 E1.46766 F720.000
G1 X0.009 Y15.618 E0.05416
G1 X-6.853 Y26.018 E0.96020
G1 X-7.457 Y26.723 E0.07159
G1 X-8.198 Y27.241 E0.06963
G1 X-9.044 Y27.557 E0.06963
G1 X-9.943 Y27.653 E0.06963
G1 X-10.837 Y27.522 E0.06963
G1 X-11.693 Y27.162 E0.07159
G1 X-11.849 Y27.072 E0.01388
G1 X-12.615 Y26.484 E0.07439
G1 X-13.187 Y25.740 E0.07236
G1 X-13.546 Y24.872 E0.07236
G1 X-13.668 Y23.941 E0.07236
G1 X-13.546 Y23.010 E0.07236
G1 X-13.176 Y22.119 E0.07439
G1 X-9.182 Y15.200 E0.61568
G1 X-8.898 Y14.607 E0.05067
G1 X-8.703 Y13.963 E0.05185
G1 X-8.609 Y13.300 E0.05159
G1 X-8.604 Y12.231 E0.08242
G1 X-8.726 Y11.172 E0.08217
G1 X-8.974 Y10.135 E0.08217
G1 X-9.344 Y9.135 E0.08217
G1 X-9.830 Y8.186 E0.08217
G1 X-10.427 Y7.302 E0.08217
G1 X-11.124 Y6.496 E0.08217
G1 X-11.913 Y5.779 E0.08217
G1 X-12.782 Y5.161 E0.08217
G1 X-13.719 Y4.651 E0.08217
G1 X-14.709 Y4.257 E0.08217
G1 X-15.740 Y3.984 E0.08217
G1 X-16.796 Y3.836 E0.08217
G1 X-17.823 Y3.816 E0.07919
G1 X-18.947 Y3.710 E0.08698
G1 X-19.967 Y3.326 E0.08398
G1 X-20.849 Y2.687 E0.08398
G1 X-21.532 Y1.838 E0.08398
G1 X-21.967 Y0.838 E0.08398
G1 X-22.123 Y-0.240 E0.08398
G1 X-21.988 Y-1.322 E0.08398
G1 X-21.564 Y-2.354 E0.08606
G1 X-16.690 Y-10.796 E0.75122
G1 X-16.046 Y-11.642 E0.08192
G1 X-15.231 Y-12.283 E0.07995
G1 X-14.257 Y-12.709 E0.08192
G1 X8.967 Y-19.526 E1.86522
G1 X9.501 Y-19.759 E0.04492
G1 X9.979 Y-20.136 E0.04690
G1 X10.332 Y-20.599 E0.04492
G1 X13.931 Y-26.833 E0.55475
G1 X14.201 Y-27.185 E0.03416
G1 X14.532 Y-27.439 E0.03212
G1 X14.917 Y-27.598 E0.03212
G1 X15.330 Y-27.653 E0.03212
G1 X15.735 Y-27.599 E0.03148
G1 X16.153 Y-27.428 E0.03483 F720.000
G1 X21.303 Y-24.455 E0.45829
G1 X21.655 Y-24.185 E0.03416
G1 X21.909 Y-23.854 E0.03212
G1 X22.068 Y-23.469 E0.03212
G1 X22.123 Y-23.056 E0.03212
G1 X22.068 Y-22.643 E0.03212
G1 X21.899 Y-22.234 E0.03416
G1 X9.938 Y-1.520 E1.84333
G1 X9.508 Y-1.468 F15000.000
G1 X-8.819 Y7.753 F15000.000
G1 X-4.855 Y11.717 E0.43565 F960.000
G1 X-4.275 Y11.391 E0.05173
G1 X-15.318 Y0.348 E1.21369
G1 X-15.223 Y-0.464 E0.06352
G1 X-3.578 Y11.181 E1.27990
G1 X-2.688 Y11.165 E0.06920
G1 X-15.520 Y-1.667 E1.41035
G1 X-18.650 Y-2.985 F15000.000
G1 X-19.555 Y-3.890 E0.09946 F960.000
G1 X-19.224 Y-4.464 E0.05157
G1 X-17.844 Y-3.084 E0.15167
G1 X-16.640 Y-2.788 E0.09630
G1 X-18.892 Y-5.039 E0.24743
G1 X-18.560 Y-5.614 E0.05157
G1 X0.293 Y13.239 E2.07205
G1 X0.625 Y12.664 E0.05157
G1 X-18.228 Y-6.188 E2.07205
G1 X-17.896 Y-6.763 E0.05157
G1 X0.956 Y12.090 E2.07206
G1 X1.288 Y11.515 E0.05157
G1 X-17.565 Y-7.338 E2.07206
G1 X-17.233 Y-7.913 E0.05157
G1 X-16.049 Y-6.729 E0.13005
G1 X-14.874 Y-5.554 F15000.000
G1 X1.620 Y10.940 E1.81285 F960.000
G1 X1.952 Y10.366 E0.05157
G1 X-13.682 Y-5.269 E1.71834
G1 X-12.881 Y-5.374 E0.06282
G1 X2.284 Y9.791 E1.66673
G1 X2.616 Y9.216 E0.05157
G1 X-12.240 Y-5.639 E1.63275
G1 X-11.717 Y-6.023 E0.05040
G1 X2.947 Y8.642 E1.61173
G1 X3.279 Y8.067 E0.05157
G1 X-11.292 Y-6.504 E1.60150
G1 X-10.967 Y-7.086 E0.05178
G1 X3.611 Y7.492 E1.60228
G1 X3.943 Y6.918 E0.05157
G1 X-10.771 Y-7.797 E1.61722
G1 X-10.783 Y-8.715 E0.07139
G1 X4.275 Y6.343 E1.65501
G1 X4.607 Y5.768 E0.05157
G1 X-13.162 Y-12.000 E1.95293
G1 X-12.461 Y-12.206 E0.05676
G1 X4.938 Y5.194 E1.91238
G1 X5.270 Y4.619 E0.05157
G1 X-11.761 Y-12.412 E1.87183
G1 X-11.060 Y-12.618 E0.05676
G1 X5.602 Y4.044 E1.83128
G1 X5.934 Y3.470 E0.05157
G1 X-10.359 Y-12.823 E1.79073
G1 X-9.658 Y-13.029 E0.05676
G1 X6.266 Y2.895 E1.75018
G1 X6.598 Y2.320 E0.05157
G1 X-8.957 Y-13.235 E1.70963
G1 X-8.257 Y-13.440 E0.05676
G1 X6.930 Y1.746 E1.66907
G1 X7.261 Y1.171 E0.05157
G1 X-7.556 Y-13.646 E1.62852
G1 X-6.855 Y-13.852 E0.05676
G1 X7.593 Y0.597 E1.58797
G1 X7.925 Y0.022 E0.05157
G1 X-6.154 Y-14.057 E1.54742
G1 X-5.453 Y-14.263 E0.05676
G1 X8.257 Y-0.553 E1.50687
G1 X8.589 Y-1.127 E0.05157
G1 X-4.753 Y-14.469 E1.46632
G1 X-4.052 Y-14.674 E0.05676
G1 X8.921 Y-1.702 E1.42577
G1 X9.252 Y-2.277 E0.05157
G1 X-3.351 Y-14.880 E1.38521
G1 X-2.650 Y-15.086 E0.05676
G1 X9.584 Y-2.851 E1.34466
G1 X9.916 Y-3.426 E0.05157
G1 X-1.949 Y-15.292 E1.30411
G1 X-1.249 Y-15.497 E0.05676
G1 X10.248 Y-4.001 E1.26356
G1 X10.580 Y-4.575 E0.05157
G1 X-0.548 Y-15.703 E1.22301
G1 X0.153 Y-15.909 E0.05676
G1 X10.912 Y-5.150 E1.18246
G1 X11.243 Y-5.725 E0.05157
G1 X0.854 Y-16.114 E1.14190
G1 X1.555 Y-16.320 E0.05676
G1 X11.575 Y-6.299 E1.10135
G1 X11.907 Y-6.874 E0.05157
G1 X2.255 Y-16.526 E1.06080
G1 X2.956 Y-16.731 E0.05676
G1 X12.239 Y-7.449 E1.02025
G1 X12.571 Y-8.023 E0.05157
G1 X3.657 Y-16.937 E0.97970
G1 X4.358 Y-17.143 E0.05676
G1 X12.903 Y-8.598 E0.93915
G1 X13.234 Y-9.173 E0.05157
G1 X5.059 Y-17.349 E0.89860
G1 X5.759 Y-17.554 E0.05676
G1 X13.566 Y-9.747 E0.85804
G1 X13.898 Y-10.322 E0.05157
G1 X6.460 Y-17.760 E0.81749
G1 X7.161 Y-17.966 E0.05676
G1 X14.230 Y-10.897 E0.77694
G1 X14.562 Y-11.471 E0.05157
G1 X7.862 Y-18.171 E0.73639
G1 X8.563 Y-18.377 E0.05676
G1 X14.894 Y-12.046 E0.69584
G1 X15.226 Y-12.621 E0.05157
G1 X9.260 Y-18.586 E0.65568
G1 X9.890 Y-18.862 E0.05349
G1 X15.557 Y-13.195 E0.62284
G1 X15.889 Y-13.770 E0.05157
G1 X10.412 Y-19.247 E0.60196
G1 X10.864 Y-19.702 E0.04982
G1 X16.221 Y-14.344 E0.58880
G1 X16.553 Y-14.919 E0.05157
G1 X11.241 Y-20.231 E0.58379
G1 X11.573 Y-20.806 E0.05157
G1 X16.885 Y-15.494 E0.58380
G1 X17.217 Y-16.068 E0.05157
G1 X11.905 Y-21.380 E0.58380
G1 X12.237 Y-21.955 E0.05157
G1 X17.548 Y-16.643 E0.58381
G1 X17.880 Y-17.218 E0.05157
G1 X12.568 Y-22.530 E0.58381
G1 X12.900 Y-23.104 E0.05157
G1 X18.212 Y-17.792 E0.58382
G1 X18.544 Y-18.367 E0.05157
G1 X13.232 Y-23.679 E0.58382
G1 X13.564 Y-24.254 E0.05157
G1 X18.876 Y-18.942 E0.58382
G1 X19.208 Y-19.516 E0.05157
G1 X13.896 Y-24.828 E0.58383
G1 X14.227 Y-25.403 E0.05157
G1 X19.539 Y-20.091 E0.58383
G1 X19.871 Y-20.666 E0.05157
G1 X14.559 Y-25.978 E0.58384
G1 X14.923 Y-26.520 E0.05078
G1 X20.203 Y-21.240 E0.58032
G1 X20.535 Y-21.815 E0.05157
G1 X16.262 Y-26.088 E0.46963
G1 X18.407 Y-24.850 F15000.000
G1 X20.867 Y-22.390 E0.27037 F960.000
G1 X20.573 Y-23.590 E0.09601
G1 X21.039 Y-23.123 E0.05124
G1 X-12.887 Y-10.818 F15000.000
G1 X-13.863 Y-11.795 E0.10731 F960.000
G1 E-3.50000 F1500.00000
G1 Z0.700 F15000.000
G1 X-16.248 Y2.137 F15000.000
G1 Z0.300 F15000.000
G1 E3.50000 F1500.00000
G1 X-15.406 Y2.980 E0.09259 F960.000
G1 X-14.170 Y3.309 E0.09941
G1 X-15.967 Y1.512 E0.19751
G1 X-15.583 Y0.989 E0.05041
G1 X-12.526 Y4.046 E0.33599
G1 X-8.109 Y9.369 F15000.000
G1 X-5.339 Y12.140 E0.30453 F960.000
G1 X-5.732 Y12.653 E0.05025
G1 X-7.774 Y10.611 E0.22441
G1 X-7.624 Y11.667 E0.08290
G1 X-5.992 Y13.299 E0.17936
G1 X-6.126 Y14.072 E0.06098
G1 X-7.585 Y12.613 E0.16038
G1 X-7.621 Y13.483 E0.06770
G1 X-5.972 Y15.133 E0.18129
G1 X-7.758 Y14.253 F15000.000
G1 X-3.235 Y18.776 E0.49711 F960.000
G1 X-2.875 Y18.230 E0.05085
G1 X-4.290 Y16.815 E0.15551
G1 X-3.229 Y16.969 E0.08329
G1 X-2.515 Y17.683 E0.07855
G1 X-2.154 Y17.137 E0.05085
G1 X-2.452 Y16.840 E0.03270
G1 X-3.596 Y19.322 F15000.000
G1 X-7.976 Y14.942 E0.48141 F960.000
G1 X-8.270 Y15.554 E0.05281
G1 X-3.956 Y19.868 E0.47410
G1 X-4.316 Y20.414 E0.05085
G1 X-8.598 Y16.132 E0.47062
G1 X-8.930 Y16.707 E0.05157
G1 X-4.677 Y20.960 E0.46749
G1 X-5.037 Y21.507 E0.05085
G1 X-9.262 Y17.282 E0.46435
G1 X-9.594 Y17.856 E0.05157
G1 X-5.397 Y22.053 E0.46122
G1 X-5.758 Y22.599 E0.05085
