; generated by Slic3r 1.2.9 on 2017-09-11 at 15:59:48

; external perimeters extrusion width = 0.40mm
; perimeters extrusion width = 0.40mm
; infill extrusion width = 0.40mm
; solid infill extrusion width = 0.40mm
; top infill extrusion width = 0.40mm

M107
M83
T0
M116
G21 ; set units to millimeters
G90 ; use absolute coordinates
M83 ; use relative distances for extrusion
G1 E-3.50000 F1500.00000
G1 Z0.400 F15000.000
G1 X-12.493 Y-4.378 F15000.000
G1 Z0.300 F15000.000
G1 E3.50000 F1500.00000
G1 X-7.473 Y-18.707 E1.17013 F960.000
G1 X-7.031 Y-19.788 E0.09002
G1 X-6.556 Y-20.610 E0.07314
G1 X-5.968 Y-21.376 E0.07443
G1 X-5.297 Y-22.048 E0.07314
G1 X-4.528 Y-22.638 E0.07468
G1 X-4.133 Y-22.902 E0.03665
G1 X-3.528 Y-23.218 E0.05258
G1 X-2.668 Y-23.579 E0.07187
G1 X-1.789 Y-23.824 E0.07038
G1 X-0.869 Y-23.959 E0.07162
G1 X0.044 Y-23.977 E0.07038
G1 X0.412 Y-23.938 E0.02855
G1 X0.968 Y-23.879 E0.04307 F960.000
G1 X1.857 Y-23.669 E0.07038
G1 X2.727 Y-23.343 E0.07162
G1 X3.536 Y-22.918 E0.07038
G1 X4.298 Y-22.386 E0.07162
G1 X4.975 Y-21.773 E0.07038
G1 X5.582 Y-21.065 E0.07187
G1 X5.857 Y-20.700 E0.03526
G1 X12.732 Y-10.279 E0.96211
G1 X13.556 Y-8.917 E0.12266
G1 X14.461 Y-7.095 E0.15679
G1 X14.996 Y-5.755 E0.11117
G1 X15.517 Y-4.097 E0.13398
G1 X15.954 Y-2.110 E0.15679
G1 X16.148 Y-0.680 E0.11117
G1 X16.253 Y1.055 E0.13399
G1 X16.195 Y3.089 E0.15679
G1 X16.037 Y4.523 E0.11117
G1 X15.719 Y6.232 E0.13398
G1 X15.171 Y8.191 E0.15680
G1 X14.670 Y9.544 E0.11117
G1 X13.947 Y11.125 E0.13398
G1 X13.098 Y12.642 E0.13398
G1 X11.951 Y14.323 E0.15679
G1 X11.044 Y15.444 E0.11117
G1 X9.852 Y16.710 E0.13398
G1 X8.562 Y17.875 E0.13398
G1 X7.181 Y18.931 E0.13398
G1 X5.591 Y19.949 E0.14548
G1 X0.398 Y22.946 E0.46206
G1 X-0.028 Y23.157 E0.03665
G1 X-1.044 Y23.578 E0.08474
G1 X-1.961 Y23.823 E0.07314
G1 X-3.048 Y23.966 E0.08449
G1 X-3.997 Y23.966 E0.07314
G1 X-5.084 Y23.823 E0.08449
G1 X-6.001 Y23.578 E0.07314
G1 X-7.014 Y23.158 E0.08449
G1 X-7.835 Y22.683 E0.07314
G1 X-8.705 Y22.016 E0.08449
G1 X-9.376 Y21.345 E0.07314
G1 X-10.046 Y20.473 E0.08474
G1 X-10.310 Y20.077 E0.03665
G1 X-15.207 Y11.596 E0.75473
G1 X-15.420 Y11.161 E0.03735
G1 X-15.847 Y10.125 E0.08636
G1 X-16.092 Y9.189 E0.07454
G1 X-16.230 Y8.080 E0.08610
G1 X-16.220 Y7.113 E0.07453
G1 X-16.060 Y6.008 E0.08610
G1 X-15.893 Y5.325 E0.05415
G1 X-12.513 Y-4.321 E0.78769
G1 E-3.50000 F1500.00000
G1 Z0.700 F15000.000
G1 X-1.078 Y1.692 F15000.000
G1 Z0.300 F15000.000
G1 E3.50000 F1500.00000
G1 X-0.886 Y1.517 E0.02004 F720.000
G1 X-0.119 Y0.631 E0.09034
G1 X0.537 Y-0.341 E0.09034
G1 X1.072 Y-1.384 E0.09034
G1 X1.479 Y-2.483 E0.09034
G1 X1.751 Y-3.623 E0.09034
G1 X1.886 Y-4.788 E0.09034
G1 X1.882 Y-5.627 E0.06470
G1 X2.189 Y-5.689 E0.02418
G1 X2.679 Y-4.508 E0.09857
G1 X3.361 Y-3.618 E0.08640
G1 X4.251 Y-2.936 E0.08640
G1 X5.287 Y-2.507 E0.08640
G1 X6.398 Y-2.360 E0.08640
G1 X7.510 Y-2.507 E0.08640
G1 X8.545 Y-2.936 E0.08640
G1 X9.435 Y-3.618 E0.08640
G1 X10.117 Y-4.508 E0.08640
G1 X10.321 Y-5.001 E0.04113
G1 X10.688 Y-4.081 E0.07629
G1 X11.088 Y-2.779 E0.10497
G1 X11.380 Y-1.449 E0.10497
G1 X11.563 Y-0.099 E0.10497
G1 X11.636 Y1.261 E0.10497
G1 X11.597 Y2.623 E0.10497
G1 X11.448 Y3.977 E0.10497
G1 X11.189 Y5.314 E0.10497
G1 X10.822 Y6.626 E0.10497
G1 X10.350 Y7.903 E0.10497
G1 X9.775 Y9.138 E0.10497
G1 X9.101 Y10.322 E0.10497
G1 X8.333 Y11.447 E0.10497
G1 X7.477 Y12.506 E0.10497
G1 X6.536 Y13.491 E0.10497
G1 X5.519 Y14.397 E0.10497
G1 X4.431 Y15.217 E0.10497
G1 X3.263 Y15.957 E0.10660
G1 X-0.021 Y17.852 E0.29217
G1 X-0.226 Y17.672 E0.02106
G1 X0.226 Y16.581 E0.09101
G1 X0.372 Y15.469 E0.08640
G1 X0.226 Y14.358 E0.08640
G1 X-0.203 Y13.322 E0.08640
G1 X-0.886 Y12.433 E0.08640
G1 X-1.775 Y11.750 E0.08640
G1 X-2.811 Y11.321 E0.08640
G1 X-3.922 Y11.175 E0.08640
G1 X-5.034 Y11.321 E0.08640
G1 X-6.070 Y11.750 E0.08640
G1 X-6.959 Y12.433 E0.08640 F720.000
G1 X-7.642 Y13.322 E0.08640
G1 X-8.156 Y14.565 E0.10366
G1 X-9.756 Y11.794 E0.24655
G1 X-8.422 Y11.970 E0.10366
G1 X-7.311 Y11.823 E0.08640
G1 X-6.275 Y11.394 E0.08640
G1 X-5.386 Y10.712 E0.08640
G1 X-4.703 Y9.822 E0.08640
G1 X-4.274 Y8.787 E0.08640
G1 X-4.128 Y7.675 E0.08640
G1 X-4.274 Y6.564 E0.08640
G1 X-4.703 Y5.528 E0.08640
G1 X-5.386 Y4.638 E0.08640
G1 X-5.881 Y4.258 E0.04814
G1 X-4.828 Y3.979 E0.08401
G1 X-3.738 Y3.546 E0.09034
G1 X-2.709 Y2.985 E0.09034
G1 X-1.753 Y2.306 E0.09034
G1 X-1.123 Y1.733 E0.06567
G1 E-3.50000 F1500.00000
G1 Z0.700 F15000.000
G1 X-3.082 Y-17.241 F15000.000
G1 Z0.300 F15000.000
G1 E3.50000 F1500.00000
G1 X-2.811 Y-17.900 E0.05492 F600.000
G1 X-2.381 Y-18.460 E0.05443
G1 X-1.766 Y-18.932 E0.05970
G1 X-0.994 Y-19.270 E0.06499
G1 X-0.321 Y-19.369 E0.05239
G1 X-0.077 Y-19.343 E0.01893
G1 X0.355 Y-19.297 E0.03345 F600.000
G1 X0.991 Y-19.058 E0.05239
G1 X1.549 Y-18.669 E0.05239
G1 X2.034 Y-18.103 E0.05746
G1 X6.788 Y-10.898 E0.66521
G1 X6.398 Y-10.950 E0.03028
G1 X5.287 Y-10.803 E0.08640
G1 X4.251 Y-10.374 E0.08640
G1 X3.361 Y-9.692 E0.08640
G1 X2.679 Y-8.802 E0.08640
G1 X2.250 Y-7.766 E0.08640
G1 X2.107 Y-6.680 E0.08448
G1 X1.800 Y-6.655 E0.02373
G1 X1.533 Y-7.534 E0.07084
G1 X1.201 Y-8.228 E0.05924
G1 X-2.785 Y-15.131 E0.61435
G1 X-3.081 Y-15.847 E0.05970
G1 X-3.173 Y-16.547 E0.05443
G1 X-3.090 Y-17.181 E0.04930
G1 X-3.720 Y-17.264 F15000.000
G1 X-3.701 Y-17.413 E0.01158 F720.000
G1 X-3.366 Y-18.221 E0.06733
G1 X-2.834 Y-18.914 E0.06733
G1 X-2.120 Y-19.462 E0.06936
G1 X-1.964 Y-19.552 E0.01388
G1 X-1.166 Y-19.887 E0.06675
G1 X-0.334 Y-20.009 E0.06479
G1 X-0.010 Y-19.975 E0.02514
G1 X0.502 Y-19.920 E0.03965
G1 X1.289 Y-19.626 E0.06479
G1 X1.979 Y-19.144 E0.06479
G1 X2.543 Y-18.487 E0.06675
G1 X8.010 Y-10.200 E0.76510
G1 X7.830 Y-9.982 E0.02173
G1 X7.344 Y-10.184 E0.04059
G1 X6.398 Y-10.308 E0.07350
G1 X5.452 Y-10.184 E0.07350
G1 X4.571 Y-9.819 E0.07350
G1 X3.815 Y-9.238 E0.07350
G1 X3.234 Y-8.482 E0.07350
G1 X2.869 Y-7.601 E0.07350
G1 X2.745 Y-6.655 E0.07350
G1 X2.869 Y-5.709 E0.07350
G1 X3.234 Y-4.828 E0.07350
G1 X3.815 Y-4.072 E0.07350
G1 X4.571 Y-3.491 E0.07350
G1 X5.452 Y-3.126 E0.07350
G1 X6.398 Y-3.002 E0.07350
G1 X7.344 Y-3.126 E0.07350
G1 X8.225 Y-3.491 E0.07350
G1 X8.981 Y-4.072 E0.07350
G1 X9.562 Y-4.828 E0.07350
G1 X9.927 Y-5.709 E0.07350
G1 X10.029 Y-6.480 E0.05994
G1 X10.307 Y-6.527 E0.02177
G1 X10.764 Y-5.606 E0.07925
G1 X11.288 Y-4.293 E0.10897
G1 X11.703 Y-2.941 E0.10897
G1 X12.007 Y-1.560 E0.10897
G1 X12.197 Y-0.159 E0.10897
G1 X12.272 Y1.253 E0.10897
G1 X12.232 Y2.667 E0.10897
G1 X12.077 Y4.072 E0.10897
G1 X11.808 Y5.460 E0.10897
G1 X11.428 Y6.822 E0.10897
G1 X10.937 Y8.148 E0.10897
G1 X10.340 Y9.430 E0.10897
G1 X9.641 Y10.659 E0.10897
G1 X8.844 Y11.826 E0.10897
G1 X7.954 Y12.926 E0.10897
G1 X6.978 Y13.949 E0.10897
G1 X5.922 Y14.889 E0.10897
G1 X4.793 Y15.740 E0.10897
G1 X3.592 Y16.500 E0.10959
G1 X-1.575 Y19.483 E0.45974
G1 X-2.527 Y19.878 E0.07942
G1 X-3.522 Y20.009 E0.07739
G1 X-4.518 Y19.878 E0.07739
G1 X-5.446 Y19.493 E0.07738
G1 X-6.242 Y18.882 E0.07739
G1 X-6.633 Y18.373 E0.04943
G1 X-6.396 Y18.137 E0.02577
G1 X-5.749 Y18.633 E0.06287
G1 X-4.868 Y18.998 E0.07350
G1 X-3.922 Y19.123 E0.07350
G1 X-2.977 Y18.998 E0.07350
G1 X-2.096 Y18.633 E0.07350
G1 X-1.339 Y18.053 E0.07350
G1 X-0.759 Y17.296 E0.07350
G1 X-0.394 Y16.415 E0.07350
G1 X-0.269 Y15.469 E0.07350
G1 X-0.394 Y14.524 E0.07350
G1 X-0.759 Y13.643 E0.07350
G1 X-1.339 Y12.886 E0.07350
G1 X-2.096 Y12.305 E0.07350
G1 X-2.977 Y11.940 E0.07350
G1 X-3.922 Y11.816 E0.07350
G1 X-4.868 Y11.940 E0.07350
G1 X-5.749 Y12.305 E0.07350
G1 X-6.506 Y12.886 E0.07350 F720.000
G1 X-7.086 Y13.643 E0.07350
G1 X-7.451 Y14.524 E0.07350
G1 X-7.576 Y15.469 E0.07350
G1 X-7.447 Y16.451 E0.07633
G1 X-7.743 Y16.552 E0.02412
G1 X-11.270 Y10.443 E0.54367
G1 X-11.035 Y10.236 E0.02412
G1 X-10.249 Y10.839 E0.07633
G1 X-9.368 Y11.204 E0.07350
G1 X-8.422 Y11.329 E0.07350
G1 X-7.477 Y11.204 E0.07350
G1 X-6.596 Y10.839 E0.07350
G1 X-5.839 Y10.259 E0.07350
G1 X-5.259 Y9.502 E0.07350
G1 X-4.894 Y8.621 E0.07350
G1 X-4.769 Y7.675 E0.07350
G1 X-4.894 Y6.730 E0.07350
G1 X-5.259 Y5.848 E0.07350
G1 X-5.839 Y5.092 E0.07350
G1 X-6.596 Y4.511 E0.07350
G1 X-7.545 Y4.118 E0.07917
G1 X-7.487 Y3.814 E0.02388
G1 X-7.172 Y3.807 E0.02429
G1 X-6.087 Y3.655 E0.08447
G1 X-5.027 Y3.374 E0.08447
G1 X-4.009 Y2.969 E0.08447
G1 X-3.046 Y2.445 E0.08447
G1 X-2.153 Y1.810 E0.08447
G1 X-1.342 Y1.073 E0.08447
G1 X-0.624 Y0.244 E0.08447
G1 X-0.011 Y-0.665 E0.08447
G1 X0.489 Y-1.640 E0.08447
G1 X0.869 Y-2.668 E0.08447
G1 X1.124 Y-3.734 E0.08447
G1 X1.250 Y-4.823 E0.08447
G1 X1.245 Y-5.922 E0.08473
G1 X1.145 Y-6.623 E0.05454
G1 X0.939 Y-7.304 E0.05480
G1 X0.638 Y-7.931 E0.05361
G1 X-3.356 Y-14.850 E0.61568
G1 X-3.701 Y-15.681 E0.06936
G1 X-3.815 Y-16.547 E0.06733
G1 X-3.728 Y-17.205 E0.05112
G1 X-3.581 Y-17.322 F15000.000
G1 E-3.50000 F1500.00000
G1 Z0.700 F15000.000
G1 X-11.344 Y10.042 F15000.000
G1 Z0.300 F15000.000
G1 E3.50000 F1500.00000
G1 X-11.653 Y9.579 E0.04288 F720.000
G1 X-12.047 Y8.627 E0.07941
G1 X-12.170 Y7.638 E0.07683
G1 X-12.026 Y6.651 E0.07682
G1 X-11.636 Y5.752 E0.07552
G1 X-11.003 Y4.962 E0.07804
G1 X-10.196 Y4.378 E0.07675
G1 X-9.445 Y4.082 E0.06224
G1 X-9.264 Y4.028 E0.01454
G1 X-8.480 Y3.940 E0.06079
G1 X-7.868 Y3.944 E0.04712
G1 E-3.50000 F1500.00000
G1 Z0.700 F15000.000
G1 X10.085 Y-6.845 F15000.000
G1 Z0.300 F15000.000
G1 E3.50000 F1500.00000
G1 X9.815 Y-7.604 E0.06210 F720.000
G1 X9.396 Y-8.413 E0.07017
G1 X8.861 Y-9.158 E0.07068
G1 X8.195 Y-9.874 E0.07541
G1 X5.338 Y-12.219 F15000.000
G1 X-1.233 Y-18.791 E0.75322 F960.000
G1 X-1.843 Y-18.456 E0.05641
G1 X5.420 Y-11.193 E0.83243
G1 X4.724 Y-10.943 E0.05988
G1 X-2.324 Y-17.991 E0.80784
G1 X-2.655 Y-17.377 E0.05654
G1 X4.069 Y-10.653 E0.77075
G1 X3.535 Y-10.242 E0.05464
G1 X-2.765 Y-16.542 E0.72204
G1 X-2.160 Y-14.992 F15000.000
G1 X3.029 Y-9.802 E0.59478 F960.000
G1 X2.618 Y-9.268 E0.05464
G1 X-0.869 Y-12.755 E0.39973
G1 X0.422 Y-10.518 F15000.000
G1 X2.257 Y-8.683 E0.21032 F960.000
G1 X1.653 Y-8.343 E0.05624
G1 X1.980 Y-8.015 E0.03755
G1 X3.506 Y-14.998 F15000.000
G1 X-0.472 Y-18.975 E0.45590 F960.000
G1 X0.967 Y-18.481 F15000.000
G1 X1.504 Y-17.945 E0.06146 F960.000
G1 X2.127 Y-3.654 F15000.000
G1 X10.865 Y5.084 E0.96513 F960.000
G1 X10.387 Y-3.592 F15000.000
G1 X10.073 Y-3.906 E0.03469 F960.000
G1 X9.678 Y-3.391 E0.05074
G1 X10.765 Y-2.304 E0.12006
G1 X11.013 Y-1.145 E0.09258
G1 X9.164 Y-2.993 E0.20417
G1 X8.643 Y-2.604 E0.05083
G1 X11.156 Y-0.091 E0.27755
G1 X11.223 Y0.887 E0.07652
G1 X7.999 Y-2.337 E0.35605
G1 X7.316 Y-2.109 E0.05624
G1 X11.238 Y1.814 E0.43325
G1 X11.213 Y2.700 E0.06922
G1 X6.511 Y-2.003 E0.51940
G1 X5.537 Y-2.066 E0.07622
G1 X11.125 Y3.522 E0.61716
G1 X11.013 Y4.321 E0.06301
G1 X4.233 Y-2.459 E0.74879
G1 X1.951 Y-2.919 F15000.000
G1 X10.682 Y5.812 E0.96437 F960.000
G1 X10.483 Y6.524 E0.05773
G1 X1.748 Y-2.211 E0.96477
G1 X1.502 Y-1.546 E0.05537
G1 X10.242 Y7.194 E0.96533
G1 X9.995 Y7.858 E0.05531
G1 X1.216 Y-0.922 E0.96964
G1 X0.907 Y-0.320 E0.05285
G1 X9.705 Y8.479 E0.97179
G1 X9.412 Y9.096 E0.05338
G1 X0.550 Y0.235 E0.97871
G1 X0.183 Y0.779 E0.05124
G1 X9.081 Y9.677 E0.98277
G1 X8.746 Y10.252 E0.05202
G1 X-0.236 Y1.271 E0.99200
G1 X-0.660 Y1.758 E0.05043
G1 X8.376 Y10.794 E0.99802
G1 X8.002 Y11.331 E0.05110
G1 X-1.137 Y2.191 E1.00941
G1 X-1.620 Y2.619 E0.05040
G1 X7.595 Y11.834 E1.01779
G1 X7.184 Y12.335 E0.05055
G1 X-2.153 Y2.998 E1.03125
G1 X-2.698 Y3.363 E0.05127
G1 X6.736 Y12.797 E1.04192
G1 X6.280 Y13.252 E0.05031
G1 X-3.288 Y3.684 E1.05677
G1 X-3.901 Y3.982 E0.05325
G1 X5.812 Y13.695 E1.07277
G1 X5.330 Y14.124 E0.05039
G1 X-4.553 Y4.241 E1.09151
G1 X-4.249 Y5.456 E0.09782
G1 X4.811 Y14.516 E1.00060
G1 X4.291 Y14.907 E0.05080
G1 X-3.838 Y6.778 E0.89790
G1 X-3.767 Y7.760 E0.07693
G1 X3.735 Y15.262 E0.82857
G1 X3.177 Y15.615 E0.05156
G1 X-3.873 Y8.565 E0.77866
G1 X-4.095 Y9.254 E0.05651
G1 X-2.300 Y11.049 E0.19825
G1 X-3.427 Y10.832 E0.08964
G1 X-4.362 Y9.898 E0.10323
G1 X-4.747 Y10.424 E0.05090
G1 X-4.316 Y10.855 E0.04759
G1 X0.498 Y13.847 F15000.000
G1 X2.601 Y15.950 E0.23227 F960.000
G1 X2.024 Y16.284 E0.05208
G1 X0.715 Y14.974 E0.14461
G1 X0.692 Y15.863 E0.06943
G1 X1.446 Y16.617 E0.08327
G1 X0.869 Y16.950 E0.05208
G1 X0.569 Y16.651 E0.03309
G1 E-3.50000 F1500.00000
G1 Z0.700 F15000.000
G1 X-7.473 Y12.558 F15000.000
G1 Z0.300 F15000.000
G1 E3.50000 F1500.00000
G1 X-7.775 Y12.257 E0.05674 F960.000
G1 X-8.426 Y13.156 E0.14764
G1 X-8.101 Y13.481 E0.06098
G1 E-3.50000 F1500.00000
G1 Z0.700 F15000.000
G1 X-5.296 Y19.185 F15000.000
G1 Z0.300 F15000.000
G1 E3.50000 F1500.00000
G1 X-4.954 Y19.330 E0.02860 F960.000
G1 X-4.410 Y19.475 E0.04338
G1 X-3.935 Y19.538 E0.03695
G1 X-3.522 Y19.539 E0.03178
G1 X-2.875 Y19.454 E0.05035
G1 X-2.655 Y19.398 E0.01744
G1 X-1.869 Y19.072 E0.06563
G1 X-1.617 Y18.914 E0.02287
G1 X-1.617 Y18.914 F15000.000
G1 X-0.962 Y18.476 E0.12775 F960.000
G1 X-0.373 Y17.966 E0.12613
G1 E-3.50000 F1500.00000
G1 Z0.700 F15000.000
G1 X5.556 Y-3.514 F15000.000
G1 Z0.500 F15000.000
G1 E3.50000 F1500.00000
G1 X4.772 Y-3.839 E0.02450 F2400.000
G1 X4.098 Y-4.355 E0.02450
G1 X3.582 Y-5.029 E0.02450
G1 X3.257 Y-5.813 E0.02450
G1 X3.146 Y-6.655 E0.02450
G1 X3.257 Y-7.497 E0.02450
G1 X3.582 Y-8.281 E0.02450
G1 X4.098 Y-8.955 E0.02450
G1 X4.772 Y-9.471 E0.02450
G1 X5.556 Y-9.796 E0.02450
G1 X6.398 Y-9.907 E0.02450 F2400.000
G1 X7.240 Y-9.796 E0.02450
G1 X8.024 Y-9.471 E0.02450
G1 X8.698 Y-8.955 E0.02450
G1 X9.214 Y-8.281 E0.02450
G1 X9.539 Y-7.497 E0.02450
G1 X9.650 Y-6.655 E0.02450
G1 X9.539 Y-5.813 E0.02450
G1 X9.214 Y-5.029 E0.02450
G1 X8.698 Y-4.355 E0.02450
G1 X8.024 Y-3.839 E0.02450
G1 X7.240 Y-3.514 E0.02450
G1 X6.398 Y-3.403 E0.02450
G1 X5.616 Y-3.506 E0.02277
G1 X5.261 Y-3.243 F15000.000
G1 E-3.50000 F1500.00000
G1 Z0.900 F15000.000
G1 X-2.116 Y12.341 F15000.000
G1 Z0.500 F15000.000
G1 E3.50000 F1500.00000
G1 X-1.368 Y12.915 E0.02722 F2400.000
G1 X-0.794 Y13.663 E0.02722
G1 X-0.433 Y14.534 E0.02722
G1 X-0.310 Y15.469 E0.02722
G1 X-0.433 Y16.404 E0.02722
G1 X-0.794 Y17.276 E0.02722
G1 X-1.368 Y18.024 E0.02722
G1 X-2.116 Y18.598 E0.02722
G1 X-2.988 Y18.959 E0.02722
G1 X-3.922 Y19.082 E0.02722
G1 X-4.857 Y18.959 E0.02722
G1 X-5.729 Y18.598 E0.02722
G1 X-6.477 Y18.024 E0.02722
G1 X-7.051 Y17.276 E0.02722
G1 X-7.412 Y16.404 E0.02722
G1 X-7.535 Y15.469 E0.02722
G1 X-7.412 Y14.534 E0.02722
G1 X-7.051 Y13.663 E0.02722
G1 X-6.477 Y12.915 E0.02722
G1 X-5.729 Y12.341 E0.02722
G1 X-4.857 Y11.980 E0.02722
G1 X-3.922 Y11.857 E0.02722 F2400.000
G1 X-2.988 Y11.980 E0.02722
G1 X-2.172 Y12.318 E0.02549
G1 X-2.308 Y12.648 F15000.000
G1 X-1.623 Y13.170 E0.02487 F2400.000
G1 X-1.106 Y13.843 E0.02450
G1 X-0.781 Y14.628 E0.02450
G1 X-0.670 Y15.469 E0.02450
G1 X-0.781 Y16.311 E0.02450
G1 X-1.106 Y17.095 E0.02450
G1 X-1.623 Y17.769 E0.02450
G1 X-2.296 Y18.286 E0.02450
G1 X-3.081 Y18.611 E0.02450
G1 X-3.922 Y18.722 E0.02450
G1 X-4.764 Y18.611 E0.02450
G1 X-5.549 Y18.286 E0.02450
G1 X-6.222 Y17.769 E0.02450
G1 X-6.739 Y17.095 E0.02450
G1 X-7.064 Y16.311 E0.02450
G1 X-7.175 Y15.469 E0.02450
G1 X-7.064 Y14.628 E0.02450
G1 X-6.739 Y13.843 E0.02450
G1 X-6.222 Y13.170 E0.02450
G1 X-5.549 Y12.653 E0.02450
G1 X-4.764 Y12.328 E0.02450
G1 X-3.922 Y12.217 E0.02450 F2400.000
G1 X-3.081 Y12.328 E0.02450
G1 X-2.364 Y12.625 E0.02240
G1 X-1.954 Y12.462 F15000.000
G1 E-3.50000 F1500.00000
G1 Z0.900 F15000.000
G1 X-5.727 Y10.045 F15000.000
G1 Z0.500 F15000.000
G1 E3.50000 F1500.00000
G1 X-5.868 Y10.229 E0.00672 F2400.000
G1 X-6.616 Y10.804 E0.02722
G1 X-7.488 Y11.164 E0.02722
G1 X-8.422 Y11.287 E0.02722
G1 X-9.357 Y11.164 E0.02722
G1 X-10.229 Y10.804 E0.02722
G1 X-10.977 Y10.229 E0.02722
G1 X-11.551 Y9.481 E0.02722
G1 X-11.912 Y8.610 E0.02722
G1 X-12.035 Y7.675 E0.02722
G1 X-11.912 Y6.740 E0.02722
G1 X-11.551 Y5.869 E0.02722
G1 X-10.977 Y5.121 E0.02722
G1 X-10.229 Y4.547 E0.02722
G1 X-9.357 Y4.186 E0.02722
G1 X-8.422 Y4.063 E0.02722 F2400.000
G1 X-7.488 Y4.186 E0.02722
G1 X-6.616 Y4.547 E0.02722
G1 X-5.868 Y5.121 E0.02722
G1 X-5.294 Y5.869 E0.02722
G1 X-4.933 Y6.740 E0.02722
G1 X-4.810 Y7.675 E0.02722
G1 X-4.933 Y8.610 E0.02722
G1 X-5.294 Y9.481 E0.02722
G1 X-5.690 Y9.997 E0.01877
G1 X-5.973 Y9.780 F15000.000
