; generated by Slic3r 1.2.9 on 2017-09-11 at 16:43:35

; external perimeters extrusion width = 0.40mm
; perimeters extrusion width = 0.40mm
; infill extrusion width = 0.40mm
; solid infill extrusion width = 0.40mm
; top infill extrusion width = 0.40mm

M107
M83
T0
M116
G21 ; set units to millimeters
G90 ; use absolute coordinates
M83 ; use relative distances for extrusion
G1 E-3.50000 F1500.00000
G1 Z0.400 F15000.000
G1 X21.338 Y-3.394 F15000.000
G1 Z0.300 F15000.000
G1 E3.50000 F1500.00000
G1 X21.619 Y-1.628 E0.13780 F960.000
G1 X21.659 Y-1.237 E0.03034
G1 X21.696 Y-0.147 E0.08405
G1 X21.680 Y0.227 E0.02886
G1 X21.344 Y3.800 E0.27653
G1 X21.286 Y4.189 E0.03033
G1 X21.171 Y4.752 E0.04426
G1 X20.942 Y5.612 E0.06863
G1 X19.729 Y8.989 E0.27653
G1 X19.551 Y9.402 E0.03462
G1 X19.125 Y10.243 E0.07266
G1 X18.890 Y10.643 E0.03575
G1 X16.873 Y13.614 E0.27673
G1 X16.613 Y13.953 E0.03293
G1 X16.042 Y14.612 E0.06722
G1 X15.648 Y15.008 E0.04309
G1 X12.958 Y17.383 E0.27653
G1 X12.649 Y17.627 E0.03033
G1 X11.748 Y18.242 E0.08403
G1 X11.424 Y18.429 E0.02887
G1 X8.227 Y20.060 E0.27653
G1 X7.814 Y20.239 E0.03472
G1 X6.926 Y20.562 E0.07285
G1 X6.482 Y20.691 E0.03565
G1 X2.980 Y21.476 E0.27653
G1 X2.559 Y21.545 E0.03293
G1 X1.691 Y21.635 E0.06722
G1 X1.132 Y21.654 E0.04308
G1 X-2.454 Y21.544 E0.27653
G1 X-2.847 Y21.510 E0.03033
G1 X-3.415 Y21.430 E0.04426
G1 X-4.289 Y21.256 E0.06863
G1 X-7.735 Y20.257 E0.27653
G1 X-8.159 Y20.105 E0.03472
G1 X-9.027 Y19.732 E0.07285
G1 X-9.440 Y19.522 E0.03565
G1 X-12.530 Y17.698 E0.27653
G1 X-12.903 Y17.445 E0.03472
G1 X-13.651 Y16.867 E0.07285
G1 X-13.998 Y16.562 E0.03566
G1 X-16.537 Y14.026 E0.27653
G1 X-16.836 Y13.689 E0.03472
G1 X-17.417 Y12.943 E0.07285
G1 X-17.677 Y12.561 E0.03565
G1 X-19.506 Y9.473 E0.27653
G1 X-19.688 Y9.124 E0.03033
G1 X-19.926 Y8.601 E0.04426
G1 X-20.246 Y7.771 E0.06862
G1 X-21.249 Y4.325 E0.27653
G1 X-21.348 Y3.886 E0.03472
G1 X-21.498 Y2.953 E0.07285
G1 X-21.542 Y2.492 E0.03565
G1 X-21.657 Y-1.094 E0.27653
G1 X-21.644 Y-1.545 E0.03472
G1 X-21.557 Y-2.486 E0.07285
G1 X-21.485 Y-2.943 E0.03565
G1 X-20.705 Y-6.445 E0.27653
G1 X-20.580 Y-6.878 E0.03471
G1 X-20.262 Y-7.768 E0.07285
G1 X-20.079 Y-8.193 E0.03566
G1 X-18.452 Y-11.391 E0.27653
G1 X-18.053 Y-12.042 E0.05883
G1 X-17.672 Y-12.593 E0.05164
G1 X-17.410 Y-12.928 E0.03275
G1 X-15.039 Y-15.621 E0.27653
G1 X-14.491 Y-16.153 E0.05882
G1 X-13.985 Y-16.592 E0.05164
G1 X-13.648 Y-16.851 E0.03276
G1 X-10.682 Y-18.870 E0.27653
G1 X-10.294 Y-19.100 E0.03472
G1 X-9.453 Y-19.531 E0.07285
G1 X-9.029 Y-19.715 E0.03565
G1 X-5.653 Y-20.933 E0.27653
G1 X-5.277 Y-21.046 E0.03033
G1 X-4.577 Y-21.213 E0.05545
G1 X-3.842 Y-21.341 E0.05745
G1 X-0.270 Y-21.681 E0.27653
G1 X0.364 Y-21.696 E0.04885
G1 X1.163 Y-21.667 E0.06162 F960.000
G1 X1.586 Y-21.625 E0.03275
G1 X5.130 Y-21.066 E0.27653
G1 X5.570 Y-20.969 E0.03471
G1 X6.478 Y-20.707 E0.07285
G1 X6.914 Y-20.551 E0.03566
G1 X10.208 Y-19.128 E0.27653
G1 X10.560 Y-18.952 E0.03034
G1 X11.183 Y-18.596 E0.05534
G1 X11.805 Y-18.187 E0.05735
G1 X14.644 Y-15.988 E0.27673
G1 X14.942 Y-15.730 E0.03034
G1 X15.456 Y-15.230 E0.05534
G1 X15.957 Y-14.679 E0.05735
G1 X18.160 Y-11.843 E0.27673
G1 X18.384 Y-11.520 E0.03034
G1 X18.939 Y-10.585 E0.08374
G1 X19.106 Y-10.249 E0.02896
G1 X20.534 Y-6.954 E0.27673
G1 X20.688 Y-6.531 E0.03467
G1 X20.953 Y-5.627 E0.07265
G1 X21.055 Y-5.175 E0.03571
G1 X21.328 Y-3.454 E0.13431
G1 E-3.50000 F1500.00000
G1 Z0.700 F15000.000
G1 X13.978 Y0.789 F15000.000
G1 Z0.300 F15000.000
G1 E3.50000 F1500.00000
G1 X14.132 Y1.259 E0.03814 F720.000
G1 X14.150 Y1.693 E0.03343
G1 X14.047 Y2.216 E0.04114
G1 X13.792 Y2.671 E0.04018
G1 X13.415 Y3.037 E0.04047
G1 X12.944 Y3.280 E0.04087
G1 X12.499 Y3.361 E0.03488
G1 X5.193 Y3.593 E0.56332
G1 X4.635 Y3.530 E0.04324
G1 X4.844 Y4.050 E0.04324
G1 X6.568 Y11.154 E0.56332
G1 X6.608 Y11.605 E0.03488
G1 X6.500 Y12.124 E0.04087
G1 X6.247 Y12.584 E0.04047
G1 X5.892 Y12.937 E0.03854
G1 X5.459 Y13.176 E0.03814
G1 X4.977 Y13.289 E0.03815
G1 X4.482 Y13.265 E0.03815
G1 X4.013 Y13.107 E0.03814
G1 X3.605 Y12.828 E0.03814
G1 X3.335 Y12.503 E0.03256
G1 X-0.517 Y6.295 E0.56298
G1 X-0.726 Y5.814 E0.04043
G1 X-1.112 Y6.246 E0.04467
G1 X-6.370 Y11.260 E0.55989
G1 X-6.686 Y11.492 E0.03023
G1 X-7.113 Y11.661 E0.03540
G1 X-7.569 Y11.716 E0.03541
G1 X-8.024 Y11.653 E0.03540
G1 X-8.449 Y11.477 E0.03540
G1 X-8.814 Y11.198 E0.03540
G1 X-9.097 Y10.836 E0.03540
G1 X-9.279 Y10.415 E0.03541
G1 X-9.347 Y9.960 E0.03540
G1 X-9.299 Y9.504 E0.03540
G1 X-9.159 Y9.137 E0.03023
G1 X-5.704 Y2.689 E0.56373
G1 X-5.365 Y2.250 E0.04273
G1 X-5.930 Y2.173 E0.04393
G1 X-12.938 Y0.116 E0.56287
G1 X-13.302 Y-0.045 E0.03065
G1 X-13.665 Y-0.337 E0.03591
G1 X-13.941 Y-0.712 E0.03591
G1 X-14.111 Y-1.146 E0.03590
G1 X-14.163 Y-1.599 E0.03510
G1 X-14.110 Y-2.008 E0.03180
G1 X-13.924 Y-2.473 E0.03861
G1 X-13.676 Y-2.806 E0.03196
G1 X-13.323 Y-3.099 E0.03537
G1 X-12.893 Y-3.295 E0.03644
G1 X-12.495 Y-3.361 E0.03108
G1 X-5.198 Y-3.593 E0.56269
G1 X-4.640 Y-3.530 E0.04324
G1 X-4.849 Y-4.050 E0.04324
G1 X-6.571 Y-11.146 E0.56269
G1 X-6.613 Y-11.541 E0.03063
G1 X-6.552 Y-11.950 E0.03183
G1 X-6.356 Y-12.429 E0.03993
G1 X-6.059 Y-12.794 E0.03625
G1 X-5.729 Y-13.046 E0.03200
G1 X-5.265 Y-13.235 E0.03861
G1 X-4.858 Y-13.293 E0.03171 F720.000
G1 X-4.403 Y-13.245 E0.03525
G1 X-3.967 Y-13.079 E0.03591
G1 X-3.589 Y-12.807 E0.03591
G1 X-3.337 Y-12.499 E0.03065
G1 X0.513 Y-6.292 E0.56287
G1 X0.737 Y-5.770 E0.04383
G1 X1.078 Y-6.219 E0.04350
G1 X6.365 Y-11.260 E0.56291
G1 X6.697 Y-11.503 E0.03175
G1 X7.164 Y-11.667 E0.03820
G1 X7.564 Y-11.716 E0.03103
G1 X8.019 Y-11.653 E0.03540
G1 X8.444 Y-11.476 E0.03541
G1 X8.809 Y-11.198 E0.03540
G1 X9.092 Y-10.836 E0.03540
G1 X9.274 Y-10.414 E0.03541
G1 X9.342 Y-9.960 E0.03540
G1 X9.293 Y-9.503 E0.03540
G1 X9.154 Y-9.136 E0.03026
G1 X5.636 Y-2.582 E0.57327
G1 X5.332 Y-2.257 E0.03436
G1 X5.928 Y-2.172 E0.04642
G1 X12.937 Y-0.114 E0.56298
G1 X13.322 Y0.060 E0.03257
G1 X13.701 Y0.379 E0.03815
G1 X13.944 Y0.739 E0.03352
G1 E-3.50000 F1500.00000
G1 Z0.700 F15000.000
G1 X4.237 Y4.245 F15000.000
G1 Z0.300 F15000.000
G1 E3.50000 F1500.00000
G1 X5.939 Y11.258 E0.55615 F600.000
G1 X5.967 Y11.567 E0.02394
G1 X5.897 Y11.901 E0.02625
G1 X5.734 Y12.198 E0.02610
G1 X5.507 Y12.423 E0.02467
G1 X5.228 Y12.577 E0.02451
G1 X4.919 Y12.649 E0.02451
G1 X4.601 Y12.634 E0.02451
G1 X4.299 Y12.533 E0.02451
G1 X4.037 Y12.353 E0.02451
G1 X3.852 Y12.130 E0.02236
G1 X0.048 Y5.999 E0.55602
G1 X-0.074 Y5.720 E0.02349
G1 X-0.113 Y5.388 E0.02576
G1 X-0.056 Y5.059 E0.02576
G1 X0.093 Y4.758 E0.02587
G1 X0.329 Y4.511 E0.02631
G1 X0.572 Y4.367 E0.02176
G1 X2.709 Y3.472 E0.17856
G1 X2.954 Y3.409 E0.01948
G1 X3.326 Y3.406 E0.02866 F600.000
G1 X3.647 Y3.514 E0.02616
G1 X3.919 Y3.704 E0.02555
G1 X4.125 Y3.964 E0.02555
G1 X4.215 Y4.189 E0.01868
G1 X4.626 Y4.339 F15000.000
G1 X4.777 Y2.862 F15000.000
G1 X4.613 Y2.793 E0.01376 F600.000
G1 X4.357 Y2.582 E0.02555
G1 X4.171 Y2.307 E0.02555
G1 X4.072 Y1.991 E0.02555
G1 X4.066 Y1.689 E0.02330
G1 X4.360 Y-0.610 E0.17856
G1 X4.434 Y-0.882 E0.02177
G1 X4.609 Y-1.175 E0.02631
G1 X4.864 Y-1.404 E0.02646
G1 X5.212 Y-1.551 E0.02905
G1 X5.492 Y-1.592 E0.02184 F600.000
G1 X5.793 Y-1.550 E0.02343
G1 X12.716 Y0.483 E0.55602
G1 X12.980 Y0.603 E0.02236
G1 X13.224 Y0.808 E0.02451
G1 X13.401 Y1.071 E0.02451
G1 X13.501 Y1.373 E0.02451
G1 X13.512 Y1.644 E0.02085
G1 X13.443 Y1.994 E0.02750
G1 X13.283 Y2.279 E0.02525
G1 X13.040 Y2.516 E0.02610
G1 X12.737 Y2.672 E0.02625
G1 X12.431 Y2.727 E0.02394
G1 X5.218 Y2.956 E0.55615
G1 X4.918 Y2.922 E0.02330
G1 X4.832 Y2.886 E0.00717
G1 X4.635 Y2.970 F15000.000
G1 X3.305 Y2.518 F15000.000
G1 X-0.529 Y4.124 E0.32036 F600.000
G1 X-3.837 Y1.606 E0.32035
G1 X-3.310 Y-2.517 E0.32036
G1 X-2.187 Y-2.988 E0.09388
G1 X0.524 Y-4.123 E0.22647 F600.000
G1 X3.832 Y-1.606 E0.32035
G1 X3.313 Y2.458 E0.31573
G1 X3.393 Y2.908 F15000.000
G1 E-3.50000 F1500.00000
G1 Z0.700 F15000.000
G1 X-4.366 Y0.616 F15000.000
G1 Z0.300 F15000.000
G1 E3.50000 F1500.00000
G1 X-4.471 Y0.953 E0.02716 F600.000
G1 X-4.593 Y1.146 E0.01764
G1 X-4.833 Y1.379 E0.02573
G1 X-5.142 Y1.535 E0.02672
G1 X-5.484 Y1.593 E0.02672
G1 X-5.797 Y1.550 E0.02437
G1 X-12.719 Y-0.483 E0.55598
G1 X-12.969 Y-0.593 E0.02104
G1 X-13.203 Y-0.780 E0.02308
G1 X-13.380 Y-1.022 E0.02308
G1 X-13.489 Y-1.300 E0.02307
G1 X-13.522 Y-1.594 E0.02278
G1 X-13.490 Y-1.847 E0.01965
G1 X-13.365 Y-2.160 E0.02596
G1 X-13.212 Y-2.365 E0.01972
G1 X-12.982 Y-2.556 E0.02302
G1 X-12.706 Y-2.682 E0.02340
G1 X-12.433 Y-2.727 E0.02132
G1 X-7.595 Y-2.881 E0.37302
G1 X-5.223 Y-2.956 E0.18289 F600.000
G1 X-4.923 Y-2.922 E0.02330
G1 X-4.618 Y-2.793 E0.02555
G1 X-4.362 Y-2.582 E0.02555
G1 X-4.176 Y-2.307 E0.02555
G1 X-4.077 Y-1.991 E0.02555
G1 X-4.071 Y-1.689 E0.02330
G1 X-4.358 Y0.557 E0.17445
G1 X-4.112 Y0.861 F15000.000
G1 X-4.224 Y2.470 F15000.000
G1 X-4.123 Y2.463 E0.00781 F600.000
G1 X-3.764 Y2.532 E0.02819
G1 X-3.499 Y2.680 E0.02337
G1 X-1.656 Y4.083 E0.17850
G1 X-1.461 Y4.276 E0.02117
G1 X-1.309 Y4.536 E0.02321
G1 X-1.230 Y4.827 E0.02321
G1 X-1.229 Y5.128 E0.02321
G1 X-1.306 Y5.419 E0.02321
G1 X-1.449 Y5.670 E0.02228
G1 X-1.569 Y5.804 E0.01384
G1 X-6.779 Y10.772 E0.55476
G1 X-6.996 Y10.931 E0.02076
G1 X-7.271 Y11.040 E0.02276
G1 X-7.564 Y11.075 E0.02276
G1 X-7.856 Y11.034 E0.02276
G1 X-8.129 Y10.921 E0.02276
G1 X-8.364 Y10.742 E0.02276
G1 X-8.546 Y10.510 E0.02276
G1 X-8.663 Y10.238 E0.02276
G1 X-8.707 Y9.946 E0.02276
G1 X-8.675 Y9.653 E0.02276
G1 X-8.579 Y9.401 E0.02076
G1 X-5.168 Y3.036 E0.55654
G1 X-4.973 Y2.783 E0.02463
G1 X-4.709 Y2.591 E0.02517
G1 X-4.404 Y2.482 E0.02496
G1 X-4.284 Y2.474 E0.00926 F600.000
G1 X-4.179 Y2.379 F15000.000
G1 X-3.338 Y-3.408 F15000.000
G1 X-3.652 Y-3.514 E0.02555 F600.000
G1 X-3.924 Y-3.704 E0.02555
G1 X-4.130 Y-3.964 E0.02555
G1 X-4.243 Y-4.245 E0.02330
G1 X-5.943 Y-11.255 E0.55590
G1 X-5.972 Y-11.528 E0.02116
G1 X-5.934 Y-11.780 E0.01969
G1 X-5.804 Y-12.101 E0.02668
G1 X-5.613 Y-12.334 E0.02320
G1 X-5.410 Y-12.490 E0.01972
G1 X-5.098 Y-12.617 E0.02596
G1 X-4.846 Y-12.652 E0.01962 F600.000
G1 X-4.551 Y-12.622 E0.02284
G1 X-4.271 Y-12.515 E0.02308
G1 X-4.029 Y-12.340 E0.02308
G1 X-3.856 Y-12.129 E0.02104
G1 X-0.052 Y-5.998 E0.55598
G1 X0.072 Y-5.708 E0.02437
G1 X0.108 Y-5.363 E0.02672
G1 X0.039 Y-5.023 E0.02672
G1 X-0.128 Y-4.716 E0.02692
G1 X-0.420 Y-4.446 E0.03065
G1 X-2.713 Y-3.472 E0.19201
G1 X-3.007 Y-3.396 E0.02337
G1 X-3.278 Y-3.406 E0.02093
G1 X-3.565 Y-3.166 F15000.000
G1 X1.286 Y-4.583 F15000.000
G1 X1.217 Y-4.901 E0.02512 F600.000
G1 X1.241 Y-5.226 E0.02512
G1 X1.355 Y-5.533 E0.02523
G1 X1.554 Y-5.794 E0.02527
G1 X6.774 Y-10.771 E0.55584
G1 X6.996 Y-10.935 E0.02130
G1 X7.309 Y-11.045 E0.02555
G1 X7.559 Y-11.075 E0.01936 F600.000
G1 X7.851 Y-11.034 E0.02276
G1 X8.124 Y-10.921 E0.02276
G1 X8.359 Y-10.742 E0.02276
G1 X8.541 Y-10.510 E0.02276
G1 X8.658 Y-10.238 E0.02276
G1 X8.702 Y-9.946 E0.02276
G1 X8.670 Y-9.653 E0.02276
G1 X8.574 Y-9.401 E0.02077
G1 X5.116 Y-2.956 E0.56368
G1 X4.878 Y-2.702 E0.02680
G1 X4.613 Y-2.548 E0.02359
G1 X4.323 Y-2.469 E0.02321
G1 X4.022 Y-2.468 E0.02321
G1 X3.731 Y-2.545 E0.02321
G1 X3.492 Y-2.681 E0.02117
G1 X1.649 Y-4.084 E0.17850
G1 X1.440 Y-4.296 E0.02291
G1 X1.314 Y-4.530 E0.02050
G1 X0.967 Y-4.653 F15000.000
G1 X-3.722 Y-16.513 F15000.000
G1 X-3.717 Y-16.537 E0.00191 F720.000
G1 X-3.366 Y-16.083 E0.04427
G1 X-2.963 Y-15.389 E0.06179
G1 X-2.799 Y-15.160 E0.02173
G1 X-2.482 Y-14.923 E0.03049
G1 X-2.112 Y-14.795 E0.03016
G1 X-1.808 Y-14.785 E0.02346
G1 X-0.767 Y-14.900 E0.08070
G1 X-0.373 Y-15.137 E0.03541
G1 X-0.089 Y-15.460 E0.03315
G1 X0.240 Y-16.382 E0.07540
G1 X0.513 Y-16.933 E0.04742
G1 X0.742 Y-16.408 E0.04415
G1 X1.031 Y-15.414 E0.07976 F720.000
G1 X1.308 Y-15.071 E0.03393
G1 X1.634 Y-14.854 E0.03016
G1 X1.919 Y-14.772 E0.02289
G1 X2.721 Y-14.645 E0.06255
G1 X3.024 Y-14.641 E0.02339
G1 X3.403 Y-14.754 E0.03049
G1 X3.759 Y-14.996 E0.03315
G1 X4.308 Y-15.809 E0.07564
G1 X4.707 Y-16.278 E0.04746
G1 X4.799 Y-15.707 E0.04459
G1 X4.832 Y-14.673 E0.07976
G1 X5.015 Y-14.272 E0.03393
G1 X5.276 Y-13.981 E0.03017
G1 X5.532 Y-13.830 E0.02289
G1 X6.277 Y-13.508 E0.06254
G1 X6.570 Y-13.428 E0.02339
G1 X6.965 Y-13.444 E0.03049
G1 X7.370 Y-13.589 E0.03315
G1 X8.104 Y-14.241 E0.07564
G1 X8.610 Y-14.598 E0.04772
G1 X8.555 Y-14.026 E0.04427
G1 X8.374 Y-13.245 E0.06180
G1 X8.337 Y-12.965 E0.02172
G1 X8.406 Y-12.576 E0.03048
G1 X8.587 Y-12.229 E0.03016
G1 X8.803 Y-12.014 E0.02347
G1 X9.640 Y-11.385 E0.08070
G1 X10.090 Y-11.288 E0.03541
G1 X10.518 Y-11.329 E0.03315
G1 X11.391 Y-11.777 E0.07564
G1 X11.970 Y-11.997 E0.04772
G1 X11.773 Y-11.453 E0.04461
G1 X11.303 Y-10.529 E0.07992
G1 X11.269 Y-10.090 E0.03393
G1 X11.372 Y-9.652 E0.03460
G1 X12.003 Y-8.817 E0.08070
G1 X12.226 Y-8.601 E0.02392
G1 X12.580 Y-8.424 E0.03049
G1 X12.969 Y-8.362 E0.03038
G1 X13.321 Y-8.416 E0.02746
G1 X13.970 Y-8.575 E0.05146
G1 X14.577 Y-8.643 E0.04709
G1 X14.251 Y-8.165 E0.04461
G1 X13.566 Y-7.386 E0.07991
G1 X13.425 Y-6.969 E0.03394
G1 X13.415 Y-6.520 E0.03461
G1 X13.819 Y-5.554 E0.08070
G1 X13.981 Y-5.290 E0.02391
G1 X14.280 Y-5.030 E0.03049
G1 X14.674 Y-4.859 E0.03315
G1 X15.656 Y-4.832 E0.07564
G1 X16.269 Y-4.745 E0.04772
G1 X15.834 Y-4.363 E0.04461
G1 X14.977 Y-3.780 E0.07992
G1 X14.736 Y-3.411 E0.03393
G1 X14.631 Y-3.034 E0.03015
G1 X14.640 Y-2.737 E0.02289
G1 X14.768 Y-1.936 E0.06254
G1 X14.857 Y-1.646 E0.02339
G1 X15.082 Y-1.320 E0.03050
G1 X15.422 Y-1.057 E0.03315
G1 X16.365 Y-0.786 E0.07564
G1 X16.938 Y-0.550 E0.04773
G1 X16.422 Y-0.288 E0.04461
G1 X15.446 Y0.064 E0.07992
G1 X15.121 Y0.361 E0.03394
G1 X14.897 Y0.750 E0.03460
G1 X14.785 Y1.791 E0.08069
G1 X14.799 Y2.101 E0.02392
G1 X14.936 Y2.472 E0.03050
G1 X15.178 Y2.784 E0.03038
G1 X15.472 Y2.986 E0.02746
G1 X16.053 Y3.314 E0.05146
G1 X16.542 Y3.680 E0.04710
G1 X15.977 Y3.806 E0.04461
G1 X14.945 Y3.904 E0.07992
G1 X14.556 Y4.111 E0.03393
G1 X14.242 Y4.432 E0.03460
G1 X13.875 Y5.412 E0.08070
G1 X13.812 Y5.716 E0.02392
G1 X13.852 Y6.110 E0.03049
G1 X14.023 Y6.505 E0.03315
G1 X14.719 Y7.197 E0.07564
G1 X15.107 Y7.679 E0.04773
G1 X14.530 Y7.660 E0.04450
G1 X13.504 Y7.499 E0.08003
G1 X13.077 Y7.603 E0.03393
G1 X12.742 Y7.805 E0.03017
G1 X12.545 Y8.028 E0.02289
G1 X12.098 Y8.688 E0.06141
G1 X11.957 Y8.966 E0.02404
G1 X11.897 Y9.364 E0.03099
G1 X11.965 Y9.788 E0.03315
G1 X12.467 Y10.632 E0.07564
G1 X12.723 Y11.196 E0.04773
G1 X12.167 Y11.033 E0.04461
G1 X11.215 Y10.622 E0.07992
G1 X10.775 Y10.616 E0.03394
G1 X10.345 Y10.746 E0.03460
G1 X9.551 Y11.428 E0.08070
G1 X9.349 Y11.664 E0.02392
G1 X9.195 Y12.029 E0.03048
G1 X9.158 Y12.421 E0.03038
G1 X9.234 Y12.769 E0.02746
G1 X9.433 Y13.407 E0.05145
G1 X9.539 Y14.009 E0.04710
G1 X9.041 Y13.713 E0.04461
G1 X8.221 Y13.078 E0.07992
G1 X7.796 Y12.963 E0.03394
G1 X7.348 Y12.982 E0.03460
G1 X6.409 Y13.445 E0.08070
G1 X6.155 Y13.624 E0.02392
G1 X5.915 Y13.938 E0.03049
G1 X5.769 Y14.343 E0.03315
G1 X5.803 Y15.324 E0.07564
G1 X5.756 Y15.938 E0.04746
G1 X5.345 Y15.530 E0.04459
G1 X4.710 Y14.712 E0.07976
G1 X4.327 Y14.495 E0.03394
G1 X3.945 Y14.414 E0.03017
G1 X3.649 Y14.442 E0.02288
G1 X2.872 Y14.616 E0.06140
G1 X2.578 Y14.723 E0.02405
G1 X2.262 Y14.972 E0.03099
G1 X2.021 Y15.328 E0.03315
G1 X1.810 Y16.286 E0.07565
G1 X1.610 Y16.872 E0.04773
G1 X1.316 Y16.374 E0.04461
G1 X0.904 Y15.422 E0.07992
G1 X0.587 Y15.117 E0.03393
G1 X0.184 Y14.917 E0.03460
G1 X-0.862 Y14.871 E0.08070
G1 X-1.170 Y14.905 E0.02392
G1 X-1.532 Y15.065 E0.03049
G1 X-1.828 Y15.325 E0.03038
G1 X-2.011 Y15.631 E0.02746
G1 X-2.302 Y16.232 E0.05146
G1 X-2.637 Y16.743 E0.04710
G1 X-2.797 Y16.187 E0.04461
G1 X-2.960 Y15.163 E0.07992
G1 X-3.191 Y14.788 E0.03394
G1 X-3.531 Y14.495 E0.03460
G1 X-4.533 Y14.190 E0.08070
G1 X-4.840 Y14.146 E0.02392
G1 X-5.230 Y14.211 E0.03049
G1 X-5.614 Y14.406 E0.03315
G1 X-6.260 Y15.145 E0.07564
G1 X-6.715 Y15.560 E0.04746
G1 X-6.735 Y14.982 E0.04459
G1 X-6.638 Y13.951 E0.07977
G1 X-6.769 Y13.531 E0.03393
G1 X-7.020 Y13.169 E0.03390
G1 X-7.509 Y12.860 E0.04459
G1 X-8.147 Y12.504 E0.05635
G1 X-8.600 Y12.465 E0.03505
G1 X-9.020 Y12.558 E0.03315
G1 X-9.830 Y13.113 E0.07564
G1 X-10.377 Y13.403 E0.04773
