; generated by Slic3r 1.2.9 on 2017-09-11 at 11:03:56

; external perimeters extrusion width = 0.40mm
; perimeters extrusion width = 0.40mm
; infill extrusion width = 0.40mm
; solid infill extrusion width = 0.40mm
; top infill extrusion width = 0.40mm

M107
M83
T0
M116
G21 ; set units to millimeters
G90 ; use absolute coordinates
M83 ; use relative distances for extrusion
G1 E-1.50000 F3000.00000
G1 Z0.400 F15000.000
G1 X9.578 Y-9.588 F15000.000
G1 Z0.300 F15000.000
G1 E1.50000 F3000.00000
G1 X22.401 Y3.222 E1.39679 F960.000
G1 X23.123 Y3.980 E0.08066
G1 X23.356 Y4.250 E0.02752
G1 X24.028 Y5.113 E0.08425
G1 X24.245 Y5.424 E0.02924
G1 X24.748 Y6.232 E0.07338
G1 X24.937 Y6.573 E0.03003
G1 X25.412 Y7.557 E0.08420
G1 X25.879 Y8.770 E0.10018
G1 X25.992 Y9.133 E0.02929
G1 X26.245 Y10.123 E0.07875
G1 X26.316 Y10.472 E0.02747
G1 X26.461 Y11.415 E0.07348
G1 X26.498 Y11.777 E0.02803
G1 X26.551 Y12.798 E0.07885
G1 X26.551 Y13.176 E0.02909
G1 X26.498 Y14.198 E0.07885
G1 X26.461 Y14.559 E0.02803
G1 X26.316 Y15.502 E0.07347
G1 X26.245 Y15.851 E0.02747
G1 X25.992 Y16.841 E0.07875
G1 X25.879 Y17.204 E0.02929
G1 X25.412 Y18.417 E0.10018
G1 X24.937 Y19.401 E0.08420
G1 X24.748 Y19.742 E0.03003
G1 X24.245 Y20.550 E0.07338
G1 X24.028 Y20.861 E0.02924
G1 X23.356 Y21.724 E0.08425
G1 X23.123 Y21.994 E0.02752
G1 X22.466 Y22.685 E0.07343
G1 X22.199 Y22.939 E0.02838
G1 X21.477 Y23.559 E0.07339
G1 X21.188 Y23.783 E0.02815
G1 X20.291 Y24.408 E0.08428
G1 X19.976 Y24.605 E0.02862
G1 X19.143 Y25.067 E0.07338
G1 X18.785 Y25.241 E0.03066
G1 X17.460 Y25.780 E0.11024
G1 X16.550 Y26.065 E0.07350
G1 X16.194 Y26.157 E0.02838
G1 X15.261 Y26.349 E0.07338
G1 X14.882 Y26.406 E0.02956
G1 X13.794 Y26.512 E0.08423
G1 X13.441 Y26.529 E0.02720
G1 X-13.512 Y26.529 E2.07715
G1 X-13.879 Y26.511 E0.02838
G1 X-14.827 Y26.414 E0.07338
G1 X-15.192 Y26.358 E0.02846
G1 X-16.263 Y26.138 E0.08429
G1 X-16.619 Y26.046 E0.02830
G1 X-17.527 Y25.761 E0.07339
G1 X-17.873 Y25.633 E0.02838
G1 X-18.748 Y25.257 E0.07344
G1 X-19.067 Y25.101 E0.02736
G1 X-20.025 Y24.574 E0.08424
G1 X-20.349 Y24.373 E0.02940
G1 X-21.131 Y23.829 E0.07338
G1 X-21.436 Y23.591 E0.02987
G1 X-22.262 Y22.875 E0.08421
G1 X-23.171 Y21.943 E0.10033
G1 X-23.411 Y21.664 E0.02838
G1 X-23.993 Y20.911 E0.07338
G1 X-24.207 Y20.604 E0.02877
G1 X-24.784 Y19.675 E0.08427
G1 X-24.960 Y19.357 E0.02799
G1 X-25.379 Y18.502 E0.07340
G1 X-25.524 Y18.164 E0.02838
G1 X-25.855 Y17.271 E0.07342
G1 X-25.963 Y16.928 E0.02768
G1 X-26.240 Y15.870 E0.08426
G1 X-26.316 Y15.501 E0.02909
G1 X-26.461 Y14.559 E0.07338
G1 X-26.498 Y14.193 E0.02838
G1 X-26.551 Y13.057 E0.08767
G1 X-26.551 Y-12.918 E2.00172
G1 X-26.499 Y-14.170 E0.09657
G1 X-26.461 Y-14.559 E0.03019
G1 X-26.316 Y-15.501 E0.07338
G1 X-26.240 Y-15.870 E0.02909
G1 X-25.963 Y-16.928 E0.08426
G1 X-25.855 Y-17.271 E0.02768
G1 X-25.524 Y-18.164 E0.07342
G1 X-25.379 Y-18.502 E0.02838
G1 X-24.960 Y-19.357 E0.07340
G1 X-24.784 Y-19.675 E0.02799
G1 X-24.207 Y-20.604 E0.08427
G1 X-23.993 Y-20.911 E0.02877
G1 X-23.411 Y-21.664 E0.07338
G1 X-23.171 Y-21.943 E0.02838
G1 X-22.514 Y-22.634 E0.07346
G1 X-22.262 Y-22.875 E0.02689
G1 X-21.436 Y-23.591 E0.08421
G1 X-21.131 Y-23.829 E0.02987
G1 X-20.349 Y-24.373 E0.07338
G1 X-20.025 Y-24.574 E0.02940
G1 X-19.067 Y-25.101 E0.08424
G1 X-18.748 Y-25.257 E0.02736
G1 X-17.873 Y-25.633 E0.07344
G1 X-17.527 Y-25.761 E0.02838
G1 X-16.619 Y-26.046 E0.07339
G1 X-16.263 Y-26.138 E0.02830
G1 X-15.192 Y-26.358 E0.08429
G1 X-14.827 Y-26.414 E0.02846
G1 X-13.879 Y-26.511 E0.07338
G1 X-13.480 Y-26.529 E0.03081
G1 X-12.388 Y-26.520 E0.08414
G1 X-11.103 Y-26.405 E0.09944 F960.000
G1 X-10.739 Y-26.349 E0.02838
G1 X-9.806 Y-26.157 E0.07338
G1 X-9.433 Y-26.060 E0.02971
G1 X-8.392 Y-25.728 E0.08422
G1 X-7.187 Y-25.229 E0.10048
G1 X-6.857 Y-25.067 E0.02838
G1 X-6.024 Y-24.605 E0.07338
G1 X-5.709 Y-24.408 E0.02862
G1 X-4.812 Y-23.783 E0.08428
G1 X-4.523 Y-23.559 E0.02815
G1 X-3.599 Y-22.752 E0.09454
G1 X9.536 Y-9.630 E1.43085
G1 E-1.50000 F3000.00000
G1 Z0.700 F15000.000
G1 X-11.000 Y11.109 F15000.000
G1 Z0.300 F15000.000
G1 E1.50000 F3000.00000
G1 X-10.596 Y11.665 E0.05300 F600.000
G1 X-10.342 Y12.305 E0.05301
G1 X-10.256 Y12.987 E0.05301
G1 X-10.342 Y13.670 E0.05301
G1 X-10.596 Y14.309 E0.05300
G1 X-11.000 Y14.865 E0.05300
G1 X-11.530 Y15.304 E0.05300
G1 X-12.152 Y15.597 E0.05300
G1 X-12.828 Y15.726 E0.05301
G1 X-13.514 Y15.682 E0.05301
G1 X-14.168 Y15.470 E0.05300
G1 X-14.749 Y15.101 E0.05300
G1 X-15.220 Y14.600 E0.05300
G1 X-15.551 Y13.997 E0.05301
G1 X-15.722 Y13.331 E0.05300
G1 X-15.722 Y12.643 E0.05300
G1 X-15.551 Y11.977 E0.05300
G1 X-15.220 Y11.374 E0.05300
G1 X-14.749 Y10.873 E0.05300
G1 X-14.164 Y10.502 E0.05341
G1 X-13.490 Y10.290 E0.05443
G1 X-12.828 Y10.249 E0.05113 F600.000
G1 X-12.152 Y10.378 E0.05301
G1 X-11.530 Y10.670 E0.05300
G1 X-11.046 Y11.071 E0.04838
G1 X-11.467 Y11.547 F15000.000
G1 X-11.157 Y11.974 E0.04063 F600.000
G1 X-10.963 Y12.464 E0.04063
G1 X-10.897 Y12.987 E0.04063
G1 X-10.963 Y13.510 E0.04063
G1 X-11.157 Y14.000 E0.04063
G1 X-11.467 Y14.427 E0.04063
G1 X-11.873 Y14.763 E0.04063
G1 X-12.350 Y14.987 E0.04063
G1 X-12.868 Y15.086 E0.04063
G1 X-13.394 Y15.053 E0.04063
G1 X-13.895 Y14.890 E0.04063
G1 X-14.341 Y14.608 E0.04063
G1 X-14.702 Y14.223 E0.04063
G1 X-14.955 Y13.761 E0.04063
G1 X-15.087 Y13.251 E0.04063
G1 X-15.087 Y12.724 E0.04063
G1 X-14.955 Y12.213 E0.04063
G1 X-14.702 Y11.751 E0.04063
G1 X-14.341 Y11.367 E0.04063
G1 X-13.894 Y11.083 E0.04077
G1 X-13.373 Y10.920 E0.04206
G1 X-12.868 Y10.888 E0.03901 F600.000
G1 X-12.350 Y10.987 E0.04063
G1 X-11.873 Y11.211 E0.04063
G1 X-11.513 Y11.509 E0.03600
G1 X-11.074 Y11.472 F15000.000
G1 X-4.582 Y10.031 F15000.000
G1 X-4.473 Y10.327 E0.02429 F720.000
G1 X-4.244 Y11.220 E0.07105
G1 X-4.115 Y12.066 E0.06594
G1 X-4.067 Y12.987 E0.07110
G1 X-4.115 Y13.908 E0.07110
G1 X-4.244 Y14.754 E0.06594
G1 X-4.473 Y15.648 E0.07105
G1 X-4.769 Y16.449 E0.06587
G1 X-5.201 Y17.343 E0.07649
G1 X-5.650 Y18.062 E0.06534
G1 X-6.260 Y18.846 E0.07654
G1 X-6.849 Y19.465 E0.06584
G1 X-7.496 Y20.020 E0.06572
G1 X-8.311 Y20.589 E0.07658
G1 X-9.052 Y21.000 E0.06534
G1 X-9.967 Y21.384 E0.07645
G1 X-10.785 Y21.641 E0.06611
G1 X-11.618 Y21.812 E0.06552
G1 X-12.606 Y21.908 E0.07652
G1 X-13.462 Y21.908 E0.06590
G1 X-14.309 Y21.822 E0.06567
G1 X-15.283 Y21.622 E0.07659
G1 X-16.096 Y21.366 E0.06569
G1 X-16.882 Y21.029 E0.06587
G1 X-17.752 Y20.551 E0.07653
G1 X-18.447 Y20.066 E0.06534
G1 X-19.197 Y19.416 E0.07650
G1 X-19.787 Y18.795 E0.06596
G1 X-20.308 Y18.122 E0.06562
G1 X-20.832 Y17.278 E0.07657
G1 X-21.208 Y16.512 E0.06575
G1 X-21.505 Y15.711 E0.06581
G1 X-21.756 Y14.750 E0.07655
G1 X-21.885 Y13.909 E0.06558
G1 X-21.928 Y13.054 E0.06602
G1 X-21.885 Y12.062 E0.07648
G1 X-21.756 Y11.224 E0.06534
G1 X-21.505 Y10.263 E0.07655
G1 X-21.208 Y9.462 E0.06581
G1 X-20.832 Y8.696 E0.06575
G1 X-20.308 Y7.852 E0.07657
G1 X-19.787 Y7.179 E0.06562
G1 X-19.197 Y6.559 E0.06596
G1 X-18.447 Y5.908 E0.07650
G1 X-17.752 Y5.424 E0.06534
G1 X-16.882 Y4.945 E0.07653
G1 X-16.096 Y4.608 E0.06587
G1 X-15.283 Y4.353 E0.06569
G1 X-14.309 Y4.152 E0.07659
G1 X-13.466 Y4.067 E0.06534
G1 X-12.474 Y4.075 E0.07644
G1 X-11.620 Y4.162 E0.06614 F720.000
G1 X-10.788 Y4.333 E0.06550
G1 X-9.842 Y4.635 E0.07651
G1 X-9.056 Y4.972 E0.06593
G1 X-8.311 Y5.386 E0.06565
G1 X-7.496 Y5.954 E0.07658
G1 X-6.849 Y6.509 E0.06572
G1 X-6.260 Y7.129 E0.06584
G1 X-5.650 Y7.912 E0.07654
G1 X-5.201 Y8.632 E0.06534
G1 X-4.769 Y9.525 E0.07649
G1 X-4.603 Y9.975 E0.03695
G1 X-4.007 Y9.754 F15000.000
G1 X-3.865 Y10.137 E0.03148 F720.000
G1 X-3.621 Y11.093 E0.07602
G1 X-3.482 Y12.001 E0.07080
G1 X-3.431 Y12.987 E0.07610
G1 X-3.482 Y13.973 E0.07610
G1 X-3.621 Y14.881 E0.07080
G1 X-3.865 Y15.837 E0.07602
G1 X-4.184 Y16.698 E0.07077
G1 X-4.644 Y17.650 E0.08146
G1 X-5.128 Y18.427 E0.07052
G1 X-5.778 Y19.261 E0.08151
G1 X-6.410 Y19.926 E0.07073
G1 X-7.106 Y20.524 E0.07067
G1 X-7.974 Y21.129 E0.08155
G1 X-8.774 Y21.573 E0.07052
G1 X-9.748 Y21.982 E0.08142
G1 X-10.626 Y22.257 E0.07088
G1 X-11.523 Y22.441 E0.07059
G1 X-12.576 Y22.544 E0.08149
G1 X-13.494 Y22.544 E0.07077
G1 X-14.406 Y22.451 E0.07064
G1 X-15.442 Y22.238 E0.08156
G1 X-16.317 Y21.963 E0.07065
G1 X-17.161 Y21.601 E0.07075
G1 X-18.087 Y21.091 E0.08150
G1 X-18.838 Y20.569 E0.07052
G1 X-19.637 Y19.876 E0.08147
G1 X-20.270 Y19.210 E0.07080
G1 X-20.831 Y18.485 E0.07063
G1 X-21.389 Y17.587 E0.08154
G1 X-21.793 Y16.763 E0.07069
G1 X-22.112 Y15.903 E0.07072
G1 X-22.379 Y14.879 E0.08152
G1 X-22.518 Y13.973 E0.07061
G1 X-22.565 Y13.056 E0.07083
G1 X-22.518 Y12.000 E0.08145
G1 X-22.379 Y11.095 E0.07052
G1 X-22.112 Y10.072 E0.08152
G1 X-21.793 Y9.211 E0.07072
G1 X-21.389 Y8.388 E0.07069
G1 X-20.831 Y7.489 E0.08154
G1 X-20.270 Y6.764 E0.07063
G1 X-19.637 Y6.099 E0.07080
G1 X-18.838 Y5.406 E0.08147
G1 X-18.087 Y4.883 E0.07052
G1 X-17.161 Y4.373 E0.08150
G1 X-16.317 Y4.011 E0.07075
G1 X-15.442 Y3.737 E0.07065
G1 X-14.406 Y3.523 E0.08156
G1 X-13.495 Y3.431 E0.07052
G1 X-12.439 Y3.440 E0.08141
G1 X-11.524 Y3.533 E0.07089 F720.000
G1 X-10.627 Y3.717 E0.07058
G1 X-9.619 Y4.039 E0.08148
G1 X-8.775 Y4.401 E0.07078
G1 X-7.974 Y4.846 E0.07063
G1 X-7.106 Y5.451 E0.08155
G1 X-6.410 Y6.048 E0.07067
G1 X-5.778 Y6.713 E0.07073
G1 X-5.128 Y7.548 E0.08151
G1 X-4.644 Y8.324 E0.07052
G1 X-4.184 Y9.276 E0.08146
G1 X-4.028 Y9.698 E0.03467
G1 X-4.262 Y10.062 F15000.000
G1 X-6.528 Y7.595 F15000.000
G1 X-7.543 Y6.580 E0.11221 F960.000
G1 X-9.964 Y5.072 F15000.000
G1 X-5.080 Y9.955 E0.54032 F960.000
G1 X-4.665 Y11.283 E0.10883
G1 X-11.295 Y4.653 E0.73355
G1 X-12.373 Y4.487 E0.08533
G1 X-4.492 Y12.368 E0.87192
G1 X-4.463 Y13.310 E0.07372
G1 X-13.319 Y4.454 E0.97976
G1 X-14.173 Y4.513 E0.06698
G1 X-4.524 Y14.161 E1.06745
G1 X-4.659 Y14.939 E0.06175
G1 X-14.946 Y4.652 E1.13810
G1 X-15.669 Y4.842 E0.05845
G1 X-4.848 Y15.662 E1.19715
G1 X-5.095 Y16.328 E0.05555
G1 X-16.338 Y5.085 E1.24391
G1 X-16.962 Y5.374 E0.05377
G1 X-12.432 Y9.904 E0.50117
G1 X-13.345 Y9.903 E0.07142
G1 X-17.550 Y5.698 E0.46529
G1 X-18.094 Y6.067 E0.05139
G1 X-14.060 Y10.101 E0.44630
G1 X-14.655 Y10.418 E0.05278
G1 X-18.598 Y6.475 E0.43617
G1 X-19.065 Y6.921 E0.05049
G1 X-15.158 Y10.827 E0.43217
G1 X-15.576 Y11.322 E0.05066
G1 X-19.521 Y7.377 E0.43644
G1 X-19.919 Y7.891 E0.05088
G1 X-15.900 Y11.911 E0.44474
G1 X-16.088 Y12.635 E0.05854
G1 X-20.281 Y8.442 E0.46389
G1 X-20.614 Y9.022 E0.05229
G1 X-16.108 Y13.528 E0.49853
G1 X-15.514 Y15.034 F15000.000
G1 X-20.905 Y9.643 E0.59642 F960.000
G1 X-21.150 Y10.311 E0.05565
G1 X-10.331 Y21.130 E1.19698
G1 X-9.664 Y20.884 E0.05559
G1 X-15.107 Y15.441 E0.60221
G1 X-13.561 Y16.074 F15000.000
G1 X-9.032 Y20.604 E0.50110 F960.000
G1 X-8.446 Y20.277 E0.05249
G1 X-12.660 Y16.063 E0.46629
G1 X-11.938 Y15.873 E0.05844
G1 X-7.908 Y19.902 E0.44585
G1 X-7.397 Y19.501 E0.05084
G1 X-11.330 Y15.568 E0.43514
G1 X-10.831 Y15.155 E0.05070
G1 X-6.932 Y19.053 E0.43134
G1 X-6.482 Y18.591 E0.05048
G1 X-10.429 Y14.644 E0.43670
G1 X-10.119 Y14.042 E0.05300
G1 X-6.082 Y18.078 E0.44658
G1 X-5.714 Y17.534 E0.05142
G1 X-9.926 Y13.322 E0.46594
G1 X-9.922 Y12.413 E0.07108
G1 X-5.388 Y16.947 E0.50162
G1 X-11.047 Y21.326 F15000.000
G1 X-21.339 Y11.034 E1.13864 F960.000
G1 X-21.475 Y11.810 E0.06165
G1 X-11.828 Y21.458 E1.06733
G1 X-12.675 Y21.523 E0.06648
G1 X-21.531 Y12.667 E0.97980
G1 X-21.508 Y13.603 E0.07327
G1 X-13.620 Y21.490 E0.87262
G1 X-14.707 Y21.316 E0.08610
G1 X-21.334 Y14.689 E0.73318
G1 X-20.923 Y16.012 E0.10837
G1 X-16.030 Y20.906 E0.54139
G1 X-18.489 Y19.360 F15000.000
G1 X-19.516 Y18.332 E0.11370 F960.000
G1 E-1.50000 F3000.00000
G1 Z0.700 F15000.000
G1 X-13.514 Y-10.292 F15000.000
G1 Z0.300 F15000.000
G1 E1.50000 F3000.00000
G1 X-14.168 Y-10.504 E0.05300 F600.000
G1 X-14.749 Y-10.873 E0.05300
G1 X-15.220 Y-11.374 E0.05300
G1 X-15.551 Y-11.977 E0.05301
G1 X-15.722 Y-12.643 E0.05300
G1 X-15.722 Y-13.331 E0.05300
G1 X-15.551 Y-13.997 E0.05300
G1 X-15.220 Y-14.600 E0.05300
G1 X-14.749 Y-15.101 E0.05300
G1 X-14.164 Y-15.473 E0.05341
G1 X-13.490 Y-15.684 E0.05443
G1 X-12.828 Y-15.726 E0.05113 F600.000
G1 X-12.152 Y-15.597 E0.05301
G1 X-11.530 Y-15.304 E0.05300
G1 X-11.000 Y-14.865 E0.05300
G1 X-10.596 Y-14.309 E0.05300
G1 X-10.342 Y-13.670 E0.05301
G1 X-10.256 Y-12.987 E0.05301
G1 X-10.342 Y-12.305 E0.05301
G1 X-10.596 Y-11.665 E0.05300
G1 X-11.000 Y-11.109 E0.05300
G1 X-11.530 Y-10.670 E0.05300
G1 X-12.152 Y-10.378 E0.05300
G1 X-12.828 Y-10.249 E0.05301
G1 X-13.454 Y-10.288 E0.04838
G1 X-13.394 Y-10.921 F15000.000
G1 X-13.895 Y-11.084 E0.04063 F600.000
G1 X-14.341 Y-11.367 E0.04063
G1 X-14.702 Y-11.751 E0.04063
G1 X-14.955 Y-12.213 E0.04063
G1 X-15.087 Y-12.724 E0.04063
G1 X-15.087 Y-13.251 E0.04063
G1 X-14.955 Y-13.761 E0.04063
G1 X-14.702 Y-14.223 E0.04063
G1 X-14.341 Y-14.608 E0.04063
G1 X-13.894 Y-14.891 E0.04077
G1 X-13.373 Y-15.054 E0.04206
G1 X-12.868 Y-15.086 E0.03901 F600.000
G1 X-12.350 Y-14.987 E0.04063
G1 X-11.873 Y-14.763 E0.04063
G1 X-11.467 Y-14.427 E0.04063
G1 X-11.157 Y-14.000 E0.04063
G1 X-10.963 Y-13.510 E0.04063
G1 X-10.897 Y-12.987 E0.04063
G1 X-10.963 Y-12.464 E0.04063
G1 X-11.157 Y-11.974 E0.04063
G1 X-11.467 Y-11.547 E0.04063
G1 X-11.873 Y-11.211 E0.04063
G1 X-12.350 Y-10.987 E0.04063
G1 X-12.868 Y-10.888 E0.04063
G1 X-13.334 Y-10.917 E0.03600
G1 X-13.668 Y-10.630 F15000.000
G1 E-1.50000 F3000.00000
G1 Z0.700 F15000.000
G1 X-13.376 Y-21.907 F15000.000
G1 Z0.300 F15000.000
G1 E1.50000 F3000.00000
G1 X-12.474 Y-21.899 E0.06948 F720.000
G1 X-11.620 Y-21.812 E0.06614 F720.000
G1 X-10.788 Y-21.641 E0.06550
G1 X-9.842 Y-21.340 E0.07651
G1 X-9.056 Y-21.002 E0.06593
G1 X-8.311 Y-20.589 E0.06565
G1 X-7.496 Y-20.020 E0.07658
G1 X-6.849 Y-19.465 E0.06572
G1 X-6.260 Y-18.846 E0.06584
G1 X-5.650 Y-18.062 E0.07654
G1 X-5.201 Y-17.343 E0.06534
G1 X-4.769 Y-16.449 E0.07649
G1 X-4.473 Y-15.648 E0.06587
G1 X-4.244 Y-14.754 E0.07105
G1 X-4.115 Y-13.908 E0.06594
G1 X-4.067 Y-12.987 E0.07110
G1 X-4.115 Y-12.066 E0.07110
G1 X-4.244 Y-11.220 E0.06594
G1 X-4.473 Y-10.327 E0.07105
G1 X-4.769 Y-9.525 E0.06587
G1 X-5.201 Y-8.632 E0.07649
G1 X-5.650 Y-7.912 E0.06534
G1 X-6.260 Y-7.129 E0.07654
G1 X-6.849 Y-6.509 E0.06584
G1 X-7.496 Y-5.954 E0.06572
G1 X-8.311 Y-5.386 E0.07658
G1 X-9.052 Y-4.974 E0.06534
G1 X-9.967 Y-4.590 E0.07645
G1 X-10.785 Y-4.334 E0.06611
G1 X-11.618 Y-4.162 E0.06552
G1 X-12.606 Y-4.066 E0.07652
G1 X-13.462 Y-4.066 E0.06590
G1 X-14.309 Y-4.152 E0.06567
G1 X-15.283 Y-4.353 E0.07659
G1 X-16.096 Y-4.608 E0.06569
G1 X-16.882 Y-4.945 E0.06587
G1 X-17.752 Y-5.424 E0.07653
G1 X-18.447 Y-5.908 E0.06534
G1 X-19.197 Y-6.559 E0.07650
G1 X-19.787 Y-7.179 E0.06596
G1 X-20.308 Y-7.852 E0.06562
G1 X-20.832 Y-8.696 E0.07657
G1 X-21.208 Y-9.462 E0.06575
G1 X-21.505 Y-10.263 E0.06581
G1 X-21.756 Y-11.224 E0.07655
G1 X-21.885 Y-12.065 E0.06558
G1 X-21.928 Y-12.921 E0.06602
G1 X-21.885 Y-13.912 E0.07648
G1 X-21.756 Y-14.750 E0.06534
G1 X-21.505 Y-15.711 E0.07655
G1 X-21.208 Y-16.512 E0.06581
G1 X-20.832 Y-17.278 E0.06575
G1 X-20.308 Y-18.122 E0.07657
G1 X-19.787 Y-18.795 E0.06562
G1 X-19.197 Y-19.416 E0.06596
G1 X-18.447 Y-20.066 E0.07650
G1 X-17.752 Y-20.551 E0.06534
G1 X-16.882 Y-21.029 E0.07653
G1 X-16.096 Y-21.366 E0.06587
G1 X-15.283 Y-21.622 E0.06569
G1 X-14.309 Y-21.822 E0.07659
G1 X-13.436 Y-21.908 E0.06765
G1 X-13.430 Y-22.543 F15000.000
G1 X-12.439 Y-22.534 E0.07638 F720.000
G1 X-11.524 Y-22.441 E0.07089 F720.000
G1 X-10.627 Y-22.257 E0.07058
G1 X-9.619 Y-21.936 E0.08148
G1 X-8.775 Y-21.574 E0.07078
G1 X-7.974 Y-21.129 E0.07063
G1 X-7.106 Y-20.524 E0.08155
G1 X-6.410 Y-19.926 E0.07067
G1 X-5.778 Y-19.261 E0.07073
G1 X-5.128 Y-18.427 E0.08151
G1 X-4.644 Y-17.650 E0.07052
G1 X-4.184 Y-16.698 E0.08146
G1 X-3.865 Y-15.837 E0.07077
G1 X-3.621 Y-14.881 E0.07602
G1 X-3.482 Y-13.973 E0.07080
G1 X-3.431 Y-12.987 E0.07610
G1 X-3.482 Y-12.001 E0.07610
G1 X-3.621 Y-11.093 E0.07080
G1 X-3.865 Y-10.137 E0.07602
G1 X-4.184 Y-9.276 E0.07077
G1 X-4.644 Y-8.324 E0.08146
G1 X-5.128 Y-7.548 E0.07052
G1 X-5.778 Y-6.713 E0.08151
G1 X-6.410 Y-6.048 E0.07073
G1 X-7.106 Y-5.451 E0.07067
G1 X-7.974 Y-4.846 E0.08155
G1 X-8.774 Y-4.401 E0.07052
G1 X-9.748 Y-3.993 E0.08142
