; generated by Slic3r 1.2.9 on 2017-09-11 at 12:17:48

; external perimeters extrusion width = 0.40mm
; perimeters extrusion width = 0.40mm
; infill extrusion width = 0.40mm
; solid infill extrusion width = 0.40mm
; top infill extrusion width = 0.40mm

M107
M83
T0
M116
G21 ; set units to millimeters
G90 ; use absolute coordinates
M83 ; use relative distances for extrusion
G1 E-3.00000 F1500.00000
G1 Z0.400 F15000.000
G1 X21.724 Y0.000 F15000.000
G1 Z0.300 F15000.000
G1 E3.00000 F1500.00000
G1 X21.724 Y22.979 E1.77091 F960.000
G1 X21.330 Y24.626 E0.13052
G1 X20.659 Y25.550 E0.08796
G1 X12.689 Y33.521 E0.86870
G1 X11.245 Y34.406 E0.13052
G1 X10.118 Y34.586 E0.08796
G1 X2.188 Y34.586 E0.61107
G1 X-0.035 Y33.826 E0.18110
G1 X-20.312 Y18.148 E1.97530
G1 X-21.374 Y16.828 E0.13052
G1 X-21.724 Y15.271 E0.12295
G1 X-21.724 Y-12.629 E2.15013
G1 X-21.330 Y-14.276 E0.13052
G1 X-20.526 Y-15.326 E0.10193
G1 X-0.249 Y-33.648 E2.10606
G1 X1.238 Y-34.459 E0.13052
G1 X2.188 Y-34.586 E0.07392
G1 X10.118 Y-34.586 E0.61107
G1 X11.765 Y-34.191 E0.13052
G1 X12.689 Y-33.521 E0.08796 F960.000
G1 X20.659 Y-25.550 E0.86870
G1 X21.545 Y-24.106 E0.13052
G1 X21.724 Y-22.979 E0.08796
G1 X21.724 Y-0.060 E1.76629
G1 E-3.00000 F1500.00000
G1 Z0.700 F15000.000
G1 X10.665 Y25.880 F15000.000
G1 Z0.300 F15000.000
G1 E3.00000 F1500.00000
G1 X11.051 Y26.062 E0.03290 F600.000
G1 X11.380 Y26.334 E0.03290
G1 X11.631 Y26.679 E0.03290
G1 X11.788 Y27.076 E0.03290
G1 X11.842 Y27.500 E0.03290
G1 X11.788 Y27.924 E0.03290
G1 X11.631 Y28.321 E0.03290
G1 X11.380 Y28.666 E0.03290
G1 X11.051 Y28.938 E0.03290
G1 X10.665 Y29.120 E0.03290
G1 X10.245 Y29.200 E0.03290
G1 X9.819 Y29.173 E0.03290
G1 X9.413 Y29.041 E0.03290
G1 X9.053 Y28.812 E0.03290
G1 X8.761 Y28.501 E0.03290
G1 X8.555 Y28.127 E0.03290
G1 X8.449 Y27.713 E0.03290
G1 X8.449 Y27.287 E0.03290
G1 X8.555 Y26.873 E0.03290
G1 X8.761 Y26.499 E0.03290
G1 X9.053 Y26.188 E0.03290
G1 X9.413 Y25.959 E0.03290
G1 X9.819 Y25.827 E0.03290
G1 X10.245 Y25.800 E0.03290 F600.000
G1 X10.606 Y25.869 E0.02828
G1 X10.973 Y25.625 F15000.000
G1 X14.470 Y25.036 F15000.000
G1 X14.638 Y25.036 E0.01294 F600.000
G1 X12.507 Y27.166 E0.23224
G1 X12.192 Y26.371 E0.06595 F600.000
G1 X11.847 Y25.896 E0.04528
G1 X11.394 Y25.521 E0.04528
G1 X10.996 Y25.334 E0.03389
G1 X11.063 Y25.036 E0.02355
G1 X14.410 Y25.036 E0.25796
G1 X15.174 Y16.640 F15000.000
G1 X15.174 Y9.500 E0.55020 F600.000
G1 X17.103 Y11.429 E0.21021
G1 X17.103 Y22.571 E0.85867 F600.000
G1 X15.174 Y24.500 E0.21021
G1 X15.174 Y16.700 E0.60113
G1 E-3.00000 F1500.00000
G1 Z0.700 F15000.000
G1 X3.174 Y6.764 F15000.000
G1 Z0.300 F15000.000
G1 E3.00000 F1500.00000
G1 X3.174 Y4.036 E0.21029 F720.000
G1 X9.710 Y4.036 E0.50365
G1 X14.638 Y8.964 E0.53717
G1 X5.103 Y8.964 E0.73485 F720.000
G1 X5.103 Y25.036 E1.23854
G1 X9.169 Y25.036 E0.31334
G1 X9.249 Y25.311 E0.02207
G1 X8.644 Y25.694 E0.05515
G1 X8.242 Y26.122 E0.04528
G1 X7.959 Y26.637 E0.04528
G1 X7.813 Y27.206 E0.04528
G1 X7.813 Y27.794 E0.04528
G1 X7.959 Y28.363 E0.04528
G1 X8.242 Y28.878 E0.04528
G1 X8.644 Y29.306 E0.04528
G1 X9.249 Y29.689 E0.05515
G1 X9.169 Y29.964 E0.02207
G1 X3.174 Y29.964 E0.46198
G1 X3.174 Y6.824 E1.78330
G1 X5.738 Y9.600 F15000.000
G1 X14.538 Y9.600 E0.67818 F720.000
G1 X14.538 Y24.400 E1.14057
G1 X5.738 Y24.400 E0.67818
G1 X5.738 Y9.660 E1.13595
G1 X5.738 Y9.200 F15000.000
G1 X2.538 Y9.660 F15000.000
G1 X2.538 Y3.400 E0.48243 F720.000
G1 X9.973 Y3.400 E0.57293
G1 X17.738 Y11.166 E0.84636
G1 X17.738 Y22.834 E0.89925
G1 X9.973 Y30.600 E0.84636
G1 X2.538 Y30.600 E0.57293
G1 X2.538 Y9.720 E1.60913 F720.000
G1 X2.885 Y9.460 F15000.000
G1 X4.717 Y8.813 F15000.000
G1 X3.560 Y7.655 E0.12643 F960.000
G1 X3.560 Y8.556 E0.06953
G1 X4.717 Y9.714 E0.12643
G1 X4.717 Y10.615 E0.06953
G1 X3.560 Y9.457 E0.12643
G1 X3.560 Y10.357 E0.06953
G1 X4.717 Y11.515 E0.12643
G1 X4.717 Y12.416 E0.06953
G1 X3.560 Y11.258 E0.12643
G1 X3.560 Y12.158 E0.06953
G1 X4.717 Y13.316 E0.12643
G1 X4.717 Y14.217 E0.06953
G1 X3.560 Y13.059 E0.12643
G1 X3.560 Y13.959 E0.06953
G1 X4.717 Y15.117 E0.12643
G1 X4.717 Y16.018 E0.06953
G1 X3.560 Y14.860 E0.12643
G1 X3.560 Y15.761 E0.06953
G1 X4.717 Y16.919 E0.12643
G1 X4.717 Y17.819 E0.06953
G1 X3.560 Y16.661 E0.12643
G1 X3.560 Y17.562 E0.06953
G1 X4.717 Y18.720 E0.12643
G1 X4.717 Y19.620 E0.06953
G1 X3.560 Y18.462 E0.12643
G1 X3.560 Y19.363 E0.06953
G1 X4.717 Y20.521 E0.12643
G1 X4.717 Y21.421 E0.06953
G1 X3.560 Y20.264 E0.12643
G1 X3.560 Y21.164 E0.06953
G1 X4.717 Y22.322 E0.12643
G1 X4.717 Y23.223 E0.06953
G1 X3.560 Y22.065 E0.12643
G1 X3.560 Y22.965 E0.06953
G1 X4.717 Y24.123 E0.12643
G1 X4.717 Y25.024 E0.06953
G1 X3.560 Y23.866 E0.12643
G1 X3.560 Y24.766 E0.06953
G1 X7.756 Y28.963 E0.45825
G1 X7.471 Y29.579 E0.05238
G1 X3.560 Y25.667 E0.42715
G1 X3.560 Y26.568 E0.06953
G1 X6.571 Y29.579 E0.32881
G1 X5.670 Y29.579 E0.06953
G1 X3.560 Y27.468 E0.23048
G1 X3.560 Y28.369 E0.06953
G1 X4.770 Y29.579 E0.13214
G1 X3.869 Y29.579 E0.06953
G1 X3.560 Y29.269 E0.03381
G1 X5.115 Y25.421 F15000.000
G1 X7.428 Y27.734 E0.25255 F960.000
G1 X7.518 Y26.924 E0.06295
G1 X6.015 Y25.421 E0.16408
G1 X6.916 Y25.421 E0.06953
G1 X7.772 Y26.277 E0.09351
G1 X8.142 Y25.747 E0.04994
G1 X7.816 Y25.421 E0.03560
G1 E-3.00000 F1500.00000
G1 Z0.700 F15000.000
G1 X5.384 Y8.579 F15000.000
G1 Z0.300 F15000.000
G1 E3.00000 F1500.00000
G1 X3.560 Y6.755 E0.19917 F960.000
G1 X3.560 Y5.854 E0.06953
G1 X6.284 Y8.579 E0.29751
G1 X7.185 Y8.579 E0.06953
G1 X3.560 Y4.954 E0.39584
G1 X3.927 Y4.421 E0.04998
G1 X8.085 Y8.579 E0.45400
G1 X8.986 Y8.579 E0.06953
G1 X4.828 Y4.421 E0.45400
G1 X5.729 Y4.421 E0.06953
G1 X9.886 Y8.579 E0.45400
G1 X10.787 Y8.579 E0.06953
G1 X6.629 Y4.421 E0.45400
G1 X7.530 Y4.421 E0.06953
G1 X11.688 Y8.579 E0.45400
G1 X12.588 Y8.579 E0.06953
G1 X8.430 Y4.421 E0.45400
G1 X9.331 Y4.421 E0.06953
G1 X13.489 Y8.579 E0.45400
G1 E-3.00000 F1500.00000
G1 Z0.700 F15000.000
G1 X9.410 Y29.393 F15000.000
G1 Z0.300 F15000.000
G1 E3.00000 F1500.00000
G1 X9.648 Y29.506 E0.02031 F960.000
G1 X9.715 Y29.576 E0.00749
G1 X10.054 Y30.069 E0.04612
G1 X9.591 Y30.282 F15000.000
G1 X9.871 Y29.809 E0.04239 F960.000
G1 X10.290 Y29.648 E0.03456
G1 X10.639 Y29.463 E0.03043
G1 X12.842 Y26.338 F15000.000
G1 X12.537 Y26.032 E0.04642 F960.000
G1 X13.179 Y25.421 E0.09536
G1 X13.469 Y25.711 E0.04404
G1 X15.849 Y23.330 F15000.000
G1 X15.560 Y23.041 E0.03348 F960.000
G1 X15.560 Y22.088 E0.07789
G1 X16.326 Y22.854 E0.08855
G1 X16.717 Y22.292 E0.05594
G1 X15.560 Y21.134 E0.13381
G1 X15.560 Y20.181 E0.07789
G1 X16.717 Y21.339 E0.13381
G1 X16.717 Y20.386 E0.07789
G1 X15.560 Y19.228 E0.13381
G1 X15.560 Y18.275 E0.07789
G1 X16.717 Y19.433 E0.13381
G1 X16.717 Y18.480 E0.07789
G1 X15.560 Y17.322 E0.13381
G1 X15.560 Y16.369 E0.07789
G1 X16.717 Y17.527 E0.13381
G1 X16.717 Y16.573 E0.07789
G1 X15.560 Y15.415 E0.13381
G1 X15.560 Y14.462 E0.07789
G1 X16.717 Y15.620 E0.13381
G1 X16.717 Y14.667 E0.07789
G1 X15.560 Y13.509 E0.13381
G1 X15.560 Y12.556 E0.07789
G1 X16.717 Y13.714 E0.13381
G1 X16.717 Y12.761 E0.07789
G1 X15.560 Y11.603 E0.13381
G1 X15.580 Y10.670 E0.07627
G1 X16.717 Y11.808 E0.13150
G1 E-3.00000 F1500.00000
G1 Z0.700 F15000.000
G1 X-8.435 Y11.821 F15000.000
G1 Z0.300 F15000.000
G1 E3.00000 F1500.00000
G1 X-8.489 Y12.245 E0.03290 F600.000
G1 X-8.646 Y12.642 E0.03290
G1 X-8.897 Y12.987 E0.03290
G1 X-9.226 Y13.259 E0.03290
G1 X-9.612 Y13.441 E0.03290
G1 X-10.032 Y13.521 E0.03290
G1 X-10.458 Y13.494 E0.03290
G1 X-10.864 Y13.362 E0.03290
G1 X-11.224 Y13.134 E0.03290
G1 X-11.516 Y12.823 E0.03290
G1 X-11.722 Y12.448 E0.03290
G1 X-11.828 Y12.035 E0.03290
G1 X-11.828 Y11.608 E0.03290
G1 X-11.722 Y11.194 E0.03290
G1 X-11.516 Y10.820 E0.03290
G1 X-11.224 Y10.509 E0.03290
G1 X-10.864 Y10.280 E0.03290
G1 X-10.458 Y10.148 E0.03290
G1 X-10.032 Y10.122 E0.03290 F600.000
G1 X-9.612 Y10.202 E0.03290
G1 X-9.226 Y10.383 E0.03290
G1 X-8.897 Y10.656 E0.03290
G1 X-8.646 Y11.001 E0.03290
G1 X-8.489 Y11.398 E0.03290
G1 X-8.443 Y11.762 E0.02828
G1 X-8.098 Y12.036 F15000.000
G1 X-6.551 Y9.357 F15000.000
G1 X-5.639 Y9.357 E0.07028 F600.000
G1 X-7.770 Y11.488 E0.23224
G1 X-8.085 Y10.692 E0.06595 F600.000
G1 X-8.430 Y10.217 E0.04528
G1 X-8.883 Y9.842 E0.04528
G1 X-9.280 Y9.655 E0.03389
G1 X-9.214 Y9.357 E0.02355
G1 X-6.611 Y9.357 E0.20062
G1 E-3.00000 F1500.00000
G1 Z0.700 F15000.000
G1 X-3.174 Y1.244 F15000.000
G1 Z0.300 F15000.000
G1 E3.00000 F1500.00000
G1 X-3.174 Y6.892 E0.43527 F600.000
G1 X-5.103 Y8.821 E0.21021
G1 X-5.103 Y-6.178 E1.15595
G1 X-3.174 Y-4.250 E0.21021
G1 X-3.174 Y1.184 E0.41878 F600.000
G1 X-6.129 Y-6.714 F15000.000
G1 X-15.174 Y-6.714 E0.69704 F720.000
G1 X-15.174 Y9.357 E1.23854
G1 X-11.108 Y9.357 E0.31334
G1 X-11.028 Y9.632 E0.02207
G1 X-11.632 Y10.015 E0.05515
G1 X-12.035 Y10.444 E0.04528
G1 X-12.318 Y10.959 E0.04528
G1 X-12.464 Y11.528 E0.04528
G1 X-12.464 Y12.115 E0.04528
G1 X-12.318 Y12.684 E0.04528
G1 X-12.035 Y13.199 E0.04528
G1 X-11.632 Y13.627 E0.04528
G1 X-11.028 Y14.011 E0.05515
G1 X-11.108 Y14.286 E0.02207
G1 X-17.103 Y14.286 E0.46198
G1 X-17.103 Y-11.643 E1.99821
G1 X-10.567 Y-11.643 E0.50365
G1 X-5.639 Y-6.714 E0.53717
G1 X-6.069 Y-6.714 E0.03319 F720.000
G1 X-6.069 Y-6.079 F15000.000
G1 X-5.738 Y-6.079 E0.02550 F720.000
G1 X-5.738 Y8.721 E1.14057
G1 X-14.538 Y8.721 E0.67818
G1 X-14.538 Y-6.079 E1.14057
G1 X-6.129 Y-6.079 E0.64805 F720.000
G1 X-5.904 Y-6.365 F15000.000
G1 X-5.117 Y-7.091 F15000.000
G1 X-2.538 Y-4.513 E0.28100 F720.000
G1 X-2.538 Y7.156 E0.89925
G1 X-10.304 Y14.921 E0.84636
G1 X-17.738 Y14.921 E0.57293
G1 X-17.738 Y-12.279 E2.09618 F720.000
G1 X-10.304 Y-12.279 E0.57293
G1 X-5.159 Y-7.134 E0.56073
G1 X-5.220 Y-6.705 F15000.000
G1 X-6.788 Y-7.100 F15000.000
G1 X-10.946 Y-11.258 E0.45400 F960.000
G1 X-11.847 Y-11.258 E0.06953
G1 X-7.689 Y-7.100 E0.45400
G1 X-8.589 Y-7.100 E0.06953
G1 X-12.747 Y-11.258 E0.45400
G1 X-13.648 Y-11.258 E0.06953
G1 X-9.490 Y-7.100 E0.45400
G1 X-10.390 Y-7.100 E0.06953
G1 X-14.548 Y-11.258 E0.45400
G1 X-15.449 Y-11.258 E0.06953
G1 X-11.291 Y-7.100 E0.45400
G1 X-12.192 Y-7.100 E0.06953
G1 X-16.350 Y-11.258 E0.45400
G1 X-16.717 Y-10.725 E0.04998
G1 X-13.092 Y-7.100 E0.39584
G1 X-13.993 Y-7.100 E0.06953
G1 X-16.717 Y-9.824 E0.29751
G1 X-16.717 Y-8.924 E0.06953
G1 X-14.893 Y-7.100 E0.19917
G1 X-15.560 Y-6.865 F15000.000
G1 X-16.717 Y-8.023 E0.12643 F960.000
G1 X-16.717 Y-7.123 E0.06953
G1 X-15.560 Y-5.965 E0.12643
G1 X-15.560 Y-5.064 E0.06953
G1 X-16.717 Y-6.222 E0.12643
G1 X-16.717 Y-5.321 E0.06953
G1 X-15.560 Y-4.163 E0.12643
G1 X-15.560 Y-3.263 E0.06953
G1 X-16.717 Y-4.421 E0.12643
G1 X-16.717 Y-3.520 E0.06953
G1 X-15.560 Y-2.362 E0.12643
G1 X-15.560 Y-1.462 E0.06953
G1 X-16.717 Y-2.620 E0.12643
G1 X-16.717 Y-1.719 E0.06953
G1 X-15.560 Y-0.561 E0.12643
G1 X-15.560 Y0.339 E0.06953
G1 X-16.717 Y-0.819 E0.12643
G1 X-16.717 Y0.082 E0.06953
G1 X-15.560 Y1.240 E0.12643
G1 X-15.560 Y2.141 E0.06953
G1 X-16.717 Y0.983 E0.12643
G1 X-16.717 Y1.883 E0.06953
G1 X-15.560 Y3.041 E0.12643
G1 X-15.560 Y3.942 E0.06953
G1 X-16.717 Y2.784 E0.12643
G1 X-16.717 Y3.684 E0.06953
G1 X-15.560 Y4.842 E0.12643
G1 X-15.560 Y5.743 E0.06953
G1 X-16.717 Y4.585 E0.12643
G1 X-16.717 Y5.486 E0.06953
G1 X-15.560 Y6.643 E0.12643
G1 X-15.560 Y7.544 E0.06953
G1 X-16.717 Y6.386 E0.12643
G1 X-16.717 Y7.287 E0.06953
G1 X-15.560 Y8.445 E0.12643
G1 X-15.560 Y9.345 E0.06953
G1 X-16.717 Y8.187 E0.12643
G1 X-16.717 Y9.088 E0.06953
G1 X-12.521 Y13.285 E0.45825
G1 X-12.805 Y13.900 E0.05238
G1 X-16.717 Y9.988 E0.42715
G1 X-16.717 Y10.889 E0.06953
G1 X-13.706 Y13.900 E0.32881
G1 X-14.607 Y13.900 E0.06953
G1 X-16.717 Y11.790 E0.23048
G1 X-16.717 Y12.690 E0.06953
G1 X-15.507 Y13.900 E0.13214
G1 X-16.408 Y13.900 E0.06953
G1 X-16.717 Y13.591 E0.03381
G1 X-15.162 Y9.742 F15000.000
G1 X-12.849 Y12.055 E0.25255 F960.000
G1 X-12.759 Y11.245 E0.06295
G1 X-14.262 Y9.742 E0.16408
G1 X-13.361 Y9.742 E0.06953
G1 X-12.505 Y10.599 E0.09351
G1 X-12.135 Y10.068 E0.04994
G1 X-12.461 Y9.742 E0.03560
G1 X-10.867 Y13.715 F15000.000
G1 X-10.629 Y13.827 E0.02031 F960.000
G1 X-10.562 Y13.898 E0.00749
G1 X-10.223 Y14.390 E0.04612
G1 X-10.686 Y14.604 F15000.000
G1 X-10.406 Y14.130 E0.04239 F960.000
G1 X-9.987 Y13.970 E0.03456
G1 X-9.638 Y13.785 E0.03043
G1 X-7.435 Y10.659 F15000.000
G1 X-7.740 Y10.354 E0.04642 F960.000
G1 X-7.098 Y9.742 E0.09536
G1 X-6.808 Y10.032 E0.04404
G1 X-4.428 Y7.652 F15000.000
G1 X-4.717 Y7.362 E0.03348 F960.000
G1 X-4.717 Y6.409 E0.07789
G1 X-3.951 Y7.175 E0.08855
G1 X-3.560 Y6.614 E0.05594
G1 X-4.717 Y5.456 E0.13381
G1 X-4.717 Y4.503 E0.07789
G1 X-3.560 Y5.661 E0.13381
G1 X-3.560 Y4.707 E0.07789
G1 X-4.717 Y3.549 E0.13381
G1 X-4.717 Y2.596 E0.07789
G1 X-3.560 Y3.754 E0.13381
G1 X-3.560 Y2.801 E0.07789
G1 X-4.717 Y1.643 E0.13381
G1 X-4.717 Y0.690 E0.07789
G1 X-3.560 Y1.848 E0.13381
G1 X-3.560 Y0.895 E0.07789
G1 X-4.717 Y-0.263 E0.13381
G1 X-4.717 Y-1.216 E0.07789
G1 X-3.560 Y-0.058 E0.13381
G1 X-3.560 Y-1.012 E0.07789
G1 X-4.717 Y-2.169 E0.13381
G1 X-4.717 Y-3.123 E0.07789
G1 X-3.560 Y-1.965 E0.13381
G1 X-3.560 Y-2.918 E0.07789
G1 X-4.717 Y-4.076 E0.13381
G1 X-4.697 Y-5.009 E0.07627
G1 X-3.560 Y-3.871 E0.13150
G1 E-3.00000 F1500.00000
G1 Z0.700 F15000.000
G1 X8.449 Y-6.287 F15000.000
G1 Z0.300 F15000.000
G1 E3.00000 F1500.00000
G1 X8.449 Y-6.713 E0.03290 F600.000
G1 X8.555 Y-7.127 E0.03290
G1 X8.761 Y-7.501 E0.03290
G1 X9.053 Y-7.812 E0.03290
G1 X9.413 Y-8.041 E0.03290
G1 X9.819 Y-8.173 E0.03290
G1 X10.245 Y-8.200 E0.03290 F600.000
G1 X10.665 Y-8.120 E0.03290
G1 X11.051 Y-7.938 E0.03290
G1 X11.380 Y-7.666 E0.03290
G1 X11.631 Y-7.321 E0.03290
G1 X11.788 Y-6.924 E0.03290
G1 X11.842 Y-6.500 E0.03290
G1 X11.788 Y-6.076 E0.03290
G1 X11.631 Y-5.679 E0.03290
G1 X11.380 Y-5.334 E0.03290
G1 X11.051 Y-5.062 E0.03290
G1 X10.665 Y-4.880 E0.03290
G1 X10.245 Y-4.800 E0.03290
G1 X9.819 Y-4.827 E0.03290
G1 X9.413 Y-4.959 E0.03290
G1 X9.053 Y-5.188 E0.03290
G1 X8.761 Y-5.499 E0.03290
G1 X8.555 Y-5.873 E0.03290
G1 X8.464 Y-6.228 E0.02828
G1 X8.087 Y-6.457 F15000.000
G1 E-3.00000 F1500.00000
G1 Z0.700 F15000.000
G1 X13.830 Y-8.964 F15000.000
G1 Z0.300 F15000.000
G1 E3.00000 F1500.00000
G1 X14.638 Y-8.964 E0.06229 F600.000
G1 X12.507 Y-6.834 E0.23224
G1 X12.192 Y-7.629 E0.06595 F600.000
G1 X11.847 Y-8.104 E0.04528
G1 X11.394 Y-8.479 E0.04528
G1 X10.996 Y-8.666 E0.03389
G1 X11.063 Y-8.964 E0.02355
G1 X13.770 Y-8.964 E0.20861
G1 E-3.00000 F1500.00000
G1 Z0.700 F15000.000
G1 X15.174 Y-16.296 F15000.000
G1 Z0.300 F15000.000
G1 E3.00000 F1500.00000
G1 X15.174 Y-24.500 E0.63224 F600.000
G1 X17.103 Y-22.571 E0.21021
G1 X17.103 Y-11.429 E0.85867 F600.000
G1 X15.174 Y-9.500 E0.21021
G1 X15.174 Y-16.236 E0.51909
G1 E-3.00000 F1500.00000
G1 Z0.700 F15000.000
G1 X3.174 Y-15.212 F15000.000
G1 Z0.300 F15000.000
G1 E3.00000 F1500.00000
G1 X3.174 Y-29.964 E1.13692 F720.000
G1 X9.710 Y-29.964 E0.50365
G1 X14.638 Y-25.036 E0.53717
G1 X5.103 Y-25.036 E0.73485 F720.000
G1 X5.103 Y-8.964 E1.23854
G1 X9.169 Y-8.964 E0.31334
G1 X9.249 Y-8.689 E0.02207
G1 X8.644 Y-8.306 E0.05515
G1 X8.242 Y-7.878 E0.04528
G1 X7.959 Y-7.363 E0.04528
G1 X7.813 Y-6.794 E0.04528
G1 X7.813 Y-6.206 E0.04528
G1 X7.959 Y-5.637 E0.04528
G1 X8.242 Y-5.122 E0.04528
G1 X8.644 Y-4.694 E0.04528
G1 X9.249 Y-4.311 E0.05515
G1 X9.169 Y-4.036 E0.02207
G1 X3.174 Y-4.036 E0.46198
G1 X3.174 Y-15.152 E0.85667
G1 X5.738 Y-15.152 F15000.000
G1 X5.738 Y-24.400 E0.71273 F720.000
G1 X14.538 Y-24.400 E0.67818 F720.000
G1 X14.538 Y-9.600 E1.14057
G1 X5.738 Y-9.600 E0.67818
G1 X5.738 Y-15.092 E0.42322
G1 X5.392 Y-15.352 F15000.000
G1 X2.538 Y-15.092 F15000.000
G1 X2.538 Y-30.600 E1.19516 F720.000
G1 X9.973 Y-30.600 E0.57293
G1 X17.738 Y-22.834 E0.84636
G1 X17.738 Y-11.166 E0.89925
G1 X9.973 Y-3.400 E0.84636
G1 X2.538 Y-3.400 E0.57293
G1 X2.538 Y-15.032 E0.89640 F720.000
G1 X2.885 Y-15.292 F15000.000
G1 X5.115 Y-8.579 F15000.000
G1 X7.428 Y-6.266 E0.25255 F960.000
G1 X7.518 Y-7.076 E0.06295
G1 X6.015 Y-8.579 E0.16408
G1 X6.916 Y-8.579 E0.06953
G1 X7.772 Y-7.723 E0.09351
G1 X8.142 Y-8.253 E0.04994
G1 X7.816 Y-8.579 E0.03560
G1 X3.560 Y-4.731 F15000.000
G1 X3.869 Y-4.421 E0.03381 F960.000
G1 X4.770 Y-4.421 E0.06953
G1 X3.560 Y-5.631 E0.13214
