; generated by Slic3r 1.2.9 on 2017-09-11 at 14:49:00

; external perimeters extrusion width = 0.40mm
; perimeters extrusion width = 0.40mm
; infill extrusion width = 0.40mm
; solid infill extrusion width = 0.40mm
; top infill extrusion width = 0.40mm

M107
M83
T0
M116
G21 ; set units to millimeters
G90 ; use absolute coordinates
M83 ; use relative distances for extrusion
G1 E-3.50000 F1500.00000
G1 Z0.400 F15000.000
G1 X-6.514 Y-11.283 F15000.000
G1 Z0.300 F15000.000
G1 E3.50000 F1500.00000
G1 X7.110 Y-19.149 E1.21236 F960.000
G1 X7.536 Y-19.359 E0.03665
G1 X8.010 Y-19.555 E0.03948
G1 X8.926 Y-19.801 E0.07314
G1 X9.431 Y-19.867 E0.03922
G1 X10.380 Y-19.867 E0.07314
G1 X10.876 Y-19.802 E0.03852
G1 X11.777 Y-19.563 E0.07188 F960.000
G1 X12.256 Y-19.367 E0.03990
G1 X13.093 Y-18.886 E0.07440
G1 X13.497 Y-18.576 E0.03922
G1 X14.168 Y-17.905 E0.07314
G1 X14.480 Y-17.498 E0.03948
G1 X14.744 Y-17.103 E0.03665
G1 X25.241 Y1.078 E1.61787
G1 X25.451 Y1.504 E0.03665
G1 X25.647 Y1.978 E0.03948
G1 X25.893 Y2.894 E0.07314
G1 X25.960 Y3.399 E0.03922
G1 X25.957 Y4.364 E0.07440
G1 X25.887 Y4.877 E0.03990
G1 X25.644 Y5.778 E0.07188
G1 X25.453 Y6.240 E0.03852
G1 X24.978 Y7.062 E0.07314
G1 X24.668 Y7.465 E0.03922
G1 X23.997 Y8.136 E0.07314
G1 X23.591 Y8.448 E0.03948
G1 X23.195 Y8.712 E0.03665
G1 X5.583 Y18.881 E1.56725
G1 X5.157 Y19.091 E0.03665
G1 X4.201 Y19.487 E0.07971
G1 X3.285 Y19.733 E0.07314
G1 X2.262 Y19.867 E0.07946
G1 X1.313 Y19.867 E0.07314
G1 X0.288 Y19.732 E0.07971
G1 X-0.179 Y19.639 E0.03665
G1 X-17.462 Y15.008 E1.37893
G1 X-17.912 Y14.855 E0.03665
G1 X-18.868 Y14.460 E0.07971
G1 X-19.690 Y13.985 E0.07314
G1 X-20.508 Y13.357 E0.07946
G1 X-21.179 Y12.686 E0.07314
G1 X-21.809 Y11.866 E0.07971
G1 X-22.073 Y11.470 E0.03665
G1 X-25.241 Y5.983 E0.48833
G1 X-25.451 Y5.556 E0.03664
G1 X-25.647 Y5.083 E0.03948
G1 X-25.893 Y4.166 E0.07315
G1 X-25.960 Y3.662 E0.03922
G1 X-25.960 Y2.712 E0.07314
G1 X-25.893 Y2.208 E0.03922
G1 X-25.647 Y1.291 E0.07315
G1 X-25.453 Y0.821 E0.03922
G1 X-24.978 Y-0.001 E0.07313
G1 X-24.668 Y-0.405 E0.03922
G1 X-23.997 Y-1.076 E0.07315
G1 X-23.591 Y-1.388 E0.03948
G1 X-23.195 Y-1.652 E0.03665
G1 X-6.566 Y-11.253 E1.47980
G1 E-3.50000 F1500.00000
G1 Z0.700 F15000.000
G1 X-12.292 Y-0.403 F15000.000
G1 Z0.300 F15000.000
G1 E3.50000 F1500.00000
G1 X-11.856 Y-0.068 E0.04232 F600.000
G1 X-11.522 Y0.367 E0.04232
G1 X-11.311 Y0.875 E0.04232
G1 X-11.240 Y1.419 E0.04232
G1 X-11.311 Y1.963 E0.04232
G1 X-11.522 Y2.471 E0.04232
G1 X-11.856 Y2.906 E0.04232
G1 X-12.271 Y3.225 E0.04028
G1 X-15.780 Y5.251 E0.31230
G1 X-16.263 Y5.451 E0.04028
G1 X-16.807 Y5.522 E0.04232
G1 X-17.352 Y5.451 E0.04232
G1 X-17.859 Y5.241 E0.04232
G1 X-18.295 Y4.906 E0.04232
G1 X-18.629 Y4.471 E0.04232
G1 X-18.827 Y3.993 E0.03989
G1 X-18.911 Y3.422 E0.04446
G1 X-18.839 Y2.875 E0.04253
G1 X-18.629 Y2.367 E0.04232
G1 X-18.295 Y1.932 E0.04232
G1 X-17.880 Y1.613 E0.04028
G1 X-14.368 Y-0.414 E0.31251
G1 X-13.856 Y-0.617 E0.04242
G1 X-13.343 Y-0.684 E0.03989 F600.000
G1 X-12.799 Y-0.613 E0.04232
G1 X-12.347 Y-0.426 E0.03769
G1 X-11.937 Y-0.587 F15000.000
G1 X3.022 Y-8.029 F15000.000
G1 X2.811 Y-8.537 E0.04232 F600.000
G1 X2.740 Y-9.081 E0.04232
G1 X2.811 Y-9.625 E0.04232
G1 X3.010 Y-10.104 E0.03989
G1 X3.354 Y-10.567 E0.04446
G1 X3.771 Y-10.887 E0.04049
G1 X7.282 Y-12.914 E0.31251
G1 X7.794 Y-13.117 E0.04242
G1 X8.307 Y-13.184 E0.03989 F600.000
G1 X8.852 Y-13.113 E0.04232
G1 X9.359 Y-12.903 E0.04232
G1 X9.795 Y-12.568 E0.04232
G1 X10.129 Y-12.133 E0.04232
G1 X10.340 Y-11.623 E0.04253
G1 X10.407 Y-11.050 E0.04446
G1 X10.339 Y-10.537 E0.03989
G1 X10.129 Y-10.029 E0.04232
G1 X9.795 Y-9.594 E0.04232
G1 X9.380 Y-9.275 E0.04028
G1 X5.871 Y-7.249 E0.31230
G1 X5.388 Y-7.049 E0.04028
G1 X4.843 Y-6.978 E0.04232
G1 X4.299 Y-7.049 E0.04232
G1 X3.792 Y-7.259 E0.04232
G1 X3.356 Y-7.594 E0.04232
G1 X3.058 Y-7.982 E0.03769
G1 X2.622 Y-8.047 F15000.000
G1 X2.036 Y-10.883 F15000.000
G1 X2.705 Y-11.270 E0.05953 F720.000
G1 X2.912 Y-11.038 E0.02393
G1 X2.452 Y-10.420 E0.05935
G1 X2.192 Y-9.791 E0.05240
G1 X2.099 Y-9.081 E0.05522
G1 X2.192 Y-8.371 E0.05522
G1 X2.466 Y-7.709 E0.05521
G1 X2.903 Y-7.140 E0.05521
G1 X3.471 Y-6.704 E0.05522
G1 X4.133 Y-6.430 E0.05522
G1 X4.843 Y-6.336 E0.05522
G1 X5.554 Y-6.430 E0.05521
G1 X6.152 Y-6.678 E0.04994
G1 X9.734 Y-8.746 E0.31872
G1 X10.248 Y-9.140 E0.04994
G1 X10.684 Y-9.709 E0.05521
G1 X10.958 Y-10.371 E0.05521
G1 X11.047 Y-11.045 E0.05241
G1 X10.961 Y-11.784 E0.05736
G1 X10.684 Y-12.453 E0.05581
G1 X10.248 Y-13.022 E0.05521
G1 X9.680 Y-13.458 E0.05522
G1 X9.018 Y-13.732 E0.05522
G1 X8.307 Y-13.826 E0.05522
G1 X7.580 Y-13.730 E0.05650
G1 X7.480 Y-14.026 E0.02412
G1 X9.364 Y-15.114 E0.16770
G1 X9.658 Y-15.236 E0.02450
G1 X9.905 Y-15.268 E0.01922
G1 X10.146 Y-15.237 E0.01870
G1 X10.385 Y-15.139 E0.01990 F720.000
G1 X10.581 Y-14.989 E0.01905
G1 X10.775 Y-14.736 E0.02450
G1 X21.207 Y3.333 E1.60791
G1 X21.328 Y3.626 E0.02450
G1 X21.361 Y3.871 E0.01905
G1 X21.326 Y4.127 E0.01990
G1 X21.233 Y4.351 E0.01870
G1 X21.081 Y4.549 E0.01922
G1 X20.829 Y4.743 E0.02450
G1 X3.329 Y14.846 E1.55729
G1 X2.553 Y15.168 E0.06473
G1 X1.788 Y15.268 E0.05946
G1 X0.955 Y15.159 E0.06473
G1 X-16.203 Y10.561 E1.36897
G1 X-16.980 Y10.240 E0.06473
G1 X-17.592 Y9.770 E0.05946
G1 X-18.103 Y9.104 E0.06473
G1 X-21.207 Y3.728 E0.47838
G1 X-21.328 Y3.434 E0.02450
G1 X-21.361 Y3.187 E0.01922
G1 X-21.328 Y2.940 E0.01922
G1 X-21.233 Y2.709 E0.01922
G1 X-21.081 Y2.511 E0.01922
G1 X-20.829 Y2.318 E0.02450
G1 X-18.944 Y1.230 E0.16770
G1 X-18.738 Y1.465 E0.02412
G1 X-19.184 Y2.047 E0.05650
G1 X-19.458 Y2.709 E0.05522
G1 X-19.553 Y3.427 E0.05581
G1 X-19.444 Y4.163 E0.05736
G1 X-19.184 Y4.791 E0.05241
G1 X-18.748 Y5.360 E0.05521
G1 X-18.180 Y5.796 E0.05522
G1 X-17.518 Y6.070 E0.05522
G1 X-16.807 Y6.164 E0.05522
G1 X-16.097 Y6.070 E0.05521
G1 X-15.498 Y5.822 E0.04994
G1 X-11.917 Y3.754 E0.31872
G1 X-11.403 Y3.360 E0.04994
G1 X-10.966 Y2.791 E0.05521
G1 X-10.692 Y2.129 E0.05521
G1 X-10.599 Y1.419 E0.05522
G1 X-10.692 Y0.709 E0.05522
G1 X-10.966 Y0.047 E0.05522
G1 X-11.403 Y-0.522 E0.05521
G1 X-11.971 Y-0.958 E0.05522
G1 X-12.633 Y-1.232 E0.05522
G1 X-13.343 Y-1.326 E0.05522
G1 X-14.070 Y-1.230 E0.05650
G1 X-14.171 Y-1.526 E0.02412
G1 X1.984 Y-10.853 E1.43761
G1 X1.667 Y-11.404 F15000.000
G1 X9.083 Y-15.686 E0.65995 F720.000
G1 X9.492 Y-15.855 E0.03416
G1 X9.905 Y-15.910 E0.03212
G1 X10.310 Y-15.856 E0.03148
G1 X10.704 Y-15.695 E0.03280 F720.000
G1 X11.034 Y-15.442 E0.03206
G1 X11.304 Y-15.090 E0.03416
G1 X21.778 Y3.051 E1.61433
G1 X21.948 Y3.460 E0.03416
G1 X22.002 Y3.873 E0.03206
G1 X21.944 Y4.294 E0.03280
G1 X21.788 Y4.672 E0.03148
G1 X21.534 Y5.002 E0.03212
G1 X21.183 Y5.272 E0.03416
G1 X3.610 Y15.418 E1.56371
G1 X2.719 Y15.787 E0.07439
G1 X1.788 Y15.910 E0.07236
G1 X0.831 Y15.784 E0.07439
G1 X-16.408 Y11.164 E1.37539
G1 X-17.300 Y10.795 E0.07439
G1 X-18.045 Y10.223 E0.07236
G1 X-18.633 Y9.458 E0.07439
G1 X-21.778 Y4.010 E0.48480
G1 X-21.948 Y3.600 E0.03416
G1 X-22.002 Y3.187 E0.03212
G1 X-21.948 Y2.774 E0.03212
G1 X-21.788 Y2.389 E0.03212
G1 X-21.534 Y2.058 E0.03212
G1 X-21.183 Y1.788 E0.03416
G1 X1.615 Y-11.374 E2.02868
G1 X2.013 Y-11.204 F15000.000
G1 X1.451 Y-10.157 F15000.000
G1 X1.820 Y-9.788 E0.04067 F960.000
G1 X1.714 Y-8.985 E0.06321
G1 X0.874 Y-9.824 E0.09259
G1 X0.298 Y-9.491 E0.05192
G1 X1.913 Y-7.876 E0.17812
G1 E-3.50000 F1500.00000
G1 Z0.700 F15000.000
G1 X12.328 Y-11.103 F15000.000
G1 Z0.300 F15000.000
G1 E3.50000 F1500.00000
G1 X11.989 Y-11.443 E0.03741 F960.000
G1 X11.426 Y-11.096 E0.05155
G1 X13.571 Y-8.951 E0.23650
G1 X14.813 Y-6.800 F15000.000
G1 X11.305 Y-10.308 E0.38687 F960.000
G1 X11.038 Y-9.665 E0.05428
G1 X16.056 Y-4.648 E0.55325
G1 X17.298 Y-2.496 F15000.000
G1 X10.660 Y-9.133 E0.73196 F960.000
G1 X10.199 Y-8.685 E0.05015
G1 X18.540 Y-0.344 E0.91983
G1 X19.783 Y1.808 F15000.000
G1 X9.660 Y-8.315 E1.11630 F960.000
G1 X9.083 Y-7.982 E0.05192
G1 X20.952 Y3.887 E1.30884
G1 X20.627 Y4.471 E0.05214
G1 X8.507 Y-7.649 E1.33654
G1 X7.930 Y-7.316 E0.05192
G1 X20.050 Y4.804 E1.33654
G1 X19.474 Y5.137 E0.05192
G1 X7.353 Y-6.983 E1.33654
G1 X6.777 Y-6.650 E0.05192
G1 X18.897 Y5.470 E1.33654
G1 X18.320 Y5.803 E0.05192
G1 X6.195 Y-6.323 E1.33715
G1 X5.551 Y-6.057 E0.05431
G1 X17.744 Y6.136 E1.34457
G1 X17.167 Y6.469 E0.05192
G1 X4.747 Y-5.952 E1.36961
G1 X3.639 Y-6.151 E0.08782
G1 X16.591 Y6.801 E1.42826
G1 X16.014 Y7.134 E0.05192
G1 X-0.279 Y-9.159 E1.79667
G1 X-0.856 Y-8.826 E0.05192
G1 X15.437 Y7.467 E1.79667
G1 X14.861 Y7.800 E0.05192
G1 X-1.432 Y-8.493 E1.79667
G1 X-2.009 Y-8.160 E0.05192
G1 X14.284 Y8.133 E1.79667
G1 X13.708 Y8.466 E0.05192
G1 X-2.585 Y-7.827 E1.79667
G1 X-3.162 Y-7.494 E0.05192
G1 X13.131 Y8.799 E1.79667
G1 X12.554 Y9.132 E0.05192
G1 X-3.739 Y-7.161 E1.79667
G1 X-4.315 Y-6.828 E0.05192
G1 X11.978 Y9.465 E1.79667
G1 X11.401 Y9.798 E0.05192
G1 X-4.892 Y-6.495 E1.79667
G1 X-5.468 Y-6.162 E0.05192
G1 X10.825 Y10.131 E1.79667
G1 X10.248 Y10.463 E0.05192
G1 X-6.045 Y-5.830 E1.79667
G1 X-6.622 Y-5.497 E0.05192
G1 X9.671 Y10.796 E1.79667
G1 X9.095 Y11.129 E0.05192
G1 X-7.198 Y-5.164 E1.79667
G1 X-7.775 Y-4.831 E0.05192
G1 X8.518 Y11.462 E1.79667
G1 X7.942 Y11.795 E0.05192
G1 X-8.351 Y-4.498 E1.79667
G1 X-8.928 Y-4.165 E0.05192
G1 X7.365 Y12.128 E1.79667
G1 X6.788 Y12.461 E0.05192
G1 X-9.505 Y-3.832 E1.79667
G1 X-10.081 Y-3.499 E0.05192
G1 X6.212 Y12.794 E1.79668
G1 X5.635 Y13.127 E0.05192
G1 X-10.658 Y-3.166 E1.79668
G1 X-11.234 Y-2.833 E0.05192
G1 X5.059 Y13.460 E1.79668
G1 X4.482 Y13.792 E0.05192
G1 X-11.811 Y-2.501 E1.79668
G1 X-12.388 Y-2.168 E0.05192
G1 X3.905 Y14.125 E1.79668
G1 X3.329 Y14.458 E0.05192
G1 X-10.264 Y0.866 E1.49890
G1 X-10.272 Y1.767 E0.07026
G1 X2.697 Y14.736 E1.43013
G1 X1.929 Y14.878 E0.06086
G1 X-10.466 Y2.482 E1.36686
G1 X-10.774 Y3.084 E0.05270
G1 X0.826 Y14.684 E1.27919
G1 X-0.416 Y14.352 E0.10029
G1 X-11.169 Y3.598 E1.18580
G1 X-11.684 Y3.993 E0.05058
G1 X-1.658 Y14.019 E1.10555
G1 X-2.901 Y13.686 E0.10029
G1 X-12.251 Y4.335 E1.03109
G1 X-12.828 Y4.668 E0.05192
G1 X-4.143 Y13.353 E0.95767
G1 X-5.386 Y13.020 E0.10029
G1 X-13.404 Y5.001 E0.88425
G1 X-13.981 Y5.334 E0.05192
G1 X-6.628 Y12.687 E0.81083
G1 X-7.870 Y12.354 E0.10029
G1 X-14.558 Y5.667 E0.73741
G1 X-15.134 Y6.000 E0.05192
G1 X-9.113 Y12.021 E0.66399
G1 X-10.355 Y11.688 E0.10029
G1 X-15.746 Y6.297 E0.59449
G1 X-16.463 Y6.490 E0.05785
G1 X-11.598 Y11.355 E0.53649
G1 X-12.840 Y11.023 E0.10029
G1 X-17.365 Y6.498 E0.49895
G1 X-18.581 Y6.191 E0.09781
G1 X-14.082 Y10.690 E0.49607
G1 X-15.325 Y10.357 E0.10029
G1 X-18.900 Y6.782 E0.39420
G1 X-17.449 Y9.142 F15000.000
G1 X-16.963 Y9.628 E0.05360 F960.000
G1 E-3.50000 F1500.00000
G1 Z0.700 F15000.000
G1 X11.738 Y-11.698 F15000.000
G1 Z0.300 F15000.000
G1 E3.50000 F1500.00000
G1 X11.193 Y-12.791 E0.19785 F960.000
G1 X10.545 Y-13.762 E0.18907
G1 X10.439 Y-14.360 F15000.000
G1 X9.974 Y-14.825 E0.08563 F960.000
G1 X9.157 Y-14.121 E0.14058
G1 X8.864 Y-14.414 E0.05400
G1 X7.237 Y-13.754 F15000.000
G1 X3.064 Y-11.345 E0.78024 F960.000
G1 X-14.414 Y-1.254 F15000.000
G1 X-18.587 Y1.155 E0.78028 F960.000
G1 X-19.773 Y2.569 F15000.000
G1 X-20.073 Y2.269 E0.03483 F960.000
G1 X-20.680 Y2.621 E0.05769
G1 X-19.919 Y3.382 E0.08843
G1 X-20.503 Y3.757 E0.05705
G1 X-20.842 Y3.417 E0.03944
G1 X-20.251 Y4.011 F15000.000
G1 X-19.732 Y5.063 E0.19001 F960.000
G1 X-19.045 Y6.100 E0.20139
G1 E-3.50000 F1500.00000
G1 Z0.700 F15000.000
G1 X-18.316 Y5.151 F15000.000
G1 Z0.500 F15000.000
G1 E3.50000 F1500.00000
G1 X-18.442 Y5.054 E0.00459 F2984.235
G1 X-18.810 Y4.575 E0.01742
G1 X-19.041 Y4.017 E0.01742
G1 X-19.120 Y3.419 E0.01742
G1 X-19.041 Y2.821 E0.01742
G1 X-18.810 Y2.263 E0.01742
G1 X-18.442 Y1.784 E0.01742
G1 X-17.995 Y1.441 E0.01626
G1 X-14.462 Y-0.599 E0.11775
G1 X-13.942 Y-0.815 E0.01626
G1 X-13.804 Y-0.833 E0.00401
G1 X-13.343 Y-0.893 E0.01341 F2984.235
G1 X-12.745 Y-0.815 E0.01742
G1 X-12.187 Y-0.584 E0.01742
G1 X-11.708 Y-0.216 E0.01742
G1 X-11.341 Y0.263 E0.01742
G1 X-11.110 Y0.821 E0.01742
G1 X-11.031 Y1.419 E0.01742
G1 X-11.110 Y2.017 E0.01742
G1 X-11.341 Y2.575 E0.01742
G1 X-11.708 Y3.054 E0.01742
G1 X-12.155 Y3.397 E0.01626
G1 X-15.688 Y5.437 E0.11775
G1 X-16.209 Y5.653 E0.01626
G1 X-16.807 Y5.731 E0.01742
G1 X-17.406 Y5.653 E0.01742
G1 X-17.964 Y5.422 E0.01742
G1 X-18.269 Y5.187 E0.01110
G1 X-18.051 Y4.904 F15000.000
G1 X-18.188 Y4.799 E0.00496 F2984.235
G1 X-18.498 Y4.395 E0.01471
G1 X-18.693 Y3.924 E0.01471
G1 X-18.760 Y3.419 E0.01471
G1 X-18.693 Y2.914 E0.01471
G1 X-18.498 Y2.443 E0.01471
G1 X-18.188 Y2.039 E0.01471
G1 X-17.797 Y1.738 E0.01423
G1 X-14.304 Y-0.278 E0.11640
G1 X-13.849 Y-0.467 E0.01423 F2984.235
G1 X-13.343 Y-0.533 E0.01471
G1 X-12.838 Y-0.467 E0.01471
G1 X-12.367 Y-0.272 E0.01471
G1 X-11.963 Y0.039 E0.01471
G1 X-11.653 Y0.443 E0.01471
G1 X-11.458 Y0.914 E0.01471
G1 X-11.391 Y1.419 E0.01471
G1 X-11.458 Y1.924 E0.01471
G1 X-11.653 Y2.395 E0.01471
G1 X-11.963 Y2.799 E0.01471
G1 X-12.354 Y3.100 E0.01423
G1 X-15.847 Y5.116 E0.11640
G1 X-16.302 Y5.305 E0.01423
G1 X-16.807 Y5.371 E0.01471
G1 X-17.313 Y5.305 E0.01471
G1 X-17.783 Y5.110 E0.01471
G1 X-18.004 Y4.941 E0.00802
G1 X-18.210 Y4.970 F15000.000
G1 E-3.50000 F1500.00000
G1 Z0.900 F15000.000
G1 X2.841 Y-7.925 F15000.000
G1 Z0.500 F15000.000
G1 E3.50000 F1500.00000
G1 X2.610 Y-8.483 E0.01742 F2984.235
G1 X2.531 Y-9.081 E0.01742
G1 X2.610 Y-9.679 E0.01742
G1 X2.841 Y-10.237 E0.01742
G1 X3.208 Y-10.716 E0.01742
G1 X3.655 Y-11.059 E0.01626
G1 X7.191 Y-13.101 E0.11784
G1 X7.734 Y-13.318 E0.01688
G1 X8.307 Y-13.393 E0.01669 F2984.235
G1 X8.906 Y-13.315 E0.01742
G1 X9.464 Y-13.084 E0.01742
G1 X9.942 Y-12.716 E0.01742
G1 X10.310 Y-12.237 E0.01742
G1 X10.541 Y-11.679 E0.01742
G1 X10.620 Y-11.081 E0.01742
G1 X10.541 Y-10.483 E0.01742
G1 X10.310 Y-9.925 E0.01742
G1 X9.942 Y-9.446 E0.01742
G1 X9.495 Y-9.103 E0.01626
G1 X5.962 Y-7.063 E0.11775
G1 X5.442 Y-6.847 E0.01626
G1 X4.843 Y-6.769 E0.01742
G1 X4.245 Y-6.847 E0.01742
G1 X3.687 Y-7.078 E0.01742
G1 X3.208 Y-7.446 E0.01742
G1 X2.877 Y-7.877 E0.01569
G1 X3.161 Y-8.095 F15000.000
G1 X2.958 Y-8.576 E0.01507 F2984.235
G1 X2.891 Y-9.081 E0.01471
G1 X2.958 Y-9.586 E0.01471
G1 X3.117 Y-9.972 E0.01205
G1 X3.153 Y-10.057 E0.00266
G1 X3.463 Y-10.461 E0.01471
G1 X3.854 Y-10.762 E0.01423
G1 X7.348 Y-12.779 E0.11643
G1 X7.825 Y-12.970 E0.01485
G1 X8.307 Y-13.033 E0.01404 F2984.235
G1 X8.813 Y-12.967 E0.01471
G1 X9.283 Y-12.772 E0.01471
G1 X9.688 Y-12.461 E0.01471
G1 X9.998 Y-12.057 E0.01471
G1 X10.193 Y-11.586 E0.01471
G1 X10.260 Y-11.081 E0.01471
G1 X10.193 Y-10.576 E0.01471
G1 X9.998 Y-10.105 E0.01471
G1 X9.688 Y-9.701 E0.01471
G1 X9.297 Y-9.400 E0.01423
G1 X5.804 Y-7.384 E0.11640
G1 X5.349 Y-7.195 E0.01423
G1 X4.843 Y-7.129 E0.01471
G1 X4.338 Y-7.195 E0.01471
G1 X3.867 Y-7.390 E0.01471
G1 X3.463 Y-7.701 E0.01471
G1 X3.197 Y-8.047 E0.01260
G1 X2.761 Y-8.110 F15000.000
G1 X9.737 Y11.641 F15000.000
G1 X3.519 Y15.231 E0.20726 F3581.082
G1 X2.665 Y15.585 E0.02668
G1 X1.788 Y15.701 E0.02553
G1 X0.871 Y15.580 E0.02668
G1 X-16.342 Y10.968 E0.51433
G1 X-17.196 Y10.614 E0.02668
G1 X-17.897 Y10.076 E0.02553
G1 X-18.460 Y9.342 E0.02668
G1 X-21.592 Y3.918 E0.18078
G1 X-21.746 Y3.546 E0.01161
G1 X-21.793 Y3.187 E0.01046
G1 X-21.746 Y2.828 E0.01046
G1 X-21.607 Y2.493 E0.01046
G1 X-21.387 Y2.206 E0.01046
G1 X-21.067 Y1.961 E0.01161
G1 X9.175 Y-15.499 E1.00790
G1 X9.546 Y-15.653 E0.01161
G1 X9.905 Y-15.701 E0.01046
G1 X10.234 Y-15.657 E0.00958
G1 X10.603 Y-15.512 E0.01144 F3581.082
G1 X10.887 Y-15.294 E0.01032
G1 X11.132 Y-14.975 E0.01161
G1 X21.592 Y3.143 E0.60382
G1 X21.746 Y3.514 E0.01161
G1 X21.793 Y3.874 E0.01046
G1 X21.746 Y4.233 E0.01046
G1 X21.607 Y4.567 E0.01046
G1 X21.387 Y4.855 E0.01046
G1 X21.067 Y5.100 E0.01161
G1 X9.789 Y11.611 E0.37587
G1 X9.968 Y11.920 F15000.000
G1 X3.677 Y15.552 E0.20967 F3581.082
G1 X2.758 Y15.933 E0.02872
G1 X1.788 Y16.061 E0.02824
G1 X0.801 Y15.931 E0.02872
G1 X-16.457 Y11.307 E0.51568
G1 X-17.376 Y10.926 E0.02872
G1 X-18.152 Y10.330 E0.02824
G1 X-18.758 Y9.541 E0.02872
G1 X-21.913 Y4.076 E0.18213
G1 X-22.094 Y3.639 E0.01365
G1 X-22.153 Y3.187 E0.01317
G1 X-22.094 Y2.735 E0.01317
