; generated by Slic3r 1.2.9 on 2017-09-11 at 15:15:55

; external perimeters extrusion width = 0.40mm
; perimeters extrusion width = 0.40mm
; infill extrusion width = 0.40mm
; solid infill extrusion width = 0.40mm
; top infill extrusion width = 0.40mm

M107
M83
T0
M116
G21 ; set units to millimeters
G90 ; use absolute coordinates
M83 ; use relative distances for extrusion
G1 E-3.50000 F1500.00000
G1 Z0.400 F15000.000
G1 X-7.723 Y-13.376 F15000.000
G1 Z0.300 F15000.000
G1 E3.50000 F1500.00000
G1 X8.390 Y-22.679 E1.43384 F960.000
G1 X8.817 Y-22.889 E0.03665
G1 X9.290 Y-23.085 E0.03948
G1 X10.207 Y-23.331 E0.07314
G1 X10.711 Y-23.397 E0.03922
G1 X11.660 Y-23.397 E0.07314
G1 X12.156 Y-23.332 E0.03852
G1 X13.057 Y-23.093 E0.07188 F960.000
G1 X13.537 Y-22.897 E0.03990
G1 X14.374 Y-22.416 E0.07440
G1 X14.777 Y-22.106 E0.03922
G1 X15.449 Y-21.435 E0.07314
G1 X15.760 Y-21.029 E0.03948
G1 X16.025 Y-20.633 E0.03665
G1 X23.693 Y-7.351 E1.18192
G1 X23.903 Y-6.925 E0.03665
G1 X24.299 Y-5.969 E0.07971
G1 X24.545 Y-5.052 E0.07314
G1 X24.679 Y-4.030 E0.07946
G1 X24.679 Y-3.081 E0.07314
G1 X24.544 Y-2.056 E0.07971
G1 X24.451 Y-1.589 E0.03665
G1 X23.115 Y3.400 E0.39804
G1 X22.962 Y3.850 E0.03665
G1 X22.566 Y4.806 E0.07971
G1 X22.091 Y5.628 E0.07314
G1 X21.464 Y6.446 E0.07946
G1 X20.793 Y7.117 E0.07314
G1 X19.972 Y7.746 E0.07971
G1 X19.577 Y8.011 E0.03665
G1 X-5.830 Y22.679 E2.26084
G1 X-6.256 Y22.889 E0.03665
G1 X-6.729 Y23.085 E0.03948
G1 X-7.646 Y23.331 E0.07314
G1 X-8.151 Y23.397 E0.03922
G1 X-9.100 Y23.397 E0.07314
G1 X-9.604 Y23.331 E0.03922
G1 X-10.521 Y23.085 E0.07314
G1 X-10.991 Y22.891 E0.03922
G1 X-11.813 Y22.416 E0.07314
G1 X-12.217 Y22.106 E0.03922
G1 X-12.888 Y21.435 E0.07314
G1 X-13.200 Y21.029 E0.03948
G1 X-13.464 Y20.633 E0.03665
G1 X-23.961 Y2.452 E1.61787
G1 X-24.171 Y2.026 E0.03665
G1 X-24.367 Y1.553 E0.03948
G1 X-24.613 Y0.636 E0.07314
G1 X-24.679 Y0.131 E0.03922
G1 X-24.679 Y-0.818 E0.07314
G1 X-24.613 Y-1.322 E0.03922
G1 X-24.367 Y-2.239 E0.07314
G1 X-24.172 Y-2.709 E0.03922
G1 X-23.698 Y-3.531 E0.07315
G1 X-23.388 Y-3.935 E0.03922
G1 X-22.717 Y-4.606 E0.07314
G1 X-22.311 Y-4.918 E0.03948
G1 X-21.915 Y-5.182 E0.03665
G1 X-7.775 Y-13.346 E1.25833
G1 E-3.50000 F1500.00000
G1 Z0.700 F15000.000
G1 X-11.519 Y-4.143 F15000.000
G1 Z0.300 F15000.000
G1 E3.50000 F1500.00000
G1 X-11.011 Y-3.933 E0.04232 F600.000
G1 X-10.576 Y-3.599 E0.04232
G1 X-10.241 Y-3.163 E0.04232
G1 X-10.030 Y-2.653 E0.04253
G1 X-9.964 Y-2.080 E0.04446
G1 X-10.031 Y-1.567 E0.03989
G1 X-10.241 Y-1.059 E0.04232
G1 X-10.576 Y-0.624 E0.04232
G1 X-10.990 Y-0.306 E0.04028
G1 X-14.500 Y1.721 E0.31230
G1 X-14.983 Y1.921 E0.04028
G1 X-15.527 Y1.992 E0.04232
G1 X-16.072 Y1.921 E0.04232
G1 X-16.579 Y1.710 E0.04232
G1 X-17.014 Y1.376 E0.04232
G1 X-17.349 Y0.941 E0.04232
G1 X-17.547 Y0.462 E0.03989
G1 X-17.631 Y-0.109 E0.04446
G1 X-17.559 Y-0.656 E0.04253
G1 X-17.349 Y-1.163 E0.04232
G1 X-17.014 Y-1.599 E0.04232
G1 X-16.600 Y-1.917 E0.04028
G1 X-13.088 Y-3.944 E0.31251
G1 X-12.576 Y-4.147 E0.04242
G1 X-12.063 Y-4.215 E0.03989 F600.000
G1 X-11.578 Y-4.151 E0.03769
G1 X-11.224 Y-4.413 F15000.000
G1 X4.302 Y-11.559 F15000.000
G1 X4.092 Y-12.067 E0.04232 F600.000
G1 X4.020 Y-12.611 E0.04232
G1 X4.092 Y-13.156 E0.04232
G1 X4.290 Y-13.634 E0.03989
G1 X4.634 Y-14.097 E0.04446
G1 X5.051 Y-14.417 E0.04049
G1 X8.563 Y-16.444 E0.31251
G1 X9.074 Y-16.647 E0.04242
G1 X9.588 Y-16.715 E0.03989 F600.000
G1 X10.132 Y-16.643 E0.04232
G1 X10.639 Y-16.433 E0.04232
G1 X11.075 Y-16.099 E0.04232
G1 X11.409 Y-15.663 E0.04232
G1 X11.619 Y-15.156 E0.04232
G1 X11.691 Y-14.611 E0.04232
G1 X11.619 Y-14.067 E0.04232
G1 X11.409 Y-13.559 E0.04232
G1 X11.075 Y-13.124 E0.04232
G1 X10.660 Y-12.806 E0.04028
G1 X7.151 Y-10.779 E0.31230
G1 X6.668 Y-10.579 E0.04028
G1 X6.124 Y-10.508 E0.04232
G1 X5.579 Y-10.579 E0.04232
G1 X5.072 Y-10.790 E0.04232
G1 X4.636 Y-11.124 E0.04232
G1 X4.338 Y-11.512 E0.03769
G1 X3.902 Y-11.577 F15000.000
G1 X-0.685 Y-12.104 F15000.000
G1 X3.986 Y-14.800 E0.41559 F720.000
G1 X4.192 Y-14.568 E0.02393
G1 X3.733 Y-13.950 E0.05935
G1 X3.472 Y-13.322 E0.05241
G1 X3.379 Y-12.611 E0.05522
G1 X3.472 Y-11.901 E0.05522
G1 X3.747 Y-11.239 E0.05521
G1 X4.183 Y-10.671 E0.05522
G1 X4.751 Y-10.234 E0.05522
G1 X5.413 Y-9.960 E0.05522
G1 X6.124 Y-9.867 E0.05522
G1 X6.834 Y-9.960 E0.05522
G1 X7.433 Y-10.208 E0.04994
G1 X11.014 Y-12.276 E0.31872
G1 X11.528 Y-12.671 E0.04994
G1 X11.964 Y-13.239 E0.05522
G1 X12.239 Y-13.901 E0.05522
G1 X12.332 Y-14.611 E0.05522
G1 X12.239 Y-15.322 E0.05521
G1 X11.964 Y-15.983 E0.05522
G1 X11.528 Y-16.552 E0.05522
G1 X10.960 Y-16.988 E0.05522
G1 X10.298 Y-17.262 E0.05522
G1 X9.588 Y-17.356 E0.05522
G1 X8.861 Y-17.260 E0.05650
G1 X8.760 Y-17.556 E0.02412
G1 X10.645 Y-18.645 E0.16770
G1 X10.938 Y-18.766 E0.02450
G1 X11.186 Y-18.799 E0.01922
G1 X11.426 Y-18.767 E0.01870
G1 X11.665 Y-18.669 E0.01990 F720.000
G1 X11.861 Y-18.519 E0.01905
G1 X12.055 Y-18.267 E0.02450
G1 X19.658 Y-5.097 E1.17197
G1 X19.980 Y-4.321 E0.06473
G1 X20.081 Y-3.556 E0.05946
G1 X19.971 Y-2.723 E0.06473
G1 X18.668 Y2.141 E0.38809
G1 X18.346 Y2.917 E0.06473
G1 X17.877 Y3.529 E0.05946
G1 X17.210 Y4.041 E0.06473
G1 X-8.084 Y18.645 E2.25088
G1 X-8.378 Y18.766 E0.02450
G1 X-8.625 Y18.799 E0.01922
G1 X-8.872 Y18.766 E0.01922
G1 X-9.103 Y18.671 E0.01922
G1 X-9.301 Y18.519 E0.01922
G1 X-9.494 Y18.267 E0.02450
G1 X-19.926 Y0.198 E1.60791
G1 X-20.048 Y-0.096 E0.02450
G1 X-20.081 Y-0.343 E0.01922
G1 X-20.048 Y-0.591 E0.01922
G1 X-19.953 Y-0.821 E0.01922
G1 X-19.801 Y-1.019 E0.01922
G1 X-19.549 Y-1.212 E0.02450
G1 X-17.664 Y-2.300 E0.16770
G1 X-17.458 Y-2.065 E0.02412
G1 X-17.904 Y-1.483 E0.05650
G1 X-18.178 Y-0.822 E0.05522
G1 X-18.273 Y-0.104 E0.05581
G1 X-18.164 Y0.633 E0.05736
G1 X-17.904 Y1.261 E0.05241
G1 X-17.468 Y1.829 E0.05522
G1 X-16.899 Y2.266 E0.05522
G1 X-16.237 Y2.540 E0.05522
G1 X-15.527 Y2.633 E0.05521
G1 X-14.817 Y2.540 E0.05522
G1 X-14.218 Y2.292 E0.04994
G1 X-10.636 Y0.224 E0.31872
G1 X-10.122 Y-0.171 E0.04994
G1 X-9.686 Y-0.739 E0.05522
G1 X-9.412 Y-1.401 E0.05521
G1 X-9.323 Y-2.075 E0.05241
G1 X-9.409 Y-2.814 E0.05736
G1 X-9.686 Y-3.483 E0.05581
G1 X-10.122 Y-4.052 E0.05521
G1 X-10.691 Y-4.488 E0.05522
G1 X-11.353 Y-4.762 E0.05522
G1 X-12.063 Y-4.856 E0.05522
G1 X-12.790 Y-4.760 E0.05650
G1 X-12.890 Y-5.056 E0.02412
G1 X-0.737 Y-12.074 E1.08155
G1 X-1.054 Y-12.624 F15000.000
G1 X10.363 Y-19.216 E1.01601 F720.000
G1 X10.772 Y-19.385 E0.03416
G1 X11.186 Y-19.440 E0.03212
G1 X11.591 Y-19.386 E0.03148
G1 X11.985 Y-19.225 E0.03280 F720.000
G1 X12.315 Y-18.972 E0.03206
G1 X12.584 Y-18.621 E0.03416
G1 X20.230 Y-5.378 E1.17839
G1 X20.599 Y-4.487 E0.07439
G1 X20.722 Y-3.556 E0.07236
G1 X20.596 Y-2.599 E0.07439
G1 X19.271 Y2.346 E0.39451
G1 X18.901 Y3.238 E0.07439
G1 X18.330 Y3.983 E0.07236
G1 X17.564 Y4.570 E0.07439
G1 X-7.803 Y19.216 E2.25730
G1 X-8.212 Y19.385 E0.03416
G1 X-8.625 Y19.440 E0.03212
G1 X-9.038 Y19.385 E0.03212
G1 X-9.423 Y19.226 E0.03212
G1 X-9.754 Y18.972 E0.03212
G1 X-10.024 Y18.621 E0.03416
G1 X-20.498 Y0.479 E1.61433
G1 X-20.667 Y0.070 E0.03416
G1 X-20.722 Y-0.343 E0.03212
G1 X-20.667 Y-0.756 E0.03212
G1 X-20.508 Y-1.142 E0.03212
G1 X-20.254 Y-1.472 E0.03212
G1 X-19.903 Y-1.742 E0.03416
G1 X-1.106 Y-12.594 E1.67262
G1 X-0.708 Y-12.424 F15000.000
G1 X2.753 Y-13.700 F15000.000
G1 X3.109 Y-13.343 E0.03917 F960.000
G1 X2.998 Y-12.548 E0.06241
G1 X2.178 Y-13.368 E0.09015
G1 X1.603 Y-13.036 E0.05155
G1 X3.165 Y-11.475 E0.17154
G1 E-3.50000 F1500.00000
G1 Z0.700 F15000.000
G1 X13.620 Y-14.615 F15000.000
G1 Z0.300 F15000.000
G1 E3.50000 F1500.00000
G1 X13.280 Y-14.954 E0.03728 F960.000
G1 X12.706 Y-14.622 E0.05155
G1 X14.858 Y-12.470 E0.23644
G1 X16.096 Y-10.326 F15000.000
G1 X12.585 Y-13.837 E0.38579 F960.000
G1 X12.319 Y-13.196 E0.05389
G1 X17.334 Y-8.182 E0.55099
G1 X18.572 Y-6.038 F15000.000
G1 X11.943 Y-12.666 E0.72840 F960.000
G1 X11.484 Y-12.219 E0.04980
G1 X19.576 Y-4.127 E0.88920
G1 X19.654 Y-3.142 E0.07671
G1 X10.947 Y-11.849 E0.95673
G1 X10.373 Y-11.518 E0.05155
G1 X19.511 Y-2.379 E1.00417
G1 X19.320 Y-1.664 E0.05750
G1 X9.798 Y-11.186 E1.04625
G1 X9.224 Y-10.854 E0.05155
G1 X19.128 Y-0.949 E1.08834
G1 X18.937 Y-0.235 E0.05749
G1 X8.649 Y-10.522 E1.13043
G1 X8.074 Y-10.191 E0.05155
G1 X18.745 Y0.480 E1.17252
G1 X18.554 Y1.195 E0.05750
G1 X7.497 Y-9.862 E1.21497
G1 X6.856 Y-9.597 E0.05389
G1 X18.362 Y1.910 E1.26434
G1 X18.117 Y2.571 E0.05480
G1 X6.060 Y-9.486 E1.32486
G1 X4.988 Y-9.652 E0.08432
G1 X17.767 Y3.128 E1.40427
G1 X17.293 Y3.560 E0.04985
G1 X1.029 Y-12.705 E1.78716
G1 X0.454 Y-12.373 E0.05155
G1 X16.747 Y3.920 E1.79031
G1 X16.173 Y4.252 E0.05155
G1 X-0.120 Y-12.041 E1.79031
G1 X-0.695 Y-11.710 E0.05155
G1 X15.598 Y4.583 E1.79031
G1 X15.024 Y4.915 E0.05155
G1 X-1.269 Y-11.378 E1.79031
G1 X-1.844 Y-11.046 E0.05155
G1 X14.449 Y5.247 E1.79031
G1 X13.875 Y5.579 E0.05155
G1 X-2.418 Y-10.714 E1.79031
G1 X-2.993 Y-10.383 E0.05155
G1 X13.300 Y5.910 E1.79031
G1 X12.725 Y6.242 E0.05155
G1 X-3.568 Y-10.051 E1.79031
G1 X-4.142 Y-9.719 E0.05155
G1 X12.151 Y6.574 E1.79031
G1 X11.576 Y6.905 E0.05155
G1 X-4.717 Y-9.388 E1.79031
G1 X-5.291 Y-9.056 E0.05155
G1 X11.002 Y7.237 E1.79031
G1 X10.427 Y7.569 E0.05155
G1 X-5.866 Y-8.724 E1.79031
G1 X-6.440 Y-8.392 E0.05155
G1 X9.853 Y7.901 E1.79031
G1 X9.278 Y8.232 E0.05155
G1 X-7.015 Y-8.061 E1.79031
G1 X-7.590 Y-7.729 E0.05155
G1 X8.703 Y8.564 E1.79031
G1 X8.129 Y8.896 E0.05155
G1 X-8.164 Y-7.397 E1.79031
G1 X-8.739 Y-7.065 E0.05155
G1 X7.554 Y9.228 E1.79031
G1 X6.980 Y9.559 E0.05155
G1 X-9.313 Y-6.734 E1.79031
G1 X-9.888 Y-6.402 E0.05155
G1 X6.405 Y9.891 E1.79031
G1 X5.831 Y10.223 E0.05155
G1 X-10.462 Y-6.070 E1.79031
G1 X-11.037 Y-5.739 E0.05155
G1 X5.256 Y10.554 E1.79031
G1 X4.682 Y10.886 E0.05155
G1 X-9.003 Y-2.798 E1.50364
G1 X-8.978 Y-1.868 E0.07232
G1 X4.107 Y11.218 E1.43785
G1 X3.532 Y11.550 E0.05155
G1 X-9.150 Y-1.133 E1.39362
G1 X-9.440 Y-0.516 E0.05295
G1 X2.958 Y11.881 E1.36226
G1 X2.383 Y12.213 E0.05155
G1 X-9.833 Y-0.003 E1.34236
G1 X-10.330 Y0.406 E0.05002
G1 X1.809 Y12.545 E1.33381
G1 X1.234 Y12.876 E0.05155
G1 X-10.886 Y0.756 E1.33180
G1 X-11.461 Y1.088 E0.05155
G1 X0.660 Y13.208 E1.33180
G1 X0.085 Y13.540 E0.05155
G1 X-12.035 Y1.420 E1.33180
G1 X-12.610 Y1.751 E0.05155
G1 X-0.489 Y13.872 E1.33180
G1 X-1.064 Y14.203 E0.05155
G1 X-13.184 Y2.083 E1.33180
G1 X-13.759 Y2.415 E0.05155
G1 X-1.639 Y14.535 E1.33180
G1 X-2.213 Y14.867 E0.05155
G1 X-14.358 Y2.722 E1.33448
G1 X-15.044 Y2.942 E0.05601
G1 X-2.788 Y15.199 E1.34678
G1 X-3.362 Y15.530 E0.05155
G1 X-15.901 Y2.992 E1.37775
G1 X-17.155 Y2.644 E0.10112
G1 X-3.937 Y15.862 E1.45242
G1 X-4.511 Y16.194 E0.05155
G1 X-17.747 Y2.959 E1.45430
G1 X-16.608 Y5.003 F15000.000
G1 X-5.086 Y16.525 E1.26610 F960.000
G1 X-5.661 Y16.857 E0.05155
G1 X-15.370 Y7.147 E1.06693
G1 X-14.132 Y9.292 F15000.000
G1 X-6.235 Y17.189 E0.86776 F960.000
G1 X-6.810 Y17.521 E0.05155
G1 X-12.894 Y11.436 E0.66859
G1 X-11.656 Y13.580 F15000.000
G1 X-7.384 Y17.852 E0.46942 F960.000
G1 X-7.959 Y18.184 E0.05155
G1 X-10.418 Y15.725 E0.27025
G1 X-9.159 Y17.891 F15000.000
G1 X-8.693 Y18.357 E0.05121 F960.000
G1 X13.028 Y-15.208 F15000.000
G1 X12.512 Y-16.256 E0.18907 F960.000
G1 X11.825 Y-17.292 E0.20139
G1 X11.719 Y-17.890 F15000.000
G1 X11.255 Y-18.355 E0.08563 F960.000
G1 X10.437 Y-17.652 E0.14058
G1 X10.144 Y-17.944 E0.05400
G1 X8.517 Y-17.284 F15000.000
G1 X4.344 Y-14.875 E0.78024 F960.000
G1 X-13.134 Y-4.784 F15000.000
G1 X-17.307 Y-2.375 E0.78028 F960.000
G1 X-18.493 Y-0.961 F15000.000
G1 X-18.792 Y-1.261 E0.03483 F960.000
G1 X-19.400 Y-0.909 E0.05769
G1 X-18.639 Y-0.149 E0.08843
G1 X-19.223 Y0.226 E0.05705
G1 X-19.562 Y-0.113 E0.03944
G1 X-18.970 Y0.481 F15000.000
G1 X-18.451 Y1.533 E0.19001 F960.000
G1 X-17.765 Y2.570 E0.20139
G1 E-3.50000 F1500.00000
G1 Z0.700 F15000.000
G1 X-17.036 Y1.621 F15000.000
G1 Z0.500 F15000.000
G1 E3.50000 F1500.00000
G1 X-17.162 Y1.524 E0.00459 F3000.000
G1 X-17.530 Y1.045 E0.01742
G1 X-17.761 Y0.487 E0.01742
G1 X-17.839 Y-0.111 E0.01742
G1 X-17.761 Y-0.710 E0.01742
G1 X-17.530 Y-1.267 E0.01742
G1 X-17.162 Y-1.746 E0.01742
G1 X-16.715 Y-2.089 E0.01626
G1 X-13.182 Y-4.129 E0.11775
G1 X-12.661 Y-4.345 E0.01626
G1 X-12.524 Y-4.363 E0.00401
G1 X-12.063 Y-4.424 E0.01341 F3000.000
G1 X-11.465 Y-4.345 E0.01742
G1 X-10.907 Y-4.114 E0.01742
G1 X-10.428 Y-3.746 E0.01742
G1 X-10.061 Y-3.267 E0.01742
G1 X-9.830 Y-2.710 E0.01742
G1 X-9.751 Y-2.111 E0.01742
G1 X-9.830 Y-1.513 E0.01742
G1 X-10.061 Y-0.955 E0.01742
G1 X-10.428 Y-0.476 E0.01742
G1 X-10.875 Y-0.133 E0.01626
G1 X-14.408 Y1.907 E0.11775
G1 X-14.929 Y2.122 E0.01626
G1 X-15.527 Y2.201 E0.01742
G1 X-16.126 Y2.122 E0.01742
G1 X-16.683 Y1.891 E0.01742
G1 X-16.989 Y1.657 E0.01110
G1 X-16.771 Y1.374 F15000.000
G1 X-16.908 Y1.269 E0.00496 F3000.000
G1 X-17.218 Y0.865 E0.01471
G1 X-17.413 Y0.394 E0.01471
G1 X-17.479 Y-0.111 E0.01471
G1 X-17.413 Y-0.616 E0.01471
G1 X-17.253 Y-1.002 E0.01205
G1 X-17.218 Y-1.087 E0.00266
G1 X-16.908 Y-1.492 E0.01471
G1 X-16.516 Y-1.792 E0.01423
G1 X-13.024 Y-3.808 E0.11640
G1 X-12.568 Y-3.997 E0.01423
G1 X-12.477 Y-4.009 E0.00266
G1 X-12.063 Y-4.063 E0.01205 F3000.000
G1 X-11.558 Y-3.997 E0.01471
G1 X-11.087 Y-3.802 E0.01471
G1 X-10.683 Y-3.492 E0.01471
G1 X-10.372 Y-3.087 E0.01471
G1 X-10.177 Y-2.616 E0.01471
G1 X-10.111 Y-2.111 E0.01471
G1 X-10.177 Y-1.606 E0.01471
G1 X-10.372 Y-1.135 E0.01471
G1 X-10.683 Y-0.731 E0.01471
G1 X-11.074 Y-0.431 E0.01423
G1 X-14.566 Y1.586 E0.11640
G1 X-15.022 Y1.774 E0.01423
G1 X-15.527 Y1.841 E0.01471
G1 X-16.032 Y1.774 E0.01471
G1 X-16.503 Y1.579 E0.01471
G1 X-16.724 Y1.410 E0.00802
G1 X-16.930 Y1.440 F15000.000
G1 E-3.50000 F1500.00000
G1 Z0.900 F15000.000
G1 X4.121 Y-11.455 F15000.000
G1 Z0.500 F15000.000
G1 E3.50000 F1500.00000
G1 X3.890 Y-12.013 E0.01742 F3000.000
G1 X3.811 Y-12.611 E0.01742
G1 X3.890 Y-13.210 E0.01742
G1 X4.121 Y-13.767 E0.01742
G1 X4.488 Y-14.246 E0.01742
G1 X4.936 Y-14.589 E0.01626
G1 X8.469 Y-16.629 E0.11775
G1 X8.989 Y-16.845 E0.01626
G1 X9.127 Y-16.863 E0.00401
G1 X9.588 Y-16.924 E0.01341 F3000.000
G1 X10.186 Y-16.845 E0.01742
G1 X10.744 Y-16.614 E0.01742
G1 X11.223 Y-16.246 E0.01742
G1 X11.590 Y-15.767 E0.01742
G1 X11.821 Y-15.210 E0.01742
G1 X11.900 Y-14.611 E0.01742
G1 X11.821 Y-14.013 E0.01742
G1 X11.590 Y-13.455 E0.01742
G1 X11.223 Y-12.976 E0.01742
G1 X10.776 Y-12.633 E0.01626
G1 X7.243 Y-10.593 E0.11775
G1 X6.722 Y-10.378 E0.01626
G1 X6.124 Y-10.299 E0.01742
G1 X5.525 Y-10.378 E0.01742
G1 X4.967 Y-10.609 E0.01742
G1 X4.488 Y-10.976 E0.01742
G1 X4.158 Y-11.407 E0.01569
G1 X4.441 Y-11.625 F15000.000
G1 X4.238 Y-12.106 E0.01507 F3000.000
G1 X4.171 Y-12.611 E0.01471
G1 X4.238 Y-13.116 E0.01471
G1 X4.433 Y-13.587 E0.01471
G1 X4.743 Y-13.992 E0.01471
G1 X5.134 Y-14.292 E0.01423
G1 X8.627 Y-16.308 E0.11640
G1 X9.082 Y-16.497 E0.01423
G1 X9.174 Y-16.509 E0.00266
G1 X9.588 Y-16.563 E0.01205 F3000.000
G1 X10.093 Y-16.497 E0.01471
G1 X10.564 Y-16.302 E0.01471
G1 X10.968 Y-15.992 E0.01471
G1 X11.278 Y-15.587 E0.01471
G1 X11.473 Y-15.116 E0.01471
G1 X11.540 Y-14.611 E0.01471
G1 X11.473 Y-14.106 E0.01471
G1 X11.278 Y-13.635 E0.01471
G1 X10.968 Y-13.231 E0.01471
G1 X10.577 Y-12.931 E0.01423
G1 X7.084 Y-10.914 E0.11640
G1 X6.629 Y-10.726 E0.01423
G1 X6.124 Y-10.659 E0.01471
G1 X5.618 Y-10.726 E0.01471
G1 X5.147 Y-10.921 E0.01471
G1 X4.743 Y-11.231 E0.01471
G1 X4.477 Y-11.577 E0.01260
G1 X4.041 Y-11.641 F15000.000
G1 X-1.982 Y-11.849 F15000.000
G1 X10.455 Y-19.030 E0.41451 F3600.000
G1 X10.827 Y-19.184 E0.01161
G1 X11.186 Y-19.231 E0.01046
G1 X11.515 Y-19.188 E0.00958
G1 X11.883 Y-19.042 E0.01144 F3600.000
G1 X12.167 Y-18.825 E0.01032
G1 X12.412 Y-18.505 E0.01161
G1 X20.044 Y-5.287 E0.44055
G1 X20.397 Y-4.433 E0.02668
G1 X20.513 Y-3.556 E0.02553
G1 X20.392 Y-2.639 E0.02668
G1 X19.074 Y2.279 E0.14697
G1 X18.721 Y3.133 E0.02668
G1 X18.182 Y3.835 E0.02553
G1 X17.449 Y4.398 E0.02668
G1 X-7.894 Y19.030 E0.84462
G1 X-8.266 Y19.184 E0.01161
G1 X-8.625 Y19.231 E0.01046
G1 X-8.984 Y19.184 E0.01046
G1 X-9.319 Y19.045 E0.01046
G1 X-9.606 Y18.825 E0.01046
G1 X-9.851 Y18.505 E0.01161
G1 X-20.312 Y0.388 E0.60382
G1 X-20.466 Y0.016 E0.01161
