; generated by Slic3r 1.2.9 on 2017-09-12 at 10:08:35

; external perimeters extrusion width = 0.40mm
; perimeters extrusion width = 0.40mm
; infill extrusion width = 0.40mm
; solid infill extrusion width = 0.40mm
; top infill extrusion width = 0.40mm

M107
M83
T0
M116
G21 ; set units to millimeters
G90 ; use absolute coordinates
M83 ; use relative distances for extrusion
G1 E-3.50000 F1500.00000
G1 Z0.400 F15000.000
G1 X4.928 Y18.390 F15000.000
G1 Z0.300 F15000.000
G1 E3.50000 F1500.00000
G1 X-15.396 Y23.828 E1.62131 F960.000
G1 X-16.417 Y24.031 E0.08027
G1 X-16.889 Y24.093 E0.03665
G1 X-17.926 Y24.161 E0.08014
G1 X-18.402 Y24.161 E0.03665
G1 X-19.439 Y24.093 E0.08014
G1 X-19.911 Y24.031 E0.03665
G1 X-20.931 Y23.828 E0.08014
G1 X-21.390 Y23.705 E0.03665
G1 X-22.375 Y23.371 E0.08014
G1 X-22.814 Y23.189 E0.03665
G1 X-23.748 Y22.728 E0.08027
G1 X-33.209 Y17.275 E0.84149
G1 X-33.604 Y17.011 E0.03665
G1 X-34.217 Y16.541 E0.05959
G1 X-34.889 Y15.869 E0.07314
G1 X-35.357 Y15.259 E0.05934
G1 X-35.832 Y14.437 E0.07314
G1 X-36.120 Y13.741 E0.05804
G1 X-36.363 Y12.844 E0.07160
G1 X-36.470 Y12.065 E0.06060
G1 X-36.473 Y11.096 E0.07468
G1 X-36.372 Y10.333 E0.05934
G1 X-36.127 Y9.416 E0.07315
G1 X-35.831 Y8.701 E0.05959
G1 X-35.620 Y8.275 E0.03665
G1 X-21.780 Y-15.698 E2.13328
G1 X-21.075 Y-16.766 E0.09859
G1 X-20.786 Y-17.143 E0.03665
G1 X-20.100 Y-17.925 E0.08014
G1 X-19.764 Y-18.261 E0.03665
G1 X-18.982 Y-18.947 E0.08014
G1 X-18.605 Y-19.237 E0.03665
G1 X-17.740 Y-19.814 E0.08014
G1 X-17.328 Y-20.052 E0.03665
G1 X-16.396 Y-20.512 E0.08014
G1 X-15.956 Y-20.694 E0.03665
G1 X-14.970 Y-21.029 E0.08027
G1 X-4.523 Y-23.828 E0.83349
G1 X-3.502 Y-24.031 E0.08027
G1 X-3.030 Y-24.093 E0.03665
G1 X-1.992 Y-24.161 E0.08014
G1 X-1.517 Y-24.161 E0.03665
G1 X-0.507 Y-24.095 E0.07797
G1 X-0.048 Y-24.035 E0.03569 F960.000
G1 X1.000 Y-23.831 E0.08229
G1 X1.472 Y-23.705 E0.03761
G1 X2.456 Y-23.371 E0.08014
G1 X2.896 Y-23.189 E0.03665
G1 X4.040 Y-22.616 E0.09859
G1 X33.209 Y-5.775 E2.59567
G1 X33.604 Y-5.511 E0.03665
G1 X34.217 Y-5.040 E0.05959
G1 X34.889 Y-4.369 E0.07314
G1 X35.357 Y-3.759 E0.05934
G1 X35.832 Y-2.937 E0.07314
G1 X36.127 Y-2.225 E0.05934
G1 X36.372 Y-1.308 E0.07314
G1 X36.473 Y-0.545 E0.05934
G1 X36.473 Y0.404 E0.07314
G1 X36.372 Y1.167 E0.05934
G1 X36.127 Y2.084 E0.07314
G1 X35.831 Y2.799 E0.05959
G1 X35.620 Y3.225 E0.03665
G1 X33.280 Y7.279 E0.36077
G1 X32.575 Y8.347 E0.09859
G1 X32.286 Y8.725 E0.03665
G1 X31.600 Y9.507 E0.08014
G1 X31.264 Y9.843 E0.03665
G1 X30.482 Y10.528 E0.08014
G1 X30.105 Y10.818 E0.03665
G1 X29.240 Y11.396 E0.08014
G1 X28.828 Y11.633 E0.03665
G1 X27.896 Y12.093 E0.08014
G1 X27.456 Y12.275 E0.03665
G1 X26.242 Y12.679 E0.09859
G1 X4.986 Y18.375 E1.69594
G1 E-3.50000 F1500.00000
G1 Z0.700 F15000.000
G1 X-0.321 Y10.591 F15000.000
G1 Z0.300 F15000.000
G1 E3.50000 F1500.00000
G1 X-1.249 Y11.214 E0.08616 F720.000
G1 X-2.236 Y11.740 E0.08616
G1 X-3.270 Y12.163 E0.08616
G1 X-4.343 Y12.480 E0.08616
G1 X-5.441 Y12.686 E0.08616
G1 X-6.555 Y12.781 E0.08616
G1 X-7.673 Y12.762 E0.08616
G1 X-8.784 Y12.630 E0.08616
G1 X-9.875 Y12.386 E0.08616
G1 X-10.936 Y12.034 E0.08616
G1 X-11.955 Y11.576 E0.08616
G1 X-12.924 Y11.017 E0.08616
G1 X-13.830 Y10.362 E0.08616
G1 X-14.666 Y9.620 E0.08616
G1 X-15.423 Y8.797 E0.08616
G1 X-16.092 Y7.901 E0.08616
G1 X-16.667 Y6.943 E0.08616
G1 X-17.143 Y5.931 E0.08616
G1 X-17.513 Y4.876 E0.08616
G1 X-17.775 Y3.789 E0.08616
G1 X-17.926 Y2.681 E0.08616
G1 X-17.964 Y1.564 E0.08616
G1 X-17.888 Y0.448 E0.08616
G1 X-17.700 Y-0.654 E0.08616
G1 X-17.402 Y-1.731 E0.08616
G1 X-16.996 Y-2.773 E0.08616
G1 X-16.486 Y-3.768 E0.08616
G1 X-15.879 Y-4.707 E0.08616
G1 X-15.180 Y-5.580 E0.08616
G1 X-14.396 Y-6.377 E0.08616
G1 X-13.536 Y-7.091 E0.08616
G1 X-12.607 Y-7.714 E0.08616
G1 X-11.621 Y-8.240 E0.08616
G1 X-10.586 Y-8.663 E0.08616
G1 X-9.512 Y-8.980 E0.08628
G1 X-8.381 Y-9.189 E0.08869
G1 X-7.301 Y-9.281 E0.08350 F720.000
G1 X-6.183 Y-9.262 E0.08616
G1 X-5.073 Y-9.130 E0.08616
G1 X-3.982 Y-8.886 E0.08616
G1 X-2.921 Y-8.534 E0.08616
G1 X-1.901 Y-8.076 E0.08616
G1 X-0.933 Y-7.517 E0.08616
G1 X-0.026 Y-6.862 E0.08616
G1 X0.810 Y-6.120 E0.08616
G1 X1.566 Y-5.297 E0.08616
G1 X2.236 Y-4.401 E0.08616
G1 X2.811 Y-3.443 E0.08616
G1 X3.286 Y-2.431 E0.08616
G1 X3.657 Y-1.376 E0.08616
G1 X3.919 Y-0.289 E0.08616
G1 X4.069 Y0.819 E0.08616
G1 X4.107 Y1.936 E0.08616
G1 X4.032 Y3.052 E0.08616
G1 X3.844 Y4.154 E0.08616
G1 X3.545 Y5.231 E0.08616
G1 X3.139 Y6.273 E0.08616
G1 X2.629 Y7.270 E0.08628
G1 X2.001 Y8.234 E0.08869
G1 X1.324 Y9.080 E0.08350
G1 X0.540 Y9.877 E0.08616
G1 X-0.275 Y10.552 E0.08154
G1 X-0.680 Y10.063 F15000.000
G1 X-1.577 Y10.668 E0.08332 F720.000
G1 X-2.506 Y11.164 E0.08119
G1 X-3.481 Y11.563 E0.08119
G1 X-4.492 Y11.861 E0.08119
G1 X-5.527 Y12.056 E0.08119
G1 X-6.577 Y12.145 E0.08119
G1 X-7.630 Y12.127 E0.08119
G1 X-8.677 Y12.003 E0.08119
G1 X-9.705 Y11.773 E0.08119
G1 X-10.705 Y11.441 E0.08119
G1 X-11.666 Y11.009 E0.08119
G1 X-12.578 Y10.482 E0.08119
G1 X-13.432 Y9.866 E0.08119
G1 X-14.220 Y9.166 E0.08119
G1 X-14.933 Y8.390 E0.08119
G1 X-15.564 Y7.546 E0.08119
G1 X-16.106 Y6.643 E0.08119
G1 X-16.554 Y5.689 E0.08119
G1 X-16.903 Y4.695 E0.08119
G1 X-17.150 Y3.671 E0.08119
G1 X-17.292 Y2.627 E0.08119
G1 X-17.327 Y1.574 E0.08119
G1 X-17.256 Y0.523 E0.08119
G1 X-17.079 Y-0.515 E0.08119
G1 X-16.798 Y-1.531 E0.08119
G1 X-16.415 Y-2.512 E0.08119
G1 X-15.935 Y-3.450 E0.08119
G1 X-15.363 Y-4.335 E0.08119
G1 X-14.704 Y-5.157 E0.08119
G1 X-13.965 Y-5.908 E0.08119
G1 X-13.155 Y-6.581 E0.08119
G1 X-12.280 Y-7.168 E0.08119
G1 X-11.350 Y-7.664 E0.08119
G1 X-10.375 Y-8.063 E0.08119
G1 X-9.364 Y-8.361 E0.08124
G1 X-8.296 Y-8.559 E0.08372
G1 X-7.279 Y-8.645 E0.07861 F720.000
G1 X-6.226 Y-8.627 E0.08119
G1 X-5.180 Y-8.503 E0.08119
G1 X-4.152 Y-8.273 E0.08119
G1 X-3.152 Y-7.941 E0.08119
G1 X-2.191 Y-7.509 E0.08119
G1 X-1.278 Y-6.982 E0.08119
G1 X-0.424 Y-6.366 E0.08119
G1 X0.364 Y-5.666 E0.08119
G1 X1.077 Y-4.890 E0.08119
G1 X1.707 Y-4.046 E0.08119
G1 X2.249 Y-3.143 E0.08119
G1 X2.697 Y-2.189 E0.08119
G1 X3.046 Y-1.195 E0.08119
G1 X3.293 Y-0.171 E0.08119
G1 X3.435 Y0.873 E0.08119
G1 X3.471 Y1.926 E0.08119
G1 X3.400 Y2.977 E0.08119
G1 X3.223 Y4.015 E0.08119
G1 X2.941 Y5.031 E0.08119
G1 X2.559 Y6.012 E0.08119
G1 X2.079 Y6.951 E0.08124
G1 X1.486 Y7.861 E0.08372
G1 X0.848 Y8.657 E0.07861
G1 X0.109 Y9.408 E0.08119
G1 X-0.634 Y10.025 E0.07443
G1 X-0.639 Y10.461 F15000.000
G1 E-3.50000 F1500.00000
G1 Z0.700 F15000.000
G1 X2.227 Y-10.687 F15000.000
G1 Z0.300 F15000.000
G1 E3.50000 F1500.00000
G1 X1.629 Y-10.935 E0.04994 F600.000
G1 X-1.953 Y-13.003 E0.31872
G1 X-2.467 Y-13.398 E0.04994
G1 X-2.903 Y-13.966 E0.05522
G1 X-3.177 Y-14.628 E0.05522
G1 X-3.271 Y-15.338 E0.05521
G1 X-3.177 Y-16.049 E0.05521
G1 X-2.903 Y-16.711 E0.05522
G1 X-2.467 Y-17.279 E0.05521
G1 X-1.899 Y-17.715 E0.05522
G1 X-1.237 Y-17.989 E0.05522
G1 X-0.562 Y-18.078 E0.05240 F600.000
G1 X0.177 Y-17.992 E0.05736
G1 X0.783 Y-17.742 E0.05053
G1 X4.364 Y-15.674 E0.31872
G1 X4.879 Y-15.279 E0.04994
G1 X5.315 Y-14.711 E0.05522
G1 X5.589 Y-14.049 E0.05522
G1 X5.682 Y-13.338 E0.05521
G1 X5.589 Y-12.628 E0.05521
G1 X5.329 Y-12.000 E0.05241
G1 X4.885 Y-11.402 E0.05736
G1 X4.310 Y-10.962 E0.05581
G1 X3.648 Y-10.687 E0.05522
G1 X2.938 Y-10.594 E0.05522
G1 X2.287 Y-10.680 E0.05059
G1 X2.393 Y-11.307 F15000.000
G1 X1.911 Y-11.507 E0.04028 F600.000
G1 X-1.599 Y-13.533 E0.31230
G1 X-2.014 Y-13.851 E0.04028
G1 X-2.348 Y-14.287 E0.04232
G1 X-2.558 Y-14.794 E0.04232
G1 X-2.630 Y-15.338 E0.04232
G1 X-2.558 Y-15.883 E0.04232
G1 X-2.348 Y-16.390 E0.04232
G1 X-2.014 Y-16.826 E0.04232
G1 X-1.578 Y-17.160 E0.04232
G1 X-1.071 Y-17.370 E0.04232
G1 X-0.558 Y-17.438 E0.03989 F600.000
G1 X0.016 Y-17.371 E0.04446
G1 X0.501 Y-17.170 E0.04049
G1 X4.011 Y-15.144 E0.31230
G1 X4.425 Y-14.826 E0.04028
G1 X4.759 Y-14.390 E0.04232
G1 X4.970 Y-13.883 E0.04232
G1 X5.041 Y-13.338 E0.04232
G1 X4.970 Y-12.794 E0.04232
G1 X4.772 Y-12.316 E0.03989
G1 X4.427 Y-11.853 E0.04446
G1 X3.990 Y-11.517 E0.04253
G1 X3.482 Y-11.307 E0.04232
G1 X2.938 Y-11.235 E0.04232
G1 X2.453 Y-11.299 E0.03769
G1 X2.098 Y-11.036 F15000.000
G1 X18.747 Y-4.211 F15000.000
G1 X19.184 Y-4.779 E0.05522 F600.000
G1 X19.752 Y-5.215 E0.05522
G1 X20.414 Y-5.489 E0.05522
G1 X21.088 Y-5.578 E0.05240 F600.000
G1 X21.828 Y-5.492 E0.05736
G1 X22.433 Y-5.242 E0.05053
G1 X26.015 Y-3.174 E0.31872
G1 X26.529 Y-2.779 E0.04994
G1 X26.965 Y-2.211 E0.05522
G1 X27.239 Y-1.549 E0.05522
G1 X27.333 Y-0.838 E0.05521
G1 X27.239 Y-0.128 E0.05521
G1 X26.965 Y0.534 E0.05522
G1 X26.529 Y1.102 E0.05522
G1 X25.961 Y1.538 E0.05521
G1 X25.299 Y1.813 E0.05522
G1 X24.588 Y1.906 E0.05522
G1 X23.878 Y1.813 E0.05522
G1 X23.279 Y1.565 E0.04994
G1 X19.698 Y-0.503 E0.31872
G1 X19.184 Y-0.898 E0.04994
G1 X18.747 Y-1.466 E0.05522
G1 X18.473 Y-2.128 E0.05522
G1 X18.380 Y-2.838 E0.05521
G1 X18.473 Y-3.549 E0.05521
G1 X18.725 Y-4.155 E0.05059
G1 X19.303 Y-3.890 F15000.000
G1 X19.637 Y-4.326 E0.04232 F600.000
G1 X20.073 Y-4.660 E0.04232
G1 X20.580 Y-4.870 E0.04232
G1 X21.093 Y-4.938 E0.03989 F600.000
G1 X21.666 Y-4.871 E0.04446
G1 X22.152 Y-4.670 E0.04049
G1 X25.661 Y-2.644 E0.31230
G1 X26.076 Y-2.326 E0.04028
G1 X26.410 Y-1.890 E0.04232
G1 X26.620 Y-1.383 E0.04232
G1 X26.692 Y-0.838 E0.04232
G1 X26.620 Y-0.294 E0.04232
G1 X26.410 Y0.213 E0.04232
G1 X26.076 Y0.649 E0.04232
G1 X25.640 Y0.983 E0.04232
G1 X25.133 Y1.193 E0.04232
G1 X24.588 Y1.265 E0.04232
G1 X24.044 Y1.193 E0.04232
G1 X23.561 Y0.993 E0.04028
G1 X20.052 Y-1.033 E0.31230
G1 X19.637 Y-1.351 E0.04028
G1 X19.303 Y-1.787 E0.04232
G1 X19.093 Y-2.294 E0.04232
G1 X19.021 Y-2.838 E0.04232
G1 X19.093 Y-3.383 E0.04232
G1 X19.280 Y-3.835 E0.03769
G1 X19.118 Y-4.245 F15000.000
G1 E-3.50000 F1500.00000
G1 Z0.700 F15000.000
G1 X25.957 Y-4.626 F15000.000
G1 Z0.300 F15000.000
G1 E3.50000 F1500.00000
G1 X30.842 Y-1.806 E0.43469 F720.000
G1 X31.301 Y-1.453 E0.04462
G1 X31.612 Y-1.048 E0.03934
G1 X31.807 Y-0.577 E0.03934
G1 X31.874 Y-0.071 E0.03934
G1 X31.807 Y0.436 E0.03934
G1 X31.586 Y0.970 E0.04462
G1 X29.294 Y4.941 E0.35331
G1 X28.769 Y5.726 E0.07280
G1 X28.168 Y6.411 E0.07018
G1 X27.484 Y7.011 E0.07018
G1 X26.726 Y7.517 E0.07018
G1 X25.910 Y7.920 E0.07018
G1 X25.015 Y8.224 E0.07280
G1 X-16.329 Y19.302 E3.29858
G1 X-17.255 Y19.486 E0.07280
G1 X-18.164 Y19.546 E0.07018
G1 X-19.073 Y19.486 E0.07018
G1 X-19.966 Y19.308 E0.07018
G1 X-20.828 Y19.016 E0.07018
G1 X-21.676 Y18.598 E0.07280
G1 X-30.842 Y13.306 E0.81570
G1 X-31.301 Y12.953 E0.04462
G1 X-31.612 Y12.548 E0.03934
G1 X-31.802 Y12.090 E0.03825
G1 X-31.874 Y11.568 E0.04060
G1 X-31.807 Y11.064 E0.03912
G1 X-31.586 Y10.530 E0.04462
G1 X-17.794 Y-13.359 E2.12581
G1 X-17.269 Y-14.145 E0.07280
G1 X-16.668 Y-14.830 E0.07018
G1 X-15.984 Y-15.430 E0.07018
G1 X-15.226 Y-15.936 E0.07018
G1 X-14.410 Y-16.339 E0.07018
G1 X-13.515 Y-16.642 E0.07280
G1 X-3.590 Y-19.302 E0.79187
G1 X-2.663 Y-19.486 E0.07280
G1 X-1.755 Y-19.546 E0.07018
G1 X-0.872 Y-19.488 E0.06815
G1 X0.049 Y-19.308 E0.07233 F720.000
G1 X0.910 Y-19.016 E0.07005
G1 X1.757 Y-18.598 E0.07280
G1 X25.905 Y-4.656 E2.14890
G1 X26.223 Y-5.206 F15000.000
G1 X31.196 Y-2.335 E0.44252 F720.000
G1 X31.755 Y-1.907 E0.05428
G1 X32.167 Y-1.369 E0.05224
G1 X32.427 Y-0.743 E0.05224
G1 X32.515 Y-0.071 E0.05224
G1 X32.427 Y0.602 E0.05224
G1 X32.157 Y1.252 E0.05428
G1 X29.834 Y5.277 E0.35812
G1 X29.274 Y6.114 E0.07762
G1 X28.619 Y6.861 E0.07660
G1 X27.871 Y7.517 E0.07660
G1 X27.045 Y8.069 E0.07660
G1 X26.153 Y8.509 E0.07660
G1 X25.200 Y8.832 E0.07762
G1 X-16.184 Y19.921 E3.30178
G1 X-17.172 Y20.118 E0.07762
G1 X-18.164 Y20.183 E0.07660
G1 X-19.156 Y20.118 E0.07660
G1 X-20.131 Y19.924 E0.07660
G1 X-21.072 Y19.604 E0.07660
G1 X-21.975 Y19.159 E0.07762
G1 X-31.196 Y13.835 E0.82051
G1 X-31.755 Y13.407 E0.05428
G1 X-32.167 Y12.869 E0.05224
G1 X-32.421 Y12.257 E0.05101
G1 X-32.515 Y11.570 E0.05350
G1 X-32.427 Y10.898 E0.05216
G1 X-32.157 Y10.248 E0.05428
G1 X-18.334 Y-13.695 E2.13063
G1 X-17.774 Y-14.533 E0.07762
G1 X-17.119 Y-15.280 E0.07660
G1 X-16.371 Y-15.935 E0.07660
G1 X-15.545 Y-16.488 E0.07660
G1 X-14.653 Y-16.927 E0.07660
G1 X-13.700 Y-17.251 E0.07762
G1 X-3.734 Y-19.921 E0.79508
G1 X-2.746 Y-20.118 E0.07762
G1 X-1.755 Y-20.183 E0.07660
G1 X-0.790 Y-20.119 E0.07448
G1 X0.213 Y-19.924 E0.07875 F720.000
G1 X1.153 Y-19.604 E0.07656
G1 X2.057 Y-19.159 E0.07762
G1 X26.171 Y-5.236 E2.14588
G1 X26.223 Y-4.806 F15000.000
G1 X27.270 Y-3.076 F15000.000
G1 X26.340 Y-3.695 E0.18085 F960.000
G1 X22.723 Y-5.784 E0.67648
G1 X21.741 Y-6.269 E0.17731
G1 X21.298 Y-6.139 F15000.000
G1 X19.801 Y-7.636 E0.16500 F960.000
G1 X17.650 Y-8.878 F15000.000
G1 X20.637 Y-5.891 E0.32931 F960.000
G1 X19.950 Y-5.670 E0.05632
G1 X15.499 Y-10.120 E0.49065
G1 X13.348 Y-11.362 F15000.000
G1 X19.370 Y-5.340 E0.66394 F960.000
G1 X18.877 Y-4.924 E0.05030
G1 X11.196 Y-12.604 E0.84674
G1 X9.045 Y-13.846 F15000.000
G1 X18.482 Y-4.409 E1.04039 F960.000
G1 X18.198 Y-3.784 E0.05353
G1 X6.894 Y-15.088 E1.24624
G1 X5.810 Y-15.263 E0.08553
G1 X18.034 Y-3.039 E1.34756
G1 X18.070 Y-2.093 F15000.000
G1 X5.979 Y-14.185 E1.33300 F960.000
G1 X6.038 Y-13.216 E0.07569
G1 X26.503 Y7.249 E2.25606
G1 X25.894 Y7.549 E0.05293
G1 X5.890 Y-12.455 E2.20532
G1 X5.611 Y-11.824 E0.05376
G1 X25.221 Y7.785 E2.16179
G1 X24.516 Y7.990 E0.05719
G1 X5.224 Y-11.303 E2.12685
G1 X4.742 Y-10.875 E0.05021
G1 X23.799 Y8.182 E2.10092
G1 X23.082 Y8.374 E0.05787
G1 X4.175 Y-10.533 E2.08437
G1 X3.503 Y-10.296 E0.05556
G1 X22.365 Y8.566 E2.07942
G1 X21.648 Y8.758 E0.05787
G1 X2.668 Y-10.222 E2.09241
G1 X1.459 Y-10.522 E0.09712
G1 X20.931 Y8.951 E2.14666
G1 X20.214 Y9.143 E0.05787
G1 X-0.617 Y-11.688 E2.29646
G1 X-2.166 Y-8.691 F15000.000
G1 X-10.546 Y-17.070 E0.92381 F960.000
G1 X-9.828 Y-17.263 E0.05787
G1 X-0.048 Y-7.483 E1.07817
G1 X2.313 Y-5.121 F15000.000
G1 X17.345 Y9.911 E1.65716 F960.000
G1 X16.628 Y10.103 E0.05787
G1 X3.520 Y-3.005 E1.44510
G1 X4.042 Y-1.574 F15000.000
G1 X15.911 Y10.296 E1.30848 F960.000
G1 X15.194 Y10.488 E0.05787
G1 X4.313 Y-0.393 E1.19953
G1 X4.454 Y0.657 E0.08261
G1 X14.477 Y10.680 E1.10492
G1 X13.760 Y10.872 E0.05787
G1 X4.486 Y1.598 E1.02236
G1 X4.449 Y2.470 E0.06802
G1 X13.043 Y11.064 E0.94744
G1 X12.326 Y11.256 E0.05787
G1 X4.361 Y3.291 E0.87806
G1 X4.228 Y4.068 E0.06143
G1 X11.609 Y11.448 E0.81361
G1 X10.891 Y11.641 E0.05787
G1 X4.036 Y4.786 E0.75570
G1 X3.820 Y5.478 E0.05658
G1 X10.174 Y11.833 E0.70051
G1 X9.457 Y12.025 E0.05787
G1 X3.565 Y6.133 E0.64956
G1 X3.275 Y6.752 E0.05330
G1 X8.740 Y12.217 E0.60249
G1 X8.023 Y12.409 E0.05787
G1 X2.967 Y7.353 E0.55736
G1 X2.612 Y7.908 E0.05131
G1 X7.306 Y12.601 E0.51745
G1 X6.589 Y12.793 E0.05787
G1 X2.249 Y8.454 E0.47843
G1 X1.844 Y8.958 E0.05042
G1 X5.872 Y12.986 E0.44397
G1 X5.155 Y13.178 E0.05787
G1 X1.424 Y9.447 E0.41125
G1 X0.973 Y9.906 E0.05012
G1 X4.437 Y13.370 E0.38189
G1 X3.720 Y13.562 E0.05787
G1 X0.499 Y10.340 E0.35518
G1 X0.002 Y10.752 E0.05034
G1 X3.003 Y13.754 E0.33091
G1 X2.286 Y13.946 E0.05787
G1 X-0.529 Y11.131 E0.31032
G1 X-1.073 Y11.497 E0.05108
G1 X1.569 Y14.138 E0.29124
G1 X0.852 Y14.331 E0.05787
G1 X-1.662 Y11.817 E0.27714
G1 X-2.264 Y12.124 E0.05270
G1 X0.135 Y14.523 E0.26449
G1 X-0.582 Y14.715 E0.05787
G1 X-2.910 Y12.388 E0.25657
G1 X-3.583 Y12.623 E0.05563
G1 X-1.299 Y14.907 E0.25176
G1 X-2.016 Y15.099 E0.05787
G1 X-4.285 Y12.831 E0.25009
G1 X-5.044 Y12.981 E0.06032
G1 X-2.734 Y15.291 E0.25472
G1 X-3.451 Y15.484 E0.05787
G1 X-5.838 Y13.096 E0.26322
G1 X-6.677 Y13.166 E0.06561
G1 X-4.168 Y15.676 E0.27663
G1 X-4.885 Y15.868 E0.05787
G1 X-7.602 Y13.151 E0.29953
G1 X-8.606 Y13.056 E0.07860
G1 X-5.602 Y16.060 E0.33115
G1 X-6.319 Y16.252 E0.05787
G1 X-9.723 Y12.849 E0.37520
G1 X-11.015 Y12.466 E0.10507
G1 X-7.036 Y16.444 E0.43861
G1 X-7.753 Y16.636 E0.05787
G1 X-12.701 Y11.689 E0.54540
G1 X-16.880 Y7.510 F15000.000
G1 X-24.852 Y-0.462 E0.87886 F960.000
G1 X-25.185 Y0.114 E0.05189
G1 X-8.470 Y16.829 E1.84260
G1 X-9.187 Y17.021 E0.05787
G1 X-25.517 Y0.691 E1.80024
G1 X-25.850 Y1.267 E0.05189
G1 X-9.905 Y17.213 E1.75787
G1 X-10.622 Y17.405 E0.05787
G1 X-26.183 Y1.844 E1.71551
G1 X-26.516 Y2.420 E0.05189
