; generated by Slic3r 1.2.9 on 2017-09-11 at 17:10:42

; external perimeters extrusion width = 0.40mm
; perimeters extrusion width = 0.40mm
; infill extrusion width = 0.40mm
; solid infill extrusion width = 0.40mm
; top infill extrusion width = 0.40mm

M107
M83
T0
M116
G21 ; set units to millimeters
G90 ; use absolute coordinates
M83 ; use relative distances for extrusion
G1 E-3.50000 F1500.00000
G1 Z0.400 F15000.000
G1 X3.607 Y-11.279 F15000.000
G1 Z0.300 F15000.000
G1 E3.50000 F1500.00000
G1 X5.539 Y-10.661 E0.15632 F2400.000
G1 X6.317 Y-10.306 E0.06587
G1 X6.826 Y-9.984 E0.04641
G1 X7.165 Y-9.738 E0.03228
G1 X7.838 Y-9.107 E0.07112
G1 X10.425 Y-5.973 E0.31319
G1 X10.888 Y-5.254 E0.06587
G1 X11.142 Y-4.708 E0.04641
G1 X11.294 Y-4.318 E0.03228
G1 X11.519 Y-3.423 E0.07112
G1 X12.001 Y0.612 E0.31319
G1 X12.002 Y1.467 E0.06586
G1 X11.920 Y2.063 E0.04638
G1 X11.838 Y2.471 E0.03202
G1 X11.544 Y3.345 E0.07110
G1 X9.767 Y7.003 E0.31344
G1 X9.305 Y7.724 E0.06592
G1 X9.110 Y7.961 E0.02372
G1 X8.625 Y8.479 E0.05467
G1 X7.905 Y9.056 E0.07110
G1 X4.432 Y11.173 E0.31344
G1 X3.654 Y11.529 E0.06592
G1 X3.077 Y11.702 E0.04641
G1 X2.670 Y11.798 E0.03228
G1 X1.751 Y11.893 E0.07114
G1 X-2.312 Y11.796 E0.31320
G1 X-3.282 Y11.639 E0.07578
G1 X-4.186 Y11.343 E0.07324
G1 X-4.952 Y10.949 E0.06638
G1 X-8.316 Y8.677 E0.31292
G1 X-8.966 Y8.115 E0.06619
G1 X-9.364 Y7.663 E0.04641
G1 X-9.620 Y7.332 E0.03228
G1 X-10.088 Y6.536 E0.07112
G1 X-11.687 Y2.800 E0.31319
G1 X-11.944 Y1.881 E0.07353
G1 X-12.018 Y1.361 E0.04052
G1 X-12.060 Y0.910 E0.03488
G1 X-12.018 Y0.045 E0.06671
G1 X-11.344 Y-3.962 E0.31319
G1 X-11.104 Y-4.783 E0.06586
G1 X-10.857 Y-5.332 E0.04642
G1 X-10.663 Y-5.703 E0.03228
G1 X-10.133 Y-6.459 E0.07112
G1 X-7.399 Y-9.466 E0.31319
G1 X-6.754 Y-10.026 E0.06587
G1 X-6.249 Y-10.355 E0.04641
G1 X-5.885 Y-10.562 E0.03228
G1 X-5.031 Y-10.911 E0.07112
G1 X-1.105 Y-11.963 E0.31319
G1 X-0.259 Y-12.085 E0.06587
G1 X0.343 Y-12.089 E0.04641
G1 X0.761 Y-12.066 E0.03228 F2400.000
G1 X1.669 Y-11.899 E0.07112
G1 X3.550 Y-11.297 E0.15224
G1 E-3.50000 F1500.00000
G1 Z0.700 F15000.000
G1 X0.899 Y-3.593 F15000.000
G1 Z0.300 F15000.000
G1 E3.50000 F1500.00000
G1 X1.570 Y-3.363 E0.05465 F2400.000
G1 X2.197 Y-2.999 E0.05585
G1 X2.740 Y-2.521 E0.05578
G1 X3.170 Y-1.966 E0.05407
G1 X3.493 Y-1.333 E0.05477
G1 X3.699 Y-0.592 E0.05930
G1 X3.751 Y0.037 E0.04862
G1 X3.677 Y0.793 E0.05851
G1 X3.527 Y1.302 E0.04096
G1 X3.251 Y1.914 E0.05174
G1 X2.795 Y2.534 E0.05928
G1 X2.337 Y2.968 E0.04862
G1 X1.691 Y3.382 E0.05912
G1 X1.104 Y3.612 E0.04860
G1 X0.351 Y3.765 E0.05919
G1 X-0.391 Y3.757 E0.05721
G1 X-1.081 Y3.615 E0.05428
G1 X-1.752 Y3.337 E0.05597
G1 X-2.357 Y2.932 E0.05610
G1 X-2.875 Y2.415 E0.05642
G1 X-3.285 Y1.799 E0.05701
G1 X-3.532 Y1.222 E0.04838
G1 X-3.700 Y0.490 E0.05790
G1 X-3.714 Y-0.274 E0.05889
G1 X-3.573 Y-1.011 E0.05777
G1 X-3.350 Y-1.596 E0.04826
G1 X-2.955 Y-2.238 E0.05810
G1 X-2.437 Y-2.785 E0.05805
G1 X-1.931 Y-3.153 E0.04826
G1 X-1.255 Y-3.480 E0.05784
G1 X-0.521 Y-3.663 E0.05831
G1 X0.105 Y-3.695 E0.04830 F2400.000
G1 X0.841 Y-3.606 E0.05713
G1 X0.733 Y-2.978 F15000.000
G1 X1.304 Y-2.782 E0.04660 F2400.000
G1 X1.824 Y-2.480 E0.04628
G1 X2.275 Y-2.083 E0.04632
G1 X2.631 Y-1.624 E0.04478
G1 X2.898 Y-1.102 E0.04521
G1 X3.071 Y-0.480 E0.04973
G1 X3.113 Y0.032 E0.03957
G1 X3.050 Y0.671 E0.04947
G1 X2.930 Y1.081 E0.03294
G1 X2.699 Y1.592 E0.04320
G1 X2.317 Y2.112 E0.04975
G1 X1.944 Y2.465 E0.03957
G1 X1.401 Y2.813 E0.04966
G1 X0.923 Y3.000 E0.03955
G1 X0.291 Y3.128 E0.04976
G1 X-0.323 Y3.122 E0.04728
G1 X-0.893 Y3.004 E0.04488
G1 X-1.450 Y2.773 E0.04650
G1 X-1.952 Y2.439 E0.04646
G1 X-2.381 Y2.010 E0.04673
G1 X-2.723 Y1.495 E0.04766
G1 X-2.925 Y1.024 E0.03949
G1 X-3.066 Y0.412 E0.04840
G1 X-3.077 Y-0.220 E0.04869
G1 X-2.959 Y-0.836 E0.04836
G1 X-2.777 Y-1.313 E0.03939
G1 X-2.448 Y-1.849 E0.04844
G1 X-2.016 Y-2.305 E0.04843
G1 X-1.602 Y-2.606 E0.03939
G1 X-1.038 Y-2.880 E0.04838
G1 X-0.427 Y-3.031 E0.04847
G1 X0.083 Y-3.057 E0.03935 F2400.000
G1 X0.673 Y-2.986 E0.04582
G1 X1.015 Y-3.261 F15000.000
G1 X-5.995 Y-2.691 F15000.000
G1 X-6.108 Y-2.753 E0.00995 F2400.000
G1 X-5.953 Y-3.078 E0.02781
G1 X-5.417 Y-2.859 E0.04467
G1 X-4.942 Y-2.832 E0.03667
G1 X-4.543 Y-2.955 E0.03214
G1 X-4.230 Y-3.188 E0.03004
G1 X-3.642 Y-3.815 E0.06627
G1 X-3.367 Y-4.244 E0.03923
G1 X-3.304 Y-4.786 E0.04208
G1 X-3.395 Y-5.154 E0.02918
G1 X-3.648 Y-5.617 E0.04072
G1 X-3.342 Y-5.808 E0.02781
G1 X-3.009 Y-5.333 E0.04467
G1 X-2.574 Y-5.017 E0.04144
G1 X-2.004 Y-4.930 E0.04446
G1 X-1.002 Y-5.177 E0.07954
G1 X-0.537 Y-5.390 E0.03939
G1 X-0.190 Y-5.812 E0.04209
G1 X-0.066 Y-6.177 E0.02970
G1 X-0.036 Y-6.612 E0.03363
G1 X0.328 Y-6.604 E0.02806
G1 X0.333 Y-6.390 E0.01646 F2400.000
G1 X0.404 Y-5.886 E0.03925
G1 X0.749 Y-5.388 E0.04674
G1 X1.145 Y-5.170 E0.03482
G1 X1.935 Y-4.904 E0.06422
G1 X2.249 Y-4.842 E0.02471
G1 X2.763 Y-4.880 E0.03968
G1 X3.252 Y-5.185 E0.04438
G1 X3.592 Y-5.643 E0.04395
G1 X3.893 Y-5.443 E0.02784
G1 X3.604 Y-4.951 E0.04404
G1 X3.497 Y-4.423 E0.04144
G1 X3.655 Y-3.868 E0.04446
G1 X4.281 Y-3.079 E0.07768
G1 X4.519 Y-2.852 E0.02533
G1 X4.965 Y-2.612 E0.03899
G1 X5.532 Y-2.602 E0.04371
G1 X6.082 Y-2.808 E0.04528
G1 X6.227 Y-2.477 E0.02781
G1 X5.710 Y-2.216 E0.04467
G1 X5.335 Y-1.830 E0.04144
G1 X5.168 Y-1.278 E0.04446
G1 X5.270 Y-0.251 E0.07954
G1 X5.414 Y0.240 E0.03939
G1 X5.819 Y0.682 E0.04622
G1 X6.231 Y0.841 E0.03405
G1 X6.624 Y0.925 E0.03095
G1 X6.568 Y1.282 E0.02785
G1 X6.003 Y1.224 E0.04376
G1 X5.479 Y1.346 E0.04144
G1 X5.040 Y1.720 E0.04446
G1 X4.571 Y2.639 E0.07954
G1 X4.427 Y3.129 E0.03939
G1 X4.519 Y3.668 E0.04208
G1 X4.713 Y4.001 E0.02969
G1 X5.023 Y4.308 E0.03363
G1 X4.778 Y4.578 E0.02806
G1 X4.613 Y4.442 E0.01645
G1 X4.186 Y4.165 E0.03925
G1 X3.583 Y4.100 E0.04674
G1 X3.159 Y4.257 E0.03482
G1 X2.439 Y4.681 E0.06441
G1 X2.182 Y4.883 E0.02516
G1 X1.881 Y5.292 E0.03917
G1 X1.791 Y5.859 E0.04423
G1 X1.914 Y6.416 E0.04396
G1 X1.566 Y6.512 E0.02784
G1 X1.384 Y5.971 E0.04404
G1 X1.055 Y5.545 E0.04144
G1 X0.532 Y5.301 E0.04446
G1 X-0.475 Y5.257 E0.07768
G1 X-0.802 Y5.288 E0.02533
G1 X-1.277 Y5.469 E0.03916
G1 X-1.659 Y5.898 E0.04423
G1 X-1.827 Y6.353 E0.03743
G1 X-2.174 Y6.243 E0.02806
G1 X-2.106 Y5.987 E0.02041
G1 X-2.059 Y5.585 E0.03116
G1 X-2.140 Y5.187 E0.03137
G1 X-2.416 Y4.748 E0.03996
G1 X-3.260 Y4.152 E0.07954
G1 X-3.725 Y3.940 E0.03939
G1 X-4.324 Y3.956 E0.04622
G1 X-4.714 Y4.164 E0.03406
G1 X-5.035 Y4.406 E0.03095
G1 X-5.268 Y4.130 E0.02785
G1 X-4.854 Y3.741 E0.04376
G1 X-4.603 Y3.265 E0.04145
G1 X-4.598 Y2.688 E0.04446
G1 X-4.986 Y1.732 E0.07954
G1 X-5.262 Y1.302 E0.03939
G1 X-5.775 Y0.991 E0.04622
G1 X-6.216 Y0.955 E0.03406
G1 X-6.538 Y0.979 E0.02490
G1 X-6.582 Y0.618 E0.02808
G1 X-6.376 Y0.583 E0.01606
G1 X-5.887 Y0.442 E0.03925
G1 X-5.443 Y0.029 E0.04674
G1 X-5.284 Y-0.394 E0.03482
G1 X-5.133 Y-1.216 E0.06442
G1 X-5.117 Y-1.543 E0.02516
G1 X-5.228 Y-2.036 E0.03899
G1 X-5.592 Y-2.471 E0.04372
G1 X-5.942 Y-2.662 E0.03071
G1 X-6.246 Y-2.104 F15000.000
G1 X-6.556 Y-2.273 E0.02720 F2400.000
G1 X-6.914 Y-2.579 E0.03629
G1 X-7.212 Y-2.982 E0.03859
G1 X-7.378 Y-3.361 E0.03189
G1 X-7.205 Y-3.715 E0.03036
G1 X-6.868 Y-3.806 E0.02692
G1 X-6.378 Y-3.828 E0.03775
G1 X-5.911 Y-3.748 E0.03655
G1 X-5.275 Y-3.488 E0.05297
G1 X-5.020 Y-3.473 E0.01967
G1 X-4.835 Y-3.530 E0.01491
G1 X-4.656 Y-3.664 E0.01723
G1 X-4.146 Y-4.208 E0.05744
G1 X-3.982 Y-4.463 E0.02342
G1 X-3.949 Y-4.745 E0.02189
G1 X-3.992 Y-4.921 E0.01395
G1 X-4.285 Y-5.456 E0.04699
G1 X-4.420 Y-5.907 E0.03629
G1 X-4.454 Y-6.407 E0.03859
G1 X-4.388 Y-6.815 E0.03189
G1 X-4.045 Y-7.023 E0.03089
G1 X-3.720 Y-6.915 E0.02639
G1 X-3.294 Y-6.668 E0.03793
G1 X-2.944 Y-6.348 E0.03655
G1 X-2.550 Y-5.785 E0.05297
G1 X-2.326 Y-5.622 E0.02137
G1 X-2.033 Y-5.577 E0.02282
G1 X-1.212 Y-5.780 E0.06517
G1 X-0.935 Y-5.907 E0.02348
G1 X-0.755 Y-6.126 E0.02189
G1 X-0.694 Y-6.303 E0.01440
G1 X-0.653 Y-6.906 E0.04660
G1 X-0.534 Y-7.324 E0.03347
G1 X-0.280 Y-7.798 E0.04148
G1 X-0.005 Y-8.105 E0.03171
G1 X0.389 Y-8.095 E0.03036
G1 X0.611 Y-7.826 E0.02692 F2400.000
G1 X0.835 Y-7.390 E0.03775
G1 X0.956 Y-6.934 E0.03633
G1 X0.968 Y-6.442 E0.03792
G1 X1.012 Y-6.124 E0.02477
G1 X1.186 Y-5.873 E0.02354
G1 X1.401 Y-5.755 E0.01893
G1 X2.099 Y-5.520 E0.05671
G1 X2.288 Y-5.482 E0.01488
G1 X2.559 Y-5.503 E0.02095
G1 X2.813 Y-5.661 E0.02306
G1 X3.186 Y-6.162 E0.04814
G1 X3.540 Y-6.472 E0.03625
G1 X3.980 Y-6.710 E0.03859
G1 X4.379 Y-6.820 E0.03189
G1 X4.705 Y-6.599 E0.03036
G1 X4.747 Y-6.252 E0.02692
G1 X4.700 Y-5.764 E0.03775
G1 X4.554 Y-5.313 E0.03655
G1 X4.206 Y-4.721 E0.05297
G1 X4.151 Y-4.449 E0.02137
G1 X4.232 Y-4.164 E0.02282
G1 X4.752 Y-3.508 E0.06450
G1 X4.895 Y-3.371 E0.01531
G1 X5.130 Y-3.245 E0.02050
G1 X5.422 Y-3.240 E0.02255
G1 X6.013 Y-3.461 E0.04861
G1 X6.479 Y-3.531 E0.03628
G1 X6.978 Y-3.492 E0.03859
G1 X7.373 Y-3.369 E0.03189
G1 X7.436 Y-3.241 E0.01100
G1 X7.530 Y-3.000 E0.01991
G1 X7.377 Y-2.694 E0.02639
G1 X7.072 Y-2.308 E0.03793
G1 X6.705 Y-2.007 E0.03655
G1 X6.092 Y-1.697 E0.05297
G1 X5.899 Y-1.498 E0.02137
G1 X5.813 Y-1.214 E0.02282
G1 X5.897 Y-0.373 E0.06517
G1 X5.983 Y-0.081 E0.02348
G1 X6.187 Y0.143 E0.02335
G1 X6.413 Y0.230 E0.01866
G1 X6.932 Y0.341 E0.04089
G1 X7.361 Y0.533 E0.03624
G1 X7.760 Y0.835 E0.03859
G1 X8.026 Y1.152 E0.03189
G1 X8.009 Y1.294 E0.01100
G1 X7.960 Y1.539 E0.01920
G1 X7.661 Y1.723 E0.02710
G1 X7.199 Y1.883 E0.03769
G1 X6.728 Y1.937 E0.03655
G1 X6.044 Y1.867 E0.05297
G1 X5.774 Y1.930 E0.02137
G1 X5.548 Y2.122 E0.02282
G1 X5.164 Y2.875 E0.06517
G1 X5.078 Y3.167 E0.02348
G1 X5.126 Y3.447 E0.02189
G1 X5.220 Y3.609 E0.01440
G1 X5.649 Y4.035 E0.04660
G1 X5.886 Y4.398 E0.03347
G1 X6.079 Y4.901 E0.04148
G1 X6.130 Y5.309 E0.03171
G1 X5.867 Y5.599 E0.03018
G1 X5.515 Y5.592 E0.02710
G1 X5.040 Y5.476 E0.03769
G1 X4.616 Y5.269 E0.03633
G1 X4.237 Y4.956 E0.03792
G1 X3.967 Y4.781 E0.02477
G1 X3.664 Y4.748 E0.02354
G1 X3.433 Y4.833 E0.01893
G1 X2.798 Y5.207 E0.05677
G1 X2.643 Y5.329 E0.01525
G1 X2.484 Y5.544 E0.02056
G1 X2.438 Y5.839 E0.02301
G1 X2.573 Y6.449 E0.04814
G1 X2.575 Y6.919 E0.03625
G1 X2.467 Y7.408 E0.03859
G1 X2.288 Y7.782 E0.03189
G1 X1.908 Y7.883 E0.03036
G1 X1.618 Y7.687 E0.02692
G1 X1.281 Y7.332 E0.03775
G1 X1.035 Y6.927 E0.03655
G1 X0.815 Y6.275 E0.05297
G1 X0.646 Y6.056 E0.02137
G1 X0.378 Y5.930 E0.02282
G1 X-0.459 Y5.894 E0.06450
G1 X-0.656 Y5.913 E0.01531
G1 X-0.906 Y6.008 E0.02056
G1 X-1.104 Y6.231 E0.02301
G1 X-1.320 Y6.816 E0.04810
G1 X-1.572 Y7.213 E0.03622
G1 X-1.928 Y7.566 E0.03866
G1 X-2.274 Y7.780 E0.03132
G1 X-2.657 Y7.663 E0.03089
G1 X-2.788 Y7.350 E0.02619
G1 X-2.883 Y6.882 E0.03683
G1 X-2.870 Y6.384 E0.03834
G1 X-2.732 Y5.868 E0.04118
G1 X-2.702 Y5.613 E0.01978
G1 X-2.740 Y5.427 E0.01464
G1 X-2.887 Y5.194 E0.02122
G1 X-3.578 Y4.706 E0.06517
G1 X-3.855 Y4.580 E0.02348
G1 X-4.158 Y4.588 E0.02335
G1 X-4.371 Y4.702 E0.01866
G1 X-4.795 Y5.021 E0.04089
G1 X-5.221 Y5.219 E0.03624
G1 X-5.711 Y5.323 E0.03859
G1 X-6.125 Y5.316 E0.03189
G1 X-6.375 Y5.012 E0.03036
G1 X-6.318 Y4.668 E0.02692
G1 X-6.135 Y4.213 E0.03775
G1 X-5.868 Y3.821 E0.03655
G1 X-5.367 Y3.351 E0.05297
G1 X-5.238 Y3.105 E0.02137
G1 X-5.235 Y2.809 E0.02282
G1 X-5.552 Y2.026 E0.06517
G1 X-5.717 Y1.769 E0.02348
G1 X-5.976 Y1.612 E0.02335
G1 X-6.218 Y1.593 E0.01866
G1 X-6.747 Y1.633 E0.04090
G1 X-7.177 Y1.574 E0.03345
G1 X-7.683 Y1.390 E0.04148
G1 X-8.017 Y1.167 E0.03096
G1 X-8.066 Y0.765 E0.03122
G1 X-7.835 Y0.511 E0.02649
G1 X-7.489 Y0.260 E0.03294
G1 X-7.000 Y0.044 E0.04118
G1 X-6.518 Y-0.038 E0.03771
G1 X-6.209 Y-0.127 E0.02477
G1 X-5.985 Y-0.335 E0.02354
G1 X-5.899 Y-0.565 E0.01893
G1 X-5.766 Y-1.289 E0.05678
G1 X-5.756 Y-1.487 E0.01525
G1 X-5.815 Y-1.747 E0.02049
G1 X-6.002 Y-1.971 E0.02255
G1 X-6.194 Y-2.075 E0.01679
G1 X-6.255 Y-2.457 F15000.000
G1 X-5.458 Y0.493 F15000.000
G1 X-5.115 Y0.836 E0.03942 F2400.000
G1 X-4.016 Y0.987 E0.09014
G1 X-5.046 Y-0.043 E0.11835
G1 X-4.843 Y-0.787 E0.06268
G1 X-4.098 Y-0.042 E0.08557
G1 X-3.970 Y-0.862 E0.06743
G1 X-4.734 Y-1.626 E0.08770
G1 X-4.699 Y-2.539 E0.07424
G1 X-3.730 Y-1.570 E0.11137
G1 X-3.387 Y-2.174 E0.05647
G1 X-4.091 Y-2.878 E0.08089
G1 X-3.621 Y-3.356 E0.05444
G1 X-2.969 Y-2.703 E0.07498
G1 X-2.481 Y-3.163 E0.05446
G1 X-3.202 Y-3.884 E0.08278
G1 X-2.954 Y-4.584 E0.06035
G1 X-1.911 Y-3.541 E0.11991
G1 X-1.268 Y-3.845 E0.05781
G1 X-1.988 Y-4.566 E0.08281
G1 X-1.228 Y-4.753 E0.06359
G1 X-0.509 Y-4.034 E0.08269
G1 X0.409 Y-4.064 E0.07459
G1 X-0.540 Y-5.013 E0.10904
G1 X-0.046 Y-5.467 E0.05448
G1 X1.610 Y-3.811 E0.19026
G1 X2.997 Y-3.370 F15000.000
G1 X1.874 Y-4.494 E0.12913 F2400.000
G1 X2.804 Y-4.512 E0.07559
G1 X3.117 Y-4.198 E0.03598
G1 X3.808 Y-3.164 F15000.000
G1 X3.314 Y-2.747 E0.04979 F2400.000
G1 X3.273 Y-2.445 E0.02354
G1 X3.281 Y-2.387 E0.00449
G1 X3.331 Y-2.309 E0.00716
G1 X3.841 Y-1.959 F15000.000
G1 X4.152 Y-1.647 E0.03739 F2400.000
G1 X3.936 Y-1.992 F15000.000
G1 X4.246 Y-1.683 E0.03720 F2400.000
G1 X4.684 Y-2.235 E0.05987
G1 X4.996 Y-1.923 E0.03741
G1 X4.837 Y-1.224 F15000.000
G1 X4.800 Y-0.845 E0.02930 F2400.000
G1 X4.710 Y-0.674 E0.01489
G1 X4.609 Y-0.564 E0.01147
G1 X4.345 Y-0.553 E0.02037
G1 X4.090 Y-0.249 E0.03061
G1 X4.072 Y-0.173 E0.00600
G1 X4.103 Y0.429 F15000.000
G1 X4.490 Y0.817 E0.04537 F2400.000
G1 X5.042 Y0.471 F15000.000
G1 X4.708 Y0.137 E0.03915 F2400.000
G1 X4.091 Y3.024 F15000.000
G1 X3.756 Y2.689 E0.03923 F2400.000
G1 X2.947 Y2.845 E0.06826
G1 X3.825 Y3.723 E0.10283
G1 X3.061 Y3.925 E0.06542
G1 X2.437 Y3.301 E0.07309
G1 X1.848 Y3.678 E0.05790
G1 X2.453 Y4.283 E0.07088
G1 X1.905 Y4.700 E0.05707
G1 X1.164 Y3.959 E0.08676
G1 X0.368 Y4.130 E0.06736
G1 X1.481 Y5.242 E0.13025
G1 X0.166 Y4.893 E0.11265
G1 X-0.586 Y4.141 E0.08805
G1 X-0.782 Y4.911 E0.06579
G1 X-1.489 Y4.204 E0.08284
G1 X-1.779 Y4.880 E0.06091
G1 X-1.470 Y5.189 E0.03624
G1 X4.288 Y2.446 F15000.000
G1 X4.601 Y1.866 E0.05080 F2400.000
G1 X4.581 Y1.777 E0.00706
G1 X4.732 Y1.586 E0.01873
G1 E-3.50000 F1500.00000
G1 Z0.700 F15000.000
G1 X-2.213 Y3.411 F15000.000
G1 Z0.300 F15000.000
G1 E3.50000 F1500.00000
G1 X-2.556 Y3.859 E0.04351 F2400.000
G1 X-2.529 Y4.069 E0.01635
G1 X-2.467 Y4.223 E0.01279
G1 X-2.241 Y4.462 E0.02540
G1 X-3.167 Y2.846 F15000.000
G1 X-3.524 Y2.489 E0.06338 F2400.000
G1 X-4.219 Y3.259 E0.13015
G1 X-3.914 Y3.564 E0.05411
G1 X-4.296 Y2.543 F15000.000
G1 X-4.365 Y2.179 E0.02854 F2400.000
G1 X-4.330 Y1.998 E0.01424
G1 X-4.282 Y1.898 E0.00853
G1 X-3.680 Y1.683 E0.04922
G1 E-3.50000 F1500.00000
G1 Z0.700 F15000.000
G1 X-2.997 Y1.390 F15000.000
G1 Z0.500 F15000.000
G1 E3.50000 F1500.00000
G1 X-3.096 Y1.159 E0.00724 F2400.000
G1 X-3.270 Y0.462 E0.02075
G1 X-3.282 Y-0.264 E0.02095
G1 X-3.214 Y-0.652 E0.01137
G1 X-3.126 Y-0.988 E0.01000
G1 X-2.984 Y-1.359 E0.01148
G1 X-2.612 Y-1.979 E0.02087
G1 X-2.109 Y-2.497 E0.02084
G1 X-1.787 Y-2.731 E0.01151
G1 X-1.485 Y-2.901 E0.01000
G1 X-1.129 Y-3.067 E0.01133
G1 X-0.433 Y-3.240 E0.02069
G1 X-0.055 Y-3.260 E0.01093
G1 X0.187 Y-3.265 E0.00699 F2400.000
G1 X0.775 Y-3.181 E0.01713
G1 X1.387 Y-2.973 E0.01868
G1 X1.947 Y-2.648 E0.01868
G1 X2.398 Y-2.253 E0.01729
G1 X2.798 Y-1.748 E0.01860
G1 X3.081 Y-1.204 E0.01771
G1 X3.283 Y-0.463 E0.02217
G1 X3.317 Y-0.048 E0.01201
G1 X3.255 Y0.710 E0.02194
G1 X3.156 Y1.048 E0.01017
G1 X2.881 Y1.696 E0.02033
G1 X2.413 Y2.311 E0.02230
G1 X2.111 Y2.597 E0.01201
G1 X1.468 Y3.011 E0.02207
G1 X1.092 Y3.159 E0.01167
G1 X0.711 Y3.263 E0.01138
G1 X0.323 Y3.334 E0.01140
G1 X-0.351 Y3.328 E0.01944
G1 X-0.941 Y3.207 E0.01739
G1 X-1.544 Y2.959 E0.01883
G1 X-2.089 Y2.595 E0.01891
G1 X-2.553 Y2.126 E0.01905
G1 X-2.934 Y1.537 E0.02024
G1 X-2.974 Y1.445 E0.00290
G1 X-2.645 Y1.304 F15000.000
G1 X-2.757 Y1.045 E0.00815 F2400.000
G1 X-2.914 Y0.415 E0.01874
G1 X-2.924 Y-0.236 E0.01879
G1 X-2.865 Y-0.576 E0.00996
G1 X-2.786 Y-0.878 E0.00901
G1 X-2.662 Y-1.202 E0.01000
G1 X-2.327 Y-1.759 E0.01877
G1 X-1.874 Y-2.226 E0.01877
G1 X-1.594 Y-2.430 E0.01001
G1 X-1.322 Y-2.583 E0.00901
G1 X-1.009 Y-2.729 E0.00995
G1 X-0.380 Y-2.885 E0.01870
G1 X-0.042 Y-2.903 E0.00979
G1 X0.166 Y-2.907 E0.00599 F2400.000
G1 X0.691 Y-2.833 E0.01532
G1 X1.238 Y-2.646 E0.01669
G1 X1.738 Y-2.356 E0.01666
