; generated by Slic3r 1.2.9 on 2017-09-12 at 10:48:03

; external perimeters extrusion width = 0.40mm
; perimeters extrusion width = 0.40mm
; infill extrusion width = 0.40mm
; solid infill extrusion width = 0.40mm
; top infill extrusion width = 0.40mm

M107
M83
T0
M116
G21 ; set units to millimeters
G90 ; use absolute coordinates
M83 ; use relative distances for extrusion
G1 E-3.50000 F1500.00000
G1 Z0.400 F15000.000
G1 X-19.557 Y11.291 F15000.000
G1 Z0.300 F15000.000
G1 E3.50000 F1500.00000
G1 X-26.942 Y-1.500 E1.13822 F960.000
G1 X-27.424 Y-3.123 E0.13052
G1 X-27.305 Y-4.258 E0.08796
G1 X-27.206 Y-4.628 E0.02950
G1 X-26.583 Y-5.895 E0.10881
G1 X-14.047 Y-22.295 E1.59084
G1 X-13.375 Y-22.967 E0.07316
G1 X-12.858 Y-23.324 E0.04846
G1 X7.055 Y-34.821 E1.77200
G1 X7.623 Y-35.090 E0.04847
G1 X8.808 Y-35.361 E0.09362
G1 X9.016 Y-35.373 E0.01606
G1 X9.697 Y-35.348 E0.05257
G1 X10.704 Y-35.090 E0.08010 F960.000
G1 X10.843 Y-35.033 E0.01159
G1 X11.665 Y-34.558 E0.07313
G1 X11.784 Y-34.467 E0.01159
G1 X12.455 Y-33.795 E0.07316
G1 X12.549 Y-33.673 E0.01184
G1 X12.813 Y-33.278 E0.03665
G1 X20.061 Y-20.725 E1.11709
G1 X20.594 Y-19.666 E0.09134
G1 X20.772 Y-19.242 E0.03543
G1 X21.084 Y-18.341 E0.07349
G1 X21.207 Y-17.898 E0.03542
G1 X21.422 Y-16.872 E0.08081
G1 X27.068 Y13.981 E2.41717
G1 X27.155 Y14.648 E0.05183
G1 X27.155 Y15.597 E0.07314
G1 X27.068 Y16.263 E0.05183
G1 X26.822 Y17.180 E0.07315
G1 X26.565 Y17.801 E0.05183
G1 X26.090 Y18.623 E0.07314
G1 X25.681 Y19.157 E0.05182
G1 X25.010 Y19.828 E0.07314
G1 X24.474 Y20.239 E0.05208
G1 X24.078 Y20.504 E0.03665
G1 X-1.276 Y35.142 E2.25621
G1 X-2.900 Y35.623 E0.13052
G1 X-4.035 Y35.505 E0.08795
G1 X-4.405 Y35.406 E0.02950
G1 X-5.894 Y34.598 E0.13052
G1 X-6.612 Y33.712 E0.08796
G1 X-19.527 Y11.343 E1.99053
G1 E-3.50000 F1500.00000
G1 Z0.700 F15000.000
G1 X-3.236 Y30.392 F15000.000
G1 Z0.300 F15000.000
G1 E3.50000 F1500.00000
G1 X-3.032 Y30.477 E0.01699 F600.000
G1 X-2.294 Y30.574 E0.05741 F600.000
G1 X-1.849 Y30.515 E0.03462
G1 X-1.748 Y30.812 E0.02412
G1 X-3.200 Y31.650 E0.12926
G1 X-3.931 Y30.385 E0.11264
G1 X-3.751 Y30.179 E0.02106
G1 X-3.291 Y30.369 E0.03833
G1 X-3.207 Y30.611 F15000.000
G1 X-4.101 Y30.047 F15000.000
G1 X-4.737 Y29.086 E0.08886 F720.000
G1 X-5.213 Y28.122 E0.08281
G1 E-3.50000 F1500.00000
G1 Z0.700 F15000.000
G1 X-1.470 Y30.543 F15000.000
G1 Z0.300 F15000.000
G1 E3.50000 F1500.00000
G1 X-0.847 Y30.234 E0.05359 F720.000
G1 X3.489 Y27.730 E0.38583
G1 X4.068 Y27.346 E0.05357
G1 E-3.50000 F1500.00000
G1 Z0.700 F15000.000
G1 X-21.601 Y-0.263 F15000.000
G1 Z0.300 F15000.000
G1 E3.50000 F1500.00000
G1 X-22.237 Y-1.225 E0.08886 F720.000
G1 X-22.713 Y-2.189 E0.08281
G1 X-22.981 Y-3.695 F15000.000
G1 X-22.584 Y-3.924 E0.03534 F600.000
G1 X-22.378 Y-3.744 E0.02106
G1 X-22.550 Y-3.329 E0.03463 F600.000
G1 X-22.652 Y-2.558 E0.05995
G1 X-22.920 Y-2.504 E0.02106
G1 X-23.450 Y-3.424 E0.08181
G1 X-23.033 Y-3.665 E0.03717
G1 X-22.634 Y-3.495 F15000.000
G1 X-22.242 Y-4.090 F15000.000
G1 X-21.710 Y-4.552 E0.05427 F720.000
G1 X-21.147 Y-4.927 E0.05218
G1 X-16.811 Y-7.430 E0.38583
G1 X-16.204 Y-7.730 E0.05218
G1 X-15.539 Y-7.961 E0.05427
G1 X7.754 Y-9.672 F15000.000
G1 X7.832 Y-10.261 E0.04581 F600.000
G1 X8.059 Y-10.811 E0.04581
G1 X8.421 Y-11.282 E0.04581
G1 X8.893 Y-11.644 E0.04581
G1 X9.442 Y-11.871 E0.04581 F600.000
G1 X10.031 Y-11.949 E0.04581
G1 X10.621 Y-11.871 E0.04581
G1 X11.170 Y-11.644 E0.04581
G1 X11.641 Y-11.282 E0.04581
G1 X12.003 Y-10.811 E0.04581
G1 X12.231 Y-10.261 E0.04581
G1 X12.308 Y-9.672 E0.04581
G1 X12.231 Y-9.083 E0.04581
G1 X12.003 Y-8.534 E0.04581
G1 X11.641 Y-8.062 E0.04581
G1 X11.170 Y-7.700 E0.04581
G1 X10.621 Y-7.473 E0.04581
G1 X10.031 Y-7.395 E0.04581
G1 X9.442 Y-7.473 E0.04581
G1 X8.893 Y-7.700 E0.04581
G1 X8.421 Y-8.062 E0.04581
G1 X8.059 Y-8.534 E0.04581
G1 X7.832 Y-9.083 E0.04581
G1 X7.762 Y-9.613 E0.04118
G1 X7.417 Y-9.887 F15000.000
G1 E-3.50000 F1500.00000
G1 Z0.700 F15000.000
G1 X19.214 Y8.890 F15000.000
G1 Z0.300 F15000.000
G1 E3.50000 F1500.00000
G1 X22.319 Y14.268 E0.47856 F720.000
G1 X22.503 Y14.713 E0.03710
G1 X22.557 Y15.122 E0.03183
G1 X22.503 Y15.532 E0.03183
G1 X22.345 Y15.913 E0.03182
G1 X22.094 Y16.241 E0.03182
G1 X21.712 Y16.534 E0.03710
G1 X5.438 Y25.929 E1.44818
G1 X5.531 Y25.221 E0.05510
G1 X5.412 Y24.316 E0.07030
G1 X5.063 Y23.473 E0.07030
G1 X4.507 Y22.750 E0.07031
G1 X3.784 Y22.194 E0.07030
G1 X2.941 Y21.845 E0.07030
G1 X2.036 Y21.726 E0.07030
G1 X1.132 Y21.845 E0.07030
G1 X0.352 Y22.168 E0.06503
G1 X-4.095 Y24.736 E0.39579
G1 X-4.765 Y25.250 E0.06503
G1 X-5.320 Y25.973 E0.07030
G1 X-5.497 Y26.401 E0.03566
G1 X-20.253 Y0.844 E2.27425
G1 X-19.794 Y0.904 E0.03566
G1 X-18.889 Y0.785 E0.07030
G1 X-18.110 Y0.462 E0.06503
G1 X-13.662 Y-2.106 E0.39579
G1 X-12.993 Y-2.619 E0.06503
G1 X-12.437 Y-3.343 E0.07030
G1 X-12.088 Y-4.186 E0.07030
G1 X-11.969 Y-5.090 E0.07030
G1 X-12.088 Y-5.995 E0.07030
G1 X-12.437 Y-6.838 E0.07030
G1 X-12.993 Y-7.561 E0.07030
G1 X-13.860 Y-8.227 E0.08424
G1 X-9.413 Y-10.794 E0.39571
G1 X-8.591 Y-11.688 E0.09361
G1 X-8.035 Y-12.792 E0.09524
G1 X-7.804 Y-14.026 E0.09677
G1 X-7.927 Y-15.264 E0.09588
G1 X-8.364 Y-16.352 E0.09034
G1 X-10.196 Y-19.525 E0.28238
G1 X9.014 Y-30.616 E1.70944
G1 X16.043 Y-18.441 E1.08341
G1 X16.426 Y-17.669 E0.06641 F720.000
G1 X16.697 Y-16.886 E0.06387
G1 X16.893 Y-15.904 E0.07717
G1 X16.939 Y-15.048 E0.06602
G1 X16.881 Y-14.235 E0.06281
G1 X16.716 Y-13.412 E0.06471
G1 X16.451 Y-12.626 E0.06389
G1 X16.089 Y-11.881 E0.06387
G1 X15.623 Y-11.166 E0.06577
G1 X14.963 Y-10.413 E0.07717
G1 X14.336 Y-9.871 E0.06387
G1 X13.619 Y-9.393 E0.06641
G1 X12.855 Y-8.952 E0.06800
G1 X12.949 Y-9.672 E0.05596
G1 X12.850 Y-10.427 E0.05871
G1 X12.558 Y-11.131 E0.05871
G1 X12.095 Y-11.735 E0.05871
G1 X11.490 Y-12.199 E0.05871
G1 X10.787 Y-12.491 E0.05871
G1 X10.031 Y-12.590 E0.05871
G1 X9.509 Y-12.521 E0.04057
G1 X9.276 Y-12.491 E0.01814
G1 X8.572 Y-12.199 E0.05871
G1 X7.968 Y-11.735 E0.05871
G1 X7.504 Y-11.131 E0.05871
G1 X7.213 Y-10.427 E0.05871
G1 X7.113 Y-9.672 E0.05871
G1 X7.213 Y-8.917 E0.05871
G1 X7.504 Y-8.213 E0.05871
G1 X7.968 Y-7.609 E0.05871
G1 X8.572 Y-7.145 E0.05871
G1 X9.276 Y-6.853 E0.05871
G1 X9.642 Y-6.805 E0.02846
G1 X9.070 Y-6.148 E0.06713
G1 X8.567 Y-5.385 E0.07049
G1 X8.170 Y-4.565 E0.07016
G1 X7.879 Y-3.680 E0.07184
G1 X7.713 Y-2.794 E0.06941
G1 X7.698 Y-2.521 E0.02109
G1 X7.362 Y-2.639 E0.02742
G1 X6.452 Y-2.806 E0.07127
G1 X5.527 Y-2.830 E0.07132
G1 X4.610 Y-2.708 E0.07133
G1 X3.722 Y-2.445 E0.07133
G1 X2.861 Y-2.034 E0.07354
G1 X1.637 Y-1.090 E0.11915
G1 X0.688 Y0.167 E0.12138
G1 X0.104 Y1.630 E0.12138
G1 X-0.074 Y3.195 E0.12137
G1 X0.164 Y4.724 E0.11928
G1 X0.517 Y5.640 E0.07565
G1 X0.985 Y6.439 E0.07130
G1 X1.575 Y7.167 E0.07226
G1 X2.780 Y8.137 E0.11924
G1 X4.224 Y8.766 E0.12137
G1 X5.783 Y8.992 E0.12138
G1 X7.346 Y8.798 E0.12138
G1 X8.776 Y8.210 E0.11915
G1 X9.562 Y7.670 E0.07353
G1 X10.234 Y7.033 E0.07133
G1 X10.795 Y6.302 E0.07103
G1 X11.244 Y5.475 E0.07252
G1 X11.550 Y4.615 E0.07035
G1 X11.617 Y4.258 E0.02801
G1 X11.977 Y4.434 E0.03082
G1 X12.243 Y4.537 E0.02199
G1 X13.247 Y4.817 E0.08033
G1 X14.311 Y4.941 E0.08256
G1 X15.381 Y4.899 E0.08253
G1 X16.432 Y4.691 E0.08256
G1 X16.727 Y4.583 E0.02422
G1 X19.184 Y8.838 E0.37868
G1 X19.734 Y8.520 F15000.000
G1 X22.890 Y13.986 E0.48639 F720.000
G1 X23.122 Y14.547 E0.04676
G1 X23.198 Y15.122 E0.04472
G1 X23.122 Y15.698 E0.04472
G1 X22.900 Y16.234 E0.04472
G1 X22.547 Y16.694 E0.04472
G1 X22.065 Y17.063 E0.04676
G1 X4.440 Y27.239 E1.56842
G1 X4.234 Y27.004 E0.02412
G1 X4.507 Y26.647 E0.03463
G1 X4.792 Y25.959 E0.05741
G1 X4.890 Y25.221 E0.05741
G1 X4.793 Y24.482 E0.05741
G1 X4.507 Y23.794 E0.05741
G1 X4.054 Y23.203 E0.05741
G1 X3.463 Y22.749 E0.05741
G1 X2.775 Y22.464 E0.05741
G1 X2.036 Y22.367 E0.05741
G1 X1.298 Y22.464 E0.05741
G1 X0.634 Y22.739 E0.05537
G1 X-3.742 Y25.265 E0.38937
G1 X-4.312 Y25.703 E0.05537
G1 X-4.765 Y26.294 E0.05741
G1 X-5.050 Y26.982 E0.05741
G1 X-5.152 Y27.753 E0.05995
G1 X-5.420 Y27.807 E0.02106
G1 X-21.431 Y0.074 E2.46788
G1 X-21.251 Y-0.132 E0.02106
G1 X-20.532 Y0.166 E0.05995
G1 X-19.794 Y0.263 E0.05741
G1 X-19.055 Y0.166 E0.05741
G1 X-18.392 Y-0.109 E0.05537
G1 X-14.016 Y-2.635 E0.38937
G1 X-13.446 Y-3.073 E0.05537
G1 X-12.993 Y-3.664 E0.05741
G1 X-12.707 Y-4.352 E0.05741
G1 X-12.610 Y-5.090 E0.05741
G1 X-12.707 Y-5.829 E0.05741
G1 X-12.993 Y-6.517 E0.05741
G1 X-13.446 Y-7.108 E0.05741
G1 X-14.037 Y-7.562 E0.05741
G1 X-14.725 Y-7.847 E0.05741
G1 X-15.171 Y-7.905 E0.03463
G1 X-15.224 Y-8.173 E0.02106
G1 X-9.815 Y-11.296 E0.48131
G1 X-9.119 Y-12.053 E0.07929
G1 X-8.641 Y-13.001 E0.08181
G1 X-8.445 Y-14.052 E0.08235
G1 X-8.550 Y-15.111 E0.08204
G1 X-8.937 Y-16.073 E0.07989
G1 X-10.938 Y-19.539 E0.30842
G1 X-10.978 Y-19.675 E0.01092
G1 X-10.970 Y-19.733 E0.00449
G1 X-10.913 Y-19.833 E0.00890
G1 X9.028 Y-31.358 E1.77493
G1 X9.084 Y-31.381 E0.00471
G1 X9.284 Y-31.381 E0.01540
G1 X9.373 Y-31.265 E0.01126
G1 X16.604 Y-18.742 E1.11447 F720.000
G1 X17.013 Y-17.915 E0.07106
G1 X17.311 Y-17.056 E0.07008
G1 X17.526 Y-15.963 E0.08588
G1 X17.576 Y-15.045 E0.07084
G1 X17.530 Y-14.342 E0.05427
G1 X17.511 Y-14.143 E0.01544
G1 X17.331 Y-13.247 E0.07039
G1 X17.041 Y-12.385 E0.07010
G1 X16.644 Y-11.567 E0.07008
G1 X16.022 Y-10.642 E0.08588
G1 X15.409 Y-9.959 E0.07075
G1 X14.722 Y-9.364 E0.07008
G1 X13.954 Y-8.853 E0.07106
G1 X11.425 Y-7.393 E0.22506
G1 X10.746 Y-6.938 E0.06297
G1 X10.123 Y-6.389 E0.06400
G1 X9.578 Y-5.763 E0.06400
G1 X9.120 Y-5.070 E0.06399
G1 X8.759 Y-4.324 E0.06387
G1 X8.498 Y-3.529 E0.06447
G1 X8.345 Y-2.718 E0.06360
G1 X8.313 Y-2.132 E0.04524
G1 X7.774 Y-1.821 E0.04794
G1 X7.198 Y-2.023 E0.04703
G1 X6.386 Y-2.172 E0.06361
G1 X5.561 Y-2.193 E0.06363
G1 X4.743 Y-2.085 E0.06363
G1 X3.951 Y-1.850 E0.06363
G1 X3.196 Y-1.489 E0.06448
G1 X2.093 Y-0.639 E0.10736
G1 X1.246 Y0.482 E0.10822
G1 X0.726 Y1.786 E0.10822
G1 X0.568 Y3.182 E0.10822
G1 X0.781 Y4.559 E0.10744
G1 X1.092 Y5.363 E0.06641
G1 X1.509 Y6.076 E0.06364
G1 X2.026 Y6.715 E0.06334
G1 X3.112 Y7.589 E0.10743
G1 X4.400 Y8.149 E0.10822
G1 X5.789 Y8.351 E0.10822
G1 X7.183 Y8.178 E0.10822
G1 X8.471 Y7.648 E0.10736
G1 X9.161 Y7.174 E0.06448
G1 X9.760 Y6.606 E0.06363
G1 X10.262 Y5.953 E0.06352
G1 X10.659 Y5.223 E0.06405
G1 X10.935 Y4.449 E0.06328
G1 X11.048 Y3.849 E0.04703
G1 X11.589 Y3.537 E0.04818
G1 X12.231 Y3.851 E0.05512
G1 X12.443 Y3.933 E0.01750
G1 X13.370 Y4.191 E0.07412
G1 X14.335 Y4.304 E0.07492
G1 X15.306 Y4.265 E0.07489
G1 X16.260 Y4.077 E0.07491
G1 X17.010 Y3.802 E0.06158
G1 X19.704 Y8.468 E0.41523
G1 X19.534 Y8.867 F15000.000
G1 X18.634 Y8.827 F15000.000
G1 X15.097 Y5.290 E0.38713 F960.000
G1 X15.878 Y5.169 E0.06121
G1 X17.401 Y6.691 E0.16662
G1 X19.867 Y10.963 F15000.000
G1 X14.228 Y5.325 E0.61715 F960.000
G1 X13.219 Y5.218 E0.07854
G1 X21.100 Y13.099 E0.86259
G1 X22.138 Y15.040 F15000.000
G1 X12.014 Y4.916 E1.10811 F960.000
G1 X11.629 Y5.433 E0.04992
G1 X22.006 Y15.811 E1.13585
G1 X21.539 Y16.246 E0.04944
G1 X11.326 Y6.033 E1.11782
G1 X10.987 Y6.597 E0.05092
G1 X20.966 Y16.576 E1.09226
G1 X20.394 Y16.907 E0.05115
G1 X10.595 Y7.107 E1.07255
G1 X10.151 Y7.566 E0.04941
G1 X19.822 Y17.237 E1.05849
G1 X19.249 Y17.567 E0.05115
G1 X9.677 Y7.995 E1.04772
G1 X9.142 Y8.363 E0.05025
G1 X18.677 Y17.898 E1.04365
G1 X18.105 Y18.228 E0.05115
G1 X8.551 Y8.675 E1.04563
G1 X7.912 Y8.938 E0.05353
G1 X17.532 Y18.559 E1.05301
G1 X16.960 Y18.889 E0.05115
G1 X7.253 Y9.182 E1.06240
G1 X6.450 Y9.282 E0.06264
G1 X16.388 Y19.219 E1.08768
G1 X15.815 Y19.550 E0.05115
G1 X5.647 Y9.381 E1.11296
G1 X4.593 Y9.230 E0.08242
G1 X15.243 Y19.880 E1.16570
G1 X14.671 Y20.211 E0.05115
G1 X3.327 Y8.867 E1.24160
G1 X0.006 Y5.546 F15000.000
G1 X-11.703 Y-6.163 E1.28154 F960.000
G1 X-12.983 Y-8.345 F15000.000
G1 X-0.310 Y4.327 E1.38700 F960.000
G1 X-0.456 Y3.278 E0.08195
G1 X-12.410 Y-8.676 E1.30837
G1 X-11.838 Y-9.006 E0.05115
G1 X-0.365 Y2.467 E1.25579
G1 X-0.273 Y1.656 E0.06315
G1 X-11.266 Y-9.337 E1.20321
G1 X-10.693 Y-9.667 E0.05115
G1 X-0.019 Y1.007 E1.16832
G1 X0.239 Y0.362 E0.05376
G1 X-10.121 Y-9.997 E1.13387
G1 X-9.549 Y-10.328 E0.05115
G1 X0.562 Y-0.217 E1.10669
G1 X0.951 Y-0.731 E0.04988
G1 X-9.036 Y-10.718 E1.09305
G1 X-8.603 Y-11.188 E0.04945
G1 X1.339 Y-1.245 E1.08822
G1 X1.830 Y-1.657 E0.04959
G1 X-8.208 Y-11.695 E1.09868
G1 X-7.905 Y-12.295 E0.05202
G1 X2.340 Y-2.050 E1.12135
G1 X2.875 Y-2.418 E0.05024
G1 X-7.639 Y-12.932 E1.15080
G1 X-7.497 Y-13.692 E0.05987
G1 X3.486 Y-2.709 E1.20211
G1 X4.157 Y-2.942 E0.05492
G1 X-7.455 Y-14.553 E1.27089
G1 X-7.570 Y-15.571 E0.07931
G1 X4.884 Y-3.117 E1.36317
G1 X5.689 Y-3.215 E0.06275
G1 X-8.328 Y-17.232 E1.53426
G1 X-9.562 Y-19.368 F15000.000
G1 X6.615 Y-3.191 E1.77059 F960.000
G1 X7.434 Y-3.275 E0.06369
G1 X-9.075 Y-19.784 E1.80693
G1 X-8.503 Y-20.115 E0.05115
G1 X7.615 Y-3.997 E1.76410
G1 X7.843 Y-4.671 E0.05510
G1 X-7.930 Y-20.445 E1.72646
G1 X-7.358 Y-20.775 E0.05115
G1 X8.138 Y-5.280 E1.69606
G1 X8.555 Y-6.668 F15000.000
G1 X8.839 Y-6.384 E0.03105 F960.000
G1 X8.473 Y-5.848 E0.05028
G1 X-6.786 Y-21.106 E1.67006
G1 X-6.213 Y-21.436 E0.05115
G1 X7.027 Y-8.196 E1.44922
G1 X6.744 Y-9.382 E0.09439
G1 X-5.641 Y-21.767 E1.35555
G1 X-5.069 Y-22.097 E0.05115
G1 X6.813 Y-10.216 E1.30045
G1 X7.035 Y-10.897 E0.05542
G1 X-4.496 Y-22.428 E1.26210
G1 X-3.924 Y-22.758 E0.05115
G1 X7.354 Y-11.480 E1.23444
G1 X7.750 Y-11.986 E0.04977
G1 X-3.352 Y-23.088 E1.21518
G1 X-2.780 Y-23.419 E0.05115
G1 X8.261 Y-12.378 E1.20844
G1 X8.854 Y-12.688 E0.05176
G1 X-2.207 Y-23.749 E1.21066
G1 X-1.635 Y-24.080 E0.05115
G1 X9.546 Y-12.898 E1.22381
G1 X10.398 Y-12.950 E0.06603
G1 X-1.063 Y-24.410 E1.25439
G1 X-0.490 Y-24.741 E0.05115
G1 X11.621 Y-12.629 E1.32562
G1 X13.580 Y-9.768 F15000.000
G1 X13.309 Y-10.039 E0.02967 F960.000
G1 X12.988 Y-11.262 E0.09785
G1 X14.122 Y-10.128 E0.12407
G1 X14.610 Y-10.543 E0.04956
G1 X0.082 Y-25.071 E1.59007
G1 X0.654 Y-25.401 E0.05115
G1 X15.047 Y-11.009 E1.57528
G1 X15.449 Y-11.510 E0.04970
G1 X1.227 Y-25.732 E1.55665
G1 X1.799 Y-26.062 E0.05115
G1 X15.799 Y-12.062 E1.53236
G1 X16.094 Y-12.670 E0.05229
G1 X2.371 Y-26.393 E1.50199
G1 X2.944 Y-26.723 E0.05115
G1 X16.324 Y-13.343 E1.46449
G1 X16.483 Y-14.087 E0.05886
G1 X3.516 Y-27.054 E1.41926
G1 X4.088 Y-27.384 E0.05115
G1 X16.553 Y-14.920 E1.36426
G1 X16.470 Y-15.905 E0.07654
G1 X4.661 Y-27.714 E1.29256
G1 X5.233 Y-28.045 E0.05115
G1 X16.152 Y-17.126 E1.19509
G1 X15.171 Y-19.009 F15000.000
G1 X5.805 Y-28.375 E1.02517 F960.000
G1 X6.377 Y-28.706 E0.05115
G1 X13.938 Y-21.145 E0.82755
G1 X12.705 Y-23.281 F15000.000
G1 X6.950 Y-29.036 E0.62994 F960.000
G1 X7.522 Y-29.367 E0.05115
G1 X11.472 Y-25.417 E0.43233
G1 X10.239 Y-27.553 F15000.000
G1 X8.094 Y-29.697 E0.23471 F960.000
G1 X8.667 Y-30.027 E0.05115
G1 X9.006 Y-29.688 E0.03710
G1 E-3.50000 F1500.00000
G1 Z0.700 F15000.000
G1 X-19.253 Y1.634 F15000.000
G1 Z0.300 F15000.000
G1 E3.50000 F1500.00000
G1 X0.746 Y21.632 E2.18889 F960.000
G1 X1.447 Y21.431 E0.05649
G1 X-18.845 Y1.139 E2.22103
G1 X-18.206 Y0.875 E0.05347
G1 X2.268 Y21.349 E2.24094
G1 X3.354 Y21.532 E0.08523
G1 X-17.614 Y0.564 E2.29497
G1 X-17.042 Y0.234 E0.05115
G1 X7.231 Y24.506 E2.65667
G1 X7.803 Y24.176 E0.05115
G1 X-16.470 Y-0.097 E2.65667
G1 X-15.897 Y-0.427 E0.05115
G1 X8.375 Y23.845 E2.65667
G1 X8.947 Y23.515 E0.05115
G1 X-15.325 Y-0.758 E2.65668
G1 X-14.753 Y-1.088 E0.05115
G1 X9.520 Y23.184 E2.65668
G1 X10.092 Y22.854 E0.05115
G1 X-14.180 Y-1.418 E2.65668
G1 X-13.608 Y-1.749 E0.05115
G1 X10.664 Y22.524 E2.65668
G1 X11.237 Y22.193 E0.05115
G1 X-13.086 Y-2.130 E2.66223
G1 X-12.618 Y-2.564 E0.04944
G1 X11.809 Y21.863 E2.67357
G1 X12.381 Y21.532 E0.05115
G1 X-12.226 Y-3.075 E2.69331
G1 X-11.926 Y-3.678 E0.05212
G1 X12.954 Y21.202 E2.72316
G1 X13.526 Y20.872 E0.05115
G1 X-11.695 Y-4.349 E2.76045
G1 X-11.590 Y-5.147 E0.06227
G1 X14.098 Y20.541 E2.81160
G1 X6.658 Y24.837 F15000.000
G1 X5.725 Y23.903 E0.10215 F960.000
G1 E-3.50000 F1500.00000
G1 Z0.700 F15000.000
G1 X-5.349 Y25.467 F15000.000
G1 Z0.300 F15000.000
G1 E3.50000 F1500.00000
G1 X-5.688 Y25.129 E0.03705 F960.000
G1 X-6.921 Y22.993 F15000.000
G1 X-4.944 Y24.970 E0.21637 F960.000
