; generated by Slic3r 1.2.9 on 2017-09-12 at 12:39:42

; external perimeters extrusion width = 0.40mm
; perimeters extrusion width = 0.40mm
; infill extrusion width = 0.40mm
; solid infill extrusion width = 0.40mm
; top infill extrusion width = 0.40mm

M107
M83
T0
M116
G21 ; set units to millimeters
G90 ; use absolute coordinates
M83 ; use relative distances for extrusion
G1 E-3.50000 F1500.00000
G1 Z0.400 F15000.000
G1 X6.556 Y11.387 F15000.000
G1 Z0.300 F15000.000
G1 E3.50000 F1500.00000
G1 X-4.236 Y17.601 E0.95970 F960.000
G1 X-6.050 Y18.086 E0.14471
G1 X-8.250 Y18.086 E0.16954
G1 X-10.187 Y17.527 E0.15534
G1 X-28.887 Y5.756 E1.70285
G1 X-30.070 Y4.545 E0.13052
G1 X-30.586 Y2.679 E0.14915
G1 X-30.586 Y-0.479 E0.24342
G1 X-30.191 Y-2.126 E0.13052
G1 X-29.521 Y-3.050 E0.08796
G1 X-15.550 Y-17.021 E1.52263
G1 X-14.106 Y-17.906 E0.13052
G1 X-12.979 Y-18.086 E0.08796
G1 X-7.021 Y-18.086 E0.45920
G1 X-6.491 Y-18.047 E0.04091
G1 X27.479 Y-13.047 E2.64618 F960.000
G1 X29.051 Y-12.417 E0.13052
G1 X30.167 Y-11.143 E0.13052
G1 X30.586 Y-9.450 E0.13437
G1 X30.586 Y-4.550 E0.37762
G1 X30.191 Y-2.903 E0.13052
G1 X28.764 Y-1.399 E0.15976
G1 X6.608 Y11.357 E1.97024
G1 E-3.50000 F1500.00000
G1 Z0.700 F15000.000
G1 X-7.264 Y7.300 F15000.000
G1 Z0.300 F15000.000
G1 E3.50000 F1500.00000
G1 X-7.264 Y-11.536 E1.45156 F720.000
G1 X-14.500 Y-11.536 E0.55760
G1 X-12.571 Y-13.464 E0.21021
G1 X-7.429 Y-13.464 E0.39628
G1 X-2.429 Y-8.464 E0.54494
G1 X25.964 Y-8.464 E2.18815 F720.000
G1 X25.964 Y-5.536 E0.22571
G1 X5.571 Y-5.536 E1.57162
G1 X-7.222 Y7.257 E1.39427
G1 X-7.900 Y7.257 F15000.000
G1 X-7.900 Y-10.900 E1.39931 F720.000
G1 X-13.866 Y-10.900 E0.45975
G1 X-26.600 Y1.834 E1.38788
G1 X-26.600 Y-0.334 E0.16713
G1 X-12.834 Y-14.100 E1.50028
G1 X-7.166 Y-14.100 E0.43686
G1 X-2.166 Y-9.100 E0.54494
G1 X26.600 Y-9.100 E2.21684 F720.000
G1 X26.600 Y-4.900 E0.32368
G1 X5.834 Y-4.900 E1.60032
G1 X-6.400 Y7.334 E1.33338
G1 X-6.400 Y14.100 E0.52140
G1 X-7.900 Y14.100 E0.11560
G1 X-7.900 Y7.317 E0.52271
G1 X-7.554 Y7.057 F15000.000
G1 X-7.150 Y7.635 F15000.000
G1 X-7.150 Y13.782 E0.99547 F960.000
G1 E-3.50000 F1500.00000
G1 Z0.700 F15000.000
G1 X-26.282 Y0.432 F15000.000
G1 Z0.300 F15000.000
G1 E3.50000 F1500.00000
G1 X-14.632 Y-11.218 E2.66800 F960.000
G1 X-13.040 Y-11.920 F15000.000
G1 X-13.331 Y-12.211 E0.03221 F960.000
G1 X-12.875 Y-12.668 E0.05053
G1 X-12.127 Y-11.920 E0.08274
G1 X-11.214 Y-11.920 E0.07146
G1 X-12.373 Y-13.080 E0.12832
G1 X-11.460 Y-13.080 E0.07146
G1 X-10.301 Y-11.920 E0.12832
G1 X-9.388 Y-11.920 E0.07146
G1 X-10.547 Y-13.080 E0.12832
G1 X-9.634 Y-13.080 E0.07146
G1 X-8.475 Y-11.920 E0.12832
G1 X-7.562 Y-11.920 E0.07146
G1 X-8.721 Y-13.080 E0.12832
G1 X-7.808 Y-13.080 E0.07146
G1 X-6.669 Y-11.940 E0.12611
G1 X-6.575 Y6.144 F15000.000
G1 X-6.879 Y5.841 E0.03363 F960.000
G1 X-6.879 Y4.937 E0.07070
G1 X-6.124 Y5.693 E0.08362
G1 X-5.672 Y5.241 E0.05000
G1 X-6.879 Y4.034 E0.13362
G1 X-6.879 Y3.131 E0.07070
G1 X-5.220 Y4.790 E0.18362
G1 X-4.769 Y4.338 E0.05000
G1 X-6.879 Y2.228 E0.23361
G1 X-6.879 Y1.324 E0.07070
G1 X-4.317 Y3.886 E0.28361
G1 X-3.865 Y3.435 E0.05000
G1 X-6.879 Y0.421 E0.33360
G1 X-6.879 Y-0.482 E0.07070
G1 X-3.414 Y2.983 E0.38360
G1 X-2.962 Y2.531 E0.05000
G1 X-6.879 Y-1.386 E0.43359
G1 X-6.879 Y-2.289 E0.07070
G1 X-2.510 Y2.080 E0.48359
G1 X-2.059 Y1.628 E0.05000
G1 X-6.879 Y-3.192 E0.53359
G1 X-6.879 Y-4.096 E0.07070
G1 X-1.607 Y1.176 E0.58358
G1 X-1.155 Y0.725 E0.05000
G1 X-6.879 Y-4.999 E0.63358
G1 X-6.879 Y-5.902 E0.07070
G1 X-0.704 Y0.273 E0.68357
G1 X-0.252 Y-0.179 E0.05000
G1 X-6.879 Y-6.805 E0.73357
G1 X-6.879 Y-7.709 E0.07070
G1 X0.200 Y-0.630 E0.78356
G1 X0.651 Y-1.082 E0.05000
G1 X-6.879 Y-8.612 E0.83356
G1 X-6.879 Y-9.515 E0.07070
G1 X1.103 Y-1.533 E0.88356
G1 X1.554 Y-1.985 E0.05000
G1 X-6.879 Y-10.419 E0.93355
G1 X-6.879 Y-11.322 E0.07070
G1 X2.006 Y-2.437 E0.98355
G1 X2.458 Y-2.888 E0.05000
G1 X-2.733 Y-8.079 E0.57457
G1 X-1.829 Y-8.079 E0.07070
G1 X2.909 Y-3.340 E0.52458
G1 X3.361 Y-3.792 E0.05000
G1 X-0.926 Y-8.079 E0.47458
G1 X-0.023 Y-8.079 E0.07070
G1 X3.813 Y-4.243 E0.42459
G1 X4.264 Y-4.695 E0.05000
G1 X0.880 Y-8.079 E0.37459
G1 X1.784 Y-8.079 E0.07070
G1 X4.716 Y-5.147 E0.32460
G1 X5.168 Y-5.598 E0.05000
G1 X2.687 Y-8.079 E0.27460
G1 X3.590 Y-8.079 E0.07070
G1 X5.748 Y-5.921 E0.23887
G1 X6.651 Y-5.921 E0.07070
G1 X4.494 Y-8.079 E0.23887
G1 X5.397 Y-8.079 E0.07070
G1 X7.555 Y-5.921 E0.23887
G1 X8.458 Y-5.921 E0.07070
G1 X6.300 Y-8.079 E0.23887
G1 X7.203 Y-8.079 E0.07070
G1 X9.361 Y-5.921 E0.23887
G1 X10.265 Y-5.921 E0.07070
G1 X8.107 Y-8.079 E0.23887
G1 X9.010 Y-8.079 E0.07070
G1 X11.168 Y-5.921 E0.23887
G1 X12.071 Y-5.921 E0.07070
G1 X9.913 Y-8.079 E0.23887
G1 X10.817 Y-8.079 E0.07070
G1 X12.975 Y-5.921 E0.23887
G1 X13.878 Y-5.921 E0.07070
G1 X11.720 Y-8.079 E0.23887
G1 X12.623 Y-8.079 E0.07070
G1 X14.781 Y-5.921 E0.23887
G1 X15.684 Y-5.921 E0.07070
G1 X13.526 Y-8.079 E0.23887
G1 X14.430 Y-8.079 E0.07070
G1 X16.588 Y-5.921 E0.23887
G1 X17.491 Y-5.921 E0.07070
G1 X15.333 Y-8.079 E0.23887
G1 X16.236 Y-8.079 E0.07070
G1 X18.394 Y-5.921 E0.23887
G1 X19.298 Y-5.921 E0.07070
G1 X17.140 Y-8.079 E0.23887
G1 X18.043 Y-8.079 E0.07070
G1 X20.201 Y-5.921 E0.23887
G1 X21.104 Y-5.921 E0.07070
G1 X18.946 Y-8.079 E0.23887
G1 X19.850 Y-8.079 E0.07070
G1 X22.007 Y-5.921 E0.23887
G1 X22.911 Y-5.921 E0.07070
G1 X20.753 Y-8.079 E0.23887
G1 X21.656 Y-8.079 E0.07070
G1 X23.814 Y-5.921 E0.23887
G1 X24.717 Y-5.921 E0.07070
G1 X22.559 Y-8.079 E0.23887
G1 X23.463 Y-8.079 E0.07070
G1 X25.579 Y-5.963 E0.23426
G1 X25.579 Y-6.866 E0.07070
G1 X24.366 Y-8.079 E0.13427
G1 X25.269 Y-8.079 E0.07070
G1 X25.579 Y-7.769 E0.03428
G1 E-3.50000 F1500.00000
G1 Z0.700 F15000.000
G1 X-26.393 Y1.334 F15000.000
G1 Z0.500 F15000.000
G1 E3.50000 F1500.00000
G1 X-26.393 Y-0.249 E0.04569 F2400.000
G1 X-12.749 Y-13.893 E0.55694
G1 X-7.251 Y-13.893 E0.15866
G1 X-2.251 Y-8.893 E0.20409
G1 X26.393 Y-8.893 E0.82675 F2400.000
G1 X26.393 Y-5.107 E0.10927
G1 X5.749 Y-5.107 E0.59585
G1 X-6.607 Y7.249 E0.50433
G1 X-6.607 Y13.893 E0.19177
G1 X-7.693 Y13.893 E0.03134
G1 X-7.693 Y-11.107 E0.72157
G1 X-13.951 Y-11.107 E0.18064
G1 X-26.350 Y1.292 E0.50610
G1 X-26.098 Y1.544 F15000.000
G1 X-26.750 Y2.196 E0.02661 F2400.000
G1 X-26.750 Y-0.396 E0.07484
G1 X-12.896 Y-14.250 E0.56547
G1 X-7.104 Y-14.250 E0.16720
G1 X-2.104 Y-9.250 E0.20409
G1 X26.750 Y-9.250 E0.83279 F2400.000
G1 X26.750 Y-4.750 E0.12988
G1 X5.896 Y-4.750 E0.60189
G1 X-6.250 Y7.396 E0.49579
G1 X-6.250 Y14.250 E0.19781
G1 X-8.050 Y14.250 E0.05195
G1 X-8.050 Y-10.750 E0.72157
G1 X-13.804 Y-10.750 E0.16606
G1 X-26.056 Y1.502 E0.50010
G1 X-26.484 Y1.441 F15000.000
G1 E-3.50000 F1500.00000
G1 Z0.900 F15000.000
G1 X-7.485 Y6.757 F15000.000
G1 Z0.500 F15000.000
G1 E3.50000 F1500.00000
G1 X7.957 Y-8.685 E0.63619 F2400.000
G1 X7.447 Y-8.685 E0.01485
G1 X-7.485 Y6.247 E0.61519
G1 X-7.485 Y5.738 E0.01485
G1 X6.938 Y-8.685 E0.59420
G1 X6.428 Y-8.685 E0.01485
G1 X-7.485 Y5.228 E0.57320
G1 X-7.485 Y4.718 E0.01485
G1 X5.918 Y-8.685 E0.55220
G1 X5.409 Y-8.685 E0.01485
G1 X-7.485 Y4.209 E0.53120
G1 X-7.485 Y3.699 E0.01485
G1 X4.899 Y-8.685 E0.51020
G1 X4.389 Y-8.685 E0.01485
G1 X-7.485 Y3.189 E0.48921
G1 X-7.485 Y2.680 E0.01485
G1 X3.880 Y-8.685 E0.46821
G1 X3.370 Y-8.685 E0.01485
G1 X-7.485 Y2.170 E0.44721
G1 X-7.485 Y1.660 E0.01485
G1 X2.860 Y-8.685 E0.42621
G1 X2.351 Y-8.685 E0.01485
G1 X-7.485 Y1.151 E0.40521
G1 X-7.485 Y0.641 E0.01485
G1 X1.841 Y-8.685 E0.38422
G1 X1.331 Y-8.685 E0.01485
G1 X-7.485 Y0.131 E0.36322
G1 X-7.485 Y-0.378 E0.01485
G1 X0.822 Y-8.685 E0.34222
G1 X0.312 Y-8.685 E0.01485
G1 X-7.485 Y-0.888 E0.32122
G1 X-7.485 Y-1.398 E0.01485
G1 X-0.198 Y-8.685 E0.30022
G1 X-0.708 Y-8.685 E0.01485
G1 X-7.485 Y-1.907 E0.27923
G1 X-7.485 Y-2.417 E0.01485
G1 X-1.217 Y-8.685 E0.25823
G1 X-1.727 Y-8.685 E0.01485
G1 X-7.485 Y-2.927 E0.23723
G1 X-7.485 Y-3.437 E0.01485
G1 X-2.237 Y-8.685 E0.21623
G1 X-2.520 Y-8.912 E0.01056
G1 X-7.485 Y-3.946 E0.20457
G1 X-7.485 Y-4.456 E0.01485
G1 X-2.775 Y-9.167 E0.19407
G1 X-3.029 Y-9.421 E0.01050
G1 X-7.485 Y-4.966 E0.18357
G1 X-7.485 Y-5.475 E0.01485
G1 X-3.284 Y-9.676 E0.17307
G1 X-3.539 Y-9.931 E0.01050
G1 X-7.485 Y-5.985 E0.16257
G1 X-7.485 Y-6.495 E0.01485
G1 X-3.794 Y-10.186 E0.15207
G1 X-4.049 Y-10.441 E0.01050
G1 X-7.485 Y-7.004 E0.14157
G1 X-7.485 Y-7.514 E0.01485
G1 X-4.304 Y-10.696 E0.13107
G1 X-4.558 Y-10.950 E0.01050
G1 X-7.485 Y-8.024 E0.12058
G1 X-7.485 Y-8.533 E0.01485
G1 X-4.813 Y-11.205 E0.11008
G1 X-5.068 Y-11.460 E0.01050
G1 X-7.485 Y-9.043 E0.09958
G1 X-7.485 Y-9.553 E0.01485
G1 X-5.323 Y-11.715 E0.08908
G1 X-5.578 Y-11.970 E0.01050
G1 X-7.485 Y-10.062 E0.07858
G1 X-7.485 Y-10.572 E0.01485
G1 X-5.833 Y-12.225 E0.06808
G1 X-6.088 Y-12.480 E0.01050
G1 X-7.485 Y-11.082 E0.05758
G1 X-7.762 Y-11.315 F15000.000
G1 X-6.342 Y-12.734 E0.05848 F2400.000
G1 X-6.597 Y-12.989 E0.01050
G1 X-8.272 Y-11.315 E0.06898
G1 X-8.781 Y-11.315 E0.01485
G1 X-6.852 Y-13.244 E0.07948
G1 X-7.107 Y-13.499 E0.01050
G1 X-9.291 Y-11.315 E0.08998
G1 X-9.801 Y-11.315 E0.01485
G1 X-7.430 Y-13.685 E0.09765
G1 X-7.940 Y-13.685 E0.01485
G1 X-10.310 Y-11.315 E0.09765
G1 X-10.820 Y-11.315 E0.01485
G1 X-8.450 Y-13.685 E0.09765
G1 X-8.959 Y-13.685 E0.01485
G1 X-11.330 Y-11.315 E0.09765
G1 X-11.839 Y-11.315 E0.01485
G1 X-9.469 Y-13.685 E0.09765
G1 X-9.979 Y-13.685 E0.01485
G1 X-12.349 Y-11.315 E0.09765
G1 X-12.859 Y-11.315 E0.01485
G1 X-10.488 Y-13.685 E0.09765
G1 X-10.998 Y-13.685 E0.01485
G1 X-13.368 Y-11.315 E0.09765
G1 X-13.878 Y-11.315 E0.01485
G1 X-11.508 Y-13.685 E0.09765
G1 X-12.017 Y-13.685 E0.01485
G1 X-26.185 Y0.483 E0.58368
G1 X-26.185 Y-0.027 E0.01485
G1 X-12.527 Y-13.685 E0.56268
G1 E-3.50000 F1500.00000
G1 Z0.900 F15000.000
G1 X-6.815 Y13.222 F15000.000
G1 Z0.500 F15000.000
G1 E3.50000 F1500.00000
G1 X-7.278 Y13.685 E0.01906 F2400.000
G1 X-7.485 Y13.383 E0.01068
G1 X-6.815 Y12.713 E0.02762
G1 X-6.815 Y12.203 E0.01485
G1 X-7.485 Y12.873 E0.02762
G1 X-7.485 Y12.364 E0.01485
G1 X-6.815 Y11.693 E0.02762
G1 X-6.815 Y11.184 E0.01485
G1 X-7.485 Y11.854 E0.02762
G1 X-7.485 Y11.344 E0.01485
G1 X-6.815 Y10.674 E0.02762
G1 X-6.815 Y10.164 E0.01485
G1 X-7.485 Y10.835 E0.02762
G1 X-7.485 Y10.325 E0.01485
G1 X-6.815 Y9.655 E0.02762
G1 X-6.815 Y9.145 E0.01485
G1 X-7.485 Y9.815 E0.02762
G1 X-7.485 Y9.306 E0.01485
G1 X-6.815 Y8.635 E0.02762
G1 X-6.815 Y8.126 E0.01485
G1 X-7.485 Y8.796 E0.02762
G1 X-7.485 Y8.286 E0.01485
G1 X-6.815 Y7.616 E0.02762
G1 X-6.815 Y7.106 E0.01485
G1 X-7.485 Y7.777 E0.02762
G1 X-7.485 Y7.267 E0.01485
G1 X8.467 Y-8.685 E0.65719
G1 X8.977 Y-8.685 E0.01485
G1 X5.606 Y-5.315 E0.13885
G1 X6.116 Y-5.315 E0.01485
G1 X9.486 Y-8.685 E0.13885
G1 X9.996 Y-8.685 E0.01485
G1 X6.626 Y-5.315 E0.13885
G1 X7.135 Y-5.315 E0.01485
G1 X10.506 Y-8.685 E0.13885
G1 X11.015 Y-8.685 E0.01485
G1 X7.645 Y-5.315 E0.13885
G1 X8.155 Y-5.315 E0.01485
G1 X11.525 Y-8.685 E0.13885
G1 X12.035 Y-8.685 E0.01485
G1 X8.664 Y-5.315 E0.13885
G1 X9.174 Y-5.315 E0.01485
G1 X12.544 Y-8.685 E0.13885
G1 X13.054 Y-8.685 E0.01485
G1 X9.684 Y-5.315 E0.13885
G1 X10.193 Y-5.315 E0.01485
G1 X13.564 Y-8.685 E0.13885
G1 X14.073 Y-8.685 E0.01485
G1 X10.703 Y-5.315 E0.13885
G1 X11.213 Y-5.315 E0.01485
G1 X14.583 Y-8.685 E0.13885
G1 X15.093 Y-8.685 E0.01485
G1 X11.722 Y-5.315 E0.13885
G1 X12.232 Y-5.315 E0.01485
G1 X15.602 Y-8.685 E0.13885
G1 X16.112 Y-8.685 E0.01485
G1 X12.742 Y-5.315 E0.13885
G1 X13.252 Y-5.315 E0.01485
G1 X16.622 Y-8.685 E0.13885
G1 X17.132 Y-8.685 E0.01485
G1 X13.761 Y-5.315 E0.13885
G1 X14.271 Y-5.315 E0.01485
G1 X17.641 Y-8.685 E0.13885
G1 X18.151 Y-8.685 E0.01485
G1 X14.781 Y-5.315 E0.13885
G1 X15.290 Y-5.315 E0.01485
G1 X18.661 Y-8.685 E0.13885
G1 X19.170 Y-8.685 E0.01485
G1 X15.800 Y-5.315 E0.13885
G1 X16.310 Y-5.315 E0.01485
G1 X19.680 Y-8.685 E0.13885
G1 X20.190 Y-8.685 E0.01485
G1 X16.819 Y-5.315 E0.13885
G1 X17.329 Y-5.315 E0.01485
G1 X20.699 Y-8.685 E0.13885
G1 X21.209 Y-8.685 E0.01485
G1 X17.839 Y-5.315 E0.13885
G1 X18.348 Y-5.315 E0.01485
G1 X21.719 Y-8.685 E0.13885
G1 X22.228 Y-8.685 E0.01485
G1 X18.858 Y-5.315 E0.13885
G1 X19.368 Y-5.315 E0.01485
G1 X22.738 Y-8.685 E0.13885
G1 X23.248 Y-8.685 E0.01485
G1 X19.877 Y-5.315 E0.13885
G1 X20.387 Y-5.315 E0.01485
G1 X23.757 Y-8.685 E0.13885
G1 X24.267 Y-8.685 E0.01485
G1 X20.897 Y-5.315 E0.13885
G1 X21.406 Y-5.315 E0.01485
G1 X24.777 Y-8.685 E0.13885
G1 X25.287 Y-8.685 E0.01485
G1 X21.916 Y-5.315 E0.13885
G1 X22.426 Y-5.315 E0.01485
G1 X25.796 Y-8.685 E0.13885
G1 X26.185 Y-8.564 E0.01186
G1 X22.936 Y-5.315 E0.13388
G1 X23.445 Y-5.315 E0.01485
G1 X26.185 Y-8.055 E0.11288
G1 X26.185 Y-7.545 E0.01485
G1 X23.955 Y-5.315 E0.09188
G1 X24.465 Y-5.315 E0.01485
G1 X26.185 Y-7.035 E0.07088
G1 X26.185 Y-6.526 E0.01485
G1 X24.974 Y-5.315 E0.04989
G1 X25.484 Y-5.315 E0.01485
G1 X26.185 Y-6.016 E0.02889
G1 X26.185 Y-5.506 E0.01485
G1 X25.994 Y-5.315 E0.00789
G1 E-3.50000 F1500.00000
G1 Z0.900 F15000.000
G1 X-12.749 Y-13.893 F15000.000
G1 Z0.700 F15000.000
G1 E3.50000 F1500.00000
G1 X-7.251 Y-13.893 E0.15866 F2400.000
G1 X-2.251 Y-8.893 E0.20409
G1 X26.393 Y-8.893 E0.82675 F2400.000
G1 X26.393 Y-5.107 E0.10927
G1 X5.749 Y-5.107 E0.59585
G1 X-6.607 Y7.249 E0.50433
G1 X-6.607 Y13.893 E0.19177
G1 X-7.693 Y13.893 E0.03134
G1 X-7.693 Y-11.107 E0.72157
G1 X-13.951 Y-11.107 E0.18064
G1 X-26.393 Y1.334 E0.50784
G1 X-26.393 Y-0.249 E0.04569
G1 X-12.791 Y-13.850 E0.55520
G1 X-13.043 Y-14.103 F15000.000
G1 X-12.896 Y-14.250 E0.00600 F2400.000
G1 X-7.104 Y-14.250 E0.16720
G1 X-2.104 Y-9.250 E0.20409
G1 X26.750 Y-9.250 E0.83279 F2400.000
G1 X26.750 Y-4.750 E0.12988
G1 X5.896 Y-4.750 E0.60189
G1 X-6.250 Y7.396 E0.49579
G1 X-6.250 Y14.250 E0.19781
G1 X-8.050 Y14.250 E0.05195
G1 X-8.050 Y-10.750 E0.72157
G1 X-13.804 Y-10.750 E0.16606
G1 X-26.750 Y2.196 E0.52845
G1 X-26.750 Y-0.396 E0.07484
G1 X-13.086 Y-14.061 E0.55774
G1 X-12.843 Y-14.049 F15000.000
G1 X-13.220 Y-11.315 F15000.000
G1 X-14.135 Y-12.229 E0.03732 F2400.000
G1 X-13.882 Y-12.482 E0.01031
G1 X-12.524 Y-11.315 E0.05167
G1 X-15.847 Y-9.461 F15000.000
G1 X-16.407 Y-9.957 E0.02159 F2400.000
G1 X-16.660 Y-9.704 E0.01031
G1 X-16.132 Y-9.176 E0.02155
G1 X-18.372 Y-6.936 E0.09144
G1 X-18.932 Y-7.432 E0.02159
G1 X-19.184 Y-7.179 E0.01031
G1 X-18.657 Y-6.651 E0.02155
G1 X-20.897 Y-4.411 E0.09144
G1 X-21.457 Y-4.907 E0.02159
G1 X-21.709 Y-4.654 E0.01031
G1 X-21.182 Y-4.126 E0.02155
G1 X-23.422 Y-1.886 F15000.000
G1 X-23.982 Y-2.382 E0.02159 F2400.000
G1 X-24.234 Y-2.129 E0.01031
G1 X-23.706 Y-1.602 E0.02155
G1 X-25.947 Y0.639 E0.09144
G1 X-26.185 Y0.414 E0.00946
G1 E-3.50000 F1500.00000
G1 Z1.100 F15000.000
G1 X-6.815 Y7.442 F15000.000
G1 Z0.700 F15000.000
G1 E3.50000 F1500.00000
G1 X-7.485 Y6.854 E0.02574 F2400.000
G1 X-7.485 Y9.570 E0.07838
G1 X-6.815 Y10.240 E0.02736
G1 X-7.485 Y11.505 E0.04130
G1 X-6.815 Y12.093 E0.02574
G1 E-3.50000 F1500.00000
G1 Z1.100 F15000.000
G1 X-5.807 Y6.199 F15000.000
G1 Z0.700 F15000.000
G1 E3.50000 F1500.00000
G1 X-7.485 Y4.520 E0.06852 F2400.000
G1 X-7.485 Y2.204 E0.06685
G1 X-4.418 Y4.810 E0.11617
G1 X-3.282 Y3.674 E0.04638
G1 X-7.485 Y-0.530 E0.17158
G1 X-7.485 Y-2.447 E0.05532
G1 X-1.893 Y2.285 E0.21143
G1 X-0.757 Y1.149 E0.04638
G1 X-7.485 Y-5.580 E0.27464
G1 X-7.485 Y-7.097 E0.04379
G1 X0.632 Y-0.240 E0.30669
G1 X1.768 Y-1.376 E0.04638
G1 X-7.485 Y-10.630 E0.37770
G1 X-8.170 Y-11.315 F15000.000
G1 X-10.541 Y-13.685 E0.09675 F2400.000
G1 X-9.787 Y-13.685 E0.02174
G1 X3.157 Y-2.765 E0.48880
G1 X-0.491 Y-8.685 F15000.000
G1 X4.293 Y-3.901 E0.19527 F2400.000
G1 X5.682 Y-5.290 E0.05669
G1 X1.677 Y-8.685 E0.15154
G1 X4.559 Y-8.685 E0.08318
G1 X7.929 Y-5.315 E0.13757
G1 X11.177 Y-5.315 E0.09373
G1 X7.201 Y-8.685 E0.15043
G1 X9.609 Y-8.685 E0.06949
G1 X12.979 Y-5.315 E0.13757
G1 X16.701 Y-5.315 E0.10743
G1 X12.726 Y-8.685 E0.15043
G1 X14.659 Y-8.685 E0.05579
G1 X18.029 Y-5.315 E0.13757
G1 X22.226 Y-5.315 E0.12113
G1 X18.250 Y-8.685 E0.15043
G1 X19.709 Y-8.685 E0.04209
G1 X23.079 Y-5.315 E0.13757
G1 X26.185 Y-6.632 E0.09738
G1 X23.775 Y-8.685 E0.09138
G1 X24.758 Y-8.685 E0.02839
G1 X26.185 Y-7.258 E0.05823
M106 S255
G1 E-3.50000 F1500.00000
G1 Z1.100 F15000.000
