; generated by Slic3r 1.2.9 on 2017-01-25 at 17:29:42

; external perimeters extrusion width = 0.40mm
; perimeters extrusion width = 0.40mm
; infill extrusion width = 0.40mm
; solid infill extrusion width = 0.40mm
; top infill extrusion width = 0.40mm

M107
M83
T0
M116
G21 ; set units to millimeters
G90 ; use absolute coordinates
M83 ; use relative distances for extrusion
G1 E-3.20000 F3000.00000
G1 Z0.400 F15000.000
G1 X0.000 Y16.704 F15000.000
G1 Z0.300 F15000.000
G1 E3.20000 F3000.00000
G1 X-52.711 Y16.704 E4.06220 F960.000
G1 X-54.358 Y16.310 E0.13052
G1 X-55.648 Y15.212 E0.13052
G1 X-56.347 Y13.069 E0.17373
G1 X-56.345 Y2.481 E0.81590
G1 X-55.823 Y-13.118 E1.20288
G1 X-55.373 Y-14.751 E0.13052
G1 X-54.233 Y-16.003 E0.13052
G1 X-52.261 Y-16.632 E0.15950
G1 X34.739 Y-18.349 E6.70600
G1 X50.711 Y-18.350 E1.23087
G1 X52.358 Y-17.955 E0.13052
G1 X53.079 Y-17.472 E0.06689 F960.000
G1 X55.079 Y-15.755 E0.20315
G1 X56.072 Y-14.383 E0.13052
G1 X56.347 Y-12.997 E0.10889
G1 X56.345 Y-7.692 E0.40878
G1 X55.823 Y7.907 E1.20288
G1 X55.373 Y9.540 E0.13052
G1 X54.233 Y10.793 E0.13052
G1 X52.665 Y11.390 E0.12930
G1 X12.665 Y16.673 E3.10939
G1 X12.189 Y16.704 E0.03676
G1 X0.060 Y16.704 E0.93473
G1 E-3.20000 F3000.00000
G1 Z0.700 F15000.000
G1 X0.060 Y-0.942 F15000.000
G1 Z0.300 F15000.000
G1 E3.20000 F3000.00000
G1 X-52.847 Y-0.942 E4.07732 F960.000
G1 X-53.778 Y-1.873 E0.10145
G1 X-53.778 Y-6.672 E0.36985
G1 X-52.950 Y-7.501 E0.09030
G1 X-52.950 Y-8.027 E0.04058
G1 X-53.778 Y-8.856 E0.09030
G1 X-53.778 Y-13.655 E0.36985
G1 X-52.847 Y-14.586 E0.10145
G1 X32.850 Y-14.586 E6.60427
G1 X33.222 Y-14.958 E0.04058
G1 X33.222 Y-15.372 E0.03191
G1 X34.153 Y-16.303 E0.10145
G1 X51.369 Y-16.303 E1.32679
G1 X52.300 Y-15.372 E0.10145
G1 X52.300 Y-14.958 E0.03191 F960.000
G1 X52.672 Y-14.586 E0.04058
G1 X53.369 Y-14.586 E0.05370
G1 X54.300 Y-13.655 E0.10145
G1 X54.300 Y-7.156 E0.50086
G1 X53.369 Y-6.225 E0.10145
G1 X14.672 Y-6.225 E2.98219
G1 X14.300 Y-5.853 E0.04058
G1 X14.300 Y-1.873 E0.30669
G1 X13.369 Y-0.942 E0.10145
G1 X0.120 Y-0.942 E1.02106
G1 E-3.20000 F3000.00000
G1 Z0.700 F15000.000
G1 X-37.950 Y-7.501 F15000.000
G1 Z0.300 F15000.000
G1 E3.20000 F3000.00000
G1 X-38.800 Y-6.650 E0.09274 F960.000
G1 X-39.034 Y-6.553 E0.01949
G1 X-41.444 Y-6.553 E0.18572
G1 X-41.678 Y-6.650 E0.01949
G1 X-42.528 Y-7.501 E0.09274
G1 X-42.528 Y-8.027 E0.04058
G1 X-41.678 Y-8.878 E0.09274
G1 X-41.444 Y-8.975 E0.01949
G1 X-39.034 Y-8.975 E0.18572
G1 X-38.800 Y-8.878 E0.01949 F960.000
G1 X-37.950 Y-8.027 E0.09274
G1 X-37.950 Y-7.561 E0.03596
G1 X-37.584 Y-6.967 F15000.000
G1 X-26.433 Y-6.967 E0.85937 F960.000
G1 X-24.215 Y-7.120 E0.17128
G1 X-23.580 Y-7.266 E0.05027
G1 X-23.636 Y-8.325 E0.08174
G1 X-25.025 Y-8.503 E0.10789
G1 X-26.415 Y-8.561 E0.10725
G1 X-37.584 Y-8.561 E0.86072
G1 X-38.142 Y-9.119 E0.06087
G1 X-38.142 Y-9.238 E0.00918
G1 X-38.515 Y-9.611 E0.04058
G1 X-41.963 Y-9.611 E0.26576
G1 X-42.336 Y-9.238 E0.04058
G1 X-42.336 Y-9.119 E0.00918
G1 X-42.894 Y-8.561 E0.06087
G1 X-52.584 Y-8.561 E0.74675
G1 X-53.142 Y-9.119 E0.06087
G1 X-53.142 Y-13.392 E0.32927
G1 X-52.584 Y-13.950 E0.06087
G1 X33.485 Y-13.950 E6.63296
G1 X33.858 Y-14.322 E0.04058
G1 X33.858 Y-15.109 E0.06060
G1 X34.416 Y-15.667 E0.06087
G1 X51.106 Y-15.667 E1.28621
G1 X51.664 Y-15.109 E0.06087 F960.000
G1 X51.664 Y-14.322 E0.06060
G1 X52.037 Y-13.950 E0.04058
G1 X53.106 Y-13.950 E0.08240
G1 X53.664 Y-13.392 E0.06087
G1 X53.664 Y-7.419 E0.46028
G1 X53.106 Y-6.861 E0.06087
G1 X14.037 Y-6.861 E3.01088
G1 X13.664 Y-6.488 E0.04058
G1 X13.664 Y-2.136 E0.33538
G1 X13.106 Y-1.578 E0.06087
G1 X-52.584 Y-1.578 E5.06242
G1 X-53.142 Y-2.136 E0.06087
G1 X-53.142 Y-6.409 E0.32927
G1 X-52.584 Y-6.967 E0.06087
G1 X-42.894 Y-6.967 E0.74675
G1 X-42.336 Y-6.409 E0.06087
G1 X-42.336 Y-6.290 E0.00918
G1 X-41.963 Y-5.917 E0.04058
G1 X-38.515 Y-5.917 E0.26576
G1 X-38.142 Y-6.290 E0.04058
G1 X-38.142 Y-6.409 E0.00918
G1 X-37.626 Y-6.925 E0.05625
G1 X-37.321 Y-6.332 F15000.000
G1 X-26.411 Y-6.332 E0.84077 F960.000
G1 X-24.119 Y-6.489 E0.17700
G1 X-22.294 Y-6.918 E0.14448
G1 X-21.663 Y-7.204 E0.05339
G1 X-21.331 Y-7.434 E0.03117
G1 X-21.341 Y-8.112 E0.05224
G1 X-21.757 Y-8.376 E0.03798
G1 X-22.402 Y-8.650 E0.05403
G1 X-23.680 Y-8.970 E0.10151
G1 X-24.999 Y-9.139 E0.10244
G1 X-26.402 Y-9.196 E0.10826
G1 X-37.321 Y-9.196 E0.84143
G1 X-37.507 Y-9.382 E0.02029
G1 X-37.507 Y-9.874 E0.03788
G1 X-37.879 Y-10.246 E0.04058
G1 X-42.599 Y-10.246 E0.36373
G1 X-42.971 Y-9.874 E0.04058
G1 X-42.971 Y-9.382 E0.03788
G1 X-43.157 Y-9.196 E0.02029
G1 X-52.321 Y-9.196 E0.70617
G1 X-52.507 Y-9.382 E0.02029
G1 X-52.507 Y-13.128 E0.28869
G1 X-52.321 Y-13.315 E0.02029
G1 X34.121 Y-13.315 E6.66166
G1 X34.493 Y-13.687 E0.04058
G1 X34.493 Y-14.846 E0.08930
G1 X34.679 Y-15.032 E0.02029
G1 X50.843 Y-15.032 E1.24563
G1 X51.029 Y-14.846 E0.02029
G1 X51.029 Y-13.687 E0.08930 F960.000
G1 X51.401 Y-13.315 E0.04058
G1 X52.843 Y-13.315 E0.11109
G1 X53.029 Y-13.128 E0.02029
G1 X53.029 Y-7.682 E0.41970
G1 X52.843 Y-7.496 E0.02029
G1 X13.401 Y-7.496 E3.03958
G1 X13.029 Y-7.124 E0.04058
G1 X13.029 Y-2.400 E0.36408
G1 X12.843 Y-2.213 E0.02029
G1 X-52.321 Y-2.213 E5.02184
G1 X-52.507 Y-2.400 E0.02029
G1 X-52.507 Y-6.146 E0.28869
G1 X-52.321 Y-6.332 E0.02029
G1 X-43.157 Y-6.332 E0.70617
G1 X-42.971 Y-6.146 E0.02029
G1 X-42.971 Y-5.654 E0.03788
G1 X-42.599 Y-5.282 E0.04058
G1 X-37.879 Y-5.282 E0.36373
G1 X-37.507 Y-5.654 E0.04058
G1 X-37.507 Y-6.146 E0.03788
G1 X-37.363 Y-6.289 E0.01567
G1 E-3.20000 F3000.00000
G1 Z0.700 F15000.000
G1 X-37.363 Y1.014 F15000.000
G1 Z0.300 F15000.000
G1 E3.20000 F3000.00000
G1 X32.328 Y1.014 E5.37075 F960.000
G1 X32.700 Y0.642 E0.04058
G1 X32.700 Y0.228 E0.03191
G1 X33.631 Y-0.703 E0.10145
G1 X50.847 Y-0.703 E1.32679
G1 X51.778 Y0.228 E0.10145
G1 X51.778 Y0.642 E0.03191 F960.000
G1 X52.150 Y1.014 E0.04058
G1 X52.847 Y1.014 E0.05370
G1 X53.778 Y1.945 E0.10145
G1 X53.778 Y8.444 E0.50086
G1 X52.847 Y9.375 E0.10145
G1 X14.150 Y9.375 E2.98219
G1 X13.778 Y9.747 E0.04058
G1 X13.778 Y13.727 E0.30669
G1 X12.847 Y14.658 E0.10145
G1 X-53.369 Y14.658 E5.10300
G1 X-54.300 Y13.727 E0.10145
G1 X-54.300 Y8.928 E0.36985
G1 X-53.472 Y8.099 E0.09030
G1 X-53.472 Y7.572 E0.04058
G1 X-54.300 Y6.744 E0.09030
G1 X-54.300 Y1.945 E0.36985
G1 X-53.369 Y1.014 E0.10145
G1 X-37.423 Y1.014 E1.22890
G1 E-3.20000 F3000.00000
G1 Z0.700 F15000.000
G1 X-39.556 Y6.625 F15000.000
G1 Z0.300 F15000.000
G1 E3.20000 F3000.00000
G1 X-39.322 Y6.722 E0.01949 F960.000
G1 X-38.472 Y7.572 E0.09274
G1 X-38.472 Y8.099 E0.04058
G1 X-39.322 Y8.950 E0.09274
G1 X-39.556 Y9.047 E0.01949
G1 X-41.966 Y9.047 E0.18572
G1 X-42.200 Y8.950 E0.01949
G1 X-43.050 Y8.099 E0.09274
G1 X-43.050 Y7.572 E0.04058
G1 X-42.200 Y6.722 E0.09274
G1 X-41.966 Y6.625 E0.01949
G1 X-39.616 Y6.625 E0.18110
G1 X-39.616 Y5.989 F15000.000
G1 X-42.485 Y5.989 E0.22111 F960.000
G1 X-42.858 Y6.362 E0.04058
G1 X-42.858 Y6.481 E0.00918
G1 X-43.416 Y7.039 E0.06087
G1 X-53.106 Y7.039 E0.74675
G1 X-53.664 Y6.481 E0.06087
G1 X-53.664 Y2.208 E0.32927
G1 X-53.106 Y1.650 E0.06087
G1 X32.963 Y1.650 E6.63296
G1 X33.336 Y1.277 E0.04058
G1 X33.336 Y0.491 E0.06060
G1 X33.894 Y-0.068 E0.06087
G1 X50.584 Y-0.068 E1.28621
G1 X51.142 Y0.491 E0.06087 F960.000
G1 X51.142 Y1.277 E0.06060
G1 X51.515 Y1.650 E0.04058
G1 X52.584 Y1.650 E0.08240
G1 X53.142 Y2.208 E0.06087
G1 X53.142 Y8.181 E0.46028
G1 X52.584 Y8.739 E0.06087
G1 X13.515 Y8.739 E3.01088
G1 X13.142 Y9.112 E0.04058
G1 X13.142 Y13.463 E0.33538
G1 X12.584 Y14.022 E0.06087
G1 X-53.106 Y14.022 E5.06242
G1 X-53.664 Y13.463 E0.06087
G1 X-53.664 Y9.191 E0.32927
G1 X-53.106 Y8.632 E0.06087
G1 X-43.416 Y8.632 E0.74675
G1 X-42.858 Y9.191 E0.06087
G1 X-42.858 Y9.310 E0.00918
G1 X-42.485 Y9.682 E0.04058
G1 X-39.037 Y9.682 E0.26576
G1 X-38.664 Y9.310 E0.04058
G1 X-38.664 Y9.191 E0.00918
G1 X-38.106 Y8.632 E0.06087
G1 X-26.955 Y8.632 E0.85937
G1 X-24.737 Y8.480 E0.17128
G1 X-24.102 Y8.334 E0.05027
G1 X-24.158 Y7.274 E0.08174
G1 X-25.547 Y7.097 E0.10789
G1 X-26.937 Y7.039 E0.10725
G1 X-38.106 Y7.039 E0.86072
G1 X-38.664 Y6.481 E0.06087
G1 X-38.664 Y6.362 E0.00918
G1 X-39.037 Y5.989 E0.04058
G1 X-39.556 Y5.989 E0.04002
G1 X-39.556 Y5.354 F15000.000
G1 X-43.121 Y5.354 E0.27472 F960.000
G1 X-43.493 Y5.726 E0.04058
G1 X-43.493 Y6.217 E0.03788
G1 X-43.679 Y6.404 E0.02029
G1 X-52.843 Y6.404 E0.70617
G1 X-53.029 Y6.217 E0.02029
G1 X-53.029 Y2.471 E0.28869
G1 X-52.843 Y2.285 E0.02029
G1 X33.599 Y2.285 E6.66166
G1 X33.971 Y1.913 E0.04058
G1 X33.971 Y0.754 E0.08930
G1 X34.157 Y0.568 E0.02029
G1 X50.321 Y0.568 E1.24563
G1 X50.507 Y0.754 E0.02029
G1 X50.507 Y1.913 E0.08930 F960.000
G1 X50.879 Y2.285 E0.04058
G1 X52.321 Y2.285 E0.11109
G1 X52.507 Y2.471 E0.02029
G1 X52.507 Y7.917 E0.41970
G1 X52.321 Y8.104 E0.02029
G1 X12.879 Y8.104 E3.03958
G1 X12.507 Y8.476 E0.04058
G1 X12.507 Y13.200 E0.36408
G1 X12.321 Y13.386 E0.02029
G1 X-52.843 Y13.386 E5.02184
G1 X-53.029 Y13.200 E0.02029
G1 X-53.029 Y9.454 E0.28869
G1 X-52.843 Y9.268 E0.02029
G1 X-43.679 Y9.268 E0.70617
G1 X-43.493 Y9.454 E0.02029
G1 X-43.493 Y9.946 E0.03788
G1 X-43.121 Y10.318 E0.04058
G1 X-38.401 Y10.318 E0.36373
G1 X-38.029 Y9.946 E0.04058
G1 X-38.029 Y9.454 E0.03788
G1 X-37.843 Y9.268 E0.02029
G1 X-26.911 Y9.267 E0.84245
G1 X-24.590 Y9.103 E0.17933
G1 X-22.758 Y8.662 E0.14517
G1 X-22.235 Y8.424 E0.04429
G1 X-21.853 Y8.166 E0.03558
G1 X-21.863 Y7.488 E0.05224
G1 X-22.231 Y7.249 E0.03382
G1 X-22.924 Y6.950 E0.05818
G1 X-24.239 Y6.623 E0.10441
G1 X-25.521 Y6.461 E0.09955
G1 X-26.924 Y6.404 E0.10826
G1 X-37.843 Y6.404 E0.84143
G1 X-38.029 Y6.217 E0.02029
G1 X-38.029 Y5.726 E0.03788
G1 X-38.401 Y5.354 E0.04058
G1 X-39.496 Y5.354 E0.08438
G1 E-3.20000 F3000.00000
G1 Z0.700 F15000.000
G1 X-39.496 Y-2.881 F15000.000
G1 Z0.300 F15000.000
G1 E3.20000 F3000.00000
G1 X-51.839 Y-2.881 E0.95122 F720.000
G1 X-51.839 Y-5.664 E0.21445
G1 X-43.639 Y-5.664 E0.63194
G1 X-43.639 Y-3.864 E0.13872
G1 X-41.839 Y-3.864 E0.13872
G1 X-41.839 Y-4.614 E0.05780
G1 X-36.839 Y-4.614 E0.38533
G1 X-36.839 Y-5.664 E0.08092
G1 X-26.377 Y-5.664 E0.80627
G1 X-23.992 Y-5.828 E0.18419
G1 X-22.047 Y-6.291 E0.15407
G1 X-21.356 Y-6.604 E0.05851
G1 X-20.950 Y-6.885 E0.03806
G1 X-20.721 Y-7.123 E0.02542
G1 X-20.587 Y-7.342 E0.01979
G1 X-20.519 Y-7.519 E0.01460
G1 X-20.486 Y-7.738 E0.01706
G1 X-20.508 Y-7.959 E0.01714
G1 X-20.570 Y-8.153 E0.01570
G1 X-20.670 Y-8.333 E0.01589
G1 X-20.809 Y-8.507 E0.01717
G1 X-21.019 Y-8.699 E0.02192
G1 X-21.416 Y-8.957 E0.03645
G1 X-22.163 Y-9.278 E0.06270
G1 X-23.575 Y-9.632 E0.11213
G1 X-24.929 Y-9.805 E0.10522
G1 X-26.382 Y-9.864 E0.11208
G1 X-36.839 Y-9.864 E0.80587
G1 X-36.839 Y-10.914 E0.08092
G1 X-41.839 Y-10.914 E0.38533
G1 X-41.839 Y-11.664 E0.05780
G1 X-43.639 Y-11.664 E0.13872
G1 X-43.639 Y-9.864 E0.13872
G1 X-51.839 Y-9.864 E0.63194
G1 X-51.839 Y-12.647 E0.21445
G1 X35.161 Y-12.647 E6.70470
G1 X35.161 Y-14.364 E0.13234
G1 X50.361 Y-14.364 E1.17140
G1 X50.361 Y-12.647 E0.13234
G1 X52.361 Y-12.647 E0.15413 F720.000
G1 X52.361 Y-8.164 E0.34547
G1 X12.361 Y-8.164 E3.08262
G1 X12.361 Y-2.881 E0.40712
G1 X-39.436 Y-2.881 E3.99177
G1 X-39.696 Y-3.228 F15000.000
G1 E-3.20000 F3000.00000
G1 Z0.700 F15000.000
G1 X51.725 Y-10.467 F15000.000
G1 Z0.300 F15000.000
G1 E3.20000 F3000.00000
G1 X51.725 Y-8.800 E0.12852 F720.000
G1 X11.725 Y-8.800 E3.08262
G1 X11.725 Y-3.517 E0.40712
G1 X-41.203 Y-3.517 E4.07898
G1 X-41.203 Y-3.978 E0.03557
G1 X-36.203 Y-3.978 E0.38533
G1 X-36.203 Y-5.028 E0.08092
G1 X-26.355 Y-5.028 E0.75897
G1 X-23.896 Y-5.198 E0.18992
G1 X-21.841 Y-5.686 E0.16283
G1 X-21.041 Y-6.049 E0.06767
G1 X-20.536 Y-6.399 E0.04732
G1 X-20.216 Y-6.731 E0.03560
G1 X-20.014 Y-7.060 E0.02972
G1 X-19.901 Y-7.356 E0.02443
G1 X-19.846 Y-7.721 E0.02842
G1 X-19.882 Y-8.089 E0.02849
G1 X-19.984 Y-8.407 E0.02578
G1 X-20.141 Y-8.689 E0.02483
G1 X-20.344 Y-8.942 E0.02505
G1 X-20.629 Y-9.203 E0.02977
G1 X-21.115 Y-9.519 E0.04470
G1 X-21.959 Y-9.882 E0.07081
G1 X-23.457 Y-10.257 E0.11898
G1 X-24.876 Y-10.438 E0.11023
G1 X-26.369 Y-10.500 E0.11520
G1 X-36.203 Y-10.500 E0.75788
G1 X-36.203 Y-11.550 E0.08092
G1 X-41.203 Y-11.550 E0.38533
G1 X-41.203 Y-12.011 E0.03557
G1 X35.797 Y-12.011 E5.93404
G1 X35.797 Y-13.728 E0.13234
G1 X49.725 Y-13.728 E1.07343
G1 X49.725 Y-12.011 E0.13234
G1 X51.725 Y-12.011 E0.15413 F720.000
G1 X51.725 Y-10.527 E0.11435
G1 X-46.738 Y-12.011 F15000.000
G1 X-44.275 Y-12.011 E0.18984 F600.000
G1 X-44.275 Y-10.500 E0.11649
G1 X-51.203 Y-10.500 E0.53397 F600.000
G1 X-51.203 Y-12.011 E0.11649
G1 X-46.798 Y-12.011 E0.33950
G1 E-3.20000 F3000.00000
G1 Z0.700 F15000.000
G1 X-44.582 Y-5.028 F15000.000
G1 Z0.300 F15000.000
G1 E3.20000 F3000.00000
G1 X-44.275 Y-5.028 E0.02367 F600.000
G1 X-44.275 Y-3.517 E0.11649
G1 X-51.203 Y-3.517 E0.53397 F600.000
G1 X-51.203 Y-5.028 E0.11649
G1 X-44.642 Y-5.028 E0.50568
G1 X-44.592 Y-4.273 F15000.000
G1 X-50.886 Y-4.273 E1.01909 F960.000
G1 E-3.20000 F3000.00000
G1 Z0.700 F15000.000
G1 X-50.886 Y-11.255 F15000.000
G1 Z0.300 F15000.000
G1 E3.20000 F3000.00000
G1 X-44.592 Y-11.255 E1.01909 F960.000
G1 X-43.957 Y-12.155 F15000.000
G1 X-41.521 Y-12.155 E0.18770 F960.000
G1 X-35.886 Y-11.255 F15000.000
G1 X-26.363 Y-11.255 E1.54211 F960.000
G1 X-24.704 Y-11.222 E0.26863
G1 X-23.671 Y-10.691 F15000.000
G1 X-24.319 Y-11.340 E0.07075 F960.000
G1 X-23.705 Y-11.626 E0.05231
G1 X-22.543 Y-10.464 E0.12687
G1 X-22.804 Y-11.626 E0.09195
G1 X-21.242 Y-10.063 E0.17056
G1 E-3.20000 F3000.00000
G1 Z0.700 F15000.000
G1 X-24.395 Y-4.213 F15000.000
G1 Z0.300 F15000.000
G1 E3.20000 F3000.00000
G1 X-24.085 Y-3.902 E0.03388 F960.000
G1 X-23.185 Y-3.902 E0.06951
G1 X-24.090 Y-4.807 E0.09880
G1 X-23.343 Y-4.961 E0.05882
G1 X-22.284 Y-3.902 E0.11564
G1 X-21.384 Y-3.902 E0.06951
G1 X-22.616 Y-5.134 E0.13451
G1 X-21.888 Y-5.307 E0.05773
G1 X-20.483 Y-3.902 E0.15337
G1 X-19.583 Y-3.902 E0.06951
G1 X-21.257 Y-5.576 E0.18272
G1 X-20.677 Y-5.897 E0.05114
G1 X-18.683 Y-3.902 E0.21774
G1 X-17.782 Y-3.902 E0.06951
G1 X-20.177 Y-6.297 E0.26142
G1 X-19.780 Y-6.801 E0.04950
G1 X-16.882 Y-3.902 E0.31642
G1 X-15.981 Y-3.902 E0.06951
G1 X-19.518 Y-7.439 E0.38606
G1 X-19.504 Y-8.325 E0.06846
G1 X-15.081 Y-3.902 E0.48286
G1 X-14.180 Y-3.902 E0.06951
G1 X-21.904 Y-11.626 E0.84318
G1 X-21.003 Y-11.626 E0.06951
G1 X-13.280 Y-3.902 E0.84318
G1 X-12.380 Y-3.902 E0.06951
G1 X-20.103 Y-11.626 E0.84318
G1 X-19.203 Y-11.626 E0.06951
G1 X-11.479 Y-3.902 E0.84318
G1 X-10.579 Y-3.902 E0.06951
G1 X-18.302 Y-11.626 E0.84318
G1 X-17.402 Y-11.626 E0.06951
G1 X-9.678 Y-3.902 E0.84318
G1 X-8.778 Y-3.902 E0.06951
G1 X-16.501 Y-11.626 E0.84318
G1 X-15.601 Y-11.626 E0.06951
G1 X-7.877 Y-3.902 E0.84318
G1 X-6.977 Y-3.902 E0.06951
G1 X-14.700 Y-11.626 E0.84318
G1 X-13.800 Y-11.626 E0.06951
G1 X-6.077 Y-3.902 E0.84318
G1 X-5.176 Y-3.902 E0.06951
G1 X-12.900 Y-11.626 E0.84318
G1 X-11.999 Y-11.626 E0.06951
G1 X-4.276 Y-3.902 E0.84318
G1 X-3.375 Y-3.902 E0.06951
G1 X-11.099 Y-11.626 E0.84318
G1 X-10.198 Y-11.626 E0.06951
G1 X-2.475 Y-3.902 E0.84318
G1 X-1.575 Y-3.902 E0.06951
G1 X-9.298 Y-11.626 E0.84318
G1 X-8.398 Y-11.626 E0.06951
G1 X-0.674 Y-3.902 E0.84318
G1 X0.226 Y-3.902 E0.06951
G1 X-7.497 Y-11.626 E0.84318
G1 X-6.597 Y-11.626 E0.06951
G1 X1.127 Y-3.902 E0.84318
G1 X2.027 Y-3.902 E0.06951
G1 X-5.696 Y-11.626 E0.84318
G1 X-4.796 Y-11.626 E0.06951
G1 X2.928 Y-3.902 E0.84318
G1 X3.828 Y-3.902 E0.06951
G1 X-3.895 Y-11.626 E0.84318
G1 X-2.995 Y-11.626 E0.06951
G1 X4.728 Y-3.902 E0.84318
G1 X5.629 Y-3.902 E0.06951
G1 X-2.095 Y-11.626 E0.84318
G1 X-1.194 Y-11.626 E0.06951
G1 X6.529 Y-3.902 E0.84318
G1 X7.430 Y-3.902 E0.06951
G1 X-0.294 Y-11.626 E0.84318
G1 X0.607 Y-11.626 E0.06951
G1 X8.330 Y-3.902 E0.84318
G1 X9.231 Y-3.902 E0.06951
G1 X1.507 Y-11.626 E0.84318
G1 X2.408 Y-11.626 E0.06951
G1 X10.131 Y-3.902 E0.84318
G1 X11.031 Y-3.902 E0.06951
G1 X3.308 Y-11.626 E0.84318
G1 X4.208 Y-11.626 E0.06951
G1 X11.340 Y-4.494 E0.77856
G1 X11.340 Y-5.395 E0.06951
G1 X5.109 Y-11.626 E0.68026
G1 X6.009 Y-11.626 E0.06951
G1 X11.340 Y-6.295 E0.58196
G1 X11.340 Y-7.195 E0.06951
G1 X6.910 Y-11.626 E0.48366
G1 X7.810 Y-11.626 E0.06951
G1 X11.340 Y-8.096 E0.38536
