; generated by Slic3r 1.2.9 on 2017-01-25 at 15:18:35

; external perimeters extrusion width = 0.40mm
; perimeters extrusion width = 0.40mm
; infill extrusion width = 0.40mm
; solid infill extrusion width = 0.40mm
; top infill extrusion width = 0.40mm

M107
M83
T0
M116
G21 ; set units to millimeters
G90 ; use absolute coordinates
M83 ; use relative distances for extrusion
G1 E-3.20000 F3000.00000
G1 Z0.400 F15000.000
G1 X0.000 Y8.904 F15000.000
G1 Z0.300 F15000.000
G1 E3.20000 F3000.00000
G1 X-52.450 Y8.904 E4.04209 F960.000
G1 X-54.097 Y8.510 E0.13052
G1 X-55.387 Y7.412 E0.13052
G1 X-56.086 Y5.269 E0.17373
G1 X-56.086 Y-5.197 E0.80653
G1 X-55.691 Y-6.844 E0.13052
G1 X-54.593 Y-8.134 E0.13052
G1 X-52.522 Y-8.832 E0.16846
G1 X34.478 Y-10.549 E6.70600
G1 X50.450 Y-10.550 E1.23087
G1 X52.097 Y-10.155 E0.13052
G1 X52.818 Y-9.672 E0.06689 F960.000
G1 X54.818 Y-7.955 E0.20315
G1 X55.811 Y-6.583 E0.13052
G1 X56.086 Y-5.197 E0.10889
G1 X56.086 Y-0.014 E0.39941
G1 X55.691 Y1.633 E0.13052
G1 X54.593 Y2.923 E0.13052
G1 X52.926 Y3.590 E0.13840
G1 X12.926 Y8.873 E3.10939
G1 X12.450 Y8.904 E0.03676
G1 X0.060 Y8.904 E0.95484
G1 E-3.20000 F3000.00000
G1 Z0.700 F15000.000
G1 X0.060 Y6.858 F15000.000
G1 Z0.300 F15000.000
G1 E3.20000 F3000.00000
G1 X-53.108 Y6.858 E4.09743 F960.000
G1 X-54.039 Y5.927 E0.10145
G1 X-54.039 Y1.128 E0.36985
G1 X-53.211 Y0.299 E0.09030
G1 X-53.211 Y-0.227 E0.04058
G1 X-54.039 Y-1.056 E0.09030
G1 X-54.039 Y-5.855 E0.36985
G1 X-53.108 Y-6.786 E0.10145
G1 X32.589 Y-6.786 E6.60427
G1 X32.961 Y-7.158 E0.04058
G1 X32.961 Y-7.572 E0.03191
G1 X33.892 Y-8.503 E0.10145
G1 X51.108 Y-8.503 E1.32679
G1 X52.039 Y-7.572 E0.10145
G1 X52.039 Y-7.158 E0.03191 F960.000
G1 X52.411 Y-6.786 E0.04058
G1 X53.108 Y-6.786 E0.05370
G1 X54.039 Y-5.855 E0.10145
G1 X54.039 Y0.644 E0.50086
G1 X53.108 Y1.575 E0.10145
G1 X14.411 Y1.575 E2.98219
G1 X14.039 Y1.947 E0.04058
G1 X14.039 Y5.927 E0.30669
G1 X13.108 Y6.858 E0.10145
G1 X0.120 Y6.858 E1.00094
G1 E-3.20000 F3000.00000
G1 Z0.700 F15000.000
G1 X-39.039 Y0.875 F15000.000
G1 Z0.300 F15000.000
G1 E3.20000 F3000.00000
G1 X-39.411 Y1.247 E0.04058 F960.000
G1 X-41.705 Y1.247 E0.17675
G1 X-41.939 Y1.150 E0.01949
G1 X-42.789 Y0.299 E0.09274
G1 X-42.789 Y-0.227 E0.04058
G1 X-41.939 Y-1.078 E0.09274
G1 X-41.705 Y-1.175 E0.01949
G1 X-39.411 Y-1.175 E0.17675
G1 X-39.039 Y-0.803 E0.04058 F960.000
G1 X-39.039 Y0.815 E0.12463
G1 X-38.403 Y0.815 F15000.000
G1 X-38.403 Y-1.438 E0.17362 F960.000
G1 X-38.776 Y-1.811 E0.04058
G1 X-42.224 Y-1.811 E0.26576
G1 X-42.597 Y-1.438 E0.04058
G1 X-42.597 Y-1.319 E0.00918
G1 X-43.155 Y-0.761 E0.06087
G1 X-52.845 Y-0.761 E0.74675
G1 X-53.403 Y-1.319 E0.06087
G1 X-53.403 Y-5.592 E0.32927
G1 X-52.845 Y-6.150 E0.06087
G1 X33.224 Y-6.150 E6.63296
G1 X33.597 Y-6.523 E0.04058
G1 X33.597 Y-7.309 E0.06060
G1 X34.155 Y-7.868 E0.06087
G1 X50.845 Y-7.868 E1.28621
G1 X51.403 Y-7.309 E0.06087 F960.000
G1 X51.403 Y-6.523 E0.06060
G1 X51.776 Y-6.150 E0.04058
G1 X52.845 Y-6.150 E0.08240
G1 X53.403 Y-5.592 E0.06087
G1 X53.403 Y0.381 E0.46028
G1 X52.845 Y0.939 E0.06087
G1 X13.776 Y0.939 E3.01088
G1 X13.403 Y1.312 E0.04058
G1 X13.403 Y5.664 E0.33538
G1 X12.845 Y6.222 E0.06087
G1 X-52.845 Y6.222 E5.06242
G1 X-53.403 Y5.664 E0.06087
G1 X-53.403 Y1.391 E0.32927
G1 X-52.845 Y0.832 E0.06087
G1 X-43.155 Y0.832 E0.74675
G1 X-42.597 Y1.391 E0.06087
G1 X-42.597 Y1.510 E0.00918
G1 X-42.224 Y1.882 E0.04058
G1 X-38.776 Y1.882 E0.26576
G1 X-38.403 Y1.510 E0.04058
G1 X-38.403 Y0.875 E0.04898
G1 X-37.768 Y0.875 F15000.000
G1 X-37.768 Y-2.074 E0.22723 F960.000
G1 X-38.140 Y-2.446 E0.04058
G1 X-42.860 Y-2.446 E0.36373
G1 X-43.232 Y-2.074 E0.04058
G1 X-43.232 Y-1.582 E0.03788
G1 X-43.418 Y-1.396 E0.02029
G1 X-52.582 Y-1.396 E0.70617
G1 X-52.768 Y-1.582 E0.02029
G1 X-52.768 Y-5.328 E0.28869
G1 X-52.582 Y-5.515 E0.02029
G1 X33.860 Y-5.515 E6.66166
G1 X34.232 Y-5.887 E0.04058
G1 X34.232 Y-7.046 E0.08930
G1 X34.418 Y-7.232 E0.02029
G1 X50.582 Y-7.232 E1.24563
G1 X50.768 Y-7.046 E0.02029
G1 X50.768 Y-5.887 E0.08930 F960.000
G1 X51.140 Y-5.515 E0.04058
G1 X52.582 Y-5.515 E0.11109
G1 X52.768 Y-5.328 E0.02029
G1 X52.768 Y0.118 E0.41970
G1 X52.582 Y0.304 E0.02029
G1 X13.140 Y0.304 E3.03958
G1 X12.768 Y0.676 E0.04058
G1 X12.768 Y5.400 E0.36408
G1 X12.582 Y5.586 E0.02029
G1 X-52.582 Y5.586 E5.02184
G1 X-52.768 Y5.400 E0.02029
G1 X-52.768 Y1.654 E0.28869
G1 X-52.582 Y1.468 E0.02029
G1 X-43.418 Y1.468 E0.70617
G1 X-43.232 Y1.654 E0.02029
G1 X-43.232 Y2.146 E0.03788
G1 X-42.860 Y2.518 E0.04058
G1 X-38.140 Y2.518 E0.36373
G1 X-37.768 Y2.146 E0.04058
G1 X-37.768 Y0.935 E0.09334
G1 E-3.20000 F3000.00000
G1 Z0.700 F15000.000
G1 X-51.272 Y2.772 F15000.000
G1 Z0.300 F15000.000
G1 E3.20000 F3000.00000
G1 X-44.536 Y2.772 E0.51911 F600.000
G1 X-44.536 Y4.283 E0.11649
G1 X-51.464 Y4.283 E0.53397 F600.000
G1 X-51.464 Y2.772 E0.11649
G1 X-51.332 Y2.772 E0.01024
G1 E-3.20000 F3000.00000
G1 Z0.700 F15000.000
G1 X-51.381 Y-4.211 F15000.000
G1 Z0.300 F15000.000
G1 E3.20000 F3000.00000
G1 X-44.536 Y-4.211 E0.52751 F600.000
G1 X-44.536 Y-2.700 E0.11649
G1 X-51.464 Y-2.700 E0.53397 F600.000
G1 X-51.464 Y-4.211 E0.11649
G1 X-51.441 Y-4.211 E0.00183
G1 X-41.464 Y-4.211 F15000.000
G1 X35.536 Y-4.211 E5.93404 F960.000
G1 X35.536 Y-5.928 E0.13234
G1 X49.464 Y-5.928 E1.07343
G1 X49.464 Y-4.211 E0.13234
G1 X51.464 Y-4.211 E0.15413 F960.000
G1 X51.464 Y-1.000 E0.24750
G1 X11.464 Y-1.000 E3.08262
G1 X11.464 Y4.283 E0.40712
G1 X-41.464 Y4.283 E4.07898
G1 X-41.464 Y3.822 E0.03557
G1 X-36.464 Y3.822 E0.38533
G1 X-36.464 Y-3.750 E0.58348
G1 X-41.464 Y-3.750 E0.38533
G1 X-41.464 Y-4.151 E0.03094
G1 X-41.464 Y-4.847 F15000.000
G1 X34.900 Y-4.847 E5.88506 F960.000
G1 X34.900 Y-6.564 E0.13234
G1 X50.100 Y-6.564 E1.17140
G1 X50.100 Y-4.847 E0.13234
G1 X52.100 Y-4.847 E0.15413 F960.000
G1 X52.100 Y-0.364 E0.34547
G1 X12.100 Y-0.364 E3.08262
G1 X12.100 Y4.919 E0.40712
G1 X-52.100 Y4.919 E4.94760
G1 X-52.100 Y2.136 E0.21445
G1 X-43.900 Y2.136 E0.63194
G1 X-43.900 Y3.936 E0.13872
G1 X-42.100 Y3.936 E0.13872
G1 X-42.100 Y3.186 E0.05780
G1 X-37.100 Y3.186 E0.38533
G1 X-37.100 Y-3.114 E0.48551
G1 X-42.100 Y-3.114 E0.38533
G1 X-42.100 Y-3.864 E0.05780
G1 X-43.900 Y-3.864 E0.13872
G1 X-43.900 Y-2.064 E0.13872
G1 X-52.100 Y-2.064 E0.63194
G1 X-52.100 Y-4.847 E0.21445
G1 X-41.524 Y-4.847 E0.81502
G1 X-41.264 Y-4.500 F15000.000
G1 X-41.782 Y-4.355 F15000.000
G1 X-44.218 Y-4.355 E0.18770 F960.000
G1 X-44.853 Y-3.455 F15000.000
G1 X-51.147 Y-3.455 E1.01909 F960.000
G1 E-3.20000 F3000.00000
G1 Z0.700 F15000.000
G1 X-51.147 Y3.527 F15000.000
G1 Z0.300 F15000.000
G1 E3.20000 F3000.00000
G1 X-44.853 Y3.527 E1.01909 F960.000
G1 X-44.218 Y4.427 F15000.000
G1 X-41.782 Y4.427 E0.18770 F960.000
G1 X-36.079 Y3.588 F15000.000
G1 X-35.769 Y3.898 E0.03402 F960.000
G1 X-34.863 Y3.898 E0.07043
G1 X-36.079 Y2.682 E0.13363
G1 X-36.079 Y1.775 E0.07043
G1 X-33.957 Y3.898 E0.23323
G1 X-33.050 Y3.898 E0.07043
G1 X-36.079 Y0.869 E0.33283
G1 X-36.079 Y-0.037 E0.07043
G1 X-32.144 Y3.898 E0.43243
G1 X-31.238 Y3.898 E0.07043
G1 X-36.079 Y-0.944 E0.53203
G1 X-36.079 Y-1.850 E0.07043
G1 X-30.331 Y3.898 E0.63164
G1 X-29.425 Y3.898 E0.07043
G1 X-36.079 Y-2.757 E0.73124
G1 X-36.079 Y-3.663 E0.07043
G1 X-28.518 Y3.898 E0.83084
G1 X-27.612 Y3.898 E0.07043
G1 X-35.335 Y-3.826 E0.84874
G1 X-34.429 Y-3.826 E0.07043
G1 X-26.706 Y3.898 E0.84874
G1 X-25.799 Y3.898 E0.07043
G1 X-33.523 Y-3.826 E0.84874
G1 X-32.616 Y-3.826 E0.07043
G1 X-24.893 Y3.898 E0.84874
G1 X-23.987 Y3.898 E0.07043
G1 X-31.710 Y-3.826 E0.84874
G1 X-30.804 Y-3.826 E0.07043
G1 X-23.080 Y3.898 E0.84874
G1 X-22.174 Y3.898 E0.07043
G1 X-29.897 Y-3.826 E0.84874
G1 X-28.991 Y-3.826 E0.07043
G1 X-21.268 Y3.898 E0.84874
G1 X-20.361 Y3.898 E0.07043
G1 X-28.085 Y-3.826 E0.84874
G1 X-27.178 Y-3.826 E0.07043
G1 X-19.455 Y3.898 E0.84874
G1 X-18.548 Y3.898 E0.07043
G1 X-26.272 Y-3.826 E0.84874
G1 X-25.365 Y-3.826 E0.07043
G1 X-17.642 Y3.898 E0.84874
G1 X-16.736 Y3.898 E0.07043
G1 X-24.459 Y-3.826 E0.84874
G1 X-23.553 Y-3.826 E0.07043
G1 X-15.829 Y3.898 E0.84874
G1 X-14.923 Y3.898 E0.07043
G1 X-22.646 Y-3.826 E0.84874
G1 X-21.740 Y-3.826 E0.07043
G1 X-14.017 Y3.898 E0.84874
G1 X-13.110 Y3.898 E0.07043
G1 X-20.834 Y-3.826 E0.84874
G1 X-19.927 Y-3.826 E0.07043
G1 X-12.204 Y3.898 E0.84874
G1 X-11.297 Y3.898 E0.07043
G1 X-19.021 Y-3.826 E0.84874
G1 X-18.115 Y-3.826 E0.07043
G1 X-10.391 Y3.898 E0.84874
G1 X-9.485 Y3.898 E0.07043
G1 X-17.208 Y-3.826 E0.84874
G1 X-16.302 Y-3.826 E0.07043
G1 X-8.578 Y3.898 E0.84874
G1 X-7.672 Y3.898 E0.07043
G1 X-15.395 Y-3.826 E0.84874
G1 X-14.489 Y-3.826 E0.07043
G1 X-6.766 Y3.898 E0.84874
G1 X-5.859 Y3.898 E0.07043
G1 X-13.583 Y-3.826 E0.84874
G1 X-12.676 Y-3.826 E0.07043
G1 X-4.953 Y3.898 E0.84874
G1 X-4.047 Y3.898 E0.07043
G1 X-11.770 Y-3.826 E0.84874
G1 X-10.864 Y-3.826 E0.07043
G1 X-3.140 Y3.898 E0.84874
G1 X-2.234 Y3.898 E0.07043
G1 X-9.957 Y-3.826 E0.84874
G1 X-9.051 Y-3.826 E0.07043
G1 X-1.327 Y3.898 E0.84874
G1 X-0.421 Y3.898 E0.07043
G1 X-8.145 Y-3.826 E0.84874
G1 X-7.238 Y-3.826 E0.07043
G1 X0.485 Y3.898 E0.84874
G1 X1.392 Y3.898 E0.07043
G1 X-6.332 Y-3.826 E0.84874
G1 X-5.425 Y-3.826 E0.07043
G1 X2.298 Y3.898 E0.84874
G1 X3.204 Y3.898 E0.07043
G1 X-4.519 Y-3.826 E0.84874
G1 X-3.613 Y-3.826 E0.07043
G1 X4.111 Y3.898 E0.84874
G1 X5.017 Y3.898 E0.07043
G1 X-2.706 Y-3.826 E0.84874
G1 X-1.800 Y-3.826 E0.07043
G1 X5.923 Y3.898 E0.84874
G1 X6.830 Y3.898 E0.07043
G1 X-0.894 Y-3.826 E0.84874
G1 X0.013 Y-3.826 E0.07043
G1 X7.736 Y3.898 E0.84874
G1 X8.643 Y3.898 E0.07043
G1 X0.919 Y-3.826 E0.84874
G1 X1.826 Y-3.826 E0.07043
G1 X9.549 Y3.898 E0.84874
G1 X10.455 Y3.898 E0.07043
G1 X2.732 Y-3.826 E0.84874
G1 X3.638 Y-3.826 E0.07043
G1 X11.079 Y3.615 E0.81768
G1 X11.079 Y2.709 E0.07043
G1 X4.545 Y-3.826 E0.71807
G1 X5.451 Y-3.826 E0.07043
G1 X11.079 Y1.802 E0.61847
G1 X11.079 Y0.896 E0.07043
G1 X6.357 Y-3.826 E0.51887
G1 X7.264 Y-3.826 E0.07043
G1 X11.079 Y-0.011 E0.41927
G1 X11.079 Y-0.917 E0.07043
G1 X8.170 Y-3.826 E0.31966
G1 X9.076 Y-3.826 E0.07043
G1 X11.517 Y-1.385 E0.26821
G1 X12.423 Y-1.385 E0.07043
G1 X9.983 Y-3.826 E0.26821
G1 X10.889 Y-3.826 E0.07043
G1 X13.330 Y-1.385 E0.26821
G1 X14.236 Y-1.385 E0.07043
G1 X11.796 Y-3.826 E0.26821
G1 X12.702 Y-3.826 E0.07043
G1 X15.143 Y-1.385 E0.26821
G1 X16.049 Y-1.385 E0.07043
G1 X13.608 Y-3.826 E0.26821
G1 X14.515 Y-3.826 E0.07043
G1 X16.955 Y-1.385 E0.26821
G1 X17.862 Y-1.385 E0.07043
G1 X15.421 Y-3.826 E0.26821
G1 X16.327 Y-3.826 E0.07043
G1 X18.768 Y-1.385 E0.26821
G1 X19.674 Y-1.385 E0.07043
G1 X17.234 Y-3.826 E0.26821
G1 X18.140 Y-3.826 E0.07043
G1 X20.581 Y-1.385 E0.26821
G1 X21.487 Y-1.385 E0.07043
G1 X19.046 Y-3.826 E0.26821
G1 X19.953 Y-3.826 E0.07043
G1 X22.394 Y-1.385 E0.26821
G1 X23.300 Y-1.385 E0.07043
G1 X20.859 Y-3.826 E0.26821
G1 X21.766 Y-3.826 E0.07043
G1 X24.206 Y-1.385 E0.26821
G1 X25.113 Y-1.385 E0.07043
G1 X22.672 Y-3.826 E0.26821
G1 X23.578 Y-3.826 E0.07043
G1 X26.019 Y-1.385 E0.26821
G1 X26.925 Y-1.385 E0.07043
G1 X24.485 Y-3.826 E0.26821
G1 X25.391 Y-3.826 E0.07043
G1 X27.832 Y-1.385 E0.26821
G1 X28.738 Y-1.385 E0.07043
G1 X26.297 Y-3.826 E0.26821
G1 X27.204 Y-3.826 E0.07043
G1 X29.644 Y-1.385 E0.26821
G1 X30.551 Y-1.385 E0.07043
G1 X28.110 Y-3.826 E0.26821
G1 X29.016 Y-3.826 E0.07043
G1 X31.457 Y-1.385 E0.26821
G1 X32.364 Y-1.385 E0.07043
G1 X29.923 Y-3.826 E0.26821
G1 X30.829 Y-3.826 E0.07043
G1 X33.270 Y-1.385 E0.26821
G1 X34.176 Y-1.385 E0.07043
G1 X31.736 Y-3.826 E0.26821
G1 X32.642 Y-3.826 E0.07043
G1 X35.083 Y-1.385 E0.26821
G1 X35.989 Y-1.385 E0.07043
G1 X33.548 Y-3.826 E0.26821
G1 X34.455 Y-3.826 E0.07043
G1 X36.895 Y-1.385 E0.26821
G1 X37.802 Y-1.385 E0.07043
G1 X35.361 Y-3.826 E0.26821
G1 X35.921 Y-4.172 F15000.000
G1 X38.708 Y-1.385 E0.30628 F960.000
G1 X39.614 Y-1.385 E0.07043
G1 X35.921 Y-5.079 E0.40588
G1 X36.363 Y-5.543 E0.04982
G1 X40.521 Y-1.385 E0.45692
G1 X41.427 Y-1.385 E0.07043
G1 X37.269 Y-5.543 E0.45692
G1 X38.176 Y-5.543 E0.07043
G1 X42.334 Y-1.385 E0.45692
G1 X43.240 Y-1.385 E0.07043
G1 X39.082 Y-5.543 E0.45692
G1 X39.988 Y-5.543 E0.07043
G1 X44.146 Y-1.385 E0.45692
G1 X45.053 Y-1.385 E0.07043
G1 X40.895 Y-5.543 E0.45692
G1 X41.801 Y-5.543 E0.07043
G1 X45.959 Y-1.385 E0.45692
G1 X46.865 Y-1.385 E0.07043
G1 X42.707 Y-5.543 E0.45692
G1 X43.614 Y-5.543 E0.07043
G1 X47.772 Y-1.385 E0.45692
G1 X48.678 Y-1.385 E0.07043
G1 X44.520 Y-5.543 E0.45692
G1 X45.427 Y-5.543 E0.07043
G1 X49.584 Y-1.385 E0.45692
G1 X50.491 Y-1.385 E0.07043
G1 X46.333 Y-5.543 E0.45692
G1 X49.079 Y-4.610 F15000.000
G1 X48.146 Y-5.543 E0.10256 F960.000
G1 X47.239 Y-5.543 E0.07043
G1 X51.079 Y-1.703 E0.42195
G1 X51.079 Y-2.610 E0.07043
G1 X49.863 Y-3.826 E0.13363
G1 X50.769 Y-3.826 E0.07043
G1 X51.079 Y-3.516 E0.03403
G1 E-3.20000 F3000.00000
G1 Z0.700 F15000.000
G1 X-14.359 Y4.856 F15000.000
G1 Z0.500 F15000.000
G1 E3.20000 F3000.00000
G1 X-51.893 Y4.856 E1.08332 F4800.000
G1 X-51.893 Y2.343 E0.07253
G1 X-44.107 Y2.343 E0.22472
G1 X-44.107 Y4.143 E0.05195
G1 X-41.893 Y4.143 E0.06391
G1 X-41.893 Y3.393 E0.02165
G1 X-36.893 Y3.393 E0.14431
G1 X-36.893 Y-3.321 E0.19379
G1 X-41.893 Y-3.321 E0.14431
G1 X-41.893 Y-4.071 E0.02165
G1 X-44.107 Y-4.071 E0.06391
G1 X-44.107 Y-2.271 E0.05195
G1 X-51.893 Y-2.271 E0.22472
G1 X-51.893 Y-4.784 E0.07253
G1 X35.107 Y-4.784 E2.51105
G1 X35.107 Y-6.357 E0.04540
G1 X49.893 Y-6.357 E0.42676
G1 X49.893 Y-4.784 E0.04540
G1 X51.893 Y-4.784 E0.05773 F4800.000
G1 X51.893 Y-0.571 E0.12160
G1 X11.893 Y-0.571 E1.15451
G1 X11.893 Y4.856 E0.15664
G1 X-14.299 Y4.856 E0.75597
G1 X-14.299 Y5.213 F15000.000
G1 X-52.250 Y5.213 E1.09536 F4800.000
G1 X-52.250 Y1.986 E0.09314
G1 X-43.750 Y1.986 E0.24533
G1 X-43.750 Y3.786 E0.05195
G1 X-42.250 Y3.786 E0.04329
G1 X-42.250 Y3.036 E0.02165
G1 X-37.250 Y3.036 E0.14431
G1 X-37.250 Y-2.964 E0.17318
G1 X-42.250 Y-2.964 E0.14431
G1 X-42.250 Y-3.714 E0.02165
G1 X-43.750 Y-3.714 E0.04329
G1 X-43.750 Y-1.914 E0.05195
G1 X-52.250 Y-1.914 E0.24533
G1 X-52.250 Y-5.141 E0.09314
G1 X34.750 Y-5.141 E2.51105
G1 X34.750 Y-6.714 E0.04540
G1 X50.250 Y-6.714 E0.44737
G1 X50.250 Y-5.141 E0.04540
G1 X52.250 Y-5.141 E0.05773 F4800.000
G1 X52.250 Y-0.214 E0.14221
G1 X12.250 Y-0.214 E1.15451
G1 X12.250 Y5.213 E0.15664
G1 X-14.239 Y5.213 E0.76455
G1 X-14.499 Y4.867 F15000.000
G1 X5.603 Y4.648 F15000.000
G1 X14.828 Y-4.576 E0.37713 F4800.000
G1 X14.322 Y-4.576 E0.01462
G1 X5.097 Y4.648 E0.37713
G1 X4.592 Y4.648 E0.01462
G1 X13.816 Y-4.576 E0.37713
G1 X13.310 Y-4.576 E0.01462
G1 X4.086 Y4.648 E0.37713
G1 X3.580 Y4.648 E0.01462
G1 X12.805 Y-4.576 E0.37713
G1 X12.299 Y-4.576 E0.01462
G1 X3.074 Y4.648 E0.37713
G1 X2.568 Y4.648 E0.01462
G1 X11.793 Y-4.576 E0.37713
G1 X11.287 Y-4.576 E0.01462
G1 X2.063 Y4.648 E0.37713
G1 X1.557 Y4.648 E0.01462
G1 X10.781 Y-4.576 E0.37713
G1 X10.276 Y-4.576 E0.01462
G1 X1.051 Y4.648 E0.37713
G1 X0.545 Y4.648 E0.01462
G1 X9.770 Y-4.576 E0.37713
G1 X9.264 Y-4.576 E0.01462
G1 X0.039 Y4.648 E0.37713
G1 X-0.466 Y4.648 E0.01462
G1 X8.758 Y-4.576 E0.37713
G1 X8.252 Y-4.576 E0.01462
G1 X-0.972 Y4.648 E0.37713
G1 X-1.478 Y4.648 E0.01462
G1 X7.747 Y-4.576 E0.37713
G1 X7.241 Y-4.576 E0.01462
G1 X-1.984 Y4.648 E0.37713
G1 X-2.490 Y4.648 E0.01462
G1 X6.735 Y-4.576 E0.37713
G1 X6.229 Y-4.576 E0.01462
G1 X-2.995 Y4.648 E0.37713
G1 X-3.501 Y4.648 E0.01462
G1 X5.723 Y-4.576 E0.37713
G1 X5.218 Y-4.576 E0.01462
G1 X-4.007 Y4.648 E0.37713
G1 X-4.513 Y4.648 E0.01462
G1 X4.712 Y-4.576 E0.37713
G1 X4.206 Y-4.576 E0.01462
G1 X-5.018 Y4.648 E0.37713
G1 X-5.524 Y4.648 E0.01462
G1 X3.700 Y-4.576 E0.37713
G1 X3.194 Y-4.576 E0.01462
G1 X-6.030 Y4.648 E0.37713
G1 X-6.536 Y4.648 E0.01462
G1 X2.689 Y-4.576 E0.37713
G1 X2.183 Y-4.576 E0.01462
G1 X-7.042 Y4.648 E0.37713
G1 X-7.547 Y4.648 E0.01462
G1 X1.677 Y-4.576 E0.37713
G1 X1.171 Y-4.576 E0.01462
G1 X-8.053 Y4.648 E0.37713
G1 X-8.559 Y4.648 E0.01462
G1 X0.665 Y-4.576 E0.37713
G1 X0.160 Y-4.576 E0.01462
G1 X-9.065 Y4.648 E0.37713
G1 X-9.571 Y4.648 E0.01462
G1 X-0.346 Y-4.576 E0.37713
G1 X-0.852 Y-4.576 E0.01462
G1 X-10.076 Y4.648 E0.37713
G1 X-10.582 Y4.648 E0.01462
G1 X-1.358 Y-4.576 E0.37713
G1 X-1.863 Y-4.576 E0.01462
G1 X-11.088 Y4.648 E0.37713
