; generated by Slic3r 1.2.9 on 2017-01-16 at 14:36:15

; external perimeters extrusion width = 0.50mm
; perimeters extrusion width = 0.50mm
; infill extrusion width = 0.50mm
; solid infill extrusion width = 0.50mm
; top infill extrusion width = 0.50mm

M107
;Basic settings: Layer height: {layer_height} Walls: {wall_thickness} Fill: {fill_density}
;Print time: {print_time}
;Filament used: {filament_amount}m {filament_weight}g
;Filament cost: {filament_cost}
;M190 S{print_bed_temperature} ;Uncomment to add your own bed temperature line
;M109 S{print_temperature} ;Uncomment to add your own temperature line
G21        ;metric values
G90        ;absolute positioning
M83
G10 P0 S200
T0
M116


G21 ; set units to millimeters
G90 ; use absolute coordinates
M83 ; use relative distances for extrusion
G1 E-3.20000 F3000.00000
G1 Z0.400 F9000.000
G1 X0.000 Y9.004 F9000.000
G1 Z0.300 F9000.000
G1 E3.20000 F3000.00000
G1 X-52.450 Y9.004 E4.81231 F1200.000
G1 X-54.121 Y8.610 E0.15755
G1 X-55.439 Y7.509 E0.15755
G1 X-56.186 Y5.269 E0.21667
G1 X-56.186 Y-5.197 E0.96022
G1 X-55.791 Y-6.868 E0.15755
G1 X-54.690 Y-8.186 E0.15755
G1 X-52.524 Y-8.932 E0.21024
G1 X34.476 Y-10.649 E7.98385
G1 X50.450 Y-10.650 E1.46560
G1 X52.121 Y-10.255 E0.15755
G1 X52.884 Y-9.748 E0.08399 F1200.000
G1 X54.884 Y-8.031 E0.24186
G1 X55.894 Y-6.643 E0.15755
G1 X56.186 Y-5.197 E0.13535
G1 X56.186 Y-0.014 E0.47552
G1 X55.791 Y1.657 E0.15755
G1 X54.690 Y2.975 E0.15755
G1 X52.939 Y3.689 E0.17353
G1 X12.939 Y8.972 E3.70189
G1 X12.450 Y9.004 E0.04497
G1 X0.060 Y9.004 E1.13679
G1 E-3.20000 F3000.00000
G1 Z0.700 F9000.000
G1 X-45.719 Y2.922 F9000.000
G1 Z0.300 F9000.000
G1 E3.20000 F3000.00000
G1 X-44.686 Y2.922 E0.09481 F900.000
G1 X-44.686 Y4.133 E0.11116
G1 X-51.314 Y4.133 E0.60819 F900.000
G1 X-51.314 Y2.922 E0.11116
G1 X-45.779 Y2.922 E0.50788
G1 E-3.20000 F3000.00000
G1 Z0.700 F9000.000
G1 X-47.484 Y-2.850 F9000.000
G1 Z0.300 F9000.000
G1 E3.20000 F3000.00000
G1 X-51.314 Y-2.850 E0.35146 F900.000
G1 X-51.314 Y-4.061 E0.11116
G1 X-44.686 Y-4.061 E0.60819
G1 X-44.686 Y-2.850 E0.11116
G1 X-47.424 Y-2.850 E0.25123 F900.000
G1 E-3.20000 F3000.00000
G1 Z0.700 F9000.000
G1 X11.314 Y4.133 F9000.000
G1 Z0.300 F9000.000
G1 E3.20000 F3000.00000
G1 X-36.314 Y4.133 E4.36996 F900.000
G1 X-36.314 Y-4.061 E0.75183
G1 X35.686 Y-4.061 E6.60604
G1 X35.686 Y-5.778 E0.15756
G1 X49.314 Y-5.778 E1.25045
G1 X49.314 Y-4.061 E0.15756
G1 X51.314 Y-4.061 E0.18350 F900.000
G1 X51.314 Y-1.150 E0.26713
G1 X11.314 Y-1.150 E3.67002
G1 X11.314 Y4.073 E0.47919
G1 X12.050 Y4.073 F9000.000
G1 X12.050 Y4.869 E0.07300 F900.000
G1 X-52.050 Y4.869 E5.88121
G1 X-52.050 Y2.186 E0.24614
G1 X-43.950 Y2.186 E0.74318
G1 X-43.950 Y3.986 E0.16515
G1 X-42.050 Y3.986 E0.17433
G1 X-42.050 Y3.236 E0.06881
G1 X-37.050 Y3.236 E0.45875
G1 X-37.050 Y-3.164 E0.58720
G1 X-42.050 Y-3.164 E0.45875
G1 X-42.050 Y-3.914 E0.06881
G1 X-43.950 Y-3.914 E0.17433
G1 X-43.950 Y-2.114 E0.16515
G1 X-52.050 Y-2.114 E0.74318
G1 X-52.050 Y-4.797 E0.24614
G1 X34.950 Y-4.797 E7.98229
G1 X34.950 Y-6.514 E0.15756
G1 X50.050 Y-6.514 E1.38543
G1 X50.050 Y-4.797 E0.15756
G1 X52.050 Y-4.797 E0.18350 F900.000
G1 X52.050 Y-0.414 E0.40212
G1 X12.050 Y-0.414 E3.67002
G1 X12.050 Y4.013 E0.40619
G1 X11.704 Y4.273 F9000.000
G1 E-3.20000 F3000.00000
G1 Z0.700 F9000.000
G1 X35.833 Y-3.612 F9000.000
G1 Z0.300 F9000.000
G1 E3.20000 F3000.00000
G1 X37.846 Y-1.599 E0.26328 F900.000
G1 X36.798 Y-1.599 E0.09697
G1 X34.785 Y-3.612 E0.26328
G1 X33.736 Y-3.612 E0.09697
G1 X35.749 Y-1.599 E0.26328
G1 X34.701 Y-1.599 E0.09697
G1 X32.688 Y-3.612 E0.26328
G1 X31.639 Y-3.612 E0.09697
G1 X33.652 Y-1.599 E0.26328
G1 X32.603 Y-1.599 E0.09697
G1 X30.590 Y-3.612 E0.26328
G1 X29.542 Y-3.612 E0.09697
G1 X31.555 Y-1.599 E0.26328
G1 X30.506 Y-1.599 E0.09697
G1 X28.493 Y-3.612 E0.26328
G1 X27.445 Y-3.612 E0.09697
G1 X29.458 Y-1.599 E0.26328
G1 X28.409 Y-1.599 E0.09697
G1 X26.396 Y-3.612 E0.26328
G1 X25.348 Y-3.612 E0.09697
G1 X27.361 Y-1.599 E0.26328
G1 X26.312 Y-1.599 E0.09697
G1 X24.299 Y-3.612 E0.26328
G1 X23.250 Y-3.612 E0.09697
G1 X25.264 Y-1.599 E0.26328
G1 X24.215 Y-1.599 E0.09697
G1 X22.202 Y-3.612 E0.26328
G1 X21.153 Y-3.612 E0.09697
G1 X23.166 Y-1.599 E0.26328
G1 X22.118 Y-1.599 E0.09697
G1 X20.105 Y-3.612 E0.26328
G1 X19.056 Y-3.612 E0.09697
G1 X21.069 Y-1.599 E0.26328
G1 X20.021 Y-1.599 E0.09697
G1 X18.008 Y-3.612 E0.26328
G1 X16.959 Y-3.612 E0.09697
G1 X18.972 Y-1.599 E0.26328
G1 X17.924 Y-1.599 E0.09697
G1 X15.911 Y-3.612 E0.26328
G1 X14.862 Y-3.612 E0.09697
G1 X16.875 Y-1.599 E0.26328
G1 X15.826 Y-1.599 E0.09697
G1 X13.813 Y-3.612 E0.26328
G1 X12.765 Y-3.612 E0.09697
G1 X14.778 Y-1.599 E0.26328
G1 X13.729 Y-1.599 E0.09697
G1 X11.716 Y-3.612 E0.26328
G1 X10.668 Y-3.612 E0.09697
G1 X12.681 Y-1.599 E0.26328
G1 X11.632 Y-1.599 E0.09697
G1 X9.619 Y-3.612 E0.26328
G1 X8.571 Y-3.612 E0.09697
G1 X10.865 Y-1.317 E0.30009
G1 X10.865 Y-0.269 E0.09697
G1 X7.522 Y-3.612 E0.43723
G1 X6.473 Y-3.612 E0.09697
G1 X10.865 Y0.780 E0.57436
G1 X10.865 Y1.828 E0.09697
G1 X5.425 Y-3.612 E0.71149
G1 X4.376 Y-3.612 E0.09697
G1 X10.865 Y2.877 E0.84863
G1 X10.624 Y3.684 E0.07790
G1 X3.328 Y-3.612 E0.95417
G1 X2.279 Y-3.612 E0.09697
G1 X9.575 Y3.684 E0.95417
G1 X8.526 Y3.684 E0.09697
G1 X1.231 Y-3.612 E0.95417
G1 X0.182 Y-3.612 E0.09697
G1 X7.478 Y3.684 E0.95417
G1 X6.429 Y3.684 E0.09697
G1 X-0.866 Y-3.612 E0.95417
G1 X-1.915 Y-3.612 E0.09697
G1 X5.381 Y3.684 E0.95417
G1 X4.332 Y3.684 E0.09697
G1 X-2.964 Y-3.612 E0.95417
G1 X-4.012 Y-3.612 E0.09697
G1 X3.284 Y3.684 E0.95417
G1 X2.235 Y3.684 E0.09697
G1 X-5.061 Y-3.612 E0.95417
G1 X-6.109 Y-3.612 E0.09697
G1 X1.187 Y3.684 E0.95417
G1 X0.138 Y3.684 E0.09697
G1 X-7.158 Y-3.612 E0.95417
G1 X-8.206 Y-3.612 E0.09697
G1 X-0.911 Y3.684 E0.95417
G1 X-1.959 Y3.684 E0.09697
G1 X-9.255 Y-3.612 E0.95417
G1 X-10.304 Y-3.612 E0.09697
G1 X-3.008 Y3.684 E0.95417
G1 X-4.056 Y3.684 E0.09697
G1 X-11.352 Y-3.612 E0.95417
G1 X-12.401 Y-3.612 E0.09697
G1 X-5.105 Y3.684 E0.95417
G1 X-6.153 Y3.684 E0.09697
G1 X-13.449 Y-3.612 E0.95417
G1 X-14.498 Y-3.612 E0.09697
G1 X-7.202 Y3.684 E0.95417
G1 X-8.251 Y3.684 E0.09697
G1 X-15.546 Y-3.612 E0.95417
G1 X-16.595 Y-3.612 E0.09697
G1 X-9.299 Y3.684 E0.95417
G1 X-10.348 Y3.684 E0.09697
G1 X-17.643 Y-3.612 E0.95417
G1 X-18.692 Y-3.612 E0.09697
G1 X-11.396 Y3.684 E0.95417
G1 X-12.445 Y3.684 E0.09697
G1 X-19.741 Y-3.612 E0.95417
G1 X-20.789 Y-3.612 E0.09697
G1 X-13.493 Y3.684 E0.95417
G1 X-14.542 Y3.684 E0.09697
G1 X-21.838 Y-3.612 E0.95417
G1 X-22.886 Y-3.612 E0.09697
G1 X-15.590 Y3.684 E0.95417
G1 X-16.639 Y3.684 E0.09697
G1 X-23.935 Y-3.612 E0.95417
G1 X-24.983 Y-3.612 E0.09697
G1 X-17.688 Y3.684 E0.95417
G1 X-18.736 Y3.684 E0.09697
G1 X-26.032 Y-3.612 E0.95417
G1 X-27.081 Y-3.612 E0.09697
G1 X-19.785 Y3.684 E0.95417
G1 X-20.833 Y3.684 E0.09697
G1 X-28.129 Y-3.612 E0.95417
G1 X-29.178 Y-3.612 E0.09697
G1 X-21.882 Y3.684 E0.95417
G1 X-22.930 Y3.684 E0.09697
G1 X-30.226 Y-3.612 E0.95417
G1 X-31.275 Y-3.612 E0.09697
G1 X-23.979 Y3.684 E0.95417
G1 X-25.028 Y3.684 E0.09697
G1 X-32.323 Y-3.612 E0.95417
G1 X-33.372 Y-3.612 E0.09697
G1 X-26.076 Y3.684 E0.95417
G1 X-27.125 Y3.684 E0.09697
G1 X-34.420 Y-3.612 E0.95417
G1 X-35.469 Y-3.612 E0.09697
G1 X-28.173 Y3.684 E0.95417
G1 X-29.222 Y3.684 E0.09697
G1 X-35.865 Y-2.960 E0.86884
G1 X-35.865 Y-1.911 E0.09697
G1 X-30.270 Y3.684 E0.73171
G1 X-31.319 Y3.684 E0.09697
G1 X-35.865 Y-0.862 E0.59457
G1 X-35.865 Y0.186 E0.09697
G1 X-32.367 Y3.684 E0.45744
G1 X-33.416 Y3.684 E0.09697
G1 X-35.865 Y1.235 E0.32031
G1 X-35.865 Y2.283 E0.09697
G1 X-34.465 Y3.684 E0.18317
G1 X-35.513 Y3.684 E0.09697
G1 X-35.865 Y3.332 E0.04604
G1 X36.135 Y-4.359 F9000.000
G1 X38.895 Y-1.599 E0.36096 F900.000
G1 X39.943 Y-1.599 E0.09697
G1 X36.213 Y-5.329 E0.48786
G1 X37.262 Y-5.329 E0.09697
G1 X40.992 Y-1.599 E0.48786
G1 X42.041 Y-1.599 E0.09697
G1 X38.310 Y-5.329 E0.48786
G1 X39.359 Y-5.329 E0.09697
G1 X43.089 Y-1.599 E0.48786
G1 X44.138 Y-1.599 E0.09697
G1 X40.407 Y-5.329 E0.48786
G1 X41.456 Y-5.329 E0.09697
G1 X45.186 Y-1.599 E0.48786
G1 X46.235 Y-1.599 E0.09697
G1 X42.504 Y-5.329 E0.48786
G1 X43.553 Y-5.329 E0.09697
G1 X47.283 Y-1.599 E0.48786
G1 X48.332 Y-1.599 E0.09697
G1 X44.602 Y-5.329 E0.48786
G1 X45.650 Y-5.329 E0.09697
G1 X49.380 Y-1.599 E0.48786
G1 X50.865 Y-3.260 F9000.000
G1 X50.513 Y-3.612 E0.04605 F900.000
G1 X49.465 Y-3.612 E0.09697
G1 X50.865 Y-2.211 E0.18318
G1 X50.429 Y-1.599 E0.06953
G1 X46.699 Y-5.329 E0.48786
G1 X47.747 Y-5.329 E0.09697
G1 X48.865 Y-4.211 E0.14620
G1 X-36.682 Y4.052 F9000.000
G1 X-41.682 Y4.052 E0.95765 F600.000
G1 X-41.682 Y4.427 F9000.000
G1 X-44.318 Y4.427 E0.24182 F600.000
G1 X-45.053 Y3.527 F9000.000
G1 X-50.947 Y3.527 E0.54070 F600.000
G1 E-3.20000 F3000.00000
G1 Z0.700 F9000.000
G1 X-50.947 Y-3.455 F9000.000
G1 Z0.300 F9000.000
G1 E3.20000 F3000.00000
G1 X-45.053 Y-3.455 E0.54070 F600.000
G1 X-44.318 Y-4.355 F9000.000
G1 X-41.682 Y-4.355 E0.24182 F600.000
G1 X-41.682 Y-3.980 F9000.000
G1 X-36.682 Y-3.980 E0.95765 F600.000
G1 E-3.20000 F3000.00000
G1 Z0.700 F9000.000
G1 X-51.764 Y-4.684 F9000.000
G1 Z0.600 F9000.000
G1 E3.20000 F3000.00000
G1 X35.236 Y-4.684 E4.72696 F1800.000
G1 X35.236 Y-6.228 E0.08389
G1 X49.764 Y-6.228 E0.78939
G1 X49.764 Y-4.684 E0.08389
G1 X51.764 Y-4.684 E0.10867 F1800.000
G1 X51.764 Y-0.700 E0.21650
G1 X11.764 Y-0.700 E2.17331
G1 X11.764 Y4.756 E0.29644
G1 X-51.764 Y4.756 E3.45170
G1 X-51.764 Y2.472 E0.12414
G1 X-44.236 Y2.472 E0.40906
G1 X-44.236 Y4.272 E0.09780
G1 X-41.764 Y4.272 E0.13427
G1 X-41.764 Y3.522 E0.04075
G1 X-36.764 Y3.522 E0.27166
G1 X-36.764 Y-3.450 E0.37877
G1 X-41.764 Y-3.450 E0.27166
G1 X-41.764 Y-4.200 E0.04075
G1 X-44.236 Y-4.200 E0.13427
G1 X-44.236 Y-2.400 E0.09780
G1 X-51.764 Y-2.400 E0.40906
G1 X-51.764 Y-4.624 E0.12088
G1 X-52.200 Y-4.624 F9000.000
G1 X-52.200 Y-5.120 E0.02693 F1800.000
G1 X34.800 Y-5.120 E4.72696
G1 X34.800 Y-6.664 E0.08389
G1 X50.200 Y-6.664 E0.83673
G1 X50.200 Y-5.120 E0.08389
G1 X52.200 Y-5.120 E0.10867 F1800.000
G1 X52.200 Y-0.264 E0.26384
G1 X12.200 Y-0.264 E2.17331
G1 X12.200 Y5.192 E0.29644
G1 X-52.200 Y5.192 E3.49904
G1 X-52.200 Y2.036 E0.17147
G1 X-43.800 Y2.036 E0.45640
G1 X-43.800 Y3.836 E0.09780
G1 X-42.200 Y3.836 E0.08693
G1 X-42.200 Y3.086 E0.04075
G1 X-37.200 Y3.086 E0.27166
G1 X-37.200 Y-3.014 E0.33143
G1 X-42.200 Y-3.014 E0.27166
G1 X-42.200 Y-3.764 E0.04075
G1 X-43.800 Y-3.764 E0.08693
G1 X-43.800 Y-1.964 E0.09780
G1 X-52.200 Y-1.964 E0.45640
G1 X-52.200 Y-4.564 E0.14128
G1 X-51.854 Y-4.824 F9000.000
G1 X-51.507 Y-4.202 F9000.000
G1 X-51.282 Y-4.427 E0.01797 F1800.000
G1 X-50.641 Y-4.427 E0.03623
G1 X-51.507 Y-3.561 E0.06921
G1 X-51.507 Y-2.920 E0.03623
G1 X-50.000 Y-4.427 E0.12045
G1 X-49.359 Y-4.427 E0.03623
G1 X-51.128 Y-2.658 E0.14142
G1 X-50.487 Y-2.658 E0.03623
G1 X-48.718 Y-4.427 E0.14142
G1 X-48.077 Y-4.427 E0.03623
G1 X-49.846 Y-2.658 E0.14142
G1 X-49.205 Y-2.658 E0.03623
G1 X-47.436 Y-4.427 E0.14142
G1 X-46.795 Y-4.427 E0.03623
G1 X-48.564 Y-2.658 E0.14142
G1 X-47.923 Y-2.658 E0.03623
G1 X-46.154 Y-4.427 E0.14142
G1 X-45.513 Y-4.427 E0.03623
G1 X-47.282 Y-2.658 E0.14142
G1 X-46.641 Y-2.658 E0.03623
G1 X-44.872 Y-4.427 E0.14142
G1 X-44.493 Y-4.164 E0.02604
G1 X-46.000 Y-2.658 E0.12045
G1 X-45.359 Y-2.658 E0.03623
G1 X-44.493 Y-3.523 E0.06921
G1 X-44.493 Y-2.882 E0.03623
G1 X-44.718 Y-2.658 E0.01797
G1 E-3.20000 F3000.00000
G1 Z1.000 F9000.000
G1 X-44.718 Y4.498 F9000.000
G1 Z0.600 F9000.000
G1 E3.20000 F3000.00000
G1 X-44.493 Y4.274 E0.01797 F1800.000
G1 X-44.493 Y3.633 E0.03623
G1 X-45.359 Y4.498 E0.06921
G1 X-46.000 Y4.498 E0.03623
G1 X-44.493 Y2.992 E0.12045
G1 X-44.872 Y2.729 E0.02604
G1 X-46.641 Y4.498 E0.14142
G1 X-47.282 Y4.498 E0.03623
G1 X-45.513 Y2.729 E0.14142
G1 X-46.154 Y2.729 E0.03623
G1 X-47.923 Y4.498 E0.14142
G1 X-48.564 Y4.498 E0.03623
G1 X-46.795 Y2.729 E0.14142
G1 X-47.436 Y2.729 E0.03623
G1 X-49.205 Y4.498 E0.14142
G1 X-49.846 Y4.498 E0.03623
G1 X-48.077 Y2.729 E0.14142
G1 X-48.718 Y2.729 E0.03623
G1 X-50.487 Y4.498 E0.14142
G1 X-51.128 Y4.498 E0.03623
G1 X-49.359 Y2.729 E0.14142
G1 X-50.000 Y2.729 E0.03623
G1 X-51.507 Y4.236 E0.12045
G1 X-51.507 Y3.595 E0.03623
G1 X-50.641 Y2.729 E0.06921
G1 X-51.282 Y2.729 E0.03623
G1 X-51.507 Y2.954 E0.01797
G1 E-3.20000 F3000.00000
G1 Z1.000 F9000.000
G1 X-40.814 Y3.779 F9000.000
G1 Z0.600 F9000.000
G1 E3.20000 F3000.00000
G1 X-41.500 Y4.465 E0.05300 F1800.000
G1 X-40.913 Y4.498 E0.03209
G1 X-40.194 Y3.779 E0.05556
G1 X-39.575 Y3.779 E0.03385
G1 X-40.294 Y4.498 E0.05556
G1 X-39.674 Y4.498 E0.03385
G1 X-38.955 Y3.779 E0.05556
G1 X-38.336 Y3.779 E0.03385
G1 X-39.055 Y4.498 E0.05556
G1 X-38.435 Y4.498 E0.03385
G1 X-37.716 Y3.779 E0.05556
G1 X-37.096 Y3.779 E0.03385
G1 X-37.816 Y4.498 E0.05556
G1 E-3.20000 F3000.00000
G1 Z1.000 F9000.000
G1 X-41.507 Y-4.202 F9000.000
G1 Z0.600 F9000.000
G1 E3.20000 F3000.00000
G1 X-41.282 Y-4.427 E0.01737 F1800.000
G1 X-40.662 Y-4.427 E0.03385
G1 X-41.381 Y-3.708 E0.05556
G1 X-40.762 Y-3.708 E0.03385
G1 X-40.043 Y-4.427 E0.05556
G1 X-39.423 Y-4.427 E0.03385
G1 X-40.142 Y-3.708 E0.05556
G1 X-39.523 Y-3.708 E0.03385
G1 X-38.804 Y-4.427 E0.05556
G1 X-38.184 Y-4.427 E0.03385
G1 X-38.903 Y-3.708 E0.05556
G1 X-38.283 Y-3.708 E0.03385
G1 X-37.564 Y-4.427 E0.05556
G1 X-36.945 Y-4.427 E0.03385
G1 X-37.664 Y-3.708 E0.05556
G1 X-37.044 Y-3.708 E0.03385
G1 X-36.325 Y-4.427 E0.05556
G1 X-35.706 Y-4.427 E0.03385
G1 X-36.507 Y-3.626 E0.06188
G1 X-36.507 Y-3.006 E0.03385
G1 X-35.086 Y-4.427 E0.10976
G1 X-34.467 Y-4.427 E0.03385
G1 X-36.507 Y-2.387 E0.15764
G1 X-36.507 Y-1.767 E0.03385
G1 X-33.847 Y-4.427 E0.20551
G1 X-33.227 Y-4.427 E0.03385
G1 X-36.507 Y-1.148 E0.25339
G1 X-36.507 Y-0.528 E0.03385
G1 X-32.608 Y-4.427 E0.30127
G1 X-31.988 Y-4.427 E0.03385
G1 X-36.507 Y0.092 E0.34915
G1 X-36.507 Y0.711 E0.03385
G1 X-31.369 Y-4.427 E0.39702
G1 X-30.749 Y-4.427 E0.03385
G1 X-36.507 Y1.331 E0.44490
G1 X-36.507 Y1.950 E0.03385
G1 X-30.130 Y-4.427 E0.49278
G1 X-29.510 Y-4.427 E0.03385
G1 X-36.507 Y2.570 E0.54065
G1 X-36.507 Y3.189 E0.03385
G1 X-28.891 Y-4.427 E0.58853
G1 X-28.271 Y-4.427 E0.03385
G1 X-37.196 Y4.498 E0.68968
G1 X-36.576 Y4.498 E0.03385
G1 X-27.651 Y-4.427 E0.68968
G1 X-27.032 Y-4.427 E0.03385
G1 X-35.957 Y4.498 E0.68968
G1 X-35.337 Y4.498 E0.03385
G1 X-26.412 Y-4.427 E0.68968
G1 X-25.793 Y-4.427 E0.03385
G1 X-34.718 Y4.498 E0.68968
G1 X-34.098 Y4.498 E0.03385
G1 X-25.173 Y-4.427 E0.68968
G1 X-24.554 Y-4.427 E0.03385
G1 X-33.479 Y4.498 E0.68968
G1 X-32.859 Y4.498 E0.03385
G1 X-23.934 Y-4.427 E0.68968
G1 X-23.314 Y-4.427 E0.03385
G1 X-32.239 Y4.498 E0.68968
G1 X-31.620 Y4.498 E0.03385
G1 X-22.695 Y-4.427 E0.68968
G1 X-22.075 Y-4.427 E0.03385
G1 X-31.000 Y4.498 E0.68968
G1 X-30.381 Y4.498 E0.03385
G1 X-21.456 Y-4.427 E0.68968
G1 X-20.836 Y-4.427 E0.03385
G1 X-29.761 Y4.498 E0.68968
G1 X-29.142 Y4.498 E0.03385
G1 X-20.217 Y-4.427 E0.68968
G1 X-19.597 Y-4.427 E0.03385
G1 X-28.522 Y4.498 E0.68968
G1 X-27.902 Y4.498 E0.03385
G1 X-18.977 Y-4.427 E0.68968
G1 X-18.358 Y-4.427 E0.03385
G1 X-27.283 Y4.498 E0.68968
G1 X-26.663 Y4.498 E0.03385
G1 X-17.738 Y-4.427 E0.68968
G1 X-17.119 Y-4.427 E0.03385
G1 X-26.044 Y4.498 E0.68968
G1 X-25.424 Y4.498 E0.03385
G1 X-16.499 Y-4.427 E0.68968
G1 X-15.880 Y-4.427 E0.03385
G1 X-24.805 Y4.498 E0.68968
G1 X-24.185 Y4.498 E0.03385
G1 X-15.260 Y-4.427 E0.68968
G1 X-14.641 Y-4.427 E0.03385
G1 X-23.566 Y4.498 E0.68968
G1 X-22.946 Y4.498 E0.03385
G1 X-14.021 Y-4.427 E0.68968
G1 X-13.401 Y-4.427 E0.03385
G1 X-22.326 Y4.498 E0.68968
G1 X-21.707 Y4.498 E0.03385
G1 X-12.782 Y-4.427 E0.68968
G1 X-12.162 Y-4.427 E0.03385
G1 X-21.087 Y4.498 E0.68968
G1 X-20.468 Y4.498 E0.03385
G1 X-11.543 Y-4.427 E0.68968
G1 X-10.923 Y-4.427 E0.03385
G1 X-19.848 Y4.498 E0.68968
G1 X-19.229 Y4.498 E0.03385
G1 X-10.304 Y-4.427 E0.68968
G1 X-9.684 Y-4.427 E0.03385
G1 X-18.609 Y4.498 E0.68968
G1 X-17.989 Y4.498 E0.03385
G1 X-9.064 Y-4.427 E0.68968
G1 X-8.445 Y-4.427 E0.03385
G1 X-17.370 Y4.498 E0.68968
G1 X-16.750 Y4.498 E0.03385
G1 X-7.825 Y-4.427 E0.68968
G1 X-7.206 Y-4.427 E0.03385
G1 X-16.131 Y4.498 E0.68968
G1 X-15.511 Y4.498 E0.03385
G1 X-6.586 Y-4.427 E0.68968
