; generated by Slic3r 1.2.9 on 2017-01-25 at 12:24:32

; external perimeters extrusion width = 0.40mm
; perimeters extrusion width = 0.67mm
; infill extrusion width = 0.67mm
; solid infill extrusion width = 0.67mm
; top infill extrusion width = 0.67mm

;Basic settings: Layer height: {layer_height} Walls: {wall_thickness} Fill: {fill_density}
;Print time: {print_time}
;Filament used: {filament_amount}m {filament_weight}g
;Filament cost: {filament_cost}
;M190 S{print_bed_temperature} ;Uncomment to add your own bed temperature line
;M109 S{print_temperature} ;Uncomment to add your own temperature line
G21        ;metric values
G90        ;absolute positioning
M83
G10 P0 S200
T0
M116


G21 ; set units to millimeters
G90 ; use absolute coordinates
M83 ; use relative distances for extrusion
G1 E-2.00000 F3000.00000
G1 Z0.400 F9000.000
G1 X0.000 Y12.546 F9000.000
G1 Z0.200 F9000.000
G1 E2.00000 F3000.00000
G1 X-52.500 Y12.546 E2.74286 F1200.000
G1 X-54.868 Y12.149 E0.12545
G1 X-56.977 Y11.001 E0.12545
G1 X-58.595 Y9.227 E0.12545
G1 X-59.547 Y7.023 E0.12545
G1 X-59.757 Y5.290 E0.09120
G1 X-59.757 Y-5.218 E0.54898
G1 X-59.359 Y-7.586 E0.12545
G1 X-58.211 Y-9.695 E0.12545
G1 X-56.438 Y-11.313 E0.12545
G1 X-54.233 Y-12.265 E0.12545
G1 X-52.646 Y-12.473 E0.08365
G1 X34.354 Y-14.219 E4.54622
G1 X50.500 Y-14.221 E0.84353
G1 X52.868 Y-13.823 E0.12545
G1 X55.273 Y-12.431 E0.14518 F1200.000
G1 X57.273 Y-10.684 E0.13871
G1 X58.795 Y-8.828 E0.12545
G1 X59.628 Y-6.576 E0.12545
G1 X59.757 Y-5.218 E0.07126
G1 X59.757 Y0.036 E0.27449
G1 X59.359 Y2.404 E0.12545
G1 X58.211 Y4.513 E0.12545
G1 X56.438 Y6.131 E0.12545
G1 X53.445 Y7.231 E0.16657
G1 X13.445 Y12.485 E2.10775
G1 X12.500 Y12.546 E0.04948
G1 X0.060 Y12.546 E0.64993
G1 X0.060 Y11.918 F9000.000
G1 X-52.500 Y11.918 E2.74599 F1200.000
G1 X-54.759 Y11.521 E0.11985
G1 X-56.748 Y10.378 E0.11985
G1 X-58.228 Y8.625 E0.11985
G1 X-59.022 Y6.473 E0.11985
G1 X-59.128 Y5.290 E0.06204
G1 X-59.128 Y-5.218 E0.54898
G1 X-58.731 Y-7.477 E0.11985
G1 X-57.588 Y-9.466 E0.11985
G1 X-55.835 Y-10.946 E0.11985
G1 X-52.633 Y-11.845 E0.17376
G1 X34.367 Y-13.591 E4.54622
G1 X50.500 Y-13.592 E0.84287
G1 X52.759 Y-13.195 E0.11985
G1 X54.859 Y-11.957 E0.12736 F1200.000
G1 X56.859 Y-10.211 E0.13871
G1 X58.300 Y-8.426 E0.11985
G1 X59.128 Y-5.218 E0.17310
G1 X59.128 Y0.036 E0.27449
G1 X58.731 Y2.295 E0.11985
G1 X57.588 Y4.284 E0.11985
G1 X55.835 Y5.764 E0.11985
G1 X53.363 Y6.608 E0.13646
G1 X13.363 Y11.862 E2.10775
G1 X12.500 Y11.918 E0.04519
G1 X0.120 Y11.918 E0.64679
G1 E-2.00000 F3000.00000
G1 Z0.600 F9000.000
G1 X0.120 Y6.861 F9000.000
G1 Z0.200 F9000.000
G1 E2.00000 F3000.00000
G1 X-53.151 Y6.861 E2.78312 F1200.000
G1 X-54.071 Y5.940 E0.06799
G1 X-54.071 Y1.085 E0.25366
G1 X-53.282 Y0.296 E0.05830
G1 X-53.282 Y-0.224 E0.02719
G1 X-54.071 Y-1.013 E0.05830
G1 X-54.071 Y-5.869 E0.25366
G1 X-53.151 Y-6.789 E0.06799
G1 X32.561 Y-6.789 E4.47800
G1 X32.929 Y-7.157 E0.02719
G1 X32.929 Y-7.615 E0.02392
G1 X33.849 Y-8.535 E0.06799
G1 X51.151 Y-8.535 E0.90390
G1 X52.071 Y-7.615 E0.06799
G1 X52.071 Y-7.157 E0.02392 F1200.000
G1 X52.439 Y-6.789 E0.02719
G1 X53.151 Y-6.789 E0.03719
G1 X54.071 Y-5.869 E0.06799
G1 X54.071 Y0.687 E0.34247
G1 X53.151 Y1.607 E0.06799
G1 X14.439 Y1.607 E2.02249
G1 X14.071 Y1.975 E0.02719
G1 X14.071 Y5.940 E0.20719
G1 X13.151 Y6.861 E0.06799
G1 X0.180 Y6.861 E0.67765
G1 E-2.00000 F3000.00000
G1 Z0.600 F9000.000
G1 X-39.071 Y0.847 F9000.000
G1 Z0.200 F9000.000
G1 E2.00000 F3000.00000
G1 X-39.439 Y1.215 E0.02719 F1200.000
G1 X-41.664 Y1.215 E0.11626
G1 X-41.895 Y1.119 E0.01306
G1 X-42.718 Y0.296 E0.06083
G1 X-42.718 Y-0.224 E0.02719
G1 X-41.895 Y-1.048 E0.06083
G1 X-41.664 Y-1.143 E0.01306
G1 X-39.439 Y-1.143 E0.11626
G1 X-39.071 Y-0.775 E0.02719 F1200.000
G1 X-39.071 Y0.787 E0.08162
G1 X-38.442 Y0.787 F9000.000
G1 X-38.442 Y-1.404 E0.11445 F1200.000
G1 X-38.811 Y-1.772 E0.02719
G1 X-42.189 Y-1.772 E0.17653
G1 X-42.558 Y-1.404 E0.02719
G1 X-42.558 Y-1.274 E0.00678
G1 X-43.110 Y-0.722 E0.04079
G1 X-52.890 Y-0.722 E0.51100
G1 X-53.442 Y-1.274 E0.04079
G1 X-53.442 Y-5.608 E0.22646
G1 X-52.890 Y-6.160 E0.04079
G1 X33.189 Y-6.160 E4.49723
G1 X33.558 Y-6.529 E0.02719
G1 X33.558 Y-7.354 E0.04315
G1 X34.110 Y-7.907 E0.04079
G1 X50.890 Y-7.907 E0.87671
G1 X51.442 Y-7.354 E0.04079 F1200.000
G1 X51.442 Y-6.529 E0.04315
G1 X51.811 Y-6.160 E0.02719
G1 X52.890 Y-6.160 E0.05642
G1 X53.442 Y-5.608 E0.04079
G1 X53.442 Y0.426 E0.31528
G1 X52.890 Y0.978 E0.04079
G1 X13.811 Y0.978 E2.04172
G1 X13.442 Y1.346 E0.02719
G1 X13.442 Y5.680 E0.22642
G1 X12.890 Y6.232 E0.04079
G1 X-52.890 Y6.232 E3.43671
G1 X-53.442 Y5.680 E0.04079
G1 X-53.442 Y1.346 E0.22646
G1 X-52.890 Y0.793 E0.04079
G1 X-43.110 Y0.793 E0.51100
G1 X-42.558 Y1.346 E0.04079
G1 X-42.558 Y1.475 E0.00678
G1 X-42.189 Y1.843 E0.02719
G1 X-38.811 Y1.843 E0.17653
G1 X-38.442 Y1.475 E0.02719
G1 X-38.442 Y0.847 E0.03283
G1 X-37.814 Y0.847 F9000.000
G1 X-37.814 Y-2.032 E0.15041 F1200.000
G1 X-38.182 Y-2.400 E0.02719
G1 X-42.818 Y-2.400 E0.24218
G1 X-43.186 Y-2.032 E0.02719
G1 X-43.186 Y-1.534 E0.02601
G1 X-43.370 Y-1.350 E0.01360
G1 X-52.630 Y-1.350 E0.48380
G1 X-52.814 Y-1.534 E0.01360
G1 X-52.814 Y-5.348 E0.19927
G1 X-52.630 Y-5.532 E0.01360
G1 X33.818 Y-5.532 E4.51646
G1 X34.186 Y-5.900 E0.02719
G1 X34.186 Y-7.094 E0.06238
G1 X34.370 Y-7.278 E0.01360
G1 X50.630 Y-7.278 E0.84952
G1 X50.814 Y-7.094 E0.01360
G1 X50.814 Y-5.900 E0.06238 F1200.000
G1 X51.182 Y-5.532 E0.02719
G1 X52.630 Y-5.532 E0.07565
G1 X52.814 Y-5.348 E0.01360
G1 X52.814 Y0.166 E0.28809
G1 X52.630 Y0.350 E0.01360
G1 X13.182 Y0.350 E2.06095
G1 X12.814 Y0.718 E0.02719
G1 X12.814 Y5.420 E0.24564
G1 X12.630 Y5.604 E0.01360
G1 X-52.630 Y5.604 E3.40952
G1 X-52.814 Y5.420 E0.01360
G1 X-52.814 Y1.606 E0.19927
G1 X-52.630 Y1.422 E0.01360
G1 X-43.370 Y1.422 E0.48380
G1 X-43.186 Y1.606 E0.01360
G1 X-43.186 Y2.104 E0.02601
G1 X-42.818 Y2.472 E0.02719
G1 X-38.182 Y2.472 E0.24218
G1 X-37.814 Y2.104 E0.02719
G1 X-37.814 Y0.907 E0.06252
G1 E-2.00000 F3000.00000
G1 Z0.600 F9000.000
G1 X-44.528 Y2.429 F9000.000
G1 Z0.200 F9000.000
G1 E2.00000 F3000.00000
G1 X-44.193 Y2.429 E0.01752 F60.000
G1 X-44.193 Y4.597 E0.11329
G1 X-51.807 Y4.597 E0.39782 F60.000
G1 X-51.807 Y2.429 E0.11329
G1 X-44.588 Y2.429 E0.37717
G1 E-2.00000 F3000.00000
G1 Z0.600 F9000.000
G1 X-51.500 Y-2.664 F9000.000
G1 X-51.500 Y-2.664 F9000.000
G1 X-51.678 Y-2.357 F9000.000
G1 Z0.200 F9000.000
G1 E2.00000 F3000.00000
G1 X-51.807 Y-2.357 E0.00678 F60.000
G1 X-51.807 Y-4.525 E0.11329
G1 X-44.193 Y-4.525 E0.39782
G1 X-44.193 Y-2.357 E0.11329
G1 X-51.618 Y-2.357 E0.38791 F60.000
G1 E-2.00000 F3000.00000
G1 Z0.600 F9000.000
G1 X-44.500 Y2.736 F9000.000
G1 X-41.500 Y4.290 F9000.000
G1 X-39.925 Y4.597 F9000.000
G1 Z0.200 F9000.000
G1 E2.00000 F3000.00000
G1 X-41.807 Y4.597 E0.09835 F1200.000
G1 X-41.807 Y3.479 E0.05844
G1 X-36.807 Y3.479 E0.26122
G1 X-36.807 Y-3.407 E0.35973
G1 X-41.807 Y-3.407 E0.26122
G1 X-41.807 Y-4.525 E0.05844
G1 X35.193 Y-4.525 E4.02286
G1 X35.193 Y-6.271 E0.09123
G1 X49.807 Y-6.271 E0.76354
G1 X49.807 Y-4.525 E0.09123
G1 X51.807 Y-4.525 E0.10449 F1200.000
G1 X51.807 Y-0.657 E0.20211
G1 X11.807 Y-0.657 E2.08980
G1 X11.807 Y4.597 E0.27449
G1 X-39.865 Y4.597 E2.69961
G1 X-39.865 Y5.090 F9000.000
G1 X-52.300 Y5.090 E0.36921 F840.000
G1 X-52.300 Y1.936 E0.09364
G1 X-43.700 Y1.936 E0.25535
G1 X-43.700 Y3.736 E0.05344
G1 X-42.300 Y3.736 E0.04157
G1 X-42.300 Y2.986 E0.02227
G1 X-37.300 Y2.986 E0.14846
G1 X-37.300 Y-2.914 E0.17518
G1 X-42.300 Y-2.914 E0.14846
G1 X-42.300 Y-3.664 E0.02227
G1 X-43.700 Y-3.664 E0.04157
G1 X-43.700 Y-1.864 E0.05344
G1 X-52.300 Y-1.864 E0.25535
G1 X-52.300 Y-5.018 E0.09364
G1 X34.700 Y-5.018 E2.58314
G1 X34.700 Y-6.764 E0.05184
G1 X50.300 Y-6.764 E0.46318
G1 X50.300 Y-5.018 E0.05184
G1 X52.300 Y-5.018 E0.05938 F840.000
G1 X52.300 Y-0.164 E0.14412
G1 X12.300 Y-0.164 E1.18765
G1 X12.300 Y5.090 E0.15599
G1 X-39.805 Y5.090 E1.54706
G1 X-40.065 Y4.743 F9000.000
G1 X-41.493 Y4.038 F9000.000
G1 X-36.493 Y4.038 E0.54029 F1200.000
G1 X-36.112 Y3.910 F9000.000
G1 X-35.806 Y4.216 E0.02269 F1200.000
G1 X-36.427 Y2.705 F9000.000
G1 X-34.915 Y4.216 E0.11190 F1200.000
G1 X-34.025 Y4.216 E0.04663
G1 X-36.427 Y1.815 E0.17784
G1 X-36.427 Y0.924 E0.04663
G1 X-33.134 Y4.216 E0.24378
G1 X-32.244 Y4.216 E0.04663
G1 X-36.427 Y0.034 E0.30972
G1 X-36.427 Y-0.857 E0.04663
G1 X-31.353 Y4.216 E0.37567
G1 X-30.463 Y4.216 E0.04663
G1 X-36.427 Y-1.747 E0.44161
G1 X-36.427 Y-2.638 E0.04663
G1 X-29.572 Y4.216 E0.50755
G1 X-28.682 Y4.216 E0.04663
G1 X-36.112 Y-3.214 E0.55023
G1 X-36.112 Y-4.105 E0.04662
G1 X-27.791 Y4.216 E0.61616
G1 X-26.901 Y4.216 E0.04663
G1 X-35.261 Y-4.145 E0.61910
G1 X-34.371 Y-4.145 E0.04663
G1 X-26.010 Y4.216 E0.61910
G1 X-25.120 Y4.216 E0.04663
G1 X-33.480 Y-4.145 E0.61910
G1 X-32.590 Y-4.145 E0.04663
G1 X-24.229 Y4.216 E0.61910
G1 X-23.338 Y4.216 E0.04663
G1 X-31.699 Y-4.145 E0.61910
G1 X-30.809 Y-4.145 E0.04663
G1 X-22.448 Y4.216 E0.61910
G1 X-21.557 Y4.216 E0.04663
G1 X-29.918 Y-4.145 E0.61910
G1 X-29.028 Y-4.145 E0.04663
G1 X-20.667 Y4.216 E0.61910
G1 X-19.776 Y4.216 E0.04663
G1 X-28.137 Y-4.145 E0.61910
G1 X-27.247 Y-4.145 E0.04663
G1 X-18.886 Y4.216 E0.61910
G1 X-17.995 Y4.216 E0.04663
G1 X-26.356 Y-4.145 E0.61910
G1 X-25.466 Y-4.145 E0.04663
G1 X-17.105 Y4.216 E0.61910
G1 X-16.214 Y4.216 E0.04663
G1 X-24.575 Y-4.145 E0.61910
G1 X-23.685 Y-4.145 E0.04663
G1 X-15.324 Y4.216 E0.61910
G1 X-14.433 Y4.216 E0.04663
G1 X-22.794 Y-4.145 E0.61910
G1 X-21.904 Y-4.145 E0.04663
G1 X-13.543 Y4.216 E0.61910
G1 X-12.652 Y4.216 E0.04663
G1 X-21.013 Y-4.145 E0.61910
G1 X-20.122 Y-4.145 E0.04663
G1 X-11.762 Y4.216 E0.61910
G1 X-10.871 Y4.216 E0.04663
G1 X-19.232 Y-4.145 E0.61910
G1 X-18.341 Y-4.145 E0.04663
G1 X-9.981 Y4.216 E0.61910
G1 X-9.090 Y4.216 E0.04663
G1 X-17.451 Y-4.145 E0.61910
G1 X-16.560 Y-4.145 E0.04663
G1 X-8.199 Y4.216 E0.61910
G1 X-7.309 Y4.216 E0.04663
G1 X-15.670 Y-4.145 E0.61910
G1 X-14.779 Y-4.145 E0.04663
G1 X-6.418 Y4.216 E0.61910
G1 X-5.528 Y4.216 E0.04663
G1 X-13.889 Y-4.145 E0.61910
G1 X-12.998 Y-4.145 E0.04663
G1 X-4.637 Y4.216 E0.61910
G1 X-3.747 Y4.216 E0.04663
G1 X-12.108 Y-4.145 E0.61910
G1 X-11.217 Y-4.145 E0.04663
G1 X-2.856 Y4.216 E0.61910
G1 X-1.966 Y4.216 E0.04663
G1 X-10.327 Y-4.145 E0.61910
G1 X-9.436 Y-4.145 E0.04663
G1 X-1.075 Y4.216 E0.61910
G1 X-0.185 Y4.216 E0.04663
G1 X-8.546 Y-4.145 E0.61910
G1 X-7.655 Y-4.145 E0.04663
G1 X0.706 Y4.216 E0.61910
G1 X1.596 Y4.216 E0.04663
G1 X-6.764 Y-4.145 E0.61910
G1 X-5.874 Y-4.145 E0.04663
G1 X2.487 Y4.216 E0.61910
G1 X3.377 Y4.216 E0.04663
G1 X-4.983 Y-4.145 E0.61910
G1 X-4.093 Y-4.145 E0.04663
G1 X4.268 Y4.216 E0.61910
G1 X5.158 Y4.216 E0.04663
G1 X-3.202 Y-4.145 E0.61910
G1 X-2.312 Y-4.145 E0.04663
G1 X6.049 Y4.216 E0.61910
G1 X6.940 Y4.216 E0.04663
G1 X-1.421 Y-4.145 E0.61910
G1 X-0.531 Y-4.145 E0.04663
G1 X7.830 Y4.216 E0.61910
G1 X8.721 Y4.216 E0.04663
G1 X0.360 Y-4.145 E0.61910
G1 X1.250 Y-4.145 E0.04663
G1 X9.611 Y4.216 E0.61910
G1 X10.502 Y4.216 E0.04663
G1 X2.141 Y-4.145 E0.61910
G1 X3.031 Y-4.145 E0.04663
G1 X11.392 Y4.216 E0.61910
G1 X11.427 Y3.360 E0.04487
G1 X3.922 Y-4.145 E0.55570
G1 X4.812 Y-4.145 E0.04663
G1 X11.427 Y2.470 E0.48976
G1 X11.427 Y1.579 E0.04663
G1 X5.703 Y-4.145 E0.42382
G1 X6.593 Y-4.145 E0.04663
G1 X11.427 Y0.689 E0.35788
G1 X11.427 Y-0.202 E0.04663
G1 X7.484 Y-4.145 E0.29194
G1 X8.375 Y-4.145 E0.04663
G1 X11.481 Y-1.038 E0.23006
G1 X12.372 Y-1.038 E0.04663
G1 X9.265 Y-4.145 E0.23006
G1 X10.156 Y-4.145 E0.04663
G1 X13.263 Y-1.038 E0.23006
G1 X14.153 Y-1.038 E0.04663
G1 X11.046 Y-4.145 E0.23006
G1 X11.937 Y-4.145 E0.04663
G1 X15.044 Y-1.038 E0.23006
G1 X15.934 Y-1.038 E0.04663
G1 X12.827 Y-4.145 E0.23006
G1 X13.718 Y-4.145 E0.04663
G1 X16.825 Y-1.038 E0.23006
G1 X17.715 Y-1.038 E0.04663
G1 X14.608 Y-4.145 E0.23006
G1 X15.499 Y-4.145 E0.04663
G1 X18.606 Y-1.038 E0.23006
G1 X19.496 Y-1.038 E0.04663
G1 X16.389 Y-4.145 E0.23006
G1 X17.280 Y-4.145 E0.04663
G1 X20.387 Y-1.038 E0.23006
G1 X21.277 Y-1.038 E0.04663
G1 X18.170 Y-4.145 E0.23006
G1 X19.061 Y-4.145 E0.04663
G1 X22.168 Y-1.038 E0.23006
G1 X23.058 Y-1.038 E0.04663
G1 X19.951 Y-4.145 E0.23006
G1 X20.842 Y-4.145 E0.04663
G1 X23.949 Y-1.038 E0.23006
G1 X24.839 Y-1.038 E0.04663
G1 X21.732 Y-4.145 E0.23006
G1 X22.623 Y-4.145 E0.04663
G1 X25.730 Y-1.038 E0.23006
G1 X26.620 Y-1.038 E0.04663
G1 X23.514 Y-4.145 E0.23006
G1 X24.404 Y-4.145 E0.04663
G1 X27.511 Y-1.038 E0.23006
G1 X28.402 Y-1.038 E0.04663
G1 X25.295 Y-4.145 E0.23006
G1 X26.185 Y-4.145 E0.04663
G1 X29.292 Y-1.038 E0.23006
G1 X30.183 Y-1.038 E0.04663
G1 X27.076 Y-4.145 E0.23006
G1 X27.966 Y-4.145 E0.04663
G1 X31.073 Y-1.038 E0.23006
G1 X31.964 Y-1.038 E0.04663
G1 X28.857 Y-4.145 E0.23006
G1 X29.747 Y-4.145 E0.04663
G1 X32.854 Y-1.038 E0.23006
G1 X33.745 Y-1.038 E0.04663
G1 X30.638 Y-4.145 E0.23006
G1 X31.528 Y-4.145 E0.04663
G1 X34.635 Y-1.038 E0.23006
G1 X35.526 Y-1.038 E0.04663
G1 X32.419 Y-4.145 E0.23006
G1 X33.309 Y-4.145 E0.04663
G1 X36.416 Y-1.038 E0.23006
G1 X37.307 Y-1.038 E0.04663
G1 X34.200 Y-4.145 E0.23006
G1 X35.090 Y-4.145 E0.04663
G1 X38.197 Y-1.038 E0.23006
G1 X39.088 Y-1.038 E0.04663
G1 X35.573 Y-4.552 E0.26024
G1 X35.573 Y-5.443 E0.04663
G1 X39.978 Y-1.038 E0.32618
G1 X40.869 Y-1.038 E0.04663
G1 X36.016 Y-5.891 E0.35936
G1 X36.906 Y-5.891 E0.04663
G1 X41.759 Y-1.038 E0.35936
G1 X42.650 Y-1.038 E0.04663
G1 X37.797 Y-5.891 E0.35936
G1 X38.687 Y-5.891 E0.04663
G1 X43.541 Y-1.038 E0.35936
G1 X44.431 Y-1.038 E0.04663
G1 X39.578 Y-5.891 E0.35936
G1 X40.469 Y-5.891 E0.04663
G1 X45.322 Y-1.038 E0.35936
G1 X46.212 Y-1.038 E0.04663
G1 X41.359 Y-5.891 E0.35936
G1 X42.250 Y-5.891 E0.04663
G1 X47.103 Y-1.038 E0.35936
G1 X47.993 Y-1.038 E0.04663
G1 X43.140 Y-5.891 E0.35936
G1 X44.031 Y-5.891 E0.04663
G1 X48.884 Y-1.038 E0.35936
G1 X49.774 Y-1.038 E0.04663
G1 X44.921 Y-5.891 E0.35936
G1 X45.812 Y-5.891 E0.04663
G1 X50.665 Y-1.038 E0.35936
G1 X51.427 Y-1.166 E0.04045
G1 X46.702 Y-5.891 E0.34982
G1 E-2.00000 F3000.00000
G1 Z0.600 F9000.000
G1 X49.427 Y-4.947 F9000.000
G1 Z0.200 F9000.000
G1 E2.00000 F3000.00000
G1 X48.483 Y-5.891 E0.06984 F1200.000
G1 X47.593 Y-5.891 E0.04663
G1 X51.427 Y-2.057 E0.28388
G1 X51.427 Y-2.947 E0.04663
G1 X50.229 Y-4.145 E0.08864
G1 X51.120 Y-4.145 E0.04663
G1 X51.427 Y-3.838 E0.02270
G1 E-2.00000 F3000.00000
G1 Z0.600 F9000.000
G1 X-36.493 Y-3.966 F9000.000
G1 Z0.200 F9000.000
G1 E2.00000 F3000.00000
G1 X-41.493 Y-3.966 E0.54029 F1200.000
G1 X-42.054 Y-4.341 F9000.000
G1 X-43.946 Y-4.341 E0.20452 F1200.000
G1 X-44.573 Y-3.838 F9000.000
G1 X-44.880 Y-4.145 E0.02437 F1200.000
G1 X-45.836 Y-4.145 E0.05372
G1 X-44.573 Y-2.882 E0.10034
G1 X-45.385 Y-2.738 E0.04632
G1 X-46.792 Y-4.145 E0.11183
G1 X-47.748 Y-4.145 E0.05372
G1 X-46.341 Y-2.738 E0.11183
G1 X-47.297 Y-2.738 E0.05372
G1 X-48.703 Y-4.145 E0.11183
G1 X-49.659 Y-4.145 E0.05372
G1 X-48.252 Y-2.738 E0.11183
G1 X-49.208 Y-2.738 E0.05372
G1 X-50.615 Y-4.145 E0.11183
G1 X-51.427 Y-4.000 E0.04632
G1 X-50.164 Y-2.738 E0.10034
G1 X-51.120 Y-2.738 E0.05372
G1 X-51.427 Y-3.044 E0.02437
G1 E-2.00000 F3000.00000
G1 Z0.600 F9000.000
G1 X-51.500 Y-2.664 F9000.000
G1 X-51.500 Y4.290 F9000.000
G1 X-51.427 Y3.910 F9000.000
G1 Z0.200 F9000.000
G1 E2.00000 F3000.00000
G1 X-51.120 Y4.216 E0.02437 F1200.000
G1 X-50.164 Y4.216 E0.05372
G1 X-51.427 Y2.954 E0.10034
G1 X-50.615 Y2.809 E0.04632
G1 X-49.208 Y4.216 E0.11183
G1 X-48.252 Y4.216 E0.05372
G1 X-49.659 Y2.809 E0.11183
G1 X-48.703 Y2.809 E0.05372
G1 X-47.297 Y4.216 E0.11183
G1 X-46.341 Y4.216 E0.05372
G1 X-47.748 Y2.809 E0.11183
G1 X-46.792 Y2.809 E0.05372
G1 X-45.385 Y4.216 E0.11183
G1 X-44.573 Y4.072 E0.04632
G1 X-45.836 Y2.809 E0.10034
G1 X-44.880 Y2.809 E0.05372
G1 X-44.573 Y3.116 E0.02437
G1 X-43.946 Y4.413 F9000.000
G1 X-42.054 Y4.413 E0.20452 F1200.000
G1 E-2.00000 F3000.00000
G1 Z0.600 F9000.000
G1 X-51.807 Y-4.641 F9000.000
G1 Z0.400 F9000.000
G1 E2.00000 F3000.00000
G1 X35.193 Y-4.641 E4.54531 F3000.000
G1 X35.193 Y-6.271 E0.08519
G1 X49.807 Y-6.271 E0.76354
G1 X49.807 Y-4.641 E0.08519
G1 X51.807 Y-4.641 E0.10449 F3000.000
G1 X51.807 Y-0.657 E0.20814
