; generated by Slic3r 1.2.9 on 2017-07-26 at 12:24:30

; external perimeters extrusion width = 0.40mm
; perimeters extrusion width = 0.40mm
; infill extrusion width = 0.40mm
; solid infill extrusion width = 0.40mm
; top infill extrusion width = 0.40mm

M107
M83
T0
M116
G21 ; set units to millimeters
G90 ; use absolute coordinates
M83 ; use relative distances for extrusion
G1 E-1.50000 F3000.00000
G1 Z0.400 F15000.000
G1 X1.125 Y8.517 F15000.000
G1 Z0.300 F15000.000
G1 E1.50000 F3000.00000
G1 X-1.574 Y8.873 E0.20979 F960.000
G1 X-2.050 Y8.904 E0.03676
G1 X-37.950 Y8.904 E2.76665
G1 X-39.597 Y8.510 E0.13052
G1 X-40.887 Y7.412 E0.13052
G1 X-41.586 Y5.269 E0.17373
G1 X-41.586 Y-5.197 E0.80653
G1 X-41.191 Y-6.844 E0.13052
G1 X-40.093 Y-8.134 E0.13052
G1 X-38.058 Y-8.831 E0.16583
G1 X19.942 Y-10.548 E4.47176
G1 X35.950 Y-10.550 E1.23363
G1 X37.597 Y-10.155 E0.13052
G1 X38.318 Y-9.672 E0.06689 F960.000
G1 X40.318 Y-7.955 E0.20315
G1 X41.311 Y-6.583 E0.13052
G1 X41.586 Y-5.197 E0.10889
G1 X41.586 Y-0.014 E0.39941
G1 X41.191 Y1.633 E0.13052
G1 X40.093 Y2.923 E0.13052
G1 X38.426 Y3.590 E0.13840
G1 X1.184 Y8.509 E2.89498
G1 E-1.50000 F3000.00000
G1 Z0.700 F15000.000
G1 X-29.244 Y2.772 F15000.000
G1 Z0.300 F15000.000
G1 E1.50000 F3000.00000
G1 X-29.036 Y2.772 E0.01603 F600.000
G1 X-29.036 Y4.283 E0.11649
G1 X-36.964 Y4.283 E0.61103 F600.000
G1 X-36.964 Y2.772 E0.11649
G1 X-29.304 Y2.772 E0.59038
G1 E-1.50000 F3000.00000
G1 Z0.700 F15000.000
G1 X-29.746 Y-2.700 F15000.000
G1 Z0.300 F15000.000
G1 E1.50000 F3000.00000
G1 X-36.964 Y-2.700 E0.55629 F600.000
G1 X-36.964 Y-4.211 E0.11649
G1 X-29.036 Y-4.211 E0.61103
G1 X-29.036 Y-2.700 E0.11649
G1 X-29.686 Y-2.700 E0.05012 F600.000
G1 E-1.50000 F3000.00000
G1 Z0.700 F15000.000
G1 X-18.781 Y2.772 F15000.000
G1 Z0.300 F15000.000
G1 E1.50000 F3000.00000
G1 X-11.116 Y2.772 E0.59074 F720.000
G1 X-8.657 Y2.602 E0.18992
G1 X-6.602 Y2.114 E0.16283
G1 X-5.802 Y1.751 E0.06767
G1 X-5.297 Y1.401 E0.04732
G1 X-4.977 Y1.069 E0.03560
G1 X-4.775 Y0.740 E0.02972
G1 X-4.662 Y0.444 E0.02443
G1 X-4.607 Y0.079 E0.02842
G1 X-4.643 Y-0.289 E0.02849
G1 X-4.745 Y-0.607 E0.02578
G1 X-4.902 Y-0.889 E0.02484
G1 X-5.105 Y-1.143 E0.02505
G1 X-5.390 Y-1.404 E0.02977
G1 X-5.876 Y-1.720 E0.04470
G1 X-6.720 Y-2.082 E0.07081
G1 X-8.218 Y-2.457 E0.11898
G1 X-9.637 Y-2.639 E0.11023
G1 X-11.130 Y-2.700 E0.11520
G1 X-20.964 Y-2.700 E0.75788
G1 X-20.964 Y-3.750 E0.08092
G1 X-25.964 Y-3.750 E0.38533
G1 X-25.964 Y-4.211 E0.03557
G1 X21.036 Y-4.211 E3.62208
G1 X21.036 Y-5.928 E0.13234
G1 X34.964 Y-5.928 E1.07343
G1 X34.964 Y-4.211 E0.13234
G1 X36.964 Y-4.211 E0.15413 F720.000
G1 X36.964 Y-1.000 E0.24750
G1 X-3.036 Y-1.000 E3.08262
G1 X-3.036 Y4.283 E0.40712
G1 X-25.964 Y4.283 E1.76702
G1 X-25.964 Y3.822 E0.03557
G1 X-20.964 Y3.822 E0.38533
G1 X-20.964 Y2.772 E0.08092
G1 X-18.841 Y2.772 E0.16360
G1 X-18.841 Y2.136 F15000.000
G1 X-11.138 Y2.136 E0.59368 F720.000
G1 X-8.753 Y1.971 E0.18419
G1 X-6.808 Y1.509 E0.15407
G1 X-6.117 Y1.196 E0.05851
G1 X-5.711 Y0.914 E0.03806
G1 X-5.482 Y0.677 E0.02542
G1 X-5.348 Y0.458 E0.01979
G1 X-5.280 Y0.281 E0.01460
G1 X-5.247 Y0.062 E0.01706
G1 X-5.269 Y-0.159 E0.01714
G1 X-5.331 Y-0.353 E0.01570
G1 X-5.431 Y-0.533 E0.01589
G1 X-5.570 Y-0.707 E0.01717
G1 X-5.780 Y-0.899 E0.02192
G1 X-6.177 Y-1.157 E0.03645
G1 X-6.924 Y-1.478 E0.06270
G1 X-8.336 Y-1.832 E0.11213
G1 X-9.690 Y-2.005 E0.10522
G1 X-11.143 Y-2.064 E0.11208
G1 X-21.600 Y-2.064 E0.80587
G1 X-21.600 Y-3.114 E0.08092
G1 X-26.600 Y-3.114 E0.38533
G1 X-26.600 Y-3.864 E0.05780
G1 X-28.400 Y-3.864 E0.13872
G1 X-28.400 Y-2.064 E0.13872
G1 X-37.600 Y-2.064 E0.70900
G1 X-37.600 Y-4.847 E0.21445
G1 X20.400 Y-4.847 E4.46980
G1 X20.400 Y-6.564 E0.13234
G1 X35.600 Y-6.564 E1.17140
G1 X35.600 Y-4.847 E0.13234
G1 X37.600 Y-4.847 E0.15413 F720.000
G1 X37.600 Y-0.364 E0.34547
G1 X-2.400 Y-0.364 E3.08262
G1 X-2.400 Y4.919 E0.40712
G1 X-37.600 Y4.919 E2.71271
G1 X-37.600 Y2.136 E0.21445
G1 X-28.400 Y2.136 E0.70900
G1 X-28.400 Y3.936 E0.13872
G1 X-26.600 Y3.936 E0.13872
G1 X-26.600 Y3.186 E0.05780
G1 X-21.600 Y3.186 E0.38533
G1 X-21.600 Y2.136 E0.08092
G1 X-18.901 Y2.136 E0.20797
G1 X-18.641 Y2.482 F15000.000
G1 X-20.647 Y3.527 F15000.000
G1 X-11.105 Y3.527 E1.54512 F960.000
G1 X-9.551 Y3.474 E0.25186
G1 E-1.50000 F3000.00000
G1 Z0.700 F15000.000
G1 X-9.465 Y-3.422 F15000.000
G1 Z0.300 F15000.000
G1 E1.50000 F3000.00000
G1 X-11.124 Y-3.455 E0.26863 F960.000
G1 X-20.647 Y-3.455 E1.54211
G1 X-26.282 Y-4.355 F15000.000
G1 X-28.718 Y-4.355 E0.18770 F960.000
G1 X-29.353 Y-3.455 F15000.000
G1 X-36.647 Y-3.455 E1.18103 F960.000
G1 E-1.50000 F3000.00000
G1 Z0.700 F15000.000
G1 X-36.647 Y3.527 F15000.000
G1 Z0.300 F15000.000
G1 E1.50000 F3000.00000
G1 X-29.353 Y3.527 E1.18103 F960.000
G1 X-28.718 Y4.427 F15000.000
G1 X-26.282 Y4.427 E0.18770 F960.000
G1 X-9.156 Y3.587 F15000.000
G1 X-8.846 Y3.898 E0.03428 F960.000
G1 X-7.935 Y3.898 E0.07115
G1 X-8.841 Y2.992 E0.10004
G1 X-8.087 Y2.834 E0.06012
G1 X-7.024 Y3.898 E0.11745
G1 X-6.113 Y3.898 E0.07115
G1 X-7.351 Y2.659 E0.13676
G1 X-6.615 Y2.485 E0.05910
G1 X-5.202 Y3.898 E0.15608
G1 X-4.291 Y3.898 E0.07115
G1 X-5.981 Y2.207 E0.18670
G1 X-5.400 Y1.877 E0.05218
G1 X-3.421 Y3.857 E0.21863
G1 X-3.421 Y2.946 E0.07115
G1 X-4.901 Y1.465 E0.16350
G1 X-4.509 Y0.947 E0.05079
G1 X-3.421 Y2.034 E0.12015
G1 X-3.421 Y1.123 E0.07115
G1 X-4.266 Y0.279 E0.09333
G1 X-3.421 Y0.212 E0.06619
G1 X-4.314 Y-0.680 E0.09858
G1 X-3.421 Y-0.699 E0.06972
G1 X-6.548 Y-3.826 E0.34542
G1 X-5.637 Y-3.826 E0.07115
G1 X-3.197 Y-1.385 E0.26959
G1 X-2.286 Y-1.385 E0.07115
G1 X-4.726 Y-3.826 E0.26959
G1 X-3.815 Y-3.826 E0.07115
G1 X-1.375 Y-1.385 E0.26959
G1 X-0.464 Y-1.385 E0.07115
G1 X-2.904 Y-3.826 E0.26959
G1 X-1.993 Y-3.826 E0.07115
G1 X0.447 Y-1.385 E0.26959
G1 X1.358 Y-1.385 E0.07115
G1 X-1.082 Y-3.826 E0.26959
G1 X-0.171 Y-3.826 E0.07115
G1 X2.269 Y-1.385 E0.26959
G1 X3.180 Y-1.385 E0.07115
G1 X0.740 Y-3.826 E0.26959
G1 X1.651 Y-3.826 E0.07115
G1 X4.091 Y-1.385 E0.26959
G1 X5.002 Y-1.385 E0.07115
G1 X2.562 Y-3.826 E0.26959
G1 X3.473 Y-3.826 E0.07115
G1 X5.913 Y-1.385 E0.26959
G1 X6.825 Y-1.385 E0.07115
G1 X4.384 Y-3.826 E0.26959
G1 X5.295 Y-3.826 E0.07115
G1 X7.736 Y-1.385 E0.26959
G1 X8.647 Y-1.385 E0.07115
G1 X6.206 Y-3.826 E0.26959
G1 X7.117 Y-3.826 E0.07115
G1 X9.558 Y-1.385 E0.26959
G1 X10.469 Y-1.385 E0.07115
G1 X8.028 Y-3.826 E0.26959
G1 X8.939 Y-3.826 E0.07115
G1 X11.380 Y-1.385 E0.26959
G1 X12.291 Y-1.385 E0.07115
G1 X9.850 Y-3.826 E0.26959
G1 X10.761 Y-3.826 E0.07115
G1 X13.202 Y-1.385 E0.26959
G1 X14.113 Y-1.385 E0.07115
G1 X11.672 Y-3.826 E0.26959
G1 X12.583 Y-3.826 E0.07115
G1 X15.024 Y-1.385 E0.26959
G1 X15.935 Y-1.385 E0.07115
G1 X13.494 Y-3.826 E0.26959
G1 X14.405 Y-3.826 E0.07115
G1 X16.846 Y-1.385 E0.26959
G1 X17.757 Y-1.385 E0.07115
G1 X15.316 Y-3.826 E0.26959
G1 X16.227 Y-3.826 E0.07115
G1 X18.668 Y-1.385 E0.26959
G1 X19.579 Y-1.385 E0.07115
G1 X17.138 Y-3.826 E0.26959
G1 X18.049 Y-3.826 E0.07115
G1 X20.490 Y-1.385 E0.26959
G1 X21.401 Y-1.385 E0.07115
G1 X18.960 Y-3.826 E0.26959
G1 X19.871 Y-3.826 E0.07115
G1 X22.312 Y-1.385 E0.26959
G1 X23.223 Y-1.385 E0.07115
G1 X20.782 Y-3.826 E0.26959
G1 X21.421 Y-4.098 F15000.000
G1 X24.134 Y-1.385 E0.29963 F960.000
G1 X25.045 Y-1.385 E0.07115
G1 X21.421 Y-5.009 E0.40026
G1 X21.798 Y-5.543 E0.05106
G1 X25.956 Y-1.385 E0.45926
G1 X26.867 Y-1.385 E0.07115
G1 X22.709 Y-5.543 E0.45926
G1 X23.620 Y-5.543 E0.07115
G1 X27.778 Y-1.385 E0.45927
G1 X28.689 Y-1.385 E0.07115
G1 X24.531 Y-5.543 E0.45926
G1 X25.442 Y-5.543 E0.07115
G1 X29.600 Y-1.385 E0.45927
G1 X30.511 Y-1.385 E0.07115
G1 X26.353 Y-5.543 E0.45927
G1 X27.264 Y-5.543 E0.07115
G1 X31.422 Y-1.385 E0.45927
G1 X32.333 Y-1.385 E0.07115
G1 X28.175 Y-5.543 E0.45927
G1 X29.086 Y-5.543 E0.07115
G1 X33.244 Y-1.385 E0.45927
G1 X34.155 Y-1.385 E0.07115
G1 X29.997 Y-5.543 E0.45927
G1 X30.908 Y-5.543 E0.07115
G1 X35.066 Y-1.385 E0.45927
G1 X35.977 Y-1.385 E0.07115
G1 X31.819 Y-5.543 E0.45927
G1 X32.730 Y-5.543 E0.07115
G1 X36.579 Y-1.694 E0.42514
G1 X36.579 Y-2.605 E0.07115
G1 X35.358 Y-3.826 E0.13483
G1 X36.269 Y-3.826 E0.07115
G1 X36.579 Y-3.516 E0.03420
G1 X34.579 Y-4.605 F15000.000
G1 X33.641 Y-5.543 E0.10360 F960.000
G1 X-5.817 Y-2.184 F15000.000
G1 X-7.459 Y-3.826 E0.18139 F960.000
G1 X-7.176 Y-2.632 E0.09583
G1 X-8.370 Y-3.826 E0.13188
G1 X-9.078 Y-3.623 E0.05752
G1 X-8.335 Y-2.879 E0.08212
G1 E-1.50000 F3000.00000
G1 Z0.700 F15000.000
G1 X-25.491 Y4.856 F15000.000
G1 Z0.500 F15000.000
G1 E1.50000 F3000.00000
G1 X-37.393 Y4.856 E0.34353 F2448.615
G1 X-37.393 Y2.343 E0.07253
G1 X-28.607 Y2.343 E0.25358
G1 X-28.607 Y4.143 E0.05195
G1 X-26.393 Y4.143 E0.06391
G1 X-26.393 Y3.393 E0.02165
G1 X-21.393 Y3.393 E0.14431
G1 X-21.393 Y2.343 E0.03031
G1 X-11.900 Y2.343 E0.27399
G1 X-9.474 Y2.174 E0.07019
G1 X-7.518 Y1.709 E0.05804
G1 X-6.783 Y1.376 E0.02327
G1 X-6.338 Y1.065 E0.01566
G1 X-6.086 Y0.805 E0.01047
G1 X-5.927 Y0.539 E0.00893
G1 X-5.848 Y0.331 E0.00644
G1 X-5.821 Y0.156 E0.00511
G1 X-5.808 Y0.068 E0.00450 F4800.000
G1 X-5.825 Y-0.091 E0.00815
G1 X-5.837 Y-0.210 E0.00345 F2448.615
G1 X-5.910 Y-0.437 E0.00687
G1 X-6.026 Y-0.645 E0.00687
G1 X-6.194 Y-0.854 E0.00774
G1 X-6.420 Y-1.062 E0.00885
G1 X-6.852 Y-1.342 E0.01486
G1 X-7.628 Y-1.675 E0.02440
G1 X-9.050 Y-2.032 E0.04230
G1 X-10.418 Y-2.209 E0.03983
G1 X-11.908 Y-2.271 E0.04303
G1 X-21.393 Y-2.271 E0.27376
G1 X-21.393 Y-3.321 E0.03031
G1 X-26.393 Y-3.321 E0.14431
G1 X-26.393 Y-4.071 E0.02165
G1 X-28.607 Y-4.071 E0.06391
G1 X-28.607 Y-2.271 E0.05195
G1 X-37.393 Y-2.271 E0.25358
G1 X-37.393 Y-4.784 E0.07253
G1 X20.607 Y-4.784 E1.67404
G1 X20.607 Y-6.357 E0.04540
G1 X35.393 Y-6.357 E0.42676
G1 X35.393 Y-4.784 E0.04540
G1 X37.393 Y-4.784 E0.05773
G1 X37.393 Y-0.571 E0.12160
G1 X-2.607 Y-0.571 E1.15451
G1 X-2.607 Y4.856 E0.15664
G1 X-25.431 Y4.856 E0.65875
G1 X-25.431 Y5.213 F15000.000
G1 X-37.750 Y5.213 E0.35557 F2448.615
G1 X-37.750 Y1.986 E0.09314
G1 X-28.250 Y1.986 E0.27420
G1 X-28.250 Y3.786 E0.05195
G1 X-26.750 Y3.786 E0.04329
G1 X-26.750 Y3.036 E0.02165
G1 X-21.750 Y3.036 E0.14431
G1 X-21.750 Y1.986 E0.03031
G1 X-11.912 Y1.986 E0.28394
G1 X-9.528 Y1.820 E0.06899
G1 X-7.634 Y1.369 E0.05621
G1 X-6.960 Y1.065 E0.02133
G1 X-6.593 Y0.808 E0.01295
G1 X-6.371 Y0.586 E0.01590 F4800.000
G1 X-6.249 Y0.383 E0.01204
G1 X-6.195 Y0.239 E0.00778
G1 X-6.168 Y0.060 E0.00921
G1 X-6.189 Y-0.136 E0.01003
G1 X-6.239 Y-0.294 E0.00844
G1 X-6.323 Y-0.445 E0.00877
G1 X-6.455 Y-0.610 E0.01071
G1 X-6.596 Y-0.738 E0.00967
G1 X-7.020 Y-1.026 E0.01480 F2448.615
G1 X-7.743 Y-1.336 E0.02269
G1 X-9.116 Y-1.681 E0.04087
G1 X-10.449 Y-1.853 E0.03878
G1 X-11.916 Y-1.914 E0.04237
G1 X-21.750 Y-1.914 E0.28385
G1 X-21.750 Y-2.964 E0.03031
G1 X-26.750 Y-2.964 E0.14431
G1 X-26.750 Y-3.714 E0.02165
G1 X-28.250 Y-3.714 E0.04329
G1 X-28.250 Y-1.914 E0.05195
G1 X-37.750 Y-1.914 E0.27420
G1 X-37.750 Y-5.141 E0.09314
G1 X20.250 Y-5.141 E1.67404
G1 X20.250 Y-6.714 E0.04540
G1 X35.750 Y-6.714 E0.44737
G1 X35.750 Y-5.141 E0.04540
G1 X37.750 Y-5.141 E0.05773
G1 X37.750 Y-0.214 E0.14221
G1 X-2.250 Y-0.214 E1.15451
G1 X-2.250 Y5.213 E0.15664
G1 X-25.371 Y5.213 E0.66733
G1 X-25.631 Y4.867 F15000.000
G1 X-26.214 Y4.499 F15000.000
G1 X-28.786 Y4.499 E0.15734 F3264.821
G1 X-29.185 Y4.648 F15000.000
G1 X-28.993 Y4.457 E0.00807 F3264.821
G1 X-28.993 Y3.935 E0.01554
G1 X-29.706 Y4.648 E0.03004
G1 X-30.228 Y4.648 E0.01554
G1 X-28.815 Y3.235 E0.05954
G1 X-28.815 Y2.714 E0.01554
G1 X-30.749 Y4.648 E0.08151
G1 X-31.270 Y4.648 E0.01554
G1 X-29.173 Y2.551 E0.08839
G1 X-29.694 Y2.551 E0.01554
G1 X-31.792 Y4.648 E0.08839
G1 X-32.313 Y4.648 E0.01554
G1 X-30.216 Y2.551 E0.08839
G1 X-30.737 Y2.551 E0.01554
G1 X-32.835 Y4.648 E0.08839
G1 X-33.356 Y4.648 E0.01554
G1 X-31.258 Y2.551 E0.08839
G1 X-31.780 Y2.551 E0.01554
G1 X-33.877 Y4.648 E0.08839
G1 X-34.399 Y4.648 E0.01554
G1 X-32.301 Y2.551 E0.08839
G1 X-32.823 Y2.551 E0.01554
G1 X-34.920 Y4.648 E0.08839
G1 X-35.441 Y4.648 E0.01554
G1 X-33.344 Y2.551 E0.08839
G1 X-33.865 Y2.551 E0.01554
G1 X-35.963 Y4.648 E0.08839
G1 X-36.484 Y4.648 E0.01554
G1 X-34.387 Y2.551 E0.08839
G1 X-34.908 Y2.551 E0.01554
G1 X-37.006 Y4.648 E0.08839
G1 X-37.185 Y4.306 E0.01151
G1 X-35.430 Y2.551 E0.07399
G1 X-35.951 Y2.551 E0.01554
G1 X-37.185 Y3.785 E0.05202
G1 X-37.185 Y3.264 E0.01554
G1 X-36.472 Y2.551 E0.03004
G1 X-36.994 Y2.551 E0.01554
G1 X-37.185 Y2.742 E0.00807
G1 E-1.50000 F3000.00000
G1 Z0.900 F15000.000
G1 X-37.185 Y-4.385 F15000.000
G1 Z0.500 F15000.000
G1 E1.50000 F3000.00000
G1 X-36.994 Y-4.576 E0.00821 F3264.821
G1 X-36.463 Y-4.576 E0.01610
G1 X-37.185 Y-3.854 E0.03099
G1 X-37.185 Y-3.323 E0.01610
G1 X-35.932 Y-4.576 E0.05376
G1 X-35.401 Y-4.576 E0.01610
G1 X-37.185 Y-2.793 E0.07653
G1 X-36.968 Y-2.479 E0.01157
G1 X-34.871 Y-4.576 E0.08999
G1 X-34.340 Y-4.576 E0.01610
G1 X-36.437 Y-2.479 E0.08999
G1 X-35.906 Y-2.479 E0.01610
G1 X-33.809 Y-4.576 E0.08999
G1 X-33.278 Y-4.576 E0.01610
G1 X-35.376 Y-2.479 E0.08999
G1 X-34.845 Y-2.479 E0.01610
G1 X-32.747 Y-4.576 E0.08999
G1 X-32.217 Y-4.576 E0.01610
G1 X-34.314 Y-2.479 E0.08999
G1 X-33.783 Y-2.479 E0.01610
G1 X-31.686 Y-4.576 E0.08999
G1 X-31.155 Y-4.576 E0.01610
G1 X-33.253 Y-2.479 E0.08999
G1 X-32.722 Y-2.479 E0.01610
G1 X-30.624 Y-4.576 E0.08999
G1 X-30.094 Y-4.576 E0.01610
G1 X-32.191 Y-2.479 E0.08999
G1 X-31.660 Y-2.479 E0.01610
G1 X-29.563 Y-4.576 E0.08999
G1 X-29.033 Y-4.576 E0.01608
G1 X-31.129 Y-2.479 E0.08996
G1 X-30.599 Y-2.479 E0.01610
G1 X-28.993 Y-4.084 E0.06887
G1 X-28.815 Y-3.732 F15000.000
G1 X-30.068 Y-2.479 E0.05376 F3264.821
G1 X-29.537 Y-2.479 E0.01610
G1 X-28.815 Y-3.201 E0.03099
G1 X-28.815 Y-2.670 E0.01610
G1 X-29.006 Y-2.479 E0.00822
G1 X-28.786 Y-4.428 F15000.000
G1 X-26.214 Y-4.428 E0.15734 F3264.821
G1 X-5.423 Y-1.153 F15000.000
G1 X-5.724 Y-1.327 E0.01809 F4800.000
G1 X-5.858 Y-0.880 E0.02425
G1 X-4.857 Y-0.302 E0.06002
G1 X-4.770 Y0.273 E0.03020
G1 X-5.616 Y-0.215 E0.05072
G1 X-5.636 Y0.298 E0.02666
G1 X-4.951 Y0.693 E0.04104
G1 X-5.203 Y1.073 E0.02364
G1 X-5.810 Y0.722 E0.03638
G1 X-6.084 Y1.089 E0.02376
G1 X-5.528 Y1.410 E0.03334
G1 X-6.403 Y1.434 F15000.000
G1 X-9.618 Y4.648 E0.13209 F3264.821
G1 X-9.109 Y4.648 E0.01478
G1 X-5.944 Y1.484 E0.13006
G1 X-5.634 Y1.681 E0.01070
G1 X-8.601 Y4.648 E0.12194
G1 X-8.092 Y4.648 E0.01478
G1 X-2.815 Y-0.629 E0.21689
G1 X-2.815 Y-0.121 E0.01478
G1 X-7.584 Y4.648 E0.19599
G1 X-7.075 Y4.648 E0.01478
G1 X-2.815 Y0.388 E0.17509
G1 X-2.815 Y0.896 E0.01478
G1 X-6.567 Y4.648 E0.15420
G1 X-6.058 Y4.648 E0.01478
G1 X-2.815 Y1.405 E0.13330
G1 X-2.815 Y1.913 E0.01478
G1 X-5.550 Y4.648 E0.11241
G1 X-5.042 Y4.648 E0.01478
G1 X-2.815 Y2.421 E0.09151
G1 X-2.815 Y2.930 E0.01478
G1 X-4.533 Y4.648 E0.07061
G1 X-4.025 Y4.648 E0.01478
G1 X-2.815 Y3.438 E0.04972
G1 X-2.815 Y3.947 E0.01478
G1 X-3.516 Y4.648 E0.02882
G1 X-3.008 Y4.648 E0.01478
G1 X-2.815 Y4.455 E0.00793
G1 X-7.390 Y1.912 F15000.000
G1 X-10.126 Y4.648 E0.11245 F3264.821
G1 X-10.634 Y4.648 E0.01478
G1 X-8.057 Y2.071 E0.10593
G1 X-8.724 Y2.229 E0.01993
G1 X-11.143 Y4.648 E0.09941
G1 X-11.651 Y4.648 E0.01478
G1 X-9.385 Y2.382 E0.09315
G1 X-9.931 Y2.420 E0.01592
G1 X-12.160 Y4.648 E0.09159
G1 X-12.668 Y4.648 E0.01478
G1 X-10.478 Y2.458 E0.09003
G1 X-11.024 Y2.496 E0.01592
G1 X-13.177 Y4.648 E0.08846
G1 X-13.685 Y4.648 E0.01478
G1 X-11.571 Y2.534 E0.08690
G1 X-12.096 Y2.551 E0.01528
G1 X-14.194 Y4.648 E0.08620
G1 X-14.702 Y4.648 E0.01478
G1 X-12.605 Y2.551 E0.08620
G1 X-13.113 Y2.551 E0.01478
G1 X-15.210 Y4.648 E0.08620
G1 X-15.719 Y4.648 E0.01478
G1 X-13.621 Y2.551 E0.08620
G1 X-14.130 Y2.551 E0.01478
G1 X-16.227 Y4.648 E0.08620
G1 X-16.736 Y4.648 E0.01478
G1 X-14.638 Y2.551 E0.08620
G1 X-15.147 Y2.551 E0.01478
G1 X-17.244 Y4.648 E0.08620
G1 X-17.753 Y4.648 E0.01478
G1 X-15.655 Y2.551 E0.08620
G1 X-16.164 Y2.551 E0.01478
G1 X-18.261 Y4.648 E0.08620
G1 X-18.770 Y4.648 E0.01478
G1 X-16.672 Y2.551 E0.08620
G1 X-17.181 Y2.551 E0.01478
G1 X-19.278 Y4.648 E0.08620
G1 X-19.786 Y4.648 E0.01478
G1 X-17.689 Y2.551 E0.08620
G1 X-18.197 Y2.551 E0.01478
G1 X-20.295 Y4.648 E0.08620
G1 X-20.803 Y4.648 E0.01478
G1 X-18.706 Y2.551 E0.08620
