; generated by Slic3r 1.2.9 on 2017-01-05 at 16:42:26

; external perimeters extrusion width = 0.50mm
; perimeters extrusion width = 0.50mm
; infill extrusion width = 0.50mm
; solid infill extrusion width = 0.50mm
; top infill extrusion width = 0.50mm

M107
;Basic settings: Layer height: {layer_height} Walls: {wall_thickness} Fill: {fill_density}
;Print time: {print_time}
;Filament used: {filament_amount}m {filament_weight}g
;Filament cost: {filament_cost}
;M190 S{print_bed_temperature} ;Uncomment to add your own bed temperature line
;M109 S{print_temperature} ;Uncomment to add your own temperature line
G21        ;metric values
G90        ;absolute positioning
M83
G10 P0 S200
T0
M116


G21 ; set units to millimeters
G90 ; use absolute coordinates
M83 ; use relative distances for extrusion
G1 E-3.20000 F3000.00000
G1 Z0.400 F9000.000
G1 X-32.428 Y2.018 F9000.000
G1 Z0.300 F9000.000
G1 E3.20000 F3000.00000
G1 X-33.686 Y-18.306 E1.86835 F1200.000
G1 X-33.686 Y-43.206 E2.28459
G1 X-33.291 Y-44.877 E0.15755
G1 X-32.190 Y-46.195 E0.15755
G1 X-29.950 Y-46.942 E0.21667
G1 X29.950 Y-46.942 E5.49586
G1 X31.621 Y-46.547 E0.15755
G1 X32.939 Y-45.446 E0.15755 F1200.000
G1 X33.686 Y-43.206 E0.21667
G1 X33.679 Y-18.083 E2.30507
G1 X30.000 Y43.388 E5.65011
G1 X29.506 Y45.033 E0.15755
G1 X28.328 Y46.283 E0.15755
G1 X26.276 Y46.901 E0.19665
G1 X-1.216 Y46.942 E2.52240
G1 X-26.121 Y46.942 E2.28510
G1 X-27.792 Y46.547 E0.15755
G1 X-29.110 Y45.446 E0.15755
G1 X-29.850 Y43.438 E0.19635
G1 X-32.424 Y2.078 E3.80212
G1 E-3.20000 F3000.00000
G1 Z0.700 F9000.000
G1 X22.547 Y38.515 F9000.000
G1 Z0.300 F9000.000
G1 E3.20000 F3000.00000
G1 X22.761 Y38.220 E0.03343 F900.000
G1 X23.042 Y37.988 E0.03343
G1 X23.371 Y37.833 E0.03343
G1 X23.729 Y37.765 E0.03343 F900.000
G1 X24.093 Y37.787 E0.03343
G1 X24.440 Y37.900 E0.03343
G1 X24.747 Y38.095 E0.03343
G1 X24.997 Y38.361 E0.03343
G1 X25.172 Y38.680 E0.03343
G1 X25.263 Y39.033 E0.03343
G1 X25.263 Y39.397 E0.03343
G1 X25.172 Y39.750 E0.03343
G1 X24.997 Y40.070 E0.03343
G1 X24.747 Y40.335 E0.03343
G1 X24.440 Y40.530 E0.03343
G1 X24.093 Y40.643 E0.03343
G1 X23.729 Y40.666 E0.03343
G1 X23.371 Y40.598 E0.03343
G1 X23.042 Y40.443 E0.03343
G1 X22.761 Y40.210 E0.03343
G1 X22.547 Y39.915 E0.03343
G1 X22.413 Y39.577 E0.03343
G1 X22.367 Y39.215 E0.03343
G1 X22.413 Y38.854 E0.03343
G1 X22.525 Y38.571 E0.02793
G1 X22.371 Y38.196 F9000.000
G1 X23.729 Y28.666 F9000.000
G1 X23.371 Y28.598 E0.03343 F900.000
G1 X23.042 Y28.443 E0.03343
G1 X22.761 Y28.210 E0.03343
G1 X22.547 Y27.915 E0.03343
G1 X22.413 Y27.577 E0.03343
G1 X22.367 Y27.215 E0.03343
G1 X22.413 Y26.854 E0.03343
G1 X22.547 Y26.515 E0.03343
G1 X22.761 Y26.220 E0.03343
G1 X23.042 Y25.988 E0.03343
G1 X23.371 Y25.833 E0.03343
G1 X23.729 Y25.765 E0.03343 F900.000
G1 X24.093 Y25.787 E0.03343
G1 X24.440 Y25.900 E0.03343
G1 X24.747 Y26.095 E0.03343
G1 X24.997 Y26.361 E0.03343
G1 X25.172 Y26.680 E0.03343
G1 X25.263 Y27.033 E0.03343
G1 X25.263 Y27.397 E0.03343
G1 X25.172 Y27.750 E0.03343
G1 X24.997 Y28.070 E0.03343
G1 X24.747 Y28.335 E0.03343
G1 X24.440 Y28.530 E0.03343
G1 X24.093 Y28.643 E0.03343
G1 X23.789 Y28.662 E0.02792
G1 X23.515 Y28.961 F9000.000
G1 E-3.20000 F3000.00000
G1 Z0.700 F9000.000
G1 X23.729 Y0.666 F9000.000
G1 Z0.300 F9000.000
G1 E3.20000 F3000.00000
G1 X23.371 Y0.598 E0.03343 F900.000
G1 X23.042 Y0.443 E0.03343
G1 X22.761 Y0.210 E0.03343
G1 X22.547 Y-0.085 E0.03343
G1 X22.413 Y-0.423 E0.03343
G1 X22.367 Y-0.785 E0.03343
G1 X22.413 Y-1.146 E0.03343
G1 X22.547 Y-1.485 E0.03343
G1 X22.761 Y-1.780 E0.03343
G1 X23.042 Y-2.012 E0.03343
G1 X23.371 Y-2.167 E0.03343
G1 X23.729 Y-2.235 E0.03343 F900.000
G1 X24.093 Y-2.213 E0.03343
G1 X24.440 Y-2.100 E0.03343
G1 X24.747 Y-1.905 E0.03343
G1 X24.997 Y-1.639 E0.03343
G1 X25.172 Y-1.320 E0.03343
G1 X25.263 Y-0.967 E0.03343
G1 X25.263 Y-0.603 E0.03343
G1 X25.172 Y-0.250 E0.03343
G1 X24.997 Y0.070 E0.03343
G1 X24.747 Y0.335 E0.03343
G1 X24.440 Y0.530 E0.03343
G1 X24.093 Y0.643 E0.03343
G1 X23.789 Y0.662 E0.02793
G1 X23.515 Y0.961 F9000.000
G1 E-3.20000 F3000.00000
G1 Z0.700 F9000.000
G1 X23.729 Y-11.334 F9000.000
G1 Z0.300 F9000.000
G1 E3.20000 F3000.00000
G1 X23.371 Y-11.402 E0.03343 F900.000
G1 X23.042 Y-11.557 E0.03343
G1 X22.761 Y-11.790 E0.03343
G1 X22.547 Y-12.085 E0.03343
G1 X22.413 Y-12.423 E0.03343
G1 X22.367 Y-12.785 E0.03343
G1 X22.413 Y-13.146 E0.03343
G1 X22.547 Y-13.485 E0.03343
G1 X22.761 Y-13.780 E0.03343
G1 X23.042 Y-14.012 E0.03343
G1 X23.371 Y-14.167 E0.03343
G1 X23.729 Y-14.235 E0.03343 F900.000
G1 X24.093 Y-14.213 E0.03343
G1 X24.440 Y-14.100 E0.03343
G1 X24.747 Y-13.905 E0.03343
G1 X24.997 Y-13.639 E0.03343
G1 X25.172 Y-13.320 E0.03343
G1 X25.263 Y-12.967 E0.03343
G1 X25.263 Y-12.603 E0.03343
G1 X25.172 Y-12.250 E0.03343
G1 X24.997 Y-11.930 E0.03343
G1 X24.747 Y-11.665 E0.03343
G1 X24.440 Y-11.470 E0.03343
G1 X24.093 Y-11.357 E0.03343
G1 X23.789 Y-11.338 E0.02793
G1 X23.515 Y-11.039 F9000.000
G1 X19.871 Y10.372 F9000.000
G1 X20.569 Y10.604 E0.06750 F900.000
G1 X21.181 Y10.998 E0.06677
G1 X21.672 Y11.528 E0.06633
G1 X22.004 Y12.132 E0.06321
G1 X22.194 Y12.867 E0.06967
G1 X22.194 Y13.557 E0.06328
G1 X22.020 Y14.258 E0.06624
G1 X21.675 Y14.898 E0.06677
G1 X21.181 Y15.433 E0.06677
G1 X20.563 Y15.831 E0.06747
G1 X19.835 Y16.061 E0.07001
G1 X19.149 Y16.105 E0.06307
G1 X18.437 Y15.972 E0.06651
G1 X17.777 Y15.664 E0.06678
G1 X17.215 Y15.202 E0.06678
G1 X16.780 Y14.606 E0.06769
G1 X16.511 Y13.895 E0.06974
G1 X16.426 Y13.215 E0.06285
G1 X16.517 Y12.493 E0.06675
G1 X16.785 Y11.818 E0.06668
G1 X17.189 Y11.263 E0.06293
G1 X17.769 Y10.770 E0.06984
G1 X18.434 Y10.460 E0.06739
G1 X19.109 Y10.331 E0.06303 F900.000
G1 X19.811 Y10.369 E0.06447
G1 X19.733 Y11.102 F9000.000
G1 X20.249 Y11.273 E0.04992 F900.000
G1 X20.704 Y11.566 E0.04966
G1 X21.071 Y11.962 E0.04951
G1 X21.315 Y12.406 E0.04646
G1 X21.458 Y12.961 E0.05261
G1 X21.458 Y13.467 E0.04649
G1 X21.329 Y13.991 E0.04947
G1 X21.072 Y14.467 E0.04966
G1 X20.704 Y14.865 E0.04966
G1 X20.247 Y15.159 E0.04991
G1 X19.699 Y15.333 E0.05273
G1 X19.194 Y15.365 E0.04641
G1 X18.663 Y15.266 E0.04958
G1 X18.172 Y15.037 E0.04967
G1 X17.754 Y14.693 E0.04968
G1 X17.433 Y14.253 E0.05000
G1 X17.230 Y13.716 E0.05262
G1 X17.167 Y13.215 E0.04633
G1 X17.235 Y12.678 E0.04966
G1 X17.435 Y12.175 E0.04964
G1 X17.732 Y11.767 E0.04636
G1 X18.169 Y11.395 E0.05266
G1 X18.662 Y11.165 E0.04989
G1 X19.159 Y11.070 E0.04640 F900.000
G1 X19.673 Y11.098 E0.04721
G1 X20.007 Y10.810 F9000.000
G1 X22.221 Y0.718 F9000.000
G1 X22.644 Y1.069 E0.05048 F900.000
G1 X23.142 Y1.303 E0.05048
G1 X23.683 Y1.406 E0.05048
G1 X24.232 Y1.371 E0.05048
G1 X24.755 Y1.201 E0.05048
G1 X25.135 Y0.960 E0.04127
G1 X25.135 Y25.470 E2.24878
G1 X24.755 Y25.229 E0.04127
G1 X24.232 Y25.059 E0.05048
G1 X23.683 Y25.025 E0.05048
G1 X23.142 Y25.128 E0.05048
G1 X22.644 Y25.362 E0.05048
G1 X22.221 Y25.713 E0.05048
G1 X21.897 Y26.158 E0.05048
G1 X21.695 Y26.669 E0.05048
G1 X21.626 Y27.215 E0.05048
G1 X21.695 Y27.761 E0.05048
G1 X21.897 Y28.273 E0.05048
G1 X22.221 Y28.718 E0.05048
G1 X22.644 Y29.069 E0.05048
G1 X23.142 Y29.303 E0.05048
G1 X23.683 Y29.406 E0.05048
G1 X24.232 Y29.371 E0.05048
G1 X24.755 Y29.201 E0.05048
G1 X25.135 Y28.960 E0.04127
G1 X25.135 Y37.470 E0.78077
G1 X24.755 Y37.229 E0.04127
G1 X24.232 Y37.059 E0.05048
G1 X23.683 Y37.025 E0.05048
G1 X23.142 Y37.128 E0.05048
G1 X22.644 Y37.362 E0.05048
G1 X22.221 Y37.713 E0.05048
G1 X21.897 Y38.158 E0.05048
G1 X21.695 Y38.669 E0.05048
G1 X21.626 Y39.215 E0.05048
G1 X21.695 Y39.761 E0.05048
G1 X21.897 Y40.273 E0.05048
G1 X22.221 Y40.718 E0.05048
G1 X22.644 Y41.069 E0.05048
G1 X23.142 Y41.303 E0.05048
G1 X23.683 Y41.406 E0.05048
G1 X24.232 Y41.371 E0.05048
G1 X24.755 Y41.201 E0.05048
G1 X25.135 Y40.960 E0.04127
G1 X25.135 Y42.030 E0.09810
G1 X9.604 Y42.030 E1.42494
G1 X10.020 Y41.258 E0.08043
G1 X10.194 Y40.557 E0.06624
G1 X10.194 Y39.867 E0.06328
G1 X10.004 Y39.132 E0.06967
G1 X9.672 Y38.528 E0.06321
G1 X9.181 Y37.998 E0.06633
G1 X8.569 Y37.604 E0.06677
G1 X7.871 Y37.372 E0.06750
G1 X7.109 Y37.331 E0.06997
G1 X6.434 Y37.460 E0.06303
G1 X5.769 Y37.770 E0.06739
G1 X5.189 Y38.263 E0.06984
G1 X4.785 Y38.818 E0.06293
G1 X4.517 Y39.493 E0.06668
G1 X4.426 Y40.215 E0.06675
G1 X4.511 Y40.895 E0.06285
G1 X4.780 Y41.606 E0.06974
G1 X5.089 Y42.030 E0.04814
G1 X2.506 Y42.030 E0.23699
G1 X2.506 Y-15.599 E5.28747
G1 X5.088 Y-15.599 E0.23690
G1 X4.785 Y-15.182 E0.04729
G1 X4.517 Y-14.507 E0.06668 F900.000
G1 X4.426 Y-13.785 E0.06675
G1 X4.511 Y-13.105 E0.06285
G1 X4.780 Y-12.394 E0.06974
G1 X5.215 Y-11.798 E0.06769
G1 X5.777 Y-11.336 E0.06678
G1 X6.437 Y-11.028 E0.06678
G1 X7.149 Y-10.896 E0.06651
G1 X7.835 Y-10.939 E0.06307
G1 X8.563 Y-11.169 E0.07001
G1 X9.181 Y-11.567 E0.06747
G1 X9.675 Y-12.102 E0.06677
G1 X10.020 Y-12.742 E0.06676
G1 X10.194 Y-13.443 E0.06624
G1 X10.194 Y-14.133 E0.06328
G1 X10.004 Y-14.868 E0.06967
G1 X9.602 Y-15.599 E0.07657
G1 X25.135 Y-15.599 E1.42519
G1 X25.135 Y-14.530 E0.09811
G1 X24.755 Y-14.771 E0.04127
G1 X24.232 Y-14.941 E0.05048
G1 X23.683 Y-14.975 E0.05048
G1 X23.142 Y-14.872 E0.05048
G1 X22.644 Y-14.638 E0.05048
G1 X22.221 Y-14.287 E0.05048
G1 X21.897 Y-13.842 E0.05048
G1 X21.695 Y-13.331 E0.05048
G1 X21.626 Y-12.785 E0.05048
G1 X21.695 Y-12.239 E0.05048
G1 X21.897 Y-11.727 E0.05048
G1 X22.221 Y-11.282 E0.05048
G1 X22.644 Y-10.931 E0.05048
G1 X23.142 Y-10.697 E0.05048
G1 X23.683 Y-10.594 E0.05048
G1 X24.232 Y-10.629 E0.05048
G1 X24.755 Y-10.799 E0.05048
G1 X25.135 Y-11.040 E0.04127
G1 X25.135 Y-2.530 E0.78077
G1 X24.755 Y-2.771 E0.04127
G1 X24.232 Y-2.941 E0.05048
G1 X23.683 Y-2.975 E0.05048
G1 X23.142 Y-2.872 E0.05048
G1 X22.644 Y-2.638 E0.05048
G1 X22.221 Y-2.287 E0.05048
G1 X21.897 Y-1.842 E0.05048
G1 X21.695 Y-1.331 E0.05048
G1 X21.626 Y-0.785 E0.05048
G1 X21.695 Y-0.239 E0.05048
G1 X21.897 Y0.273 E0.05048
G1 X22.185 Y0.669 E0.04498
G1 X25.871 Y0.669 F9000.000
G1 X25.871 Y42.765 E3.86232 F900.000
G1 X7.572 Y42.765 E1.67888
G1 X7.514 Y42.391 E0.03471
G1 X8.247 Y42.159 E0.07049
G1 X8.704 Y41.865 E0.04991
G1 X9.072 Y41.467 E0.04966
G1 X9.329 Y40.991 E0.04966
G1 X9.458 Y40.467 E0.04947
G1 X9.458 Y39.961 E0.04649
G1 X9.315 Y39.406 E0.05261
G1 X9.071 Y38.962 E0.04646
G1 X8.704 Y38.566 E0.04951
G1 X8.249 Y38.273 E0.04967
G1 X7.733 Y38.102 E0.04992
G1 X7.159 Y38.070 E0.05272
G1 X6.662 Y38.165 E0.04640
G1 X6.169 Y38.395 E0.04989
G1 X5.732 Y38.767 E0.05266
G1 X5.435 Y39.175 E0.04636
G1 X5.235 Y39.678 E0.04964
G1 X5.167 Y40.215 E0.04966
G1 X5.230 Y40.716 E0.04633
G1 X5.433 Y41.253 E0.05262
G1 X5.754 Y41.693 E0.05000
G1 X6.172 Y42.037 E0.04968
G1 X6.663 Y42.266 E0.04967
G1 X7.193 Y42.364 E0.04950
G1 X7.156 Y42.765 E0.03693
G1 X1.771 Y42.765 E0.49413
G1 X1.771 Y-16.335 E5.42246
G1 X7.149 Y-16.335 E0.49348
G1 X7.187 Y-15.935 E0.03685
G1 X6.662 Y-15.835 E0.04902 F900.000
G1 X6.169 Y-15.605 E0.04989
G1 X5.732 Y-15.233 E0.05266
G1 X5.435 Y-14.825 E0.04636
G1 X5.235 Y-14.322 E0.04964
G1 X5.167 Y-13.785 E0.04966
G1 X5.230 Y-13.284 E0.04633
G1 X5.433 Y-12.747 E0.05262
G1 X5.754 Y-12.307 E0.05000
G1 X6.172 Y-11.963 E0.04968
G1 X6.663 Y-11.734 E0.04967
G1 X7.194 Y-11.635 E0.04958
G1 X7.699 Y-11.667 E0.04641
G1 X8.247 Y-11.841 E0.05273
G1 X8.704 Y-12.135 E0.04991
G1 X9.072 Y-12.533 E0.04966
G1 X9.329 Y-13.009 E0.04966
G1 X9.458 Y-13.533 E0.04947
G1 X9.458 Y-14.039 E0.04649
G1 X9.315 Y-14.594 E0.05262
G1 X9.071 Y-15.038 E0.04646
G1 X8.704 Y-15.434 E0.04951
G1 X8.249 Y-15.727 E0.04966
G1 X7.536 Y-15.964 E0.06895
G1 X7.596 Y-16.335 E0.03448
G1 X25.871 Y-16.335 E1.67674
G1 X25.871 Y0.609 E1.55463
G1 X25.524 Y0.869 F9000.000
G1 X24.686 Y2.287 F9000.000
G1 X24.208 Y1.809 E0.06240 F900.000
G1 X23.146 Y1.793 E0.09795
G1 X24.686 Y3.333 E0.20092
G1 X24.686 Y4.379 E0.09651
G1 X9.194 Y-11.112 E2.02122
G1 X9.744 Y-11.609 E0.06833
G1 X21.236 Y-0.116 E1.49947
G1 X21.239 Y-1.160 E0.09629
G1 X10.184 Y-12.215 E1.44235
G1 X10.499 Y-12.945 E0.07340
G1 X21.503 Y-1.941 E1.43566
G1 X21.937 Y-2.553 E0.06922
G1 X10.643 Y-13.848 E1.47358
G1 X10.459 Y-15.078 E0.11474
G1 X22.518 Y-3.018 E1.57341
G1 X23.258 Y-3.325 E0.07385
G1 X11.433 Y-15.150 E1.54283
G1 X12.479 Y-15.150 E0.09651
G1 X24.227 Y-3.401 E1.53283
G1 X24.686 Y-3.989 E0.06876
G1 X13.525 Y-15.150 E1.45616
G1 X14.571 Y-15.150 E0.09651
G1 X24.686 Y-5.035 E1.31968
G1 X24.686 Y-6.081 E0.09651
G1 X15.617 Y-15.150 E1.18320
G1 X16.663 Y-15.150 E0.09651
G1 X24.686 Y-7.127 E1.04672
G1 X23.748 Y-10.158 F9000.000
G1 X24.686 Y-9.219 E0.12241 F900.000
G1 X24.686 Y-8.173 E0.09651
G1 X17.709 Y-15.150 E0.91024
G1 X18.755 Y-15.150 E0.09651
G1 X21.183 Y-12.722 E0.31680
G1 X21.363 Y-13.588 E0.08161
G1 X19.801 Y-15.150 E0.20379
G1 X20.847 Y-15.150 E0.09651
G1 X21.728 Y-14.269 E0.11495
G1 X21.893 Y-15.150 E0.08269
G1 X22.240 Y-14.804 E0.04518
G1 X6.673 Y-10.496 F9000.000
G1 X24.686 Y7.518 E2.35018 F900.000
G1 X24.686 Y6.472 E0.09651
G1 X7.723 Y-10.491 E2.21311
G1 X8.531 Y-10.730 E0.07768
G1 X24.686 Y5.425 E2.10776
G1 X24.686 Y14.840 F9000.000
G1 X22.643 Y12.797 E0.26654 F900.000
G1 X22.570 Y13.770 E0.09002
G1 X24.686 Y15.886 E0.27607
G1 X24.686 Y16.932 E0.09651
G1 X22.308 Y14.554 E0.31023
G1 X21.914 Y15.207 E0.07029
G1 X24.686 Y17.978 E0.36161
G1 X24.686 Y19.024 E0.09651
G1 X21.410 Y15.748 E0.42739
G1 X20.774 Y16.158 E0.06982
G1 X24.686 Y20.070 E0.51041
G1 X24.686 Y21.116 E0.09651
G1 X20.006 Y16.437 E0.61056
G1 X19.073 Y16.550 E0.08669
G1 X24.686 Y22.162 E0.73227
G1 X24.686 Y23.208 E0.09651
G1 X17.682 Y16.204 E0.91384
G1 X16.319 Y14.842 F9000.000
G1 X2.955 Y1.478 E1.74359 F900.000
G1 X2.955 Y0.432 E0.09651
G1 X15.983 Y13.459 E1.69967
G1 X16.081 Y12.511 E0.08795
G1 X2.955 Y-0.614 E1.71243
G1 X2.955 Y-1.660 E0.09651
G1 X16.375 Y11.760 E1.75088
G1 X16.800 Y11.139 E0.06943
G1 X2.955 Y-2.706 E1.80632
G1 X2.955 Y-3.752 E0.09651
G1 X17.338 Y10.630 E1.87650
G1 X17.984 Y10.231 E0.07011
G1 X2.955 Y-4.798 E1.96081
G1 X2.955 Y-5.844 E0.09651
G1 X18.766 Y9.966 E2.06279
G1 X19.753 Y9.907 E0.09125
G1 X2.955 Y-6.890 E2.19160
G1 X2.955 Y-7.936 E0.09651
G1 X24.686 Y13.794 E2.83516
G1 X24.686 Y12.748 E0.09651
G1 X2.955 Y-8.982 E2.83516
G1 X2.955 Y-10.029 E0.09651
G1 X24.686 Y11.702 E2.83516
G1 X24.686 Y10.656 E0.09651
G1 X2.955 Y-11.075 E2.83516
G1 X2.955 Y-12.121 E0.09651
G1 X24.686 Y9.610 E2.83516
G1 X24.686 Y8.564 E0.09651
G1 X2.955 Y-13.167 E2.83516
G1 X4.034 Y-13.134 F9000.000
G1 X2.955 Y-14.213 E0.14072 F900.000
G1 X3.064 Y-15.150 E0.08704
G1 X4.041 Y-14.174 E0.12737
G1 E-3.20000 F3000.00000
G1 Z0.700 F9000.000
G1 X24.686 Y24.255 F9000.000
G1 Z0.300 F9000.000
G1 E3.20000 F3000.00000
G1 X2.955 Y2.524 E2.83516 F900.000
G1 X2.955 Y3.570 E0.09651
G1 X23.967 Y24.582 E2.74144
G1 X23.064 Y24.725 E0.08437
G1 X2.955 Y4.616 E2.62358
G1 X2.955 Y5.662 E0.09651
G1 X22.376 Y25.083 E2.53385
G1 X21.833 Y25.586 E0.06829
G1 X2.955 Y6.708 E2.46302
G1 X2.955 Y7.754 E0.09651
G1 X21.434 Y26.233 E2.41091
G1 X21.211 Y27.056 E0.07868
G1 X2.955 Y8.801 E2.38185
G1 X2.955 Y9.847 E0.09651
G1 X21.313 Y28.205 E2.39517
G1 X22.845 Y29.736 F9000.000
G1 X24.686 Y31.577 E0.24019 F900.000
G1 X24.686 Y30.531 E0.09651
G1 X23.983 Y29.828 E0.09175
G1 X24.686 Y32.623 F9000.000
G1 X2.955 Y10.893 E2.83516 F900.000
G1 X2.955 Y11.939 E0.09651
G1 X24.686 Y33.669 E2.83516
G1 X24.686 Y34.715 E0.09651
G1 X2.955 Y12.985 E2.83516
G1 X2.955 Y14.031 E0.09651
G1 X24.686 Y35.761 E2.83516
G1 X24.494 Y36.615 E0.08077
G1 X2.955 Y15.077 E2.81013
G1 X2.955 Y16.123 E0.09651
G1 X23.468 Y36.635 E2.67624
G1 X22.688 Y36.902 E0.07600
G1 X2.955 Y17.169 E2.57455
G1 X2.955 Y18.215 E0.09651
G1 X22.074 Y37.333 E2.49439
G1 X21.601 Y37.907 E0.06855
G1 X2.955 Y19.261 E2.43267
G1 X2.955 Y20.307 E0.09651
G1 X21.277 Y38.629 E2.39046
G1 X21.200 Y39.598 E0.08967
G1 X2.955 Y21.353 E2.38040
G1 X2.955 Y22.399 E0.09651
G1 X22.137 Y41.580 E2.50256
G1 X21.091 Y41.580 E0.09651
G1 X2.955 Y23.445 E2.36608
G1 X2.955 Y24.491 E0.09651
G1 X20.044 Y41.580 E2.22960
G1 X18.998 Y41.580 E0.09651
G1 X2.955 Y25.537 E2.09312
G1 X2.955 Y26.584 E0.09651
G1 X17.952 Y41.580 E1.95665
G1 X16.906 Y41.580 E0.09651
G1 X2.955 Y27.630 E1.82017
G1 X2.955 Y28.676 E0.09651
G1 X15.860 Y41.580 E1.68369
G1 X14.814 Y41.580 E0.09651
G1 X2.955 Y29.722 E1.54721
