; generated by Slic3r 1.2.9 on 2017-01-05 at 17:33:41

; external perimeters extrusion width = 0.50mm
; perimeters extrusion width = 0.50mm
; infill extrusion width = 0.50mm
; solid infill extrusion width = 0.50mm
; top infill extrusion width = 0.50mm

M107
;Basic settings: Layer height: {layer_height} Walls: {wall_thickness} Fill: {fill_density}
;Print time: {print_time}
;Filament used: {filament_amount}m {filament_weight}g
;Filament cost: {filament_cost}
;M190 S{print_bed_temperature} ;Uncomment to add your own bed temperature line
;M109 S{print_temperature} ;Uncomment to add your own temperature line
G21        ;metric values
G90        ;absolute positioning
M83
G10 P0 S200
T0
M116


G21 ; set units to millimeters
G90 ; use absolute coordinates
M83 ; use relative distances for extrusion
G1 E-3.20000 F3000.00000
G1 Z0.400 F9000.000
G1 X-11.445 Y11.445 F9000.000
G1 Z0.300 F9000.000
G1 E3.20000 F3000.00000
G1 X-32.623 Y-9.733 E2.74793 F1200.000
G1 X-33.525 Y-11.194 E0.15755
G1 X-33.679 Y-12.904 E0.15755
G1 X-32.623 Y-15.016 E0.21667
G1 X-15.016 Y-32.623 E2.28459
G1 X-13.555 Y-33.525 E0.15755
G1 X-11.845 Y-33.679 E0.15755
G1 X-9.733 Y-32.623 E0.21667
G1 X32.623 Y9.733 E5.49586 F1200.000
G1 X33.525 Y11.194 E0.15755
G1 X33.679 Y12.904 E0.15755
G1 X32.623 Y15.016 E0.21667
G1 X15.016 Y32.623 E2.28459
G1 X13.555 Y33.525 E0.15755
G1 X11.845 Y33.679 E0.15755
G1 X9.733 Y32.623 E0.21667
G1 X-11.403 Y11.487 E2.74242
G1 E-3.20000 F3000.00000
G1 Z0.700 F9000.000
G1 X24.003 Y11.359 F9000.000
G1 Z0.300 F9000.000
G1 E3.20000 F3000.00000
G1 X24.037 Y10.997 E0.03343 F900.000
G1 X24.161 Y10.654 E0.03343
G1 X24.366 Y10.352 E0.03343
G1 X24.639 Y10.111 E0.03343
G1 X24.963 Y9.946 E0.03343
G1 X25.319 Y9.867 E0.03343 F900.000
G1 X25.683 Y9.878 E0.03343
G1 X26.033 Y9.980 E0.03343
G1 X26.347 Y10.165 E0.03343
G1 X26.604 Y10.423 E0.03343
G1 X26.790 Y10.736 E0.03343
G1 X26.892 Y11.086 E0.03343
G1 X26.903 Y11.451 E0.03343
G1 X26.823 Y11.806 E0.03343
G1 X26.658 Y12.131 E0.03343
G1 X26.417 Y12.404 E0.03343
G1 X26.116 Y12.609 E0.03343
G1 X25.773 Y12.732 E0.03343
G1 X25.410 Y12.767 E0.03343
G1 X25.050 Y12.710 E0.03343
G1 X24.716 Y12.565 E0.03343
G1 X24.428 Y12.342 E0.03343
G1 X24.205 Y12.054 E0.03343
G1 X24.060 Y11.719 E0.03343
G1 X24.012 Y11.419 E0.02793
G1 X23.689 Y11.174 F9000.000
G1 X17.932 Y3.919 F9000.000
G1 X17.630 Y4.124 E0.03343 F900.000
G1 X17.288 Y4.247 E0.03343
G1 X16.925 Y4.281 E0.03343
G1 X16.565 Y4.224 E0.03343
G1 X16.231 Y4.080 E0.03343
G1 X15.943 Y3.856 E0.03343
G1 X15.719 Y3.568 E0.03343
G1 X15.575 Y3.234 E0.03343
G1 X15.518 Y2.874 E0.03343
G1 X15.552 Y2.511 E0.03343
G1 X15.675 Y2.169 E0.03343
G1 X15.880 Y1.867 E0.03343
G1 X16.154 Y1.626 E0.03343
G1 X16.478 Y1.461 E0.03343
G1 X16.834 Y1.381 E0.03343 F900.000
G1 X17.198 Y1.393 E0.03343
G1 X17.548 Y1.494 E0.03343
G1 X17.861 Y1.680 E0.03343
G1 X18.119 Y1.938 E0.03343
G1 X18.305 Y2.251 E0.03343
G1 X18.406 Y2.601 E0.03343
G1 X18.418 Y2.965 E0.03343
G1 X18.338 Y3.321 E0.03343
G1 X18.173 Y3.645 E0.03343
G1 X17.972 Y3.874 E0.02792
G1 X17.989 Y4.279 F9000.000
G1 E-3.20000 F3000.00000
G1 Z0.700 F9000.000
G1 X-1.867 Y-15.880 F9000.000
G1 Z0.300 F9000.000
G1 E3.20000 F3000.00000
G1 X-2.169 Y-15.675 E0.03343 F900.000
G1 X-2.511 Y-15.552 E0.03343
G1 X-2.874 Y-15.518 E0.03343
G1 X-3.234 Y-15.575 E0.03343
G1 X-3.568 Y-15.719 E0.03343
G1 X-3.856 Y-15.943 E0.03343
G1 X-4.080 Y-16.231 E0.03343
G1 X-4.224 Y-16.565 E0.03343
G1 X-4.281 Y-16.925 E0.03343
G1 X-4.247 Y-17.288 E0.03343
G1 X-4.124 Y-17.630 E0.03343
G1 X-3.919 Y-17.932 E0.03343
G1 X-3.645 Y-18.173 E0.03343
G1 X-3.321 Y-18.338 E0.03343
G1 X-2.965 Y-18.418 E0.03343 F900.000
G1 X-2.601 Y-18.406 E0.03343
G1 X-2.251 Y-18.305 E0.03343
G1 X-1.938 Y-18.119 E0.03343
G1 X-1.680 Y-17.861 E0.03343
G1 X-1.494 Y-17.548 E0.03343
G1 X-1.393 Y-17.198 E0.03343
G1 X-1.381 Y-16.834 E0.03343
G1 X-1.461 Y-16.478 E0.03343
G1 X-1.626 Y-16.154 E0.03343
G1 X-1.827 Y-15.925 E0.02793
G1 X-1.810 Y-15.520 F9000.000
G1 E-3.20000 F3000.00000
G1 Z0.700 F9000.000
G1 X-10.352 Y-24.366 F9000.000
G1 Z0.300 F9000.000
G1 E3.20000 F3000.00000
G1 X-10.654 Y-24.161 E0.03343 F900.000
G1 X-10.997 Y-24.037 E0.03343
G1 X-11.359 Y-24.003 E0.03343
G1 X-11.719 Y-24.060 E0.03343
G1 X-12.054 Y-24.205 E0.03343
G1 X-12.342 Y-24.428 E0.03343
G1 X-12.565 Y-24.716 E0.03343
G1 X-12.710 Y-25.050 E0.03343
G1 X-12.767 Y-25.410 E0.03343
G1 X-12.732 Y-25.773 E0.03343
G1 X-12.609 Y-26.116 E0.03343
G1 X-12.404 Y-26.417 E0.03343
G1 X-12.131 Y-26.658 E0.03343
G1 X-11.806 Y-26.823 E0.03343
G1 X-11.451 Y-26.903 E0.03343 F900.000
G1 X-11.086 Y-26.892 E0.03343
G1 X-10.736 Y-26.790 E0.03343
G1 X-10.423 Y-26.604 E0.03343
G1 X-10.165 Y-26.347 E0.03343
G1 X-9.980 Y-26.033 E0.03343
G1 X-9.878 Y-25.683 E0.03343
G1 X-9.867 Y-25.319 E0.03343
G1 X-9.946 Y-24.963 E0.03343
G1 X-10.111 Y-24.639 E0.03343
G1 X-10.313 Y-24.411 E0.02793
G1 X-10.295 Y-24.006 F9000.000
G1 X2.275 Y-6.292 F9000.000
G1 X2.922 Y-6.617 E0.06642 F900.000
G1 X3.593 Y-6.767 E0.06314 F900.000
G1 X4.357 Y-6.746 E0.07010
G1 X5.056 Y-6.537 E0.06691
G1 X5.649 Y-6.186 E0.06324
G1 X6.186 Y-5.649 E0.06967
G1 X6.537 Y-5.056 E0.06325
G1 X6.746 Y-4.357 E0.06691
G1 X6.767 Y-3.593 E0.07010
G1 X6.617 Y-2.922 E0.06314
G1 X6.288 Y-2.268 E0.06715
G1 X5.779 Y-1.700 E0.06997
G1 X5.211 Y-1.314 E0.06303
G1 X4.521 Y-1.063 E0.06739
G1 X3.762 Y-1.001 E0.06984
G1 X3.085 Y-1.108 E0.06293
G1 X2.417 Y-1.396 E0.06668
G1 X1.842 Y-1.842 E0.06675
G1 X1.422 Y-2.383 E0.06285
G1 X1.109 Y-3.076 E0.06975
G1 X0.996 Y-3.803 E0.06754
G1 X1.060 Y-4.486 E0.06296
G1 X1.310 Y-5.206 E0.06988
G1 X1.726 Y-5.813 E0.06758
G1 X2.230 Y-6.252 E0.06127
G1 X2.688 Y-5.676 F9000.000
G1 X3.171 Y-5.919 E0.04954 F900.000
G1 X3.665 Y-6.029 E0.04644 F900.000
G1 X4.240 Y-6.013 E0.05277
G1 X4.759 Y-5.858 E0.04971
G1 X5.195 Y-5.600 E0.04647
G1 X5.600 Y-5.195 E0.05261
G1 X5.858 Y-4.759 E0.04647
G1 X6.013 Y-4.240 E0.04971
G1 X6.029 Y-3.665 E0.05277
G1 X5.919 Y-3.171 E0.04644
G1 X5.675 Y-2.686 E0.04980
G1 X5.291 Y-2.258 E0.05272
G1 X4.873 Y-1.974 E0.04640
G1 X4.362 Y-1.788 E0.04989
G1 X3.790 Y-1.741 E0.05266
G1 X3.291 Y-1.820 E0.04636
G1 X2.794 Y-2.035 E0.04964
G1 X2.366 Y-2.366 E0.04966
G1 X2.057 Y-2.765 E0.04633
G1 X1.821 Y-3.288 E0.05262
G1 X1.737 Y-3.826 E0.04995
G1 X1.784 Y-4.329 E0.04638
G1 X1.972 Y-4.871 E0.05268
G1 X2.280 Y-5.320 E0.04995
G1 X2.643 Y-5.637 E0.04416
G1 X2.678 Y-6.076 F9000.000
G1 E-3.20000 F3000.00000
G1 Z0.700 F9000.000
G1 X22.290 Y6.289 F9000.000
G1 Z0.300 F9000.000
G1 E3.20000 F3000.00000
G1 X25.151 Y9.150 E0.37129 F900.000
G1 X24.712 Y9.248 E0.04127
G1 X24.222 Y9.498 E0.05049
G1 X23.809 Y9.862 E0.05048
G1 X23.500 Y10.317 E0.05048
G1 X23.314 Y10.835 E0.05048
G1 X23.262 Y11.383 E0.05048
G1 X23.348 Y11.926 E0.05048
G1 X23.566 Y12.431 E0.05048
G1 X23.904 Y12.866 E0.05048
G1 X24.338 Y13.203 E0.05048
G1 X24.843 Y13.422 E0.05048
G1 X25.387 Y13.508 E0.05048
G1 X25.935 Y13.456 E0.05048
G1 X26.452 Y13.269 E0.05048
G1 X26.907 Y12.960 E0.05048
G1 X27.271 Y12.548 E0.05048
G1 X27.521 Y12.057 E0.05048
G1 X27.619 Y11.618 E0.04127
G1 X28.375 Y12.374 E0.09811
G1 X17.394 Y23.356 E1.42494
G1 X17.144 Y22.521 E0.07995
G1 X16.793 Y21.928 E0.06324
G1 X16.256 Y21.391 E0.06967
G1 X15.662 Y21.040 E0.06325
G1 X14.964 Y20.831 E0.06691
G1 X14.200 Y20.810 E0.07010
G1 X13.528 Y20.960 E0.06314
G1 X12.881 Y21.285 E0.06642
G1 X12.333 Y21.764 E0.06678
G1 X11.916 Y22.371 E0.06758
G1 X11.667 Y23.091 E0.06988
G1 X11.602 Y23.774 E0.06296
G1 X11.716 Y24.501 E0.06755
G1 X12.029 Y25.194 E0.06974
G1 X12.449 Y25.735 E0.06285
G1 X13.024 Y26.181 E0.06675
G1 X13.691 Y26.469 E0.06668
G1 X14.200 Y26.550 E0.04729
G1 X12.374 Y28.375 E0.23690
G1 X-28.375 Y-12.374 E5.28747
G1 X-26.549 Y-14.201 E0.23699
G1 X-26.468 Y-13.682 E0.04814
G1 X-26.155 Y-12.990 E0.06974
G1 X-25.735 Y-12.448 E0.06285
G1 X-25.160 Y-12.003 E0.06675
G1 X-24.493 Y-11.715 E0.06668
G1 X-23.815 Y-11.608 E0.06293
G1 X-23.057 Y-11.669 E0.06984
G1 X-22.366 Y-11.921 E0.06739
G1 X-21.798 Y-12.307 E0.06303
G1 X-21.289 Y-12.874 E0.06997
G1 X-20.960 Y-13.528 E0.06715
G1 X-20.810 Y-14.200 E0.06314
G1 X-20.831 Y-14.964 E0.07010
G1 X-21.040 Y-15.662 E0.06691
G1 X-21.391 Y-16.256 E0.06325
G1 X-21.928 Y-16.793 E0.06967
G1 X-22.521 Y-17.144 E0.06324
G1 X-23.356 Y-17.394 E0.07995
G1 X-12.374 Y-28.375 E1.42494
G1 X-11.618 Y-27.619 E0.09811
G1 X-12.057 Y-27.521 E0.04127 F900.000
G1 X-12.548 Y-27.271 E0.05048
G1 X-12.960 Y-26.907 E0.05048
G1 X-13.270 Y-26.452 E0.05048
G1 X-13.456 Y-25.935 E0.05049
G1 X-13.508 Y-25.387 E0.05048
G1 X-13.422 Y-24.843 E0.05048
G1 X-13.203 Y-24.338 E0.05048
G1 X-12.866 Y-23.904 E0.05048
G1 X-12.431 Y-23.566 E0.05048
G1 X-11.926 Y-23.348 E0.05048
G1 X-11.383 Y-23.262 E0.05048
G1 X-10.835 Y-23.314 E0.05048
G1 X-10.317 Y-23.500 E0.05048
G1 X-9.862 Y-23.809 E0.05048
G1 X-9.498 Y-24.222 E0.05048
G1 X-9.248 Y-24.712 E0.05048
G1 X-9.150 Y-25.151 E0.04127
G1 X-3.133 Y-19.134 E0.78077
G1 X-3.572 Y-19.036 E0.04127
G1 X-4.062 Y-18.786 E0.05048
G1 X-4.475 Y-18.422 E0.05048
G1 X-4.784 Y-17.967 E0.05048
G1 X-4.971 Y-17.449 E0.05048
G1 X-5.022 Y-16.902 E0.05048
G1 X-4.936 Y-16.358 E0.05048
G1 X-4.718 Y-15.853 E0.05048
G1 X-4.381 Y-15.418 E0.05048
G1 X-3.946 Y-15.081 E0.05048
G1 X-3.441 Y-14.863 E0.05048
G1 X-2.897 Y-14.777 E0.05048
G1 X-2.350 Y-14.828 E0.05048
G1 X-1.832 Y-15.015 E0.05048
G1 X-1.377 Y-15.324 E0.05048
G1 X-1.013 Y-15.737 E0.05048
G1 X-0.763 Y-16.227 E0.05048
G1 X-0.665 Y-16.666 E0.04127
G1 X16.666 Y0.665 E2.24878
G1 X16.227 Y0.763 E0.04127
G1 X15.737 Y1.013 E0.05049
G1 X15.324 Y1.377 E0.05048
G1 X15.015 Y1.832 E0.05048
G1 X14.828 Y2.350 E0.05048
G1 X14.777 Y2.897 E0.05048
G1 X14.863 Y3.441 E0.05048
G1 X15.081 Y3.946 E0.05048
G1 X15.418 Y4.381 E0.05048
G1 X15.853 Y4.718 E0.05048
G1 X16.358 Y4.936 E0.05048
G1 X16.902 Y5.022 E0.05048
G1 X17.449 Y4.971 E0.05049
G1 X17.967 Y4.784 E0.05048
G1 X18.422 Y4.475 E0.05048
G1 X18.786 Y4.062 E0.05048
G1 X19.036 Y3.572 E0.05048
G1 X19.134 Y3.133 E0.04127
G1 X22.247 Y6.246 E0.40398
G1 X22.768 Y5.726 F9000.000
G1 X28.320 Y11.278 E0.72041 F900.000
G1 X29.416 Y12.374 E0.14221 F900.000
G1 X16.493 Y25.297 E1.67674
G1 X16.189 Y25.077 E0.03448
G1 X16.525 Y24.406 E0.06883
G1 X16.636 Y23.912 E0.04644
G1 X16.620 Y23.338 E0.05277
G1 X16.465 Y22.818 E0.04971
G1 X16.207 Y22.382 E0.04647
G1 X15.801 Y21.977 E0.05261
G1 X15.365 Y21.719 E0.04647
G1 X14.846 Y21.564 E0.04971
G1 X14.271 Y21.548 E0.05277
G1 X13.777 Y21.659 E0.04644
G1 X13.295 Y21.901 E0.04954
G1 X12.887 Y22.257 E0.04967
G1 X12.579 Y22.706 E0.04995
G1 X12.391 Y23.248 E0.05268
G1 X12.343 Y23.751 E0.04638
G1 X12.427 Y24.289 E0.04995
G1 X12.663 Y24.812 E0.05262
G1 X12.973 Y25.211 E0.04633
G1 X13.401 Y25.543 E0.04966
G1 X13.898 Y25.757 E0.04964
G1 X14.397 Y25.836 E0.04636
G1 X14.969 Y25.789 E0.05266
G1 X15.480 Y25.603 E0.04989
G1 X15.922 Y25.303 E0.04902
G1 X16.178 Y25.612 E0.03685
G1 X12.374 Y29.416 E0.49348
G1 X-29.416 Y-12.374 E5.42246
G1 X-25.607 Y-16.183 E0.49413
G1 X-25.298 Y-15.925 E0.03693
G1 X-25.605 Y-15.478 E0.04978
G1 X-25.793 Y-14.936 E0.05268
G1 X-25.841 Y-14.432 E0.04638
G1 X-25.756 Y-13.894 E0.04995
G1 X-25.520 Y-13.372 E0.05262
G1 X-25.211 Y-12.973 E0.04633
G1 X-24.783 Y-12.641 E0.04966
G1 X-24.286 Y-12.427 E0.04964
G1 X-23.787 Y-12.348 E0.04636
G1 X-23.215 Y-12.394 E0.05266
G1 X-22.704 Y-12.580 E0.04989
G1 X-22.286 Y-12.865 E0.04640
G1 X-21.902 Y-13.292 E0.05272
G1 X-21.659 Y-13.777 E0.04980
G1 X-21.548 Y-14.271 E0.04644
G1 X-21.564 Y-14.846 E0.05277
G1 X-21.719 Y-15.365 E0.04971
G1 X-21.977 Y-15.801 E0.04647
G1 X-22.382 Y-16.207 E0.05262
G1 X-22.818 Y-16.465 E0.04647
G1 X-23.338 Y-16.620 E0.04971
G1 X-23.912 Y-16.636 E0.05277
G1 X-24.406 Y-16.525 E0.04644
G1 X-25.077 Y-16.189 E0.06883
G1 X-25.297 Y-16.493 E0.03448
G1 X-12.374 Y-29.416 E1.67674
G1 X22.725 Y5.684 E4.55432
G1 X22.664 Y6.113 F9000.000
G1 X19.213 Y4.096 F9000.000
G1 X24.188 Y9.072 E0.64700 F900.000
G1 X23.604 Y9.530 E0.06828
G1 X18.754 Y4.680 E0.63059
G1 X18.157 Y5.125 E0.06851
G1 X23.159 Y10.128 E0.65048
G1 X22.872 Y10.883 E0.07430
G1 X17.401 Y5.412 E0.71134
G1 X16.366 Y5.419 E0.09525
G1 X22.865 Y11.919 E0.84517
G1 X24.851 Y13.904 F9000.000
G1 X25.562 Y14.615 E0.09248 F900.000
G1 X25.041 Y15.137 E0.06778
G1 X7.034 Y-2.870 E2.34147
G1 X6.685 Y-2.176 E0.07141
G1 X24.520 Y15.658 E2.31900
G1 X23.998 Y16.179 E0.06778
G1 X6.212 Y-1.607 E2.31272
G1 X5.640 Y-1.136 E0.06810
G1 X23.477 Y16.701 E2.31931
G1 X22.956 Y17.222 E0.06778
G1 X4.947 Y-0.787 E2.34166
G1 X4.101 Y-0.590 E0.07985
G1 X22.434 Y17.743 E2.38387
G1 E-3.20000 F3000.00000
G1 Z0.700 F9000.000
G1 X11.191 Y24.223 F9000.000
G1 Z0.300 F9000.000
G1 E3.20000 F3000.00000
G1 X-24.222 Y-11.191 E4.60485 F900.000
G1 X-23.208 Y-11.219 E0.09332
G1 X11.219 Y23.208 E4.47645
G1 X11.470 Y22.417 E0.07631
G1 X-22.417 Y-11.471 E4.40641
G1 X-21.764 Y-11.860 E0.06992
G1 X11.861 Y21.765 E4.37232
G1 X12.364 Y21.226 E0.06782
G1 X-21.228 Y-12.366 E4.36796
G1 X-20.795 Y-12.976 E0.06875
G1 X12.976 Y20.795 E4.39125
G1 X13.713 Y20.490 E0.07338
G1 X-20.490 Y-13.713 E4.44746
G1 X-20.368 Y-14.635 E0.08543
G1 X14.635 Y20.368 E4.55145
G1 X15.896 Y20.588 E0.11777
G1 X-20.588 Y-15.896 E4.74406
G1 X-21.913 Y-18.264 F9000.000
G1 X18.264 Y21.913 E5.22430 F900.000
G1 X18.786 Y21.392 E0.06778
G1 X-21.392 Y-18.786 E5.22430
G1 X-20.871 Y-19.307 E0.06778
G1 X19.307 Y20.871 E5.22430
G1 X19.828 Y20.349 E0.06778
G1 X-20.349 Y-19.828 E5.22430
G1 X-19.828 Y-20.349 E0.06778
G1 X20.349 Y19.828 E5.22430
G1 X20.871 Y19.307 E0.06778
G1 X-19.307 Y-20.871 E5.22430
G1 X-18.786 Y-21.392 E0.06778
G1 X21.392 Y18.786 E5.22430
G1 X21.913 Y18.264 E0.06778
G1 X3.010 Y-0.639 E2.45795
G1 X0.639 Y-3.010 F9000.000
G1 X-18.264 Y-21.913 E2.45796 F900.000
G1 X-17.743 Y-22.434 E0.06778
G1 X0.587 Y-4.104 E2.38346
G1 X0.789 Y-4.945 E0.07949
G1 X-17.222 Y-22.956 E2.34194
G1 X-16.701 Y-23.477 E0.06778
G1 X1.137 Y-5.640 E2.31937
G1 X1.603 Y-6.216 E0.06816
G1 X-16.179 Y-23.998 E2.31219
G1 X-15.658 Y-24.520 E0.06778
G1 X2.176 Y-6.685 E2.31900
G1 X2.870 Y-7.034 E0.07141
G1 X-15.137 Y-25.041 E2.34147
G1 X-14.615 Y-25.562 E0.06778
G1 X-13.904 Y-24.851 E0.09248
G1 X-11.919 Y-22.865 F9000.000
G1 X-5.419 Y-16.366 E0.84517 F900.000
G1 X-5.412 Y-17.401 E0.09525
G1 X-10.883 Y-22.872 E0.71134
G1 X-10.128 Y-23.159 E0.07430
G1 X-5.125 Y-18.157 E0.65048
G1 X-4.680 Y-18.754 E0.06851
G1 X-9.530 Y-23.604 E0.63059
G1 X-9.072 Y-24.188 E0.06828
G1 X-4.096 Y-19.213 E0.64700
G1 E-3.20000 F3000.00000
G1 Z0.700 F9000.000
G1 X-3.433 Y-14.380 F9000.000
G1 Z0.300 F9000.000
G1 E3.20000 F3000.00000
G1 X3.730 Y-7.217 E0.93144 F900.000
G1 X4.876 Y-7.113 E0.10580
G1 X-2.398 Y-14.387 E0.94576
G1 X-0.586 Y-15.703 F9000.000
G1 X15.703 Y0.586 E2.11812 F900.000
G1 X15.119 Y1.045 E0.06828
G1 X-1.045 Y-15.119 E2.10172
G1 X-1.642 Y-14.674 E0.06851
G1 X14.674 Y1.642 E2.12160
G1 X14.387 Y2.398 E0.07430
G1 X7.113 Y-4.876 E0.94576
G1 X7.217 Y-3.730 E0.10580
G1 X14.380 Y3.433 E0.93144
G1 X11.913 Y25.988 F9000.000
G1 X-27.126 Y-13.052 E5.07628 F900.000
G1 X-27.647 Y-12.530 E0.06778
G1 X12.530 Y27.647 E5.22430
G1 X13.052 Y27.126 E0.06778
G1 X12.196 Y26.270 E0.11129
G1 E-3.20000 F3000.00000
G1 Z0.700 F9000.000
G1 X13.091 Y25.113 F9000.000
G1 Z0.600 F9000.000
G1 E3.20000 F3000.00000
G1 X12.770 Y24.704 E0.02828 F1800.000
G1 X12.571 Y24.239 E0.02746
G1 X12.494 Y23.740 E0.02744
G1 X12.547 Y23.232 E0.02773
G1 X12.721 Y22.762 E0.02728
G1 X13.010 Y22.347 E0.02748
G1 X13.394 Y22.017 E0.02748
G1 X13.846 Y21.796 E0.02735
G1 X14.233 Y21.709 E0.02156
G1 X14.352 Y21.693 E0.00652 F1800.000
G1 X14.848 Y21.719 E0.02697
G1 X15.327 Y21.869 E0.02730
G1 X15.686 Y22.081 E0.02263
G1 X16.103 Y22.498 E0.03206
G1 X16.315 Y22.857 E0.02263
G1 X16.465 Y23.336 E0.02730
G1 X16.490 Y23.832 E0.02697
G1 X16.388 Y24.338 E0.02806
G1 X16.167 Y24.790 E0.02735
G1 X15.841 Y25.169 E0.02716
G1 X15.421 Y25.463 E0.02786
G1 X14.948 Y25.638 E0.02740
G1 X14.447 Y25.689 E0.02734
G1 X13.944 Y25.613 E0.02766
G1 X13.480 Y25.414 E0.02745
G1 X13.139 Y25.150 E0.02342
G1 X12.701 Y25.202 F9000.000
G1 E-3.20000 F3000.00000
G1 Z1.000 F9000.000
G1 X24.523 Y12.220 F9000.000
G1 Z0.600 F9000.000
G1 E3.20000 F3000.00000
G1 X24.335 Y11.977 E0.01671 F1800.000
G1 X24.205 Y11.677 E0.01774
G1 X24.154 Y11.355 E0.01774
