; generated by Slic3r 1.2.9 on 2016-12-23 at 15:20:13

; external perimeters extrusion width = 0.50mm
; perimeters extrusion width = 0.50mm
; infill extrusion width = 0.50mm
; solid infill extrusion width = 0.50mm
; top infill extrusion width = 0.50mm

M107
;Basic settings: Layer height: {layer_height} Walls: {wall_thickness} Fill: {fill_density}
;Print time: {print_time}
;Filament used: {filament_amount}m {filament_weight}g
;Filament cost: {filament_cost}
;M190 S{print_bed_temperature} ;Uncomment to add your own bed temperature line
;M109 S{print_temperature} ;Uncomment to add your own temperature line
G21        ;metric values
G90        ;absolute positioning
M83
G10 P0 S200
T0
M116


G21 ; set units to millimeters
G90 ; use absolute coordinates
M83 ; use relative distances for extrusion
G1 E-3.20000 F3000.00000
G1 Z0.400 F9000.000
G1 X19.686 Y0.000 F9000.000
G1 Z0.300 F9000.000
G1 E3.20000 F3000.00000
G1 X19.686 Y29.950 E2.74793 F1200.000
G1 X19.291 Y31.621 E0.15755
G1 X18.190 Y32.939 E0.15755
G1 X15.950 Y33.686 E0.21667
G1 X-15.950 Y33.686 E2.92684
G1 X-17.621 Y33.291 E0.15755
G1 X-18.939 Y32.190 E0.15755
G1 X-19.686 Y29.950 E0.21667
G1 X-19.686 Y-29.950 E5.49586
G1 X-19.291 Y-31.621 E0.15755
G1 X-18.190 Y-32.939 E0.15755
G1 X-15.950 Y-33.686 E0.21667
G1 X15.950 Y-33.686 E2.92684
G1 X17.621 Y-33.291 E0.15755
G1 X18.939 Y-32.190 E0.15755 F1200.000
G1 X19.686 Y-29.950 E0.21667
G1 X19.686 Y-0.060 E2.74242
G1 E-3.20000 F3000.00000
G1 Z0.700 F9000.000
G1 X6.757 Y15.656 F9000.000
G1 Z0.300 F9000.000
G1 E3.20000 F3000.00000
G1 X7.751 Y16.478 E0.11833 F900.000
G1 X8.510 Y17.523 E0.11847
G1 X8.984 Y18.724 E0.11850
G1 X9.145 Y20.000 E0.11803
G1 X8.984 Y21.276 E0.11803
G1 X8.510 Y22.477 E0.11850
G1 X7.751 Y23.522 E0.11847
G1 X6.757 Y24.344 E0.11828
G1 X5.589 Y24.894 E0.11847
G1 X4.323 Y25.135 E0.11825
G1 X3.036 Y25.054 E0.11831
G1 X1.809 Y24.655 E0.11841
G1 X0.718 Y23.962 E0.11858
G1 X-0.163 Y23.024 E0.11804
G1 X-0.783 Y21.895 E0.11819
G1 X-1.105 Y20.643 E0.11862
G1 X-1.102 Y19.343 E0.11928
G1 X-0.782 Y18.102 E0.11756
G1 X-0.164 Y16.978 E0.11768
G1 X0.720 Y16.036 E0.11854
G1 X1.809 Y15.345 E0.11842
G1 X3.036 Y14.946 E0.11833
G1 X4.323 Y14.865 E0.11833 F900.000
G1 X5.590 Y15.107 E0.11833
G1 X6.703 Y15.630 E0.11283
G1 X6.360 Y16.282 F9000.000
G1 X7.210 Y16.986 E0.10128 F900.000
G1 X7.860 Y17.880 E0.10139
G1 X8.266 Y18.908 E0.10144
G1 X8.404 Y20.000 E0.10100
G1 X8.266 Y21.092 E0.10100
G1 X7.860 Y22.120 E0.10144
G1 X7.210 Y23.014 E0.10139
G1 X6.360 Y23.718 E0.10122
G1 X5.360 Y24.188 E0.10142
G1 X4.276 Y24.395 E0.10120
G1 X3.175 Y24.326 E0.10126
G1 X2.125 Y23.984 E0.10134
G1 X1.191 Y23.391 E0.10152
G1 X0.437 Y22.588 E0.10101
G1 X-0.094 Y21.622 E0.10114
G1 X-0.369 Y20.551 E0.10149
G1 X-0.367 Y19.437 E0.10219
G1 X-0.093 Y18.376 E0.10059
G1 X0.436 Y17.414 E0.10067
G1 X1.192 Y16.607 E0.10148
G1 X2.125 Y16.015 E0.10135
G1 X3.175 Y15.674 E0.10128
G1 X4.277 Y15.605 E0.10128 F900.000
G1 X5.361 Y15.812 E0.10128
G1 X6.305 Y16.256 E0.09577
G1 X6.722 Y16.112 F9000.000
G1 X4.323 Y-14.865 F9000.000
G1 X3.036 Y-14.946 E0.11833 F900.000
G1 X1.809 Y-15.345 E0.11833
G1 X0.720 Y-16.036 E0.11842
G1 X-0.164 Y-16.979 E0.11854
G1 X-0.782 Y-18.103 E0.11771
G1 X-1.105 Y-19.357 E0.11881
G1 X-1.102 Y-20.658 E0.11939
G1 X-0.783 Y-21.896 E0.11724
G1 X-0.163 Y-23.024 E0.11817
G1 X0.718 Y-23.962 E0.11804
G1 X1.808 Y-24.655 E0.11853
G1 X3.037 Y-25.054 E0.11850
G1 X4.323 Y-25.135 E0.11827 F900.000
G1 X5.590 Y-24.893 E0.11832
G1 X6.757 Y-24.344 E0.11834
G1 X7.751 Y-23.522 E0.11834
G1 X8.510 Y-22.477 E0.11847
G1 X8.984 Y-21.276 E0.11850
G1 X9.145 Y-20.000 E0.11803
G1 X8.984 Y-18.724 E0.11803
G1 X8.510 Y-17.523 E0.11850
G1 X7.751 Y-16.478 E0.11847
G1 X6.757 Y-15.656 E0.11833
G1 X5.590 Y-15.107 E0.11833
G1 X4.382 Y-14.876 E0.11283
G1 X4.277 Y-15.605 F9000.000
G1 X3.175 Y-15.674 E0.10128 F900.000
G1 X2.125 Y-16.015 E0.10128
G1 X1.192 Y-16.607 E0.10135
G1 X0.436 Y-17.414 E0.10149
G1 X-0.093 Y-18.376 E0.10069
G1 X-0.369 Y-19.449 E0.10167
G1 X-0.366 Y-20.564 E0.10231
G1 X-0.094 Y-21.622 E0.10027
G1 X0.437 Y-22.588 E0.10113
G1 X1.191 Y-23.391 E0.10101
G1 X2.124 Y-23.984 E0.10148
G1 X3.176 Y-24.326 E0.10142
G1 X4.276 Y-24.395 E0.10121 F900.000
G1 X5.361 Y-24.188 E0.10126
G1 X6.360 Y-23.718 E0.10129
G1 X7.210 Y-23.014 E0.10129
G1 X7.860 Y-22.120 E0.10139
G1 X8.266 Y-21.092 E0.10144
G1 X8.404 Y-20.000 E0.10100
G1 X8.266 Y-18.908 E0.10100
G1 X7.860 Y-17.880 E0.10144
G1 X7.210 Y-16.986 E0.10139
G1 X6.360 Y-16.282 E0.10128
G1 X5.361 Y-15.812 E0.10128
G1 X4.335 Y-15.616 E0.09577
G1 X4.084 Y-15.255 F9000.000
G1 X14.814 Y3.218 F9000.000
G1 X14.814 Y28.814 E2.34852 F900.000
G1 X-14.814 Y28.814 E2.71845 F900.000
G1 X-14.814 Y-28.814 E5.28747
G1 X14.814 Y-28.814 E2.71845
G1 X14.814 Y3.158 E2.93344
G1 X15.550 Y3.158 F9000.000
G1 X15.550 Y29.550 E2.42152 F900.000
G1 X-15.550 Y29.550 E2.85344 F900.000
G1 X-15.550 Y-29.550 E5.42246
G1 X15.550 Y-29.550 E2.85344
G1 X15.550 Y3.098 E2.99543
G1 X15.204 Y3.358 F9000.000
G1 X14.365 Y23.259 F9000.000
G1 X9.352 Y18.246 E0.65429 F900.000
G1 X9.555 Y19.496 E0.11688
G1 X14.365 Y24.306 E0.62772
G1 X14.365 Y25.352 E0.09656
G1 X9.516 Y20.503 E0.63285
G1 X9.368 Y21.401 E0.08400
G1 X14.365 Y26.399 E0.65220
G1 X14.365 Y27.445 E0.09656
G1 X9.072 Y22.151 E0.69087
G1 X8.720 Y22.846 E0.07187
G1 X14.239 Y28.365 E0.72026
G1 X13.193 Y28.365 E0.09656
G1 X8.280 Y23.452 E0.64116
G1 X7.780 Y23.998 E0.06835
G1 X12.146 Y28.365 E0.56990
G1 X11.100 Y28.365 E0.09656
G1 X7.207 Y24.472 E0.50807
G1 X6.563 Y24.875 E0.07008
G1 X10.054 Y28.365 E0.45555
G1 X9.007 Y28.365 E0.09656
G1 X5.851 Y25.209 E0.41185
G1 X5.027 Y25.431 E0.07881
G1 X7.961 Y28.365 E0.38292
G1 X6.914 Y28.365 E0.09656
G1 X4.133 Y25.583 E0.36307
G1 X3.016 Y25.513 E0.10325
G1 X5.868 Y28.365 E0.37223
G1 X4.822 Y28.365 E0.09656
G1 X1.563 Y25.106 E0.42529
G1 X-1.105 Y22.438 F9000.000
G1 X-14.365 Y9.178 E1.73053 F900.000
G1 X-14.365 Y8.132 E0.09656
G1 X-1.531 Y20.966 E1.67500
G1 X-1.552 Y19.899 E0.09853
G1 X-14.365 Y7.086 E1.67224
G1 X-14.365 Y6.039 E0.09656
G1 X-1.434 Y18.970 E1.68758
G1 X-1.220 Y18.138 E0.07929
G1 X-14.365 Y4.993 E1.71557
G1 X-14.365 Y3.946 E0.09656
G1 X-0.869 Y17.443 E1.76145
G1 X-0.496 Y16.770 E0.07105
G1 X-14.365 Y2.900 E1.81010
G1 X-14.365 Y1.854 E0.09656
G1 X0.011 Y16.230 E1.87620
G1 X0.525 Y15.698 E0.06829
G1 X-14.365 Y0.807 E1.94335
G1 X-14.365 Y-0.239 E0.09656
G1 X1.165 Y15.291 E2.02689
G1 X1.829 Y14.909 E0.07069
G1 X-14.365 Y-1.285 E2.11348
G1 X-14.365 Y-2.332 E0.09656
G1 X2.619 Y14.652 E2.21655
G1 X3.490 Y14.477 E0.08201
G1 X-14.365 Y-3.378 E2.33026
G1 X-14.365 Y-4.425 E0.09656
G1 X4.474 Y14.415 E2.45874
G1 X5.754 Y14.648 E0.12002
G1 X-14.365 Y-5.471 E2.62573
G1 X-14.365 Y-6.517 E0.09656
G1 X14.365 Y22.213 E3.74960
G1 X14.365 Y21.167 E0.09656
G1 X-14.365 Y-7.564 E3.74960
G1 X-14.365 Y-8.610 E0.09656
G1 X14.365 Y20.120 E3.74960
G1 X14.365 Y19.074 E0.09656
G1 X-14.365 Y-9.656 E3.74960
G1 X-14.365 Y-10.703 E0.09656
G1 X14.365 Y18.028 E3.74960
G1 X14.365 Y16.981 E0.09656
G1 X-14.365 Y-11.749 E3.74960
G1 X-14.365 Y-12.796 E0.09656
G1 X14.365 Y15.935 E3.74960
G1 X14.365 Y14.888 E0.09656
G1 X-14.365 Y-13.842 E3.74960
G1 X-14.365 Y-14.888 E0.09656
G1 X14.365 Y13.842 E3.74960
G1 X14.365 Y12.796 E0.09656
G1 X-14.365 Y-15.935 E3.74960
G1 X-14.365 Y-16.981 E0.09656
G1 X14.365 Y11.749 E3.74960
G1 X14.365 Y10.703 E0.09656
G1 X-14.365 Y-18.027 E3.74960
G1 X-14.365 Y-19.074 E0.09656
G1 X14.365 Y9.657 E3.74960
G1 X14.365 Y8.610 E0.09656
G1 X-14.365 Y-20.120 E3.74960
G1 X-14.365 Y-21.167 E0.09656
G1 X14.365 Y7.564 E3.74960
G1 X14.365 Y6.517 E0.09656
G1 X-14.365 Y-22.213 E3.74960
G1 X-14.365 Y-23.259 E0.09656
G1 X14.365 Y5.471 E3.74960
G1 X14.365 Y4.425 E0.09656
G1 X-14.365 Y-24.306 E3.74960
G1 X-14.365 Y-25.352 E0.09656
G1 X14.365 Y3.378 E3.74960
G1 X14.365 Y2.332 E0.09656
G1 X-14.365 Y-26.398 E3.74960
G1 X-14.365 Y-27.445 E0.09656
G1 X14.365 Y1.285 E3.74960
G1 X14.365 Y0.239 E0.09656
G1 X-14.239 Y-28.365 E3.73314
G1 X-13.193 Y-28.365 E0.09656
G1 X14.365 Y-0.807 E3.59658
G1 X14.365 Y-1.854 E0.09656
G1 X1.056 Y-15.163 E1.73699
G1 X2.761 Y-14.504 F9000.000
G1 X14.365 Y-2.900 E1.51448 F900.000
G1 X14.365 Y-3.946 E0.09656
G1 X3.879 Y-14.433 E1.36858
G1 X4.827 Y-14.531 E0.08798
G1 X14.365 Y-4.993 E1.24481
G1 X14.365 Y-6.039 E0.09656
G1 X5.690 Y-14.714 E1.13220
G1 X6.402 Y-15.049 E0.07257
G1 X14.365 Y-7.086 E1.03934
G1 X14.365 Y-8.132 E0.09656
G1 X7.077 Y-15.420 E0.95119
G1 X7.650 Y-15.894 E0.06859
G1 X14.365 Y-9.178 E0.87646
G1 X14.365 Y-10.225 E0.09656
G1 X8.180 Y-16.410 E0.80724
G1 X8.620 Y-17.016 E0.06913
G1 X14.365 Y-11.271 E0.74977
G1 X14.365 Y-12.317 E0.09656
G1 X9.004 Y-17.678 E0.69966
G1 X9.301 Y-18.428 E0.07442
G1 X14.365 Y-13.364 E0.66098
G1 X14.365 Y-14.410 E0.09656
G1 X9.489 Y-19.286 E0.63633
G1 X9.590 Y-20.232 E0.08779
G1 X14.365 Y-15.457 E0.62323
G1 X14.365 Y-16.503 E0.09656
G1 X9.439 Y-21.430 E0.64298
G1 X8.625 Y-23.289 F9000.000
G1 X14.365 Y-17.549 E0.74911 F900.000
G1 X14.365 Y-18.596 E0.09656
G1 X4.596 Y-28.365 E1.27502
G1 X5.642 Y-28.365 E0.09656
G1 X14.365 Y-19.642 E1.13845
G1 X14.365 Y-20.688 E0.09656
G1 X6.688 Y-28.365 E1.00189
G1 X7.735 Y-28.365 E0.09656
G1 X14.365 Y-21.735 E0.86533
G1 X14.365 Y-22.781 E0.09656
G1 X8.781 Y-28.365 E0.72877
G1 X9.828 Y-28.365 E0.09656
G1 X14.365 Y-23.828 E0.59220
G1 X14.365 Y-24.874 E0.09656
G1 X10.874 Y-28.365 E0.45564
G1 X11.920 Y-28.365 E0.09656
G1 X14.365 Y-25.920 E0.31908
G1 X14.365 Y-26.967 E0.09656
G1 X12.967 Y-28.365 E0.18251
G1 X14.013 Y-28.365 E0.09656
G1 X14.365 Y-28.013 E0.04595
G1 X7.186 Y-24.729 F9000.000
G1 X3.549 Y-28.365 E0.47460 F900.000
G1 X2.503 Y-28.365 E0.09656
G1 X5.460 Y-25.408 E0.38594
G1 X4.251 Y-25.571 E0.11262
G1 X1.457 Y-28.365 E0.36466
G1 X0.410 Y-28.365 E0.09656
G1 X3.266 Y-25.509 E0.37274
G1 X2.439 Y-25.290 E0.07895
G1 X-0.636 Y-28.365 E0.40138
G1 X-1.683 Y-28.365 E0.09656
G1 X1.660 Y-25.023 E0.43623
G1 X1.020 Y-24.616 E0.06996
G1 X-2.729 Y-28.365 E0.48930
G1 X-3.775 Y-28.365 E0.09656
G1 X0.402 Y-24.188 E0.54520
G1 X-0.105 Y-23.648 E0.06831
G1 X-4.822 Y-28.365 E0.61562
G1 X-5.868 Y-28.365 E0.09656
G1 X-0.582 Y-23.079 E0.68993
G1 X-0.953 Y-22.404 E0.07111
G1 X-6.914 Y-28.365 E0.77805
G1 X-7.961 Y-28.365 E0.09656
G1 X-1.269 Y-21.673 E0.87333
G1 X-1.483 Y-20.841 E0.07931
G1 X-9.007 Y-28.365 E0.98196
G1 X-10.054 Y-28.365 E0.09656
G1 X-1.552 Y-19.864 E1.10950
G1 X-1.448 Y-18.714 E0.10659
G1 X-11.100 Y-28.365 E1.25963
G1 X-12.146 Y-28.365 E0.09656
G1 X-0.815 Y-17.034 E1.47883
G1 E-3.20000 F3000.00000
G1 Z0.700 F9000.000
G1 X3.775 Y28.365 F9000.000
G1 Z0.300 F9000.000
G1 E3.20000 F3000.00000
G1 X-14.365 Y10.225 E2.36751 F900.000
G1 X-14.365 Y11.271 E0.09656
G1 X2.729 Y28.365 E2.23095
G1 X1.683 Y28.365 E0.09656
G1 X-14.365 Y12.317 E2.09438
G1 X-14.365 Y13.364 E0.09656
G1 X0.636 Y28.365 E1.95782
G1 X-0.410 Y28.365 E0.09656
G1 X-14.365 Y14.410 E1.82126
G1 X-14.365 Y15.457 E0.09656
G1 X-1.457 Y28.365 E1.68470
G1 X-2.503 Y28.365 E0.09656
G1 X-14.365 Y16.503 E1.54813
G1 X-14.365 Y17.549 E0.09656
G1 X-3.549 Y28.365 E1.41157
G1 X-4.596 Y28.365 E0.09656
G1 X-14.365 Y18.596 E1.27501
G1 X-14.365 Y19.642 E0.09656
G1 X-5.642 Y28.365 E1.13845
G1 X-6.688 Y28.365 E0.09656
G1 X-14.365 Y20.688 E1.00188
G1 X-14.365 Y21.735 E0.09656
G1 X-7.735 Y28.365 E0.86532
G1 X-8.781 Y28.365 E0.09656
G1 X-14.365 Y22.781 E0.72876
G1 X-14.365 Y23.828 E0.09656
G1 X-9.828 Y28.365 E0.59220
G1 X-10.874 Y28.365 E0.09656
G1 X-14.365 Y24.874 E0.45563
G1 X-14.365 Y25.920 E0.09656
G1 X-11.920 Y28.365 E0.31907
G1 X-12.967 Y28.365 E0.09656
G1 X-14.365 Y26.967 E0.18251
G1 X-14.365 Y28.013 E0.09656
G1 X-14.013 Y28.365 E0.04594
G1 E-3.20000 F3000.00000
G1 Z0.700 F9000.000
G1 X-0.356 Y21.740 F9000.000
G1 Z0.600 F9000.000
G1 E3.20000 F3000.00000
G1 X-0.656 Y20.560 E0.06619 F1800.000
G1 X-0.653 Y19.406 E0.06271
G1 X-0.361 Y18.272 E0.06361
G1 X0.200 Y17.249 E0.06338
G1 X1.009 Y16.385 E0.06430
G1 X2.004 Y15.754 E0.06402
G1 X3.123 Y15.391 E0.06391
G1 X4.279 Y15.319 E0.06292 F1800.000
G1 X5.451 Y15.539 E0.06483
G1 X6.517 Y16.041 E0.06398
G1 X7.422 Y16.791 E0.06392
G1 X8.114 Y17.745 E0.06398
G1 X8.546 Y18.841 E0.06401
G1 X8.691 Y20.000 E0.06348
G1 X8.546 Y21.159 E0.06348
G1 X8.114 Y22.255 E0.06401
G1 X7.422 Y23.209 E0.06398
G1 X6.516 Y23.960 E0.06399
G1 X5.448 Y24.462 E0.06410
G1 X4.285 Y24.682 E0.06432
G1 X3.114 Y24.606 E0.06374
G1 X2.004 Y24.246 E0.06343
G1 X1.003 Y23.609 E0.06444
G1 X0.207 Y22.760 E0.06323
G1 X-0.327 Y21.793 E0.06004
G1 X0.054 Y21.582 F9000.000
G1 X-0.220 Y20.506 E0.06037 F1800.000
G1 X-0.218 Y19.461 E0.05676
G1 X0.047 Y18.433 E0.05767
G1 X0.556 Y17.507 E0.05743
G1 X1.289 Y16.724 E0.05831
G1 X2.191 Y16.152 E0.05801
G1 X3.205 Y15.823 E0.05793
G1 X4.252 Y15.757 E0.05698 F1800.000
G1 X5.316 Y15.957 E0.05885
G1 X6.281 Y16.411 E0.05796
G1 X7.102 Y17.092 E0.05793
G1 X7.729 Y17.956 E0.05799
G1 X8.120 Y18.949 E0.05803
G1 X8.252 Y20.000 E0.05753
G1 X8.120 Y21.051 E0.05753
G1 X7.729 Y22.044 E0.05803
G1 X7.102 Y22.908 E0.05799
G1 X6.280 Y23.589 E0.05800
G1 X5.313 Y24.045 E0.05809
G1 X4.258 Y24.244 E0.05832
G1 X3.197 Y24.175 E0.05778
G1 X2.191 Y23.849 E0.05745
G1 X1.284 Y23.271 E0.05845
G1 X0.562 Y22.502 E0.05729
G1 X0.083 Y21.635 E0.05382
G1 X-0.338 Y21.507 F9000.000
G1 E-3.20000 F3000.00000
G1 Z1.000 F9000.000
G1 X3.105 Y-15.397 F9000.000
G1 Z0.600 F9000.000
G1 E3.20000 F3000.00000
G1 X2.004 Y-15.754 E0.06291 F1800.000
G1 X1.008 Y-16.386 E0.06407
G1 X0.192 Y-17.263 E0.06507
G1 X-0.361 Y-18.272 E0.06254
G1 X-0.654 Y-19.408 E0.06372
G1 X-0.649 Y-20.614 E0.06554
G1 X-0.361 Y-21.729 E0.06257
G1 X0.207 Y-22.760 E0.06397
G1 X1.003 Y-23.609 E0.06325
G1 X2.002 Y-24.245 E0.06435
G1 X3.123 Y-24.609 E0.06401
G1 X4.290 Y-24.682 E0.06351 F1800.000
G1 X5.437 Y-24.465 E0.06343
G1 X6.517 Y-23.959 E0.06479
G1 X7.422 Y-23.209 E0.06390
G1 X8.104 Y-22.271 E0.06299
G1 X8.548 Y-21.145 E0.06576
G1 X8.691 Y-20.000 E0.06270
G1 X8.546 Y-18.841 E0.06347
G1 X8.114 Y-17.745 E0.06401
G1 X7.422 Y-16.790 E0.06404
G1 X6.500 Y-16.032 E0.06484
G1 X5.452 Y-15.539 E0.06292
G1 X4.296 Y-15.318 E0.06397
G1 X3.165 Y-15.393 E0.06157
G1 X3.194 Y-15.827 F9000.000
G1 X2.191 Y-16.152 E0.05728 F1800.000
G1 X1.289 Y-16.724 E0.05803
G1 X0.548 Y-17.520 E0.05907
G1 X0.047 Y-18.434 E0.05663
G1 X-0.218 Y-19.462 E0.05771
G1 X-0.214 Y-20.558 E0.05953
G1 X0.047 Y-21.567 E0.05663
G1 X0.562 Y-22.502 E0.05802
G1 X1.284 Y-23.271 E0.05730
G1 X2.190 Y-23.848 E0.05836
G1 X3.205 Y-24.178 E0.05801
G1 X4.262 Y-24.244 E0.05754 F1800.000
G1 X5.302 Y-24.047 E0.05747
G1 X6.282 Y-23.588 E0.05879
G1 X7.102 Y-22.908 E0.05790
G1 X7.719 Y-22.060 E0.05700
G1 X8.123 Y-21.036 E0.05977
G1 X8.252 Y-20.000 E0.05675
G1 X8.120 Y-18.949 E0.05752
G1 X7.729 Y-17.956 E0.05803
G1 X7.102 Y-17.091 E0.05801
G1 X6.265 Y-16.403 E0.05885
G1 X5.317 Y-15.957 E0.05698
G1 X4.269 Y-15.756 E0.05795
G1 X3.254 Y-15.823 E0.05528
G1 X2.920 Y-15.536 F9000.000
G1 X-15.264 Y-2.333 F9000.000
G1 X-15.264 Y-29.264 E1.46327 F1800.000
G1 X15.264 Y-29.264 E1.65871
G1 X15.264 Y29.264 E3.18003
G1 X-15.264 Y29.264 E1.65871 F1800.000
G1 X-15.264 Y-2.273 E1.71351
G1 X-15.700 Y-2.273 F9000.000
G1 X-15.700 Y-29.700 E1.49020 F1800.000
G1 X15.700 Y-29.700 E1.70605
G1 X15.700 Y29.700 E3.22737
G1 X-15.700 Y29.700 E1.70605 F1800.000
G1 X-15.700 Y-2.213 E1.73392
G1 X-15.354 Y-2.473 F9000.000
G1 X5.375 Y-15.242 F9000.000
G1 X-15.007 Y5.139 E1.56777 F1800.000
G1 X-15.007 Y4.522 E0.03355
G1 X4.612 Y-15.096 E1.50910
G1 X3.985 Y-15.086 E0.03412
G1 X-15.007 Y3.905 E1.46085
G1 X-15.007 Y3.288 E0.03355
G1 X3.406 Y-15.124 E1.41635
G1 X2.887 Y-15.222 E0.02874
G1 X-15.007 Y2.672 E1.37641
G1 X-15.007 Y2.055 E0.03355
G1 X2.421 Y-15.373 E1.34061
G1 X1.956 Y-15.524 E0.02662
G1 X-15.007 Y1.438 E1.30480
G1 X-15.007 Y0.822 E0.03355
G1 X1.577 Y-15.762 E1.27563
G1 X1.199 Y-16.001 E0.02431
G1 X-15.007 Y0.205 E1.24659
G1 X-15.007 Y-0.412 E0.03355
G1 X0.833 Y-16.252 E1.21843
G1 X0.536 Y-16.571 E0.02374
G1 X-15.007 Y-1.029 E1.19556
G1 X-15.007 Y-1.645 E0.03355
G1 X0.239 Y-16.890 E1.17269
G1 X-0.044 Y-17.225 E0.02381
G1 X-15.007 Y-2.262 E1.15099
G1 X-15.007 Y-2.879 E0.03355
G1 X-0.262 Y-17.623 E1.13419
G1 X-0.480 Y-18.022 E0.02471
G1 X-15.007 Y-3.496 E1.11739
G1 X-15.007 Y-4.112 E0.03355
