; generated by Slic3r 1.2.9 on 2017-01-02 at 12:24:03

; external perimeters extrusion width = 0.50mm
; perimeters extrusion width = 0.50mm
; infill extrusion width = 0.50mm
; solid infill extrusion width = 0.50mm
; top infill extrusion width = 0.50mm

M107
;Basic settings: Layer height: {layer_height} Walls: {wall_thickness} Fill: {fill_density}
;Print time: {print_time}
;Filament used: {filament_amount}m {filament_weight}g
;Filament cost: {filament_cost}
;M190 S{print_bed_temperature} ;Uncomment to add your own bed temperature line
;M109 S{print_temperature} ;Uncomment to add your own temperature line
G21        ;metric values
G90        ;absolute positioning
M83
G10 P0 S200
T0
M116


G21 ; set units to millimeters
G90 ; use absolute coordinates
M83 ; use relative distances for extrusion
G1 E-3.20000 F3000.00000
G1 Z0.400 F9000.000
G1 X0.000 Y-25.822 F9000.000
G1 Z0.300 F9000.000
G1 E3.20000 F3000.00000
G1 X12.422 Y-25.822 E1.13970 F1200.000
G1 X14.093 Y-25.427 E0.15755 F1200.000
G1 X15.025 Y-24.766 E0.10486
G1 X35.017 Y-5.343 E2.55735
G1 X50.126 Y9.765 E1.96045
G1 X51.028 Y11.226 E0.15755
G1 X51.182 Y12.936 E0.15755
G1 X50.555 Y14.535 E0.15755
G1 X49.798 Y15.339 E0.10133
G1 X37.341 Y25.169 E1.45590
G1 X35.027 Y25.972 E0.22473
G1 X-47.516 Y25.972 E7.57335
G1 X-49.187 Y25.577 E0.15755
G1 X-50.505 Y24.477 E0.15755
G1 X-51.251 Y22.236 E0.21667
G1 X-51.251 Y-2.664 E2.28459
G1 X-50.857 Y-4.335 E0.15755
G1 X-49.544 Y-5.801 E0.18053
G1 X-19.507 Y-25.223 E3.28189
G1 X-17.478 Y-25.822 E0.19404
G1 X-0.060 Y-25.822 E1.59813
G1 E-3.20000 F3000.00000
G1 Z0.700 F9000.000
G1 X-42.419 Y-1.528 F9000.000
G1 Z0.300 F9000.000
G1 E3.20000 F3000.00000
G1 X31.943 Y-1.528 E6.82277 F900.000
G1 X45.635 Y12.163 E1.77655 F900.000
G1 X32.334 Y19.843 E1.40915
G1 X33.060 Y21.101 E0.13327
G1 X-46.380 Y21.101 E7.28869
G1 X-46.380 Y-1.528 E2.07620
G1 X-42.479 Y-1.528 E0.35792
G1 X-42.479 Y-2.264 F9000.000
G1 X32.035 Y-2.264 E6.83674 F900.000
G1 X32.248 Y-2.264 E0.01949 F900.000
G1 X46.833 Y12.321 E1.89246
G1 X33.339 Y20.112 E1.42961
G1 X34.334 Y21.836 E0.18268
G1 X-47.116 Y21.836 E7.47309
G1 X-47.116 Y-2.264 E2.21119
G1 X-42.539 Y-2.264 E0.41991
G1 X-42.279 Y-1.917 F9000.000
G1 X-45.931 Y20.299 F9000.000
G1 X-45.579 Y20.651 E0.04616 F900.000
G1 X-44.528 Y20.651 E0.09747
G1 X-45.931 Y19.248 E0.18399
G1 X-45.931 Y18.197 E0.09747
G1 X-43.476 Y20.651 E0.32183
G1 X-42.425 Y20.651 E0.09747
G1 X-45.931 Y17.146 E0.45967
G1 X-45.931 Y16.094 E0.09747
G1 X-41.374 Y20.651 E0.59751
G1 X-40.323 Y20.651 E0.09747
G1 X-45.931 Y15.043 E0.73534
G1 X-45.931 Y13.992 E0.09747
G1 X-39.271 Y20.651 E0.87318
G1 X-38.220 Y20.651 E0.09747
G1 X-45.931 Y12.941 E1.01102
G1 X-45.931 Y11.889 E0.09747
G1 X-37.169 Y20.651 E1.14885
G1 X-36.118 Y20.651 E0.09747
G1 X-45.931 Y10.838 E1.28669
G1 X-45.931 Y9.787 E0.09747
G1 X-35.066 Y20.651 E1.42453
G1 X-34.015 Y20.651 E0.09747
G1 X-45.931 Y8.736 E1.56236
G1 X-45.931 Y7.684 E0.09747
G1 X-32.964 Y20.651 E1.70020
G1 X-31.913 Y20.651 E0.09747
G1 X-45.931 Y6.633 E1.83804
G1 X-45.931 Y5.582 E0.09747
G1 X-30.861 Y20.651 E1.97588
G1 X-29.810 Y20.651 E0.09747
G1 X-45.931 Y4.531 E2.11371
G1 X-45.931 Y3.479 E0.09747
G1 X-28.759 Y20.651 E2.25155
G1 X-27.708 Y20.651 E0.09747
G1 X-45.931 Y2.428 E2.38939
G1 X-45.931 Y1.377 E0.09747
G1 X-26.656 Y20.651 E2.52722
G1 X-25.605 Y20.651 E0.09747
G1 X-45.931 Y0.326 E2.66506
G1 X-45.931 Y-0.726 E0.09747
G1 X-24.554 Y20.651 E2.80290
G1 X-23.503 Y20.651 E0.09747
G1 X-45.233 Y-1.079 E2.84923
G1 X-44.182 Y-1.079 E0.09747
G1 X-22.451 Y20.651 E2.84923
G1 X-21.400 Y20.651 E0.09747
G1 X-43.130 Y-1.079 E2.84923
G1 X-42.079 Y-1.079 E0.09747
G1 X-20.349 Y20.651 E2.84923
G1 X-19.298 Y20.651 E0.09747
G1 X-41.028 Y-1.079 E2.84923
G1 X-39.977 Y-1.079 E0.09747
G1 X-18.246 Y20.651 E2.84923
G1 X-17.195 Y20.651 E0.09747
G1 X-38.925 Y-1.079 E2.84923
G1 X-37.874 Y-1.079 E0.09747
G1 X-16.144 Y20.651 E2.84923
G1 X-15.093 Y20.651 E0.09747
G1 X-36.823 Y-1.079 E2.84923
G1 X-35.772 Y-1.079 E0.09747
G1 X-14.041 Y20.651 E2.84923
G1 X-12.990 Y20.651 E0.09747
G1 X-34.720 Y-1.079 E2.84923
G1 X-33.669 Y-1.079 E0.09747
G1 X-11.939 Y20.651 E2.84923
G1 X-10.888 Y20.651 E0.09747
G1 X-32.618 Y-1.079 E2.84923
G1 X-31.567 Y-1.079 E0.09747
G1 X-9.836 Y20.651 E2.84923
G1 X-8.785 Y20.651 E0.09747
G1 X-30.515 Y-1.079 E2.84923
G1 X-29.464 Y-1.079 E0.09747
G1 X-7.734 Y20.651 E2.84923
G1 X-6.683 Y20.651 E0.09747
G1 X-28.413 Y-1.079 E2.84923
G1 X-27.362 Y-1.079 E0.09747
G1 X-5.631 Y20.651 E2.84923
G1 X-4.580 Y20.651 E0.09747
G1 X-26.311 Y-1.079 E2.84923
G1 X-25.259 Y-1.079 E0.09747
G1 X-3.529 Y20.651 E2.84923
G1 X-2.478 Y20.651 E0.09747
G1 X-24.208 Y-1.079 E2.84923
G1 X-23.157 Y-1.079 E0.09747
G1 X-1.426 Y20.651 E2.84923
G1 X-0.375 Y20.651 E0.09747
G1 X-22.106 Y-1.079 E2.84923
G1 X-21.054 Y-1.079 E0.09747
G1 X0.676 Y20.651 E2.84923
G1 X1.727 Y20.651 E0.09747
G1 X-20.003 Y-1.079 E2.84923
G1 X-18.952 Y-1.079 E0.09747
G1 X2.779 Y20.651 E2.84923
G1 X3.830 Y20.651 E0.09747
G1 X-17.901 Y-1.079 E2.84923
G1 X-16.849 Y-1.079 E0.09747
G1 X4.881 Y20.651 E2.84923
G1 X5.932 Y20.651 E0.09747
G1 X-15.798 Y-1.079 E2.84923
G1 X-14.747 Y-1.079 E0.09747
G1 X6.984 Y20.651 E2.84923
G1 X8.035 Y20.651 E0.09747
G1 X-13.696 Y-1.079 E2.84923
G1 X-12.644 Y-1.079 E0.09747
G1 X9.086 Y20.651 E2.84923
G1 X10.137 Y20.651 E0.09747
G1 X-11.593 Y-1.079 E2.84923
G1 X-10.542 Y-1.079 E0.09747
G1 X11.189 Y20.651 E2.84923
G1 X12.240 Y20.651 E0.09747
G1 X-9.491 Y-1.079 E2.84923
G1 X-8.439 Y-1.079 E0.09747
G1 X13.291 Y20.651 E2.84923
G1 X14.342 Y20.651 E0.09747
G1 X-7.388 Y-1.079 E2.84923
G1 X-6.337 Y-1.079 E0.09747
G1 X15.394 Y20.651 E2.84923
G1 X16.445 Y20.651 E0.09747
G1 X-5.286 Y-1.079 E2.84923
G1 X-4.234 Y-1.079 E0.09747
G1 X17.496 Y20.651 E2.84923
G1 X18.547 Y20.651 E0.09747
G1 X-3.183 Y-1.079 E2.84923
G1 X-2.132 Y-1.079 E0.09747
G1 X19.599 Y20.651 E2.84923
G1 X20.650 Y20.651 E0.09747
G1 X-1.081 Y-1.079 E2.84923
G1 X-0.029 Y-1.079 E0.09747
G1 X21.701 Y20.651 E2.84923
G1 X22.752 Y20.651 E0.09747
G1 X1.022 Y-1.079 E2.84923
G1 X2.073 Y-1.079 E0.09747
G1 X23.804 Y20.651 E2.84923
G1 X24.855 Y20.651 E0.09747
G1 X3.124 Y-1.079 E2.84923
G1 X4.176 Y-1.079 E0.09747
G1 X25.906 Y20.651 E2.84923
G1 X26.957 Y20.651 E0.09747
G1 X5.227 Y-1.079 E2.84923
G1 X6.278 Y-1.079 E0.09747
G1 X28.009 Y20.651 E2.84923
G1 X29.060 Y20.651 E0.09747
G1 X7.329 Y-1.079 E2.84923
G1 X8.381 Y-1.079 E0.09747
G1 X30.111 Y20.651 E2.84923
G1 X31.162 Y20.651 E0.09747
G1 X9.432 Y-1.079 E2.84923
G1 X10.483 Y-1.079 E0.09747
G1 X32.106 Y20.543 E2.83509
G1 X32.124 Y19.511 F9000.000
G1 X11.534 Y-1.079 E2.69969 F900.000
G1 X12.586 Y-1.079 E0.09747
G1 X32.791 Y19.126 E2.64924
G1 X33.457 Y18.741 E0.07135
G1 X13.637 Y-1.079 E2.59879
G1 X14.688 Y-1.079 E0.09747
G1 X34.124 Y18.356 E2.54834
G1 X34.790 Y17.972 E0.07135
G1 X15.739 Y-1.079 E2.49788
G1 X16.791 Y-1.079 E0.09747
G1 X35.457 Y17.587 E2.44743
G1 X36.123 Y17.202 E0.07135
G1 X17.842 Y-1.079 E2.39698
G1 X18.893 Y-1.079 E0.09747
G1 X36.790 Y16.817 E2.34653
G1 X37.456 Y16.433 E0.07135
G1 X19.944 Y-1.079 E2.29608
G1 X20.996 Y-1.079 E0.09747
G1 X38.122 Y16.048 E2.24563
G1 X38.789 Y15.663 E0.07135
G1 X22.047 Y-1.079 E2.19517
G1 X23.098 Y-1.079 E0.09747
G1 X39.455 Y15.278 E2.14472
G1 X40.122 Y14.893 E0.07135
G1 X24.149 Y-1.079 E2.09427
G1 X25.201 Y-1.079 E0.09747
G1 X40.788 Y14.509 E2.04382
G1 X41.455 Y14.124 E0.07135
G1 X26.252 Y-1.079 E1.99337
G1 X27.303 Y-1.079 E0.09747
G1 X42.121 Y13.739 E1.94291
G1 X42.788 Y13.354 E0.07135
G1 X28.354 Y-1.079 E1.89246
G1 X29.406 Y-1.079 E0.09747
G1 X43.454 Y12.970 E1.84201
G1 X44.121 Y12.585 E0.07135
G1 X30.457 Y-1.079 E1.79156
G1 X31.508 Y-1.079 E0.09747
G1 X44.772 Y12.185 E1.73919
G1 E-3.20000 F3000.00000
G1 Z0.700 F9000.000
G1 X-10.093 Y-11.578 F9000.000
G1 Z0.300 F9000.000
G1 E3.20000 F3000.00000
G1 X-10.362 Y-11.105 E0.04993 F900.000
G1 X-10.719 Y-10.647 E0.05328
G1 X-11.004 Y-10.375 E0.03612
G1 X-11.338 Y-10.131 E0.03798
G1 X-11.778 Y-9.921 E0.04473
G1 X-12.184 Y-9.828 E0.03817
G1 X-12.536 Y-9.818 E0.03232
G1 X-12.902 Y-9.879 E0.03408
G1 X-13.306 Y-10.042 E0.04001
G1 X-13.764 Y-10.419 E0.05439
G1 X-14.005 Y-10.781 E0.03990
G1 X-14.171 Y-11.177 E0.03937
G1 X-14.270 Y-11.643 E0.04373
G1 X-14.274 Y-12.224 E0.05333
G1 X-14.205 Y-12.676 E0.04193
G1 X-14.127 Y-12.957 E0.02678
G1 X-13.939 Y-13.439 E0.04743
G1 X-13.715 Y-13.844 E0.04247
G1 X-13.436 Y-14.228 E0.04352
G1 X-13.179 Y-14.507 E0.03486
G1 X-12.805 Y-14.823 E0.04489
G1 X-12.441 Y-15.041 E0.03896
G1 X-12.087 Y-15.187 E0.03515
G1 X-11.552 Y-15.285 E0.04990 F900.000
G1 X-10.984 Y-15.215 E0.05249
G1 X-10.553 Y-15.015 E0.04360
G1 X-10.229 Y-14.751 E0.03834
G1 X-10.015 Y-14.467 E0.03265
G1 X-9.822 Y-14.093 E0.03859
G1 X-9.711 Y-13.653 E0.04170
G1 X-9.680 Y-13.115 E0.04936
G1 X-9.813 Y-12.316 E0.07435
G1 X-9.909 Y-12.016 E0.02889
G1 X-10.070 Y-11.633 E0.03813
G1 X-10.748 Y-11.916 F9000.000
G1 X-10.975 Y-11.515 E0.04228 F900.000
G1 X-11.267 Y-11.141 E0.04349
G1 X-11.477 Y-10.940 E0.02673
G1 X-11.716 Y-10.765 E0.02719
G1 X-12.022 Y-10.620 E0.03103
G1 X-12.278 Y-10.561 E0.02409
G1 X-12.485 Y-10.555 E0.01907
G1 X-12.701 Y-10.591 E0.02007
G1 X-12.926 Y-10.682 E0.02227
G1 X-13.213 Y-10.918 E0.03404
G1 X-13.354 Y-11.130 E0.02337
G1 X-13.466 Y-11.397 E0.02654
G1 X-13.535 Y-11.723 E0.03061
G1 X-13.538 Y-12.171 E0.04113
G1 X-13.485 Y-12.521 E0.03249
G1 X-13.428 Y-12.724 E0.01932
G1 X-13.272 Y-13.125 E0.03952
G1 X-13.093 Y-13.448 E0.03386
G1 X-12.866 Y-13.761 E0.03549
G1 X-12.670 Y-13.975 E0.02664
G1 X-12.376 Y-14.222 E0.03519
G1 X-12.110 Y-14.382 E0.02846
G1 X-11.878 Y-14.477 E0.02300
G1 X-11.530 Y-14.541 E0.03247 F900.000
G1 X-11.189 Y-14.499 E0.03158
G1 X-10.946 Y-14.387 E0.02454
G1 X-10.763 Y-14.237 E0.02166
G1 X-10.640 Y-14.074 E0.01878
G1 X-10.514 Y-13.831 E0.02506
G1 X-10.441 Y-13.541 E0.02749
G1 X-10.419 Y-13.155 E0.03542
G1 X-10.530 Y-12.490 E0.06184
G1 X-10.725 Y-11.972 E0.05084
G1 X-10.528 Y-11.583 F9000.000
G1 X4.624 Y-13.115 F9000.000
G1 X4.654 Y-13.653 E0.04936 F900.000
G1 X4.760 Y-14.072 E0.03973
G1 X4.924 Y-14.422 E0.03541
G1 X5.173 Y-14.751 E0.03785
G1 X5.497 Y-15.016 E0.03837
G1 X5.914 Y-15.208 E0.04219
G1 X6.388 Y-15.280 E0.04395 F900.000
G1 X6.839 Y-15.239 E0.04161
G1 X7.359 Y-15.057 E0.05055
G1 X7.749 Y-14.823 E0.04169
G1 X8.123 Y-14.508 E0.04489
G1 X8.380 Y-14.228 E0.03487
G1 X8.658 Y-13.844 E0.04352
G1 X8.883 Y-13.439 E0.04247
G1 X9.071 Y-12.957 E0.04743
G1 X9.149 Y-12.676 E0.02677
G1 X9.218 Y-12.224 E0.04194
G1 X9.213 Y-11.639 E0.05367
G1 X9.105 Y-11.144 E0.04649
G1 X8.938 Y-10.758 E0.03857
G1 X8.660 Y-10.369 E0.04389
G1 X8.237 Y-10.037 E0.04935
G1 X7.846 Y-9.879 E0.03872
G1 X7.479 Y-9.818 E0.03409
G1 X7.127 Y-9.828 E0.03231
G1 X6.722 Y-9.921 E0.03817
G1 X6.282 Y-10.131 E0.04474
G1 X5.947 Y-10.375 E0.03797
G1 X5.663 Y-10.647 E0.03613
G1 X5.305 Y-11.105 E0.05327
G1 X5.036 Y-11.578 E0.04993
G1 X4.853 Y-12.016 E0.04364
G1 X4.756 Y-12.316 E0.02889
G1 X4.633 Y-13.056 E0.06884
G1 X5.363 Y-13.155 F9000.000
G1 X5.385 Y-13.541 E0.03542 F900.000
G1 X5.456 Y-13.824 E0.02679
G1 X5.558 Y-14.040 E0.02189
G1 X5.706 Y-14.237 E0.02270
G1 X5.890 Y-14.387 E0.02168
G1 X6.127 Y-14.497 E0.02403
G1 X6.410 Y-14.539 E0.02622 F900.000
G1 X6.682 Y-14.515 E0.02508
G1 X7.045 Y-14.387 E0.03526
G1 X7.320 Y-14.222 E0.02942
G1 X7.613 Y-13.975 E0.03519
G1 X7.809 Y-13.761 E0.02664
G1 X8.037 Y-13.448 E0.03550
G1 X8.215 Y-13.125 E0.03385
G1 X8.372 Y-12.724 E0.03952
G1 X8.428 Y-12.521 E0.01931
G1 X8.482 Y-12.171 E0.03250
G1 X8.478 Y-11.722 E0.04125
G1 X8.401 Y-11.371 E0.03295
G1 X8.294 Y-11.122 E0.02491
G1 X8.123 Y-10.882 E0.02696
G1 X7.865 Y-10.680 E0.03008
G1 X7.645 Y-10.591 E0.02181
G1 X7.429 Y-10.555 E0.02008
G1 X7.221 Y-10.561 E0.01907
G1 X6.965 Y-10.620 E0.02409
G1 X6.660 Y-10.765 E0.03103
G1 X6.420 Y-10.940 E0.02718
G1 X6.210 Y-11.142 E0.02674
G1 X5.918 Y-11.515 E0.04349
G1 X5.698 Y-11.902 E0.04090
G1 X5.473 Y-12.490 E0.05774
G1 X5.372 Y-13.096 E0.05634
G1 X5.025 Y-13.343 F9000.000
G1 X-9.923 Y-20.951 F9000.000
G1 X11.286 Y-20.951 E1.94599 F900.000
G1 X11.286 Y-6.872 E1.29173 F900.000
G1 X-16.343 Y-6.872 E2.53495
G1 X-16.343 Y-20.951 E1.29173
G1 X-9.983 Y-20.951 E0.58346
G1 X-9.983 Y-21.686 F9000.000
G1 X12.022 Y-21.686 E2.01898 F900.000
G1 X12.022 Y-6.136 E1.42672 F900.000
G1 X-17.078 Y-6.136 E2.66994
G1 X-17.078 Y-21.686 E1.42672
G1 X-10.043 Y-21.686 E0.64545
G1 X-9.783 Y-21.340 F9000.000
G1 X-4.350 Y-20.501 F9000.000
G1 X4.412 Y-11.739 E1.15805 F900.000
G1 X4.178 Y-13.033 E0.12292
G1 X-3.290 Y-20.501 E0.98700
G1 X-2.231 Y-20.501 E0.09903
G1 X4.304 Y-13.966 E0.86372
G1 X4.641 Y-14.689 E0.07452
G1 X-1.171 Y-20.501 E0.76820
G1 X-0.112 Y-20.501 E0.09903
G1 X5.155 Y-15.235 E0.69606
G1 X5.838 Y-15.612 E0.07288
G1 X0.948 Y-20.501 E0.64623
G1 X2.008 Y-20.501 E0.09903
G1 X6.801 Y-15.708 E0.63346
G1 X10.837 Y-20.149 F9000.000
G1 X10.485 Y-20.501 E0.04653 F900.000
G1 X9.425 Y-20.501 E0.09903
G1 X10.837 Y-19.090 E0.18658
G1 X10.837 Y-18.030 E0.09903
G1 X8.366 Y-20.501 E0.32663
G1 X7.306 Y-20.501 E0.09903
G1 X10.837 Y-16.970 E0.46667
G1 X10.837 Y-15.911 E0.09903
G1 X6.246 Y-20.501 E0.60672
G1 X5.187 Y-20.501 E0.09903
G1 X10.837 Y-14.851 E0.74676
G1 X10.837 Y-13.791 E0.09903
G1 X4.127 Y-20.501 E0.88681
G1 X3.067 Y-20.501 E0.09903
G1 X10.837 Y-12.732 E1.02685
G1 X10.837 Y-11.672 E0.09903
G1 X9.592 Y-12.917 E0.16452
G1 X9.662 Y-11.787 E0.10579
G1 X10.837 Y-10.612 E0.15523
G1 X10.837 Y-9.553 E0.09903
G1 X9.452 Y-10.938 E0.18308
G1 X9.064 Y-10.267 E0.07249
G1 X10.837 Y-8.493 E0.23437
G1 X10.837 Y-7.434 E0.09903
G1 X8.510 Y-9.761 E0.30754
G1 X7.775 Y-9.436 E0.07508
G1 X9.890 Y-7.321 E0.27948
G1 X8.830 Y-7.321 E0.09903
G1 X6.734 Y-9.417 E0.27707
G1 X6.711 Y-7.321 F9000.000
G1 X-6.469 Y-20.501 E1.74196 F900.000
G1 X-5.410 Y-20.501 E0.09903
G1 X7.771 Y-7.321 E1.74196
G1 X5.651 Y-7.321 F9000.000
G1 X-7.529 Y-20.501 E1.74196 F900.000
G1 X-8.589 Y-20.501 E0.09903
G1 X4.592 Y-7.321 E1.74196
G1 X3.532 Y-7.321 E0.09903
G1 X-9.648 Y-20.501 E1.74196
G1 X-10.708 Y-20.501 E0.09903
G1 X2.472 Y-7.321 E1.74196
G1 X1.413 Y-7.321 E0.09903
G1 X-11.768 Y-20.501 E1.74196
G1 X-12.827 Y-20.501 E0.09903
G1 X0.353 Y-7.321 E1.74196
G1 X-0.706 Y-7.321 E0.09903
G1 X-13.887 Y-20.501 E1.74196
G1 X-14.946 Y-20.501 E0.09903
G1 X-1.766 Y-7.321 E1.74196
G1 X-2.826 Y-7.321 E0.09903
G1 X-9.257 Y-13.753 E0.85002
G1 X-9.310 Y-12.745 E0.09424
G1 X-3.885 Y-7.321 E0.71692
G1 X-4.945 Y-7.321 E0.09903
G1 X-9.524 Y-11.900 E0.60512
G1 X-9.866 Y-11.182 E0.07427
G1 X-6.005 Y-7.321 E0.51035
G1 X-7.064 Y-7.321 E0.09903
G1 X-10.300 Y-10.557 E0.42763
G1 X-10.827 Y-10.024 E0.07002
G1 X-8.124 Y-7.321 E0.35726
G1 X-9.184 Y-7.321 E0.09903
G1 X-11.484 Y-9.621 E0.30401
G1 X-12.302 Y-9.380 E0.07971
G1 X-10.243 Y-7.321 E0.27207
G1 X-11.303 Y-7.321 E0.09903
G1 X-15.893 Y-11.912 E0.60671
G1 X-15.893 Y-12.971 E0.09903
G1 X-14.721 Y-11.799 E0.15489
G1 X-14.613 Y-12.751 E0.08949
G1 X-15.893 Y-14.031 E0.16918
G1 X-15.893 Y-15.090 E0.09903
G1 X-14.335 Y-13.532 E0.20593
G1 X-13.938 Y-14.195 E0.07220
G1 X-15.893 Y-16.150 E0.25837
G1 X-15.893 Y-17.210 E0.09903
G1 X-13.457 Y-14.774 E0.32196
G1 X-12.866 Y-15.242 E0.07049
G1 X-15.893 Y-18.269 E0.40007
G1 X-15.893 Y-19.329 E0.09903
G1 X-12.157 Y-15.592 E0.49386
G1 X-11.222 Y-15.718 E0.08810
G1 X-15.893 Y-20.389 E0.61735
G1 X-15.893 Y-10.852 F9000.000
G1 X-12.362 Y-7.321 E0.46667 F900.000
G1 X-13.422 Y-7.321 E0.09903
G1 X-15.893 Y-9.792 E0.32662
G1 X-15.893 Y-8.733 E0.09903
G1 X-14.482 Y-7.321 E0.18658
G1 X-15.541 Y-7.321 E0.09903
G1 X-15.893 Y-7.673 E0.04653
G1 E-3.20000 F3000.00000
G1 Z0.700 F9000.000
G1 X-46.830 Y21.551 F9000.000
G1 Z0.600 F9000.000
G1 E3.20000 F3000.00000
G1 X-46.830 Y-1.978 E1.27838 F1800.000
G1 X31.238 Y-1.978 E4.24164
G1 X32.130 Y-1.978 E0.04846 F1800.000
G1 X46.368 Y12.260 E1.09403
G1 X32.949 Y20.007 E0.84188
G1 X33.840 Y21.551 E0.09682
G1 X-46.770 Y21.551 E4.37976
G1 X-46.770 Y21.986 F9000.000
G1 X-47.266 Y21.986 E0.02693 F1800.000
G1 X-47.266 Y-2.414 E1.32572
G1 X31.238 Y-2.414 E4.26531
G1 X32.310 Y-2.414 E0.05826 F1800.000
G1 X47.077 Y12.353 E1.13468
G1 X33.544 Y20.167 E0.84906
G1 X34.594 Y21.986 E0.11415
G1 X-46.710 Y21.986 E4.41749
G1 X-46.970 Y21.640 F9000.000
G1 X-46.348 Y-1.720 F9000.000
