; generated by Slic3r 1.2.9 on 2017-01-09 at 15:22:59

; external perimeters extrusion width = 0.50mm
; perimeters extrusion width = 0.50mm
; infill extrusion width = 0.50mm
; solid infill extrusion width = 0.50mm
; top infill extrusion width = 0.50mm

M107
;Basic settings: Layer height: {layer_height} Walls: {wall_thickness} Fill: {fill_density}
;Print time: {print_time}
;Filament used: {filament_amount}m {filament_weight}g
;Filament cost: {filament_cost}
;M190 S{print_bed_temperature} ;Uncomment to add your own bed temperature line
;M109 S{print_temperature} ;Uncomment to add your own temperature line
G21        ;metric values
G90        ;absolute positioning
M83
G10 P0 S200
T0
M116


G21 ; set units to millimeters
G90 ; use absolute coordinates
M83 ; use relative distances for extrusion
G1 E-3.20000 F3000.00000
G1 Z0.400 F9000.000
G1 X19.686 Y0.000 F9000.000
G1 Z0.300 F9000.000
G1 E3.20000 F3000.00000
G1 X19.686 Y29.950 E2.74793 F1200.000
G1 X19.291 Y31.621 E0.15755
G1 X18.190 Y32.939 E0.15755
G1 X15.950 Y33.686 E0.21667
G1 X-14.979 Y33.686 E2.83778
G1 X-16.650 Y33.291 E0.15755
G1 X-17.621 Y32.591 E0.10975
G1 X-18.591 Y31.621 E0.12595
G1 X-19.494 Y30.160 E0.15755
G1 X-19.686 Y28.979 E0.10975
G1 X-19.686 Y-28.979 E5.31773
G1 X-19.291 Y-30.650 E0.15755
G1 X-18.591 Y-31.621 E0.10975
G1 X-17.621 Y-32.591 E0.12595
G1 X-16.160 Y-33.494 E0.15755
G1 X-14.979 Y-33.686 E0.10975
G1 X15.950 Y-33.686 E2.83778
G1 X17.621 Y-33.291 E0.15755
G1 X18.939 Y-32.190 E0.15755 F1200.000
G1 X19.686 Y-29.950 E0.21667
G1 X19.686 Y-0.060 E2.74242
G1 E-3.20000 F3000.00000
G1 Z0.700 F9000.000
G1 X6.756 Y15.656 F9000.000
G1 Z0.300 F9000.000
G1 E3.20000 F3000.00000
G1 X7.750 Y16.477 E0.11837 F900.000
G1 X8.509 Y17.522 E0.11848
G1 X8.984 Y18.724 E0.11854
G1 X9.145 Y20.000 E0.11803
G1 X8.984 Y21.276 E0.11803
G1 X8.510 Y22.477 E0.11850
G1 X7.749 Y23.525 E0.11880
G1 X6.754 Y24.345 E0.11826
G1 X5.590 Y24.893 E0.11808
G1 X4.323 Y25.135 E0.11835
G1 X3.036 Y25.054 E0.11828
G1 X1.808 Y24.655 E0.11846
G1 X0.718 Y23.962 E0.11856
G1 X-0.163 Y23.024 E0.11804
G1 X-0.784 Y21.894 E0.11834
G1 X-1.105 Y20.630 E0.11962
G1 X-1.104 Y19.355 E0.11699
G1 X-0.782 Y18.103 E0.11866
G1 X-0.163 Y16.976 E0.11796
G1 X0.713 Y16.044 E0.11735
G1 X1.822 Y15.340 E0.12048
G1 X3.036 Y14.946 E0.11717
G1 X4.312 Y14.866 E0.11725 F900.000
G1 X5.589 Y15.106 E0.11926
G1 X6.702 Y15.630 E0.11284
G1 X6.359 Y16.282 F9000.000
G1 X7.210 Y16.985 E0.10133 F900.000
G1 X7.860 Y17.879 E0.10138
G1 X8.266 Y18.908 E0.10149
G1 X8.404 Y20.000 E0.10100
G1 X8.266 Y21.092 E0.10100
G1 X7.860 Y22.120 E0.10144
G1 X7.208 Y23.017 E0.10168
G1 X6.358 Y23.719 E0.10120
G1 X5.361 Y24.188 E0.10107
G1 X4.276 Y24.395 E0.10129
G1 X3.175 Y24.326 E0.10123
G1 X2.124 Y23.984 E0.10138
G1 X1.191 Y23.391 E0.10150
G1 X0.437 Y22.588 E0.10101
G1 X-0.094 Y21.622 E0.10119
G1 X-0.369 Y20.539 E0.10255
G1 X-0.369 Y19.448 E0.10002
G1 X-0.093 Y18.376 E0.10162
G1 X0.437 Y17.412 E0.10092
G1 X1.185 Y16.615 E0.10029
G1 X2.137 Y16.011 E0.10343
G1 X3.175 Y15.674 E0.10013
G1 X4.266 Y15.606 E0.10028 F900.000
G1 X5.360 Y15.812 E0.10219
G1 X6.304 Y16.256 E0.09573
G1 X6.720 Y16.111 F9000.000
G1 X6.157 Y2.490 F9000.000
G1 X5.532 Y2.451 E0.05738 F900.000
G1 X4.938 Y2.258 E0.05738
G1 X4.410 Y1.922 E0.05738
G1 X3.981 Y1.467 E0.05738
G1 X3.680 Y0.918 E0.05738
G1 X3.525 Y0.313 E0.05738
G1 X3.525 Y-0.313 E0.05738
G1 X3.680 Y-0.918 E0.05738
G1 X3.981 Y-1.467 E0.05738
G1 X4.410 Y-1.922 E0.05738
G1 X4.938 Y-2.258 E0.05738
G1 X5.532 Y-2.451 E0.05738
G1 X6.157 Y-2.490 E0.05738 F900.000
G1 X6.771 Y-2.373 E0.05738
G1 X7.337 Y-2.107 E0.05738
G1 X7.819 Y-1.708 E0.05738
G1 X8.186 Y-1.202 E0.05738
G1 X8.417 Y-0.620 E0.05738
G1 X8.495 Y0.000 E0.05738
G1 X8.417 Y0.620 E0.05738
G1 X8.186 Y1.202 E0.05738
G1 X7.819 Y1.708 E0.05738
G1 X7.337 Y2.107 E0.05738
G1 X6.771 Y2.373 E0.05738
G1 X6.216 Y2.479 E0.05188
G1 X6.110 Y1.750 F9000.000
G1 X5.671 Y1.723 E0.04033 F900.000
G1 X5.253 Y1.587 E0.04033
G1 X4.882 Y1.351 E0.04033
G1 X4.581 Y1.031 E0.04033
G1 X4.370 Y0.646 E0.04033
G1 X4.260 Y0.220 E0.04033
G1 X4.260 Y-0.220 E0.04033
G1 X4.370 Y-0.646 E0.04033
G1 X4.581 Y-1.031 E0.04033
G1 X4.882 Y-1.351 E0.04033
G1 X5.253 Y-1.587 E0.04033
G1 X5.671 Y-1.723 E0.04033
G1 X6.110 Y-1.750 E0.04033 F900.000
G1 X6.542 Y-1.668 E0.04033
G1 X6.940 Y-1.481 E0.04033
G1 X7.278 Y-1.200 E0.04033
G1 X7.537 Y-0.845 E0.04033
G1 X7.698 Y-0.436 E0.04033
G1 X7.754 Y0.000 E0.04033
G1 X7.698 Y0.436 E0.04033
G1 X7.537 Y0.845 E0.04033
G1 X7.278 Y1.200 E0.04033
G1 X6.940 Y1.481 E0.04033
G1 X6.542 Y1.668 E0.04033
G1 X6.169 Y1.739 E0.03482
G1 X5.917 Y2.101 F9000.000
G1 E-3.20000 F3000.00000
G1 Z0.700 F9000.000
G1 X4.325 Y-14.866 F9000.000
G1 Z0.300 F9000.000
G1 E3.20000 F3000.00000
G1 X3.037 Y-14.946 E0.11845 F900.000
G1 X1.808 Y-15.345 E0.11850
G1 X0.718 Y-16.038 E0.11860
G1 X-0.163 Y-16.976 E0.11799
G1 X-0.782 Y-18.102 E0.11796
G1 X-1.102 Y-19.345 E0.11770
G1 X-1.102 Y-20.657 E0.12040
G1 X-0.783 Y-21.896 E0.11735
G1 X-0.163 Y-23.024 E0.11817
G1 X0.718 Y-23.962 E0.11804
G1 X1.808 Y-24.655 E0.11856
G1 X3.036 Y-25.054 E0.11846
G1 X4.323 Y-25.135 E0.11828 F900.000
G1 X5.590 Y-24.893 E0.11835
G1 X6.754 Y-24.345 E0.11808
G1 X7.749 Y-23.525 E0.11826
G1 X8.510 Y-22.477 E0.11880
G1 X8.984 Y-21.276 E0.11850
G1 X9.145 Y-20.000 E0.11803
G1 X8.984 Y-18.724 E0.11803
G1 X8.509 Y-17.521 E0.11868
G1 X7.741 Y-16.470 E0.11937
G1 X6.761 Y-15.659 E0.11671
G1 X5.591 Y-15.107 E0.11877
G1 X4.384 Y-14.877 E0.11270
G1 X4.278 Y-15.606 F9000.000
G1 X3.175 Y-15.674 E0.10140 F900.000
G1 X2.124 Y-16.016 E0.10140
G1 X1.190 Y-16.609 E0.10155
G1 X0.437 Y-17.412 E0.10096
G1 X-0.093 Y-18.376 E0.10094
G1 X-0.367 Y-19.438 E0.10064
G1 X-0.366 Y-20.564 E0.10330
G1 X-0.094 Y-21.622 E0.10031
G1 X0.437 Y-22.588 E0.10113
G1 X1.191 Y-23.391 E0.10101
G1 X2.124 Y-23.984 E0.10151
G1 X3.175 Y-24.326 E0.10138
G1 X4.276 Y-24.395 E0.10123 F900.000
G1 X5.361 Y-24.188 E0.10129
G1 X6.358 Y-23.719 E0.10107
G1 X7.208 Y-23.017 E0.10120
G1 X7.860 Y-22.120 E0.10168
G1 X8.266 Y-21.092 E0.10144
G1 X8.404 Y-20.000 E0.10100
G1 X8.266 Y-18.908 E0.10100
G1 X7.859 Y-17.879 E0.10154
G1 X7.202 Y-16.978 E0.10229
G1 X6.364 Y-16.285 E0.09979
G1 X5.361 Y-15.812 E0.10171
G1 X4.337 Y-15.617 E0.09563
G1 X4.086 Y-15.255 F9000.000
G1 X-14.814 Y6.154 F9000.000
G1 X-14.814 Y-28.509 E3.18035 F900.000
G1 X-14.509 Y-28.814 E0.03964
G1 X14.814 Y-28.814 E2.69043
G1 X14.814 Y28.814 E5.28747
G1 X-14.509 Y28.814 E2.69043 F900.000
G1 X-14.814 Y28.509 E0.03964
G1 X-14.814 Y6.214 E2.04556
G1 X-15.550 Y6.214 F9000.000
G1 X-15.550 Y-28.814 E3.21381 F900.000
G1 X-14.814 Y-29.550 E0.09555
G1 X15.550 Y-29.550 E2.78588
G1 X15.550 Y29.550 E5.42246
G1 X-14.814 Y29.550 E2.78588 F900.000
G1 X-15.550 Y28.814 E0.09555
G1 X-15.550 Y6.274 E2.06801
G1 X-15.204 Y6.014 F9000.000
G1 X-1.105 Y22.438 F9000.000
G1 X-14.365 Y9.178 E1.73053 F900.000
G1 X-14.365 Y8.132 E0.09656
G1 X-1.527 Y20.971 E1.67557
G1 X-1.554 Y19.897 E0.09910
G1 X-14.365 Y7.086 E1.67202
G1 X-14.365 Y6.039 E0.09656
G1 X-1.434 Y18.970 E1.68763
G1 X-1.220 Y18.138 E0.07931
G1 X-14.365 Y4.993 E1.71556
G1 X-14.365 Y3.946 E0.09656
G1 X-0.869 Y17.443 E1.76145
G1 X-0.496 Y16.769 E0.07106
G1 X-14.365 Y2.900 E1.81004
G1 X-14.365 Y1.854 E0.09656
G1 X0.011 Y16.229 E1.87617
G1 X0.527 Y15.700 E0.06829
G1 X-14.365 Y0.807 E1.94359
G1 X-14.365 Y-0.239 E0.09656
G1 X1.167 Y15.294 E2.02716
G1 X1.829 Y14.908 E0.07062
G1 X-14.365 Y-1.285 E2.11346
G1 X-14.365 Y-2.332 E0.09656
G1 X2.618 Y14.652 E2.21654
G1 X3.490 Y14.477 E0.08201
G1 X-14.365 Y-3.378 E2.33024
G1 X-14.365 Y-4.425 E0.09656
G1 X4.474 Y14.415 E2.45872
G1 X5.754 Y14.648 E0.12001
G1 X-14.365 Y-5.471 E2.62569
G1 X-14.365 Y-6.517 E0.09656
G1 X14.365 Y22.213 E3.74960
G1 X14.365 Y21.167 E0.09656
G1 X-14.365 Y-7.564 E3.74960
G1 X-14.365 Y-8.610 E0.09656
G1 X14.365 Y20.120 E3.74960
G1 X14.365 Y19.074 E0.09656
G1 X-14.365 Y-9.656 E3.74960
G1 X-14.365 Y-10.703 E0.09656
G1 X14.365 Y18.028 E3.74960
G1 X14.365 Y16.981 E0.09656
G1 X-14.365 Y-11.749 E3.74960
G1 X-14.365 Y-12.796 E0.09656
G1 X14.365 Y15.935 E3.74960
G1 X14.365 Y14.888 E0.09656
G1 X-14.365 Y-13.842 E3.74960
G1 X-14.365 Y-14.888 E0.09656
G1 X14.365 Y13.842 E3.74960
G1 X14.365 Y4.425 F9000.000
G1 X8.746 Y-1.194 E0.73334 F900.000
G1 X8.925 Y0.031 E0.11431
G1 X14.365 Y5.471 E0.70994
G1 X14.365 Y6.517 E0.09656
G1 X8.742 Y0.894 E0.73393
G1 X8.387 Y1.585 E0.07173
G1 X14.365 Y7.564 E0.78025
G1 X14.365 Y8.610 E0.09656
G1 X7.898 Y2.143 E0.84404
G1 X7.281 Y2.572 E0.06937
G1 X14.365 Y9.657 E0.92455
G1 X14.365 Y10.703 E0.09656
G1 X6.515 Y2.852 E1.02459
G1 X5.527 Y2.911 E0.09133
G1 X14.365 Y11.749 E1.15352
G1 X14.365 Y12.796 E0.09656
G1 X-14.365 Y-15.935 E3.74960
G1 X-14.365 Y-16.981 E0.09656
G1 X3.075 Y0.460 E2.27617
G1 X3.148 Y-0.515 E0.09014
G1 X-14.365 Y-18.027 E2.28560
G1 X-14.365 Y-19.074 E0.09656
G1 X3.430 Y-1.279 E2.32239
G1 X3.858 Y-1.897 E0.06939
G1 X-14.365 Y-20.120 E2.37831
G1 X-14.365 Y-21.167 E0.09656
G1 X4.414 Y-2.387 E2.45090
G1 X5.106 Y-2.742 E0.07173
G1 X-14.365 Y-22.213 E2.54117
G1 X-14.365 Y-23.259 E0.09656
G1 X5.975 Y-2.919 E2.65458
G1 X7.168 Y-2.772 E0.11096
G1 X-14.365 Y-24.306 E2.81033
G1 X-14.365 Y-25.352 E0.09656
G1 X14.365 Y3.378 E3.74960
G1 X14.365 Y2.332 E0.09656
G1 X-14.365 Y-26.398 E3.74960
G1 X-14.365 Y-27.445 E0.09656
G1 X14.365 Y1.285 E3.74960
G1 X14.365 Y0.239 E0.09656
G1 X-14.239 Y-28.365 E3.73314
G1 X-13.193 Y-28.365 E0.09656
G1 X14.365 Y-0.807 E3.59658
G1 X14.365 Y-1.854 E0.09656
G1 X1.056 Y-15.163 E1.73695
G1 X2.761 Y-14.504 F9000.000
G1 X14.365 Y-2.900 E1.51446 F900.000
G1 X14.365 Y-3.946 E0.09656
G1 X3.878 Y-14.433 E1.36864
G1 X4.827 Y-14.531 E0.08802
G1 X14.365 Y-4.993 E1.24481
G1 X14.365 Y-6.039 E0.09656
G1 X5.690 Y-14.714 E1.13216
G1 X6.401 Y-15.050 E0.07254
G1 X14.365 Y-7.086 E1.03939
G1 X14.365 Y-8.132 E0.09656
G1 X7.077 Y-15.420 E0.95118
G1 X7.650 Y-15.894 E0.06859
G1 X14.365 Y-9.178 E0.87644
G1 X14.365 Y-10.225 E0.09656
G1 X8.178 Y-16.412 E0.80746
G1 X8.620 Y-17.016 E0.06910
G1 X14.365 Y-11.271 E0.74981
G1 X14.365 Y-12.317 E0.09656
G1 X9.004 Y-17.678 E0.69965
G1 X9.301 Y-18.428 E0.07442
G1 X14.365 Y-13.364 E0.66098
G1 X14.365 Y-14.410 E0.09656
G1 X9.489 Y-19.286 E0.63633
G1 X9.590 Y-20.232 E0.08779
G1 X14.365 Y-15.457 E0.62323
G1 X14.365 Y-16.503 E0.09656
G1 X9.439 Y-21.430 E0.64298
G1 X8.625 Y-23.289 F9000.000
G1 X14.365 Y-17.549 E0.74911 F900.000
G1 X14.365 Y-18.596 E0.09656
G1 X4.596 Y-28.365 E1.27502
G1 X5.642 Y-28.365 E0.09656
G1 X14.365 Y-19.642 E1.13845
G1 X14.365 Y-20.688 E0.09656
G1 X6.688 Y-28.365 E1.00189
G1 X7.735 Y-28.365 E0.09656
G1 X14.365 Y-21.735 E0.86533
G1 X14.365 Y-22.781 E0.09656
G1 X8.781 Y-28.365 E0.72877
G1 X9.828 Y-28.365 E0.09656
G1 X14.365 Y-23.828 E0.59220
G1 X14.365 Y-24.874 E0.09656
G1 X10.874 Y-28.365 E0.45564
G1 X11.920 Y-28.365 E0.09656
G1 X14.365 Y-25.920 E0.31908
G1 X14.365 Y-26.967 E0.09656
G1 X12.967 Y-28.365 E0.18251
G1 X14.013 Y-28.365 E0.09656
G1 X14.365 Y-28.013 E0.04595
G1 X7.186 Y-24.729 F9000.000
G1 X3.549 Y-28.365 E0.47458 F900.000
G1 X2.503 Y-28.365 E0.09656
G1 X5.460 Y-25.408 E0.38593
G1 X4.251 Y-25.571 E0.11262
G1 X1.457 Y-28.365 E0.36466
G1 X0.410 Y-28.365 E0.09656
G1 X3.266 Y-25.509 E0.37274
G1 X2.439 Y-25.290 E0.07896
G1 X-0.636 Y-28.365 E0.40137
G1 X-1.683 Y-28.365 E0.09656
G1 X1.660 Y-25.023 E0.43623
G1 X1.020 Y-24.616 E0.06996
G1 X-2.729 Y-28.365 E0.48930
G1 X-3.775 Y-28.365 E0.09656
G1 X0.402 Y-24.188 E0.54520
G1 X-0.105 Y-23.648 E0.06832
G1 X-4.822 Y-28.365 E0.61562
G1 X-5.868 Y-28.365 E0.09656
G1 X-0.582 Y-23.079 E0.68993
G1 X-0.953 Y-22.404 E0.07111
G1 X-6.914 Y-28.365 E0.77805
G1 X-7.961 Y-28.365 E0.09656
G1 X-1.269 Y-21.673 E0.87333
G1 X-1.483 Y-20.841 E0.07931
G1 X-9.007 Y-28.365 E0.98196
G1 X-10.054 Y-28.365 E0.09656
G1 X-1.551 Y-19.863 E1.10964
G1 X-1.449 Y-18.714 E0.10642
G1 X-11.100 Y-28.365 E1.25955
G1 X-12.146 Y-28.365 E0.09656
G1 X-0.815 Y-17.034 E1.47883
G1 E-3.20000 F3000.00000
G1 Z0.700 F9000.000
G1 X1.563 Y25.106 F9000.000
G1 Z0.300 F9000.000
G1 E3.20000 F3000.00000
G1 X4.822 Y28.365 E0.42530 F900.000
G1 X5.868 Y28.365 E0.09656
G1 X3.016 Y25.513 E0.37223
G1 X4.133 Y25.583 E0.10325
G1 X6.914 Y28.365 E0.36306
G1 X7.961 Y28.365 E0.09656
G1 X5.027 Y25.431 E0.38292
G1 X5.852 Y25.210 E0.07882
G1 X9.007 Y28.365 E0.41182
G1 X10.054 Y28.365 E0.09656
G1 X6.563 Y24.875 E0.45552
G1 X7.207 Y24.472 E0.07007
G1 X11.100 Y28.365 E0.50809
G1 X12.146 Y28.365 E0.09656
G1 X7.780 Y23.999 E0.56984
G1 X8.280 Y23.452 E0.06835
G1 X13.193 Y28.365 E0.64116
G1 X14.239 Y28.365 E0.09656
G1 X8.720 Y22.846 E0.72026
G1 X9.072 Y22.151 E0.07187
G1 X14.365 Y27.445 E0.69087
G1 X14.365 Y26.399 E0.09656
G1 X9.368 Y21.401 E0.65220
G1 X9.516 Y20.503 E0.08400
G1 X14.365 Y25.352 E0.63285
G1 X14.365 Y24.306 E0.09656
G1 X9.555 Y19.496 E0.62772
G1 X9.352 Y18.246 E0.11688
G1 X14.365 Y23.259 E0.65429
G1 X3.775 Y28.365 F9000.000
G1 X-14.365 Y10.225 E2.36751 F900.000
G1 X-14.365 Y11.271 E0.09656
G1 X2.729 Y28.365 E2.23095
G1 X1.683 Y28.365 E0.09656
G1 X-14.365 Y12.317 E2.09438
G1 X-14.365 Y13.364 E0.09656
G1 X0.636 Y28.365 E1.95782
G1 X-0.410 Y28.365 E0.09656
G1 X-14.365 Y14.410 E1.82126
G1 X-14.365 Y15.457 E0.09656
G1 X-1.457 Y28.365 E1.68470
G1 X-2.503 Y28.365 E0.09656
G1 X-14.365 Y16.503 E1.54813
G1 X-14.365 Y17.549 E0.09656
G1 X-3.549 Y28.365 E1.41157
G1 X-4.596 Y28.365 E0.09656
G1 X-14.365 Y18.596 E1.27501
G1 X-14.365 Y19.642 E0.09656
G1 X-5.642 Y28.365 E1.13845
G1 X-6.688 Y28.365 E0.09656
G1 X-14.365 Y20.688 E1.00188
G1 X-14.365 Y21.735 E0.09656
G1 X-7.735 Y28.365 E0.86532
G1 X-8.781 Y28.365 E0.09656
G1 X-14.365 Y22.781 E0.72876
G1 X-14.365 Y23.828 E0.09656
G1 X-9.828 Y28.365 E0.59220
G1 X-10.874 Y28.365 E0.09656
G1 X-14.365 Y24.874 E0.45563
G1 X-14.365 Y25.920 E0.09656
G1 X-11.920 Y28.365 E0.31907
G1 X-12.967 Y28.365 E0.09656
G1 X-14.365 Y26.967 E0.18251
G1 X-14.365 Y28.013 E0.09656
G1 X-14.013 Y28.365 E0.04594
G1 E-3.20000 F3000.00000
G1 Z0.700 F9000.000
G1 X-0.356 Y21.740 F9000.000
G1 Z0.600 F9000.000
G1 E3.20000 F3000.00000
G1 X-0.656 Y20.560 E0.06619 F1800.000
G1 X-0.653 Y19.406 E0.06271
G1 X-0.361 Y18.271 E0.06365
G1 X0.210 Y17.236 E0.06426
G1 X0.993 Y16.402 E0.06211
G1 X2.028 Y15.746 E0.06658
G1 X3.112 Y15.394 E0.06193
G1 X4.272 Y15.318 E0.06319 F1800.000
G1 X5.460 Y15.542 E0.06568
G1 X6.512 Y16.038 E0.06320
G1 X7.418 Y16.787 E0.06383
G1 X8.114 Y17.744 E0.06431
G1 X8.546 Y18.841 E0.06403
G1 X8.691 Y20.000 E0.06348
G1 X8.546 Y21.159 E0.06348
G1 X8.114 Y22.255 E0.06401
G1 X7.422 Y23.209 E0.06400
G1 X6.508 Y23.964 E0.06442
G1 X5.465 Y24.455 E0.06266
G1 X4.287 Y24.682 E0.06517
G1 X3.118 Y24.607 E0.06368
G1 X2.004 Y24.246 E0.06359
G1 X1.003 Y23.609 E0.06447
G1 X0.207 Y22.760 E0.06323
G1 X-0.327 Y21.793 E0.06004
G1 X0.054 Y21.582 F9000.000
G1 X-0.220 Y20.506 E0.06037 F1800.000
G1 X-0.218 Y19.461 E0.05676
G1 X0.047 Y18.433 E0.05768
G1 X0.565 Y17.494 E0.05829
G1 X1.273 Y16.741 E0.05614
G1 X2.215 Y16.144 E0.06060
G1 X3.195 Y15.825 E0.05599
G1 X4.246 Y15.756 E0.05724 F1800.000
G1 X5.325 Y15.960 E0.05966
G1 X6.277 Y16.409 E0.05720
G1 X7.098 Y17.087 E0.05786
G1 X7.729 Y17.956 E0.05830
G1 X8.120 Y18.949 E0.05804
G1 X8.252 Y20.000 E0.05753
G1 X8.120 Y21.051 E0.05753
G1 X7.729 Y22.044 E0.05803
G1 X7.102 Y22.908 E0.05800
G1 X6.273 Y23.593 E0.05842
G1 X5.329 Y24.038 E0.05670
G1 X4.259 Y24.244 E0.05918
G1 X3.200 Y24.176 E0.05768
G1 X2.191 Y23.849 E0.05760
G1 X1.284 Y23.271 E0.05847
G1 X0.562 Y22.502 E0.05729
G1 X0.083 Y21.635 E0.05382
G1 X-0.338 Y21.507 F9000.000
G1 E-3.20000 F3000.00000
G1 Z1.000 F9000.000
G1 X5.591 Y1.997 F9000.000
G1 Z0.600 F9000.000
G1 E3.20000 F3000.00000
G1 X5.131 Y1.847 E0.02628 F1800.000
G1 X4.694 Y1.570 E0.02810
G1 X4.335 Y1.175 E0.02900
G1 X4.102 Y0.752 E0.02628
G1 X3.975 Y0.256 E0.02780
G1 X3.975 Y-0.256 E0.02780
G1 X4.102 Y-0.752 E0.02780
G1 X4.348 Y-1.200 E0.02780
G1 X4.699 Y-1.573 E0.02780
G1 X5.135 Y-1.850 E0.02810
G1 X5.645 Y-2.007 E0.02900
G1 X6.128 Y-2.037 E0.02628 F1800.000
G1 X6.631 Y-1.942 E0.02780
G1 X7.094 Y-1.724 E0.02780
G1 X7.488 Y-1.397 E0.02780
G1 X7.789 Y-0.983 E0.02780
G1 X7.977 Y-0.508 E0.02780
G1 X8.042 Y0.005 E0.02810
G1 X7.967 Y0.534 E0.02900
G1 X7.789 Y0.983 E0.02628
G1 X7.488 Y1.397 E0.02780
G1 X7.094 Y1.724 E0.02780
