; generated by Slic3r 1.2.9 on 2016-12-20 at 18:08:29

; external perimeters extrusion width = 0.50mm
; perimeters extrusion width = 0.50mm
; infill extrusion width = 0.50mm
; solid infill extrusion width = 0.50mm
; top infill extrusion width = 0.50mm

M107
;Basic settings: Layer height: {layer_height} Walls: {wall_thickness} Fill: {fill_density}
;Print time: {print_time}
;Filament used: {filament_amount}m {filament_weight}g
;Filament cost: {filament_cost}
;M190 S{print_bed_temperature} ;Uncomment to add your own bed temperature line
;M109 S{print_temperature} ;Uncomment to add your own temperature line
G21        ;metric values
G90        ;absolute positioning
M83
G10 P0 S200
T0
M116


G21 ; set units to millimeters
G90 ; use absolute coordinates
M83 ; use relative distances for extrusion
G1 E-3.20000 F3000.00000
G1 Z0.400 F9000.000
G1 X-19.536 Y0.000 F9000.000
G1 Z0.300 F9000.000
G1 E3.20000 F3000.00000
G1 X-19.536 Y-31.950 E2.93144 F1200.000
G1 X-19.141 Y-33.621 E0.15755
G1 X-18.040 Y-34.939 E0.15755
G1 X-15.800 Y-35.686 E0.21665
G1 X15.950 Y-35.686 E2.91308
G1 X17.621 Y-35.291 E0.15755
G1 X18.939 Y-34.190 E0.15755 F1200.000
G1 X19.686 Y-31.950 E0.21667
G1 X19.686 Y27.950 E5.49586
G1 X19.291 Y29.621 E0.15755
G1 X17.803 Y31.193 E0.19859
G1 X10.803 Y35.193 E0.73972
G1 X8.950 Y35.686 E0.17594
G1 X-0.950 Y35.686 E0.90833
G1 X-1.922 Y35.557 E0.08992
G1 X-16.772 Y31.557 E1.41106
G1 X-18.283 Y30.741 E0.15755
G1 X-19.269 Y29.336 E0.15755
G1 X-19.536 Y27.950 E0.12947
G1 X-19.536 Y0.060 E2.55894
G1 E-3.20000 F3000.00000
G1 Z0.700 F9000.000
G1 X-9.450 Y-5.550 F9000.000
G1 Z0.300 F9000.000
G1 E3.20000 F3000.00000
G1 X-9.450 Y-8.450 E0.26608 F900.000
G1 X-0.550 Y-8.450 E0.81658 F900.000
G1 X-0.550 Y-5.550 E0.26608
G1 X-9.390 Y-5.550 E0.81107
G1 X-9.850 Y-5.550 F9000.000
G1 E-3.20000 F3000.00000
G1 Z0.700 F9000.000
G1 X0.739 Y12.732 F9000.000
G1 Z0.300 F9000.000
G1 E3.20000 F3000.00000
G1 X2.173 Y12.080 E0.14451 F900.000
G1 X3.722 Y11.811 E0.14422 F900.000
G1 X5.287 Y11.940 E0.14416
G1 X6.771 Y12.459 E0.14417
G1 X8.093 Y13.351 E0.14638
G1 X9.035 Y14.413 E0.13027
G1 X9.175 Y14.613 E0.02234
G1 X9.839 Y15.931 E0.13542
G1 X10.170 Y17.450 E0.14263
G1 X10.114 Y18.959 E0.13856
G1 X9.663 Y20.514 E0.14858
G1 X8.844 Y21.862 E0.14464
G1 X7.715 Y22.959 E0.14447
G1 X6.290 Y23.754 E0.14971
G1 X4.756 Y24.147 E0.14529
G1 X3.257 Y24.147 E0.13755
G1 X1.655 Y23.734 E0.15178
G1 X0.308 Y22.971 E0.14203
G1 X-0.431 Y22.321 E0.09036
G1 X-1.044 Y21.587 E0.08767
G1 X-1.536 Y20.768 E0.08767
G1 X-1.896 Y19.883 E0.08767
G1 X-2.116 Y18.951 E0.08781
G1 X-2.191 Y17.952 E0.09192
G1 X-1.994 Y16.435 E0.14042
G1 X-1.416 Y14.991 E0.14266
G1 X-0.439 Y13.687 E0.14950
G1 X0.692 Y12.770 E0.13365
G1 X1.129 Y13.363 F9000.000
G1 X2.392 Y12.789 E0.12725 F900.000
G1 X3.755 Y12.552 E0.12696 F900.000
G1 X5.133 Y12.665 E0.12690
G1 X6.438 Y13.122 E0.12681
G1 X7.605 Y13.909 E0.12912
G1 X8.457 Y14.870 E0.11783
G1 X8.542 Y14.991 E0.01358
G1 X9.140 Y16.179 E0.12205
G1 X9.432 Y17.516 E0.12554
G1 X9.383 Y18.841 E0.12168
G1 X8.984 Y20.216 E0.13132
G1 X8.265 Y21.399 E0.12707
G1 X7.272 Y22.363 E0.12697
G1 X6.015 Y23.065 E0.13207
G1 X4.663 Y23.411 E0.12803
G1 X3.350 Y23.412 E0.12047
G1 X1.933 Y23.046 E0.13426
G1 X0.737 Y22.368 E0.12614
G1 X0.097 Y21.806 E0.07820
G1 X-0.442 Y21.159 E0.07722
G1 X-0.876 Y20.438 E0.07722
G1 X-1.193 Y19.658 E0.07722
G1 X-1.386 Y18.839 E0.07727
G1 X-1.451 Y17.972 E0.07971
G1 X-1.276 Y16.622 E0.12497
G1 X-0.769 Y15.355 E0.12524
G1 X0.095 Y14.201 E0.13223
G1 X1.082 Y13.401 E0.11662
G1 X1.134 Y12.963 F9000.000
G1 X-3.314 Y5.186 F9000.000
G1 X-6.686 Y5.186 E0.30931 F900.000
G1 X-6.686 Y0.814 E0.40106
G1 X-3.314 Y0.814 E0.30931 F900.000
G1 X-3.314 Y5.126 E0.39556
G1 X-4.050 Y4.450 F9000.000
G1 X-5.950 Y4.450 E0.17433 F900.000
G1 X-5.950 Y1.550 E0.26608
G1 X-4.050 Y1.550 E0.17433 F900.000
G1 X-4.050 Y4.390 E0.26057
G1 X-4.050 Y4.850 F9000.000
G1 X14.814 Y7.188 F9000.000
G1 X14.814 Y26.814 E1.80076 F900.000
G1 X7.814 Y26.814 E0.64225
G1 X7.814 Y30.814 E0.36700
G1 X0.186 Y30.814 E0.69994
G1 X0.186 Y26.814 E0.36700
G1 X-14.664 Y26.814 E1.36250
G1 X-14.664 Y16.186 E0.97519
G1 X-4.814 Y16.186 E0.90374
G1 X-4.814 Y5.814 E0.95157
G1 X-10.314 Y5.814 E0.50463
G1 X-10.314 Y-4.814 E0.97519
G1 X0.186 Y-4.814 E0.96338
G1 X0.186 Y-9.186 E0.40106
G1 X-10.314 Y-9.186 E0.96338
G1 X-10.314 Y-9.814 E0.05769
G1 X-4.814 Y-9.814 E0.50463
G1 X-4.814 Y-20.186 E0.95157
G1 X-14.664 Y-20.186 E0.90374
G1 X-14.664 Y-30.814 E0.97519
G1 X-2.186 Y-30.814 E1.14493
G1 X-2.186 Y-12.814 E1.65151
G1 X10.186 Y-12.814 E1.13507 F900.000
G1 X10.186 Y-30.814 E1.65151
G1 X14.814 Y-30.814 E0.42469
G1 X14.814 Y7.128 E3.48120
G1 X9.450 Y-13.550 F9000.000
G1 X-1.450 Y-13.550 E1.00008 F900.000
G1 X-1.450 Y-30.450 E1.55058
G1 X9.450 Y-30.450 E1.00008 F900.000
G1 X9.450 Y-13.610 E1.54508
G1 X9.450 Y-13.150 F9000.000
G1 X15.550 Y-13.610 F9000.000
G1 X15.550 Y27.550 E3.77645 F900.000
G1 X8.550 Y27.550 E0.64225 F900.000
G1 X8.550 Y31.550 E0.36700
G1 X-0.550 Y31.550 E0.83493
G1 X-0.550 Y27.550 E0.36700
G1 X-15.400 Y27.550 E1.36250
G1 X-15.400 Y15.450 E1.11018
G1 X-5.550 Y15.450 E0.90374
G1 X-5.550 Y6.550 E0.81658
G1 X-11.050 Y6.550 E0.50463
G1 X-11.050 Y-10.550 E1.56893
G1 X-5.550 Y-10.550 E0.50463
G1 X-5.550 Y-19.450 E0.81658
G1 X-15.400 Y-19.450 E0.90374
G1 X-15.400 Y-31.550 E1.11018
G1 X15.550 Y-31.550 E2.83968
G1 X15.550 Y-13.670 E1.64050
G1 X15.204 Y-13.410 F9000.000
G1 X10.635 Y-12.853 F9000.000
G1 X14.365 Y-9.123 E0.48599 F900.000
G1 X14.365 Y-10.167 E0.09622
G1 X10.635 Y-13.897 E0.48599
G1 X10.635 Y-14.942 E0.09622
G1 X14.365 Y-11.212 E0.48599
G1 X14.365 Y-12.256 E0.09622
G1 X10.635 Y-15.986 E0.48599
G1 X10.635 Y-17.031 E0.09622
G1 X14.365 Y-13.301 E0.48599
G1 X14.365 Y-14.345 E0.09622
G1 X10.635 Y-18.076 E0.48599
G1 X10.635 Y-19.120 E0.09622
G1 X14.365 Y-15.390 E0.48599
G1 X14.365 Y-16.434 E0.09622
G1 X10.635 Y-20.165 E0.48599
G1 X10.635 Y-21.209 E0.09622
G1 X14.365 Y-17.479 E0.48599
G1 X14.365 Y-18.523 E0.09622
G1 X10.635 Y-22.254 E0.48599
G1 X10.635 Y-23.298 E0.09622
G1 X14.365 Y-19.568 E0.48599
G1 X14.365 Y-20.612 E0.09622
G1 X10.635 Y-24.343 E0.48599
G1 X10.635 Y-25.387 E0.09622
G1 X14.365 Y-21.657 E0.48599
G1 X14.365 Y-22.701 E0.09622
G1 X10.635 Y-26.432 E0.48599
G1 X10.635 Y-27.476 E0.09622
G1 X14.365 Y-23.746 E0.48599
G1 X14.365 Y-24.790 E0.09622
G1 X10.635 Y-28.521 E0.48599
G1 X10.635 Y-29.565 E0.09622
G1 X14.365 Y-25.835 E0.48599
G1 X14.365 Y-26.880 E0.09622
G1 X10.879 Y-30.365 E0.45411
G1 X11.924 Y-30.365 E0.09622
G1 X14.365 Y-27.924 E0.31803
G1 X14.365 Y-28.969 E0.09622
G1 X12.969 Y-30.365 E0.18195
G1 X14.013 Y-30.365 E0.09622
G1 X14.365 Y-30.013 E0.04587
G1 X-3.744 Y-30.365 F9000.000
G1 X-2.635 Y-29.256 E0.14448 F900.000
G1 X-2.635 Y-28.212 E0.09622
G1 X-4.788 Y-30.365 E0.28056
G1 X-5.833 Y-30.365 E0.09622
G1 X-2.635 Y-27.167 E0.41664
G1 X-2.635 Y-26.123 E0.09622
G1 X-6.877 Y-30.365 E0.55272
G1 X-7.922 Y-30.365 E0.09622
G1 X-2.635 Y-25.078 E0.68880
G1 X-2.635 Y-24.034 E0.09622
G1 X-8.966 Y-30.365 E0.82488
G1 X-10.011 Y-30.365 E0.09622
G1 X-2.635 Y-22.989 E0.96096
G1 X-2.635 Y-21.944 E0.09622
G1 X-11.056 Y-30.365 E1.09704
G1 X-12.100 Y-30.365 E0.09622
G1 X-2.635 Y-20.900 E1.23312
G1 X-2.635 Y-19.855 E0.09622
G1 X-13.145 Y-30.365 E1.36920
G1 X-13.859 Y-20.635 F9000.000
G1 X-14.215 Y-20.991 E0.04634 F900.000
G1 X-14.215 Y-22.035 E0.09622
G1 X-12.815 Y-20.635 E0.18242
G1 X-11.770 Y-20.635 E0.09622
G1 X-14.215 Y-23.080 E0.31850
G1 X-14.215 Y-24.124 E0.09622
G1 X-10.726 Y-20.635 E0.45458
G1 X-9.681 Y-20.635 E0.09622
G1 X-14.215 Y-25.169 E0.59066
G1 X-14.215 Y-26.213 E0.09622
G1 X-8.637 Y-20.635 E0.72674
G1 X-7.592 Y-20.635 E0.09622
G1 X-14.215 Y-27.258 E0.86282
G1 X-14.215 Y-28.302 E0.09622
G1 X-6.548 Y-20.635 E0.99890
G1 X-5.503 Y-20.635 E0.09622
G1 X-14.215 Y-29.347 E1.13498
G1 X-14.182 Y-30.358 E0.09323
G1 X-2.635 Y-18.811 E1.50437
G1 X-2.635 Y-17.766 E0.09622
G1 X-4.365 Y-19.497 E0.22543
G1 X-4.365 Y-18.452 E0.09622
G1 X-2.635 Y-16.722 E0.22543
G1 X-2.635 Y-15.677 E0.09622
G1 X-4.365 Y-17.408 E0.22543
G1 X-4.365 Y-16.363 E0.09622
G1 X-2.635 Y-14.633 E0.22543
G1 X-2.635 Y-13.588 E0.09622
G1 X-4.365 Y-15.319 E0.22543
G1 X-4.365 Y-14.274 E0.09622
G1 X-2.635 Y-12.544 E0.22543
G1 X-3.904 Y-9.635 F9000.000
G1 X-4.365 Y-10.096 E0.06008 F900.000
G1 X-4.365 Y-11.141 E0.09622
G1 X-2.859 Y-9.635 E0.19616
G1 X-1.815 Y-9.635 E0.09622
G1 X-4.365 Y-12.185 E0.33224
G1 X-4.365 Y-13.230 E0.09622
G1 X-0.770 Y-9.635 E0.46832
G1 E-3.20000 F3000.00000
G1 Z0.700 F9000.000
G1 X-3.305 Y0.365 F9000.000
G1 Z0.300 F9000.000
G1 E3.20000 F3000.00000
G1 X-8.035 Y-4.365 E0.61626 F900.000
G1 X-9.080 Y-4.365 E0.09622
G1 X-4.349 Y0.365 E0.61626
G1 X-5.394 Y0.365 E0.09622
G1 X-9.865 Y-4.106 E0.58253
G1 X-9.865 Y-3.062 E0.09622
G1 X-6.438 Y0.365 E0.44645
G1 X-7.135 Y0.713 F9000.000
G1 X-9.865 Y-2.017 E0.35571 F900.000
G1 X-9.865 Y-0.973 E0.09622
G1 X-7.135 Y1.758 E0.35571
G1 X-7.135 Y2.802 E0.09622
G1 X-9.865 Y0.072 E0.35571
G1 X-9.865 Y1.116 E0.09622
G1 X-7.135 Y3.847 E0.35571
G1 X-7.135 Y4.891 E0.09622
G1 X-9.865 Y2.161 E0.35571
G1 X-9.865 Y3.205 E0.09622
G1 X-7.705 Y5.365 E0.28136
G1 X-8.750 Y5.365 E0.09622
G1 X-9.865 Y4.250 E0.14528
G1 X-4.302 Y5.635 F9000.000
G1 X1.851 Y11.788 E0.80169 F900.000
G1 X1.133 Y12.115 E0.07266
G1 X-4.365 Y6.616 E0.71634
G1 X-4.365 Y7.661 E0.09622
G1 X0.447 Y12.473 E0.62686
G1 X-0.131 Y12.940 E0.06841
G1 X-4.365 Y8.705 E0.55167
G1 X-4.365 Y9.750 E0.09622
G1 X-0.708 Y13.407 E0.47649
G1 X-1.158 Y14.002 E0.06868
G1 X-4.365 Y10.795 E0.41780
G1 X-4.365 Y11.839 E0.09622
G1 X-1.605 Y14.599 E0.35957
G1 X-1.966 Y15.283 E0.07122
G1 X-4.365 Y12.884 E0.31258
G1 X-4.365 Y13.928 E0.09622
G1 X-2.265 Y16.029 E0.27365
G1 X-2.482 Y16.855 E0.07876
G1 X-4.365 Y14.973 E0.24528
G1 X-4.365 Y16.017 E0.09622
G1 X-2.602 Y17.780 E0.22967
G1 X-2.587 Y18.840 E0.09767
G1 X-4.792 Y16.635 E0.28731
G1 X-5.837 Y16.635 E0.09622
G1 X-2.340 Y20.132 E0.45555
G1 X-1.188 Y22.328 F9000.000
G1 X-6.881 Y16.635 E0.74174 F900.000
G1 X-7.926 Y16.635 E0.09622
G1 X5.805 Y30.365 E1.78877
G1 X6.849 Y30.365 E0.09622
G1 X-0.243 Y23.272 E0.92403
G1 X1.813 Y24.284 F9000.000
G1 X7.365 Y29.837 E0.72335 F900.000
G1 X7.365 Y28.792 E0.09622
G1 X3.170 Y24.597 E0.54658
G1 X4.214 Y24.596 E0.09619
G1 X7.365 Y27.747 E0.41054
G1 X7.365 Y26.703 E0.09622
G1 X5.140 Y24.477 E0.28994
G1 X5.971 Y24.264 E0.07907
G1 X8.072 Y26.365 E0.27369
G1 X9.116 Y26.365 E0.09622
G1 X6.717 Y23.966 E0.31262
G1 X7.387 Y23.591 E0.07072
G1 X10.161 Y26.365 E0.36136
G1 X11.205 Y26.365 E0.09622
G1 X8.029 Y23.189 E0.41378
G1 X8.559 Y22.675 E0.06805
G1 X12.250 Y26.365 E0.48081
G1 X13.295 Y26.365 E0.09622
G1 X9.089 Y22.160 E0.54785
G1 X9.503 Y21.530 E0.06948
G1 X14.332 Y26.358 E0.62907
G1 X14.365 Y25.347 E0.09323
G1 X9.898 Y20.880 E0.58196
G1 X10.201 Y20.138 E0.07380
G1 X14.365 Y24.302 E0.54251
G1 X14.365 Y23.258 E0.09622
G1 X10.436 Y19.328 E0.51190
G1 X10.578 Y18.426 E0.08416
G1 X14.365 Y22.213 E0.49340
G1 X14.365 Y21.169 E0.09622
G1 X10.615 Y17.419 E0.48851
G1 X10.382 Y16.141 E0.11968
G1 X14.365 Y20.124 E0.51892
G1 X14.365 Y19.080 E0.09622
G1 X9.650 Y14.364 E0.61431
G1 X7.676 Y12.390 F9000.000
G1 X-2.865 Y1.849 E1.37324 F900.000
G1 X-2.865 Y2.894 E0.09622
G1 X5.832 Y11.591 E1.13301
G1 X4.617 Y11.421 E0.11296
G1 X-2.865 Y3.938 E0.97479
G1 X-2.865 Y4.983 E0.09622
G1 X3.560 Y11.408 E0.83705
G1 X2.670 Y11.563 E0.08320
G1 X-3.258 Y5.635 E0.77227
G1 X-2.865 Y0.805 F9000.000
G1 X14.365 Y18.035 E2.24475 F900.000
G1 X14.365 Y16.991 E0.09622
G1 X-6.991 Y-4.365 E2.78220
G1 X-5.946 Y-4.365 E0.09622
G1 X14.365 Y15.946 E2.64612
G1 X14.365 Y14.902 E0.09622
G1 X-4.902 Y-4.365 E2.51004
G1 X-3.857 Y-4.365 E0.09622
G1 X14.365 Y13.857 E2.37396
G1 X14.365 Y12.812 E0.09622
G1 X-2.812 Y-4.365 E2.23788
G1 X-1.768 Y-4.365 E0.09622
G1 X14.365 Y11.768 E2.10180
G1 X14.365 Y10.723 E0.09622
G1 X-0.723 Y-4.365 E1.96573
G1 X0.321 Y-4.365 E0.09622
G1 X14.365 Y9.679 E1.82965
G1 X14.365 Y8.634 E0.09622
G1 X0.635 Y-5.096 E1.78878
G1 X0.635 Y-6.141 E0.09622
G1 X14.365 Y7.590 E1.78878
G1 X14.365 Y6.545 E0.09622
G1 X0.635 Y-7.185 E1.78878
G1 X0.635 Y-8.230 E0.09622
G1 X14.365 Y5.501 E1.78878
G1 X14.365 Y4.456 E0.09622
G1 X-2.456 Y-12.365 E2.19148
G1 X-1.412 Y-12.365 E0.09622
G1 X14.365 Y3.412 E2.05540
G1 X14.365 Y2.367 E0.09622
G1 X-0.367 Y-12.365 E1.91932
G1 X0.677 Y-12.365 E0.09622
G1 X14.365 Y1.323 E1.78324
G1 X14.365 Y0.278 E0.09622
G1 X1.722 Y-12.365 E1.64716
G1 X2.766 Y-12.365 E0.09622
G1 X14.365 Y-0.766 E1.51108
G1 X14.365 Y-1.811 E0.09622
G1 X3.811 Y-12.365 E1.37500
G1 X4.855 Y-12.365 E0.09622
G1 X14.365 Y-2.855 E1.23892
G1 X14.365 Y-3.900 E0.09622
G1 X5.900 Y-12.365 E1.10284
G1 X6.944 Y-12.365 E0.09622
G1 X14.365 Y-4.944 E0.96676
G1 X14.365 Y-5.989 E0.09622
G1 X7.989 Y-12.365 E0.83068
G1 X9.034 Y-12.365 E0.09622
G1 X14.365 Y-7.034 E0.69460
G1 X14.365 Y-8.078 E0.09622
G1 X10.078 Y-12.365 E0.55852
G1 E-3.20000 F3000.00000
G1 Z0.700 F9000.000
G1 X-8.970 Y16.635 F9000.000
G1 Z0.300 F9000.000
G1 E3.20000 F3000.00000
G1 X4.760 Y30.365 E1.78877 F900.000
G1 X3.716 Y30.365 E0.09622
G1 X0.635 Y27.284 E0.40137
G1 X0.635 Y28.329 E0.09622
G1 X2.671 Y30.365 E0.26529
G1 X1.627 Y30.365 E0.09622
G1 X0.635 Y29.373 E0.12921
G1 X-0.284 Y26.365 F9000.000
G1 X-10.015 Y16.635 E1.26766 F900.000
G1 X-11.059 Y16.635 E0.09622
G1 X-1.329 Y26.365 E1.26766
G1 X-2.373 Y26.365 E0.09622
G1 X-12.104 Y16.635 E1.26766
G1 X-13.148 Y16.635 E0.09622
G1 X-3.418 Y26.365 E1.26766
G1 X-4.462 Y26.365 E0.09622
G1 X-14.193 Y16.635 E1.26766
G1 X-14.215 Y17.657 E0.09418
G1 X-5.507 Y26.365 E1.13450
G1 X-6.551 Y26.365 E0.09622
G1 X-14.215 Y18.701 E0.99842
G1 X-14.215 Y19.746 E0.09622
G1 X-7.596 Y26.365 E0.86234
G1 X-8.641 Y26.365 E0.09622
G1 X-14.215 Y20.791 E0.72626
G1 X-14.215 Y21.835 E0.09622
G1 X-9.685 Y26.365 E0.59018
G1 X-10.730 Y26.365 E0.09622
G1 X-14.215 Y22.880 E0.45410
G1 X-14.215 Y23.924 E0.09622
G1 X-11.774 Y26.365 E0.31802
G1 X-12.819 Y26.365 E0.09622
G1 X-14.215 Y24.969 E0.18194
G1 X-14.215 Y26.013 E0.09622
G1 X-13.863 Y26.365 E0.04586
G1 E-3.20000 F3000.00000
G1 Z0.700 F9000.000
G1 X-1.818 Y-31.000 F9000.000
G1 Z0.300 F9000.000
G1 E3.20000 F3000.00000
G1 X9.818 Y-31.000 E1.06757 F600.000
G1 E-3.20000 F3000.00000
G1 Z0.700 F9000.000
G1 X-10.250 Y-8.818 F9000.000
G1 Z0.300 F9000.000
G1 E3.20000 F3000.00000
G1 X-10.250 Y-5.182 E0.69633 F600.000
G1 E-3.20000 F3000.00000
G1 Z0.700 F9000.000
G1 X0.980 Y13.117 F9000.000
G1 Z0.600 F9000.000
G1 E3.20000 F3000.00000
G1 X2.324 Y12.511 E0.08010 F1800.000
G1 X3.742 Y12.264 E0.07821 F1800.000
G1 X5.193 Y12.384 E0.07912
G1 X6.565 Y12.864 E0.07895
G1 X7.676 Y13.602 E0.07248
G1 X7.849 Y13.748 E0.01230
G1 X8.627 Y14.626 E0.06372
G1 X8.831 Y14.916 E0.01927
G1 X9.313 Y15.862 E0.05771
G1 X9.428 Y16.143 E0.01646
G1 X9.719 Y17.500 E0.07541
G1 X9.674 Y18.719 E0.06632
G1 X9.663 Y18.943 E0.01219
G1 X9.246 Y20.334 E0.07890
G1 X8.490 Y21.579 E0.07912
G1 X7.446 Y22.592 E0.07904
G1 X6.227 Y23.287 E0.07620
G1 X6.004 Y23.367 E0.01291
G1 X4.872 Y23.665 E0.06361
G1 X4.592 Y23.703 E0.01531
G1 X3.447 Y23.704 E0.06223
G1 X3.130 Y23.666 E0.01734
G1 X1.796 Y23.300 E0.07516
G1 X0.570 Y22.602 E0.07665
G1 X-0.108 Y22.006 E0.04906
G1 X-0.676 Y21.325 E0.04813
G1 X-1.127 Y20.575 E0.04757
G1 X-1.466 Y19.746 E0.04865
G1 X-1.670 Y18.881 E0.04828
G1 X-1.737 Y17.937 E0.05144
G1 X-1.552 Y16.538 E0.07667
G1 X-1.031 Y15.236 E0.07621
G1 X-0.339 Y14.278 E0.06418
G1 X-0.140 Y14.025 E0.01752
G1 X0.933 Y13.155 E0.07506
G1 X1.207 Y13.494 F9000.000
G1 X2.453 Y12.930 E0.07429 F1800.000
G1 X3.762 Y12.703 E0.07219 F1800.000
G1 X5.102 Y12.813 E0.07307
G1 X6.369 Y13.257 E0.07295
G1 X7.414 Y13.951 E0.06813
G1 X7.543 Y14.061 E0.00924
G1 X8.285 Y14.896 E0.06068
G1 X8.456 Y15.141 E0.01626
G1 X8.917 Y16.044 E0.05506
G1 X9.010 Y16.272 E0.01338
G1 X9.282 Y17.538 E0.07035
G1 X9.239 Y18.701 E0.06323
G1 X9.230 Y18.869 E0.00917
G1 X8.844 Y20.156 E0.07298
G1 X8.146 Y21.305 E0.07307
G1 X7.182 Y22.241 E0.07301
G1 X6.044 Y22.889 E0.07114
G1 X5.874 Y22.951 E0.00982
G1 X4.787 Y23.237 E0.06110
G1 X4.563 Y23.267 E0.01227
G1 X3.472 Y23.268 E0.05926
G1 X3.214 Y23.237 E0.01416
G1 X1.964 Y22.894 E0.07040
G1 X0.824 Y22.245 E0.07127
G1 X0.205 Y21.701 E0.04482
