; generated by Slic3r 1.2.9 on 2018-01-18 at 10:08:10

; external perimeters extrusion width = 0.40mm
; perimeters extrusion width = 0.40mm
; infill extrusion width = 0.40mm
; solid infill extrusion width = 0.40mm
; top infill extrusion width = 0.40mm

M107
M83
T0
M116
G21 ; set units to millimeters
G90 ; use absolute coordinates
M83 ; use relative distances for extrusion
G1 E-3.50000 F1500.00000
G1 Z0.400 F15000.000
G1 X2.818 Y11.738 F15000.000
G1 Z0.300 F15000.000
G1 E3.50000 F1500.00000
G1 X-0.097 Y12.438 E0.23107 F2400.000
G1 X-1.385 Y12.512 E0.09942
G1 X-2.482 Y12.340 E0.08553
G1 X-3.751 Y11.859 E0.10457
G1 X-8.864 Y8.726 E0.46214
G1 X-9.827 Y7.867 E0.09942
G1 X-10.125 Y7.478 E0.03783
G1 X-10.481 Y6.971 E0.04772
G1 X-11.038 Y5.734 E0.10457
G1 X-12.438 Y-0.097 E0.46214
G1 X-12.512 Y-1.385 E0.09942
G1 X-12.340 Y-2.482 E0.08553
G1 X-11.859 Y-3.751 E0.10457
G1 X-8.726 Y-8.864 E0.46214
G1 X-7.867 Y-9.827 E0.09942
G1 X-7.633 Y-10.010 E0.02292
G1 X-6.971 Y-10.481 E0.06263
G1 X-5.734 Y-11.038 E0.10457
G1 X0.097 Y-12.438 E0.46214
G1 X1.385 Y-12.512 E0.09942
G1 X1.673 Y-12.477 E0.02234
G1 X2.480 Y-12.340 E0.06303 F2400.000
G1 X3.751 Y-11.859 E0.10475
G1 X8.864 Y-8.726 E0.46214
G1 X9.827 Y-7.867 E0.09942
G1 X10.010 Y-7.633 E0.02292
G1 X10.481 Y-6.971 E0.06263
G1 X11.038 Y-5.734 E0.10457
G1 X12.438 Y0.097 E0.46214
G1 X12.512 Y1.385 E0.09942
G1 X12.340 Y2.482 E0.08553
G1 X11.859 Y3.751 E0.10457
G1 X8.726 Y8.864 E0.46214
G1 X7.867 Y9.827 E0.09942
G1 X6.971 Y10.481 E0.08553
G1 X5.734 Y11.038 E0.10457
G1 X2.876 Y11.724 E0.22644
G1 E-3.50000 F1500.00000
G1 Z0.700 F15000.000
G1 X0.607 Y2.973 F15000.000
G1 Z0.300 F15000.000
G1 E3.50000 F1500.00000
G1 X0.313 Y3.050 E0.02344 F2400.000
G1 X-0.472 Y3.050 E0.06051
G1 X-1.232 Y2.852 E0.06051
G1 X-2.080 Y2.381 E0.07471
G1 X-2.080 Y-2.439 E0.37148
G1 X-1.232 Y-2.910 E0.07471
G1 X-0.472 Y-3.107 E0.06051
G1 X0.313 Y-3.107 E0.06051 F2400.000
G1 X1.073 Y-2.910 E0.06051
G1 X1.920 Y-2.439 E0.07471
G1 X1.920 Y2.381 E0.37148
G1 X1.073 Y2.852 E0.07471
G1 X0.665 Y2.958 E0.03245
G1 X0.526 Y3.266 F15000.000
G1 E-3.50000 F1500.00000
G1 Z0.700 F15000.000
G1 X-2.826 Y-4.149 F15000.000
G1 Z0.300 F15000.000
G1 E3.50000 F1500.00000
G1 X-2.583 Y-3.935 E0.02495 F2400.000
G1 X-2.138 Y-3.731 E0.03769 F2400.000
G1 X-2.183 Y-3.530 E0.01586
G1 X-2.044 Y-3.715 E0.01783
G1 X-1.712 Y-3.668 E0.02590
G1 X-1.662 Y-3.398 E0.02111
G1 X-2.076 Y-3.168 E0.03651
G1 X-2.279 Y-3.400 E0.02374
G1 X-2.256 Y-3.431 E0.00301
G1 X-2.916 Y-3.431 E0.05089
G1 X-2.945 Y-3.672 E0.01873
G1 X-3.073 Y-3.970 E0.02495
G1 X-2.875 Y-4.114 E0.01887
G1 X-4.100 Y0.061 F15000.000
G1 X-4.290 Y-0.208 E0.02536 F2400.000
G1 X-4.679 Y-0.515 E0.03819
G1 X-4.980 Y-0.634 E0.02495
G1 X-4.932 Y-0.936 E0.02350
G1 X-4.609 Y-0.956 E0.02495
G1 X-4.144 Y-1.128 E0.03819
G1 X-3.747 Y-1.425 E0.03819
G1 X-2.977 Y-2.462 E0.09953
G1 X-2.715 Y-2.375 E0.02123
G1 X-2.715 Y2.967 E0.41169 F2400.000
G1 X-3.180 Y2.887 E0.03637
G1 X-3.672 Y2.945 E0.03819
G1 X-3.970 Y3.073 E0.02495
G1 X-4.149 Y2.826 E0.02350
G1 X-3.935 Y2.583 E0.02495
G1 X-3.728 Y2.133 E0.03819
G1 X-3.658 Y1.642 E0.03819
G1 X-3.715 Y1.254 E0.03024
G1 X-3.879 Y0.569 E0.05428
G1 X-4.004 Y0.197 E0.03024
G1 X-4.066 Y0.110 E0.00820
G1 X-3.332 Y-4.963 F15000.000
G1 X-3.201 Y-4.669 E0.02484 F2400.000
G1 X-3.451 Y-4.487 E0.02379
G1 X-4.317 Y-5.281 E0.09056
G1 X-4.422 Y-5.489 E0.01794
G1 X-4.532 Y-5.821 E0.02693
G1 X-4.629 Y-6.372 E0.04313
G1 X-4.135 Y-6.109 E0.04313
G1 X-3.859 Y-5.906 E0.02639 F2400.000
G1 X-3.661 Y-5.702 E0.02191
G1 X-3.357 Y-5.018 E0.05773
G1 X1.262 Y-3.965 F15000.000
G1 X1.433 Y-3.737 E0.02198 F2400.000
G1 X1.282 Y-3.512 E0.02084
G1 X0.394 Y-3.743 E0.07073
G1 X-0.107 Y-3.743 E0.03859
G1 X-0.191 Y-4.009 E0.02151
G1 X0.208 Y-4.290 E0.03761
G1 X0.515 Y-4.679 E0.03819
G1 X0.634 Y-4.980 E0.02495
G1 X0.935 Y-4.932 E0.02350
G1 X0.956 Y-4.609 E0.02495 F2400.000
G1 X1.128 Y-4.144 E0.03819
G1 X1.226 Y-4.013 E0.01260
G1 X0.745 Y-6.982 F15000.000
G1 X0.912 Y-7.320 E0.02907 F2400.000
G1 X1.232 Y-7.779 E0.04313
G1 X1.395 Y-7.244 E0.04313
G1 X1.447 Y-6.905 E0.02639 F2400.000
G1 X1.444 Y-6.621 E0.02191
G1 X1.039 Y-5.567 E0.08699
G1 X0.732 Y-5.617 E0.02390
G1 X0.682 Y-6.787 E0.09022
G1 X0.727 Y-6.925 E0.01117
G1 X2.556 Y-1.408 F15000.000
G1 X2.556 Y-2.995 E0.12228 F2400.000
G1 X3.180 Y-2.887 E0.04883
G1 X3.672 Y-2.945 E0.03819
G1 X3.970 Y-3.073 E0.02495
G1 X4.149 Y-2.826 E0.02350
G1 X3.935 Y-2.583 E0.02495 F2400.000
G1 X3.728 Y-2.133 E0.03819
G1 X3.658 Y-1.642 E0.03819
G1 X3.715 Y-1.254 E0.03024
G1 X3.879 Y-0.569 E0.05428
G1 X4.004 Y-0.197 E0.03024
G1 X4.290 Y0.208 E0.03819
G1 X4.679 Y0.515 E0.03819
G1 X4.980 Y0.634 E0.02495
G1 X4.932 Y0.936 E0.02350
G1 X4.609 Y0.956 E0.02495
G1 X4.144 Y1.128 E0.03819
G1 X3.747 Y1.425 E0.03819
G1 X3.513 Y1.740 E0.03024
G1 X3.145 Y2.341 E0.05428
G1 X2.971 Y2.692 E0.03024
G1 X2.887 Y3.180 E0.03819
G1 X2.945 Y3.672 E0.03819
G1 X3.073 Y3.970 E0.02495
G1 X2.826 Y4.149 E0.02350
G1 X2.583 Y3.935 E0.02495
G1 X2.133 Y3.728 E0.03819
G1 X1.503 Y3.638 E0.04902
G1 X1.453 Y3.368 E0.02111
G1 X2.556 Y2.755 E0.09721
G1 X2.556 Y-1.348 E0.31621
G1 X5.464 Y-3.555 F15000.000
G1 X4.671 Y-3.202 E0.06685 F2400.000
G1 X4.490 Y-3.454 E0.02390
G1 X5.281 Y-4.317 E0.09022
G1 X5.489 Y-4.422 E0.01796
G1 X5.821 Y-4.532 E0.02693
G1 X6.372 Y-4.629 E0.04313
G1 X6.109 Y-4.135 E0.04313
G1 X5.906 Y-3.859 E0.02639 F2400.000
G1 X5.702 Y-3.661 E0.02191
G1 X5.518 Y-3.579 E0.01551
G1 E-3.50000 F1500.00000
G1 Z0.700 F15000.000
G1 X7.426 Y1.340 F15000.000
G1 Z0.300 F15000.000
G1 E3.50000 F1500.00000
G1 X7.244 Y1.395 E0.01469 F2400.000
G1 X6.905 Y1.447 E0.02639
G1 X6.621 Y1.444 E0.02191
G1 X5.567 Y1.039 E0.08699
G1 X5.617 Y0.732 E0.02390
G1 X6.787 Y0.682 E0.09022
G1 X7.008 Y0.754 E0.01796
G1 X7.320 Y0.912 E0.02693 F2400.000
G1 X7.779 Y1.232 E0.04313
G1 X7.483 Y1.322 E0.02382
G1 E-3.50000 F1500.00000
G1 Z0.700 F15000.000
G1 X3.920 Y4.917 F15000.000
G1 Z0.300 F15000.000
G1 E3.50000 F1500.00000
G1 X4.317 Y5.281 E0.04150 F2400.000
G1 X4.422 Y5.489 E0.01796 F2400.000
G1 X4.532 Y5.821 E0.02693
G1 X4.629 Y6.372 E0.04313
G1 X4.135 Y6.109 E0.04313
G1 X3.859 Y5.906 E0.02639
G1 X3.661 Y5.702 E0.02191
G1 X3.202 Y4.671 E0.08699
G1 X3.454 Y4.490 E0.02390
G1 X3.876 Y4.877 E0.04410
G1 E-3.50000 F1500.00000
G1 Z0.700 F15000.000
G1 X-0.688 Y6.642 F15000.000
G1 Z0.300 F15000.000
G1 E3.50000 F1500.00000
G1 X-0.682 Y6.787 E0.01121 F2400.000
G1 X-0.754 Y7.008 E0.01796
G1 X-0.912 Y7.320 E0.02693
G1 X-1.232 Y7.779 E0.04313
G1 X-1.395 Y7.244 E0.04313
G1 X-1.447 Y6.905 E0.02639
G1 X-1.444 Y6.621 E0.02191
G1 X-1.039 Y5.567 E0.08699
G1 X-0.732 Y5.617 E0.02390
G1 X-0.691 Y6.582 E0.07439 F2400.000
G1 X-1.416 Y3.760 F15000.000
G1 X-1.448 Y3.717 E0.00419 F2400.000
G1 X-1.297 Y3.492 E0.02084
G1 X-0.553 Y3.685 E0.05924
G1 X0.188 Y3.685 E0.05716 F2400.000
G1 X0.273 Y3.951 E0.02151
G1 X-0.208 Y4.290 E0.04530
G1 X-0.515 Y4.679 E0.03819
G1 X-0.634 Y4.980 E0.02495
G1 X-0.936 Y4.932 E0.02350
G1 X-0.956 Y4.609 E0.02495
G1 X-1.128 Y4.144 E0.03819
G1 X-1.380 Y3.808 E0.03233
G1 X-4.561 Y3.532 F15000.000
G1 X-5.281 Y4.317 E0.08208 F2400.000
G1 X-5.489 Y4.422 E0.01796
G1 X-5.821 Y4.532 E0.02693
G1 X-6.372 Y4.629 E0.04313
G1 X-6.109 Y4.135 E0.04313
G1 X-5.906 Y3.859 E0.02639
G1 X-5.702 Y3.661 E0.02191
G1 X-4.671 Y3.202 E0.08699
G1 X-4.490 Y3.454 E0.02390
G1 X-4.521 Y3.488 E0.00352 F2400.000
G1 E-3.50000 F1500.00000
G1 Z0.700 F15000.000
G1 X-7.526 Y-1.055 F15000.000
G1 Z0.300 F15000.000
G1 E3.50000 F1500.00000
G1 X-7.779 Y-1.232 E0.02381 F2400.000
G1 X-7.244 Y-1.395 E0.04313
G1 X-6.905 Y-1.447 E0.02639
G1 X-6.621 Y-1.444 E0.02191
G1 X-5.567 Y-1.039 E0.08699 F2400.000
G1 X-5.617 Y-0.732 E0.02390
G1 X-6.787 Y-0.682 E0.09022
G1 X-7.008 Y-0.754 E0.01795
G1 X-7.320 Y-0.912 E0.02693
G1 X-7.477 Y-1.021 E0.01470
G1 X-7.841 Y-0.500 F15000.000
G1 X-8.125 Y-0.698 E0.02674 F2400.000
G1 X-8.534 Y-1.080 E0.04312
G1 X-8.446 Y-1.611 E0.04146
G1 X-7.943 Y-1.847 E0.04280
G1 X-7.385 Y-2.016 E0.04493
G1 X-6.950 Y-2.084 E0.03399
G1 X-6.554 Y-2.078 E0.03046
G1 X-6.448 Y-2.058 E0.00832
G1 X-5.327 Y-1.627 E0.09262
G1 X-5.052 Y-1.565 E0.02166
G1 X-4.742 Y-1.585 E0.02394
G1 X-4.451 Y-1.692 E0.02394
G1 X-4.202 Y-1.879 E0.02394
G1 X-3.521 Y-2.795 E0.08806
G1 X-3.598 Y-2.795 E0.00598
G1 X-3.529 Y-3.198 E0.03145
G1 X-3.565 Y-3.506 E0.02394
G1 X-3.688 Y-3.791 E0.02394
G1 X-3.868 Y-4.007 E0.02166
G1 X-4.759 Y-4.809 E0.09234
G1 X-4.860 Y-4.947 E0.01323
G1 X-5.011 Y-5.244 E0.02568
G1 X-5.150 Y-5.665 E0.03415
G1 X-5.251 Y-6.239 E0.04493
G1 X-5.270 Y-6.798 E0.04312
G1 X-4.833 Y-7.112 E0.04146
G1 X-4.311 Y-6.922 E0.04280
G1 X-3.796 Y-6.648 E0.04493
G1 X-3.441 Y-6.388 E0.03399
G1 X-3.165 Y-6.104 E0.03046
G1 X-3.104 Y-6.015 E0.00831
G1 X-2.616 Y-4.917 E0.09262
G1 X-2.466 Y-4.679 E0.02166
G1 X-2.233 Y-4.474 E0.02394
G1 X-1.951 Y-4.344 E0.02394
G1 X-1.643 Y-4.300 E0.02394
G1 X-1.375 Y-4.339 E0.02092
G1 X-0.745 Y-4.491 E0.04989
G1 X-0.488 Y-4.577 E0.02092
G1 X-0.234 Y-4.756 E0.02394
G1 X-0.042 Y-5.000 E0.02394
G1 X0.073 Y-5.289 E0.02394
G1 X0.098 Y-5.567 E0.02154
G1 X0.043 Y-6.842 E0.09837
G1 X0.165 Y-7.252 E0.03291
G1 X0.365 Y-7.647 E0.03415
G1 X0.698 Y-8.125 E0.04493
G1 X1.080 Y-8.534 E0.04312
G1 X1.183 Y-8.521 E0.00793
G1 X1.611 Y-8.446 E0.03355 F2400.000
G1 X1.847 Y-7.943 E0.04279
G1 X2.016 Y-7.385 E0.04493
G1 X2.084 Y-6.950 E0.03399
G1 X2.078 Y-6.554 E0.03046
G1 X2.058 Y-6.448 E0.00832
G1 X1.627 Y-5.327 E0.09262
G1 X1.565 Y-5.052 E0.02166
G1 X1.585 Y-4.742 E0.02394
G1 X1.692 Y-4.451 E0.02394
G1 X1.879 Y-4.202 E0.02394
G1 X2.096 Y-4.040 E0.02092
G1 X2.648 Y-3.702 E0.04989
G1 X2.892 Y-3.582 E0.02092
G1 X3.198 Y-3.529 E0.02394
G1 X3.506 Y-3.565 E0.02394
G1 X3.791 Y-3.688 E0.02394
G1 X4.006 Y-3.867 E0.02154
G1 X4.869 Y-4.808 E0.09837
G1 X5.244 Y-5.011 E0.03291
G1 X5.665 Y-5.150 E0.03415
G1 X6.239 Y-5.251 E0.04493
G1 X6.798 Y-5.270 E0.04312
G1 X7.112 Y-4.833 E0.04146
G1 X6.922 Y-4.311 E0.04280
G1 X6.648 Y-3.796 E0.04493
G1 X6.388 Y-3.441 E0.03399
G1 X6.104 Y-3.165 E0.03046
G1 X6.015 Y-3.104 E0.00831
G1 X4.917 Y-2.616 E0.09262
G1 X4.679 Y-2.466 E0.02166
G1 X4.474 Y-2.233 E0.02394
G1 X4.344 Y-1.951 E0.02394
G1 X4.300 Y-1.643 E0.02394
G1 X4.339 Y-1.375 E0.02092
G1 X4.491 Y-0.745 E0.04989
G1 X4.577 Y-0.488 E0.02092
G1 X4.756 Y-0.234 E0.02394
G1 X5.000 Y-0.042 E0.02394
G1 X5.289 Y0.073 E0.02394
G1 X5.567 Y0.098 E0.02154
G1 X6.842 Y0.043 E0.09837
G1 X7.252 Y0.165 E0.03291
G1 X7.647 Y0.365 E0.03415
G1 X8.125 Y0.698 E0.04493
G1 X8.534 Y1.080 E0.04312
G1 X8.520 Y1.190 E0.00849
G1 X8.446 Y1.611 E0.03297
G1 X7.943 Y1.847 E0.04280
G1 X7.385 Y2.016 E0.04493
G1 X6.950 Y2.084 E0.03399
G1 X6.554 Y2.078 E0.03046
G1 X6.448 Y2.058 E0.00832
G1 X5.327 Y1.627 E0.09262
G1 X5.052 Y1.565 E0.02166
G1 X4.742 Y1.585 E0.02394
G1 X4.451 Y1.692 E0.02394
G1 X4.202 Y1.879 E0.02394
G1 X4.040 Y2.096 E0.02092
G1 X3.702 Y2.648 E0.04989
G1 X3.582 Y2.892 E0.02092
G1 X3.529 Y3.198 E0.02394
G1 X3.565 Y3.506 E0.02394
G1 X3.688 Y3.791 E0.02394
G1 X3.867 Y4.006 E0.02154
G1 X4.808 Y4.869 E0.09837
G1 X4.857 Y4.942 E0.00680
G1 X5.011 Y5.244 E0.02615
G1 X5.150 Y5.665 E0.03415
G1 X5.251 Y6.239 E0.04493
G1 X5.270 Y6.798 E0.04312
G1 X4.833 Y7.112 E0.04146
G1 X4.311 Y6.922 E0.04280
G1 X3.796 Y6.648 E0.04493
G1 X3.441 Y6.388 E0.03399
G1 X3.165 Y6.104 E0.03046
G1 X3.104 Y6.015 E0.00832
G1 X2.616 Y4.917 E0.09262
G1 X2.466 Y4.679 E0.02166
G1 X2.233 Y4.474 E0.02394
G1 X1.951 Y4.344 E0.02394
G1 X1.643 Y4.300 E0.02394
G1 X1.375 Y4.339 E0.02092
G1 X0.745 Y4.491 E0.04989
G1 X0.488 Y4.577 E0.02092
G1 X0.234 Y4.756 E0.02394
G1 X0.042 Y5.000 E0.02394
G1 X-0.073 Y5.289 E0.02394
G1 X-0.098 Y5.567 E0.02154
G1 X-0.043 Y6.842 E0.09837
G1 X-0.165 Y7.252 E0.03291
G1 X-0.365 Y7.647 E0.03415
G1 X-0.698 Y8.125 E0.04493
G1 X-1.080 Y8.534 E0.04312
G1 X-1.611 Y8.446 E0.04146
G1 X-1.847 Y7.943 E0.04280
G1 X-2.016 Y7.385 E0.04493
G1 X-2.084 Y6.950 E0.03399
G1 X-2.078 Y6.554 E0.03046
G1 X-2.058 Y6.448 E0.00832
G1 X-1.627 Y5.327 E0.09262
G1 X-1.565 Y5.052 E0.02166
G1 X-1.585 Y4.742 E0.02394
G1 X-1.692 Y4.451 E0.02394
G1 X-1.879 Y4.202 E0.02394
G1 X-2.096 Y4.040 E0.02092
G1 X-2.648 Y3.702 E0.04989
G1 X-2.892 Y3.582 E0.02092
G1 X-3.198 Y3.529 E0.02394
G1 X-3.506 Y3.565 E0.02394
G1 X-3.791 Y3.688 E0.02394
G1 X-4.006 Y3.867 E0.02154
G1 X-4.869 Y4.808 E0.09837
G1 X-5.244 Y5.011 E0.03291
G1 X-5.665 Y5.150 E0.03415
G1 X-6.239 Y5.251 E0.04493
G1 X-6.798 Y5.270 E0.04312
G1 X-7.112 Y4.833 E0.04146
G1 X-6.922 Y4.311 E0.04280
G1 X-6.648 Y3.796 E0.04493
G1 X-6.388 Y3.441 E0.03399
G1 X-6.104 Y3.165 E0.03046
G1 X-6.015 Y3.104 E0.00831
G1 X-4.917 Y2.616 E0.09262
G1 X-4.679 Y2.466 E0.02166
G1 X-4.474 Y2.233 E0.02394
G1 X-4.344 Y1.951 E0.02394
G1 X-4.300 Y1.643 E0.02394
G1 X-4.339 Y1.375 E0.02092
G1 X-4.491 Y0.745 E0.04989
G1 X-4.577 Y0.488 E0.02092
G1 X-4.756 Y0.234 E0.02394
G1 X-5.000 Y0.042 E0.02394
G1 X-5.289 Y-0.073 E0.02394
G1 X-5.567 Y-0.098 E0.02154
G1 X-6.842 Y-0.043 E0.09837
G1 X-7.252 Y-0.165 E0.03291
G1 X-7.647 Y-0.365 E0.03415
G1 X-7.791 Y-0.465 E0.01357
G1 X-7.811 Y-0.845 F15000.000
G1 X-3.696 Y-1.067 F15000.000
G1 X-3.385 Y-0.060 E0.17057 F2400.000
G1 X-3.307 Y0.417 E0.07835
G1 X-3.218 Y1.166 E0.12207
G1 X-3.219 Y1.166 F15000.000
G1 X-3.186 Y1.663 E0.03843 F2400.000
G1 X-3.228 Y2.251 E0.04543
G1 X-3.295 Y2.580 E0.02588
G1 X0.454 Y4.234 F15000.000
G1 X0.678 Y4.123 E0.01929 F2400.000
G1 X0.756 Y4.042 E0.00865
G1 X1.132 Y3.377 E0.05886
G1 X0.755 Y3.263 F15000.000
G1 X0.890 Y3.805 E0.04302 F2400.000
G1 X1.103 Y3.943 E0.01960
G1 X1.223 Y3.983 E0.00969
G1 X1.518 Y3.979 E0.02273
G1 X3.245 Y1.545 F15000.000
G1 X2.941 Y1.241 E0.06189 F2400.000
G1 X3.575 Y0.195 E0.17601
G1 X3.946 Y0.566 E0.07546
G1 X3.259 Y-0.140 F15000.000
G1 X3.142 Y-1.131 E0.16157 F2400.000
G1 X3.106 Y-1.608 E0.07741
G1 X3.170 Y-2.566 E0.15549
G1 X2.673 Y-3.315 F15000.000
G1 X2.254 Y-3.463 E0.03426 F2400.000
G1 X1.951 Y-3.416 E0.02364
G1 X1.881 Y-3.727 E0.02458
G1 X1.740 Y-3.887 E0.01640
G1 X2.048 Y-3.697 F15000.000
G1 X1.889 Y-3.219 E0.03882 F2400.000
G1 X1.466 Y-3.118 E0.03351
G1 X1.327 Y-3.154 E0.01111
G1 E-3.50000 F1500.00000
G1 Z0.700 F15000.000
G1 X1.264 Y-3.041 F15000.000
G1 Z0.500 F15000.000
G1 E3.50000 F1500.00000
G1 X2.127 Y-2.561 E0.02851 F2400.000
G1 X2.127 Y2.503 E0.14616
G1 X1.151 Y3.046 E0.03226
G1 X0.339 Y3.257 E0.02419
G1 X-0.499 Y3.257 E0.02419
G1 X-1.310 Y3.046 E0.02419
G1 X-2.287 Y2.503 E0.03226
G1 X-2.287 Y-2.561 E0.14616
G1 X-1.310 Y-3.104 E0.03226
G1 X-0.499 Y-3.314 E0.02419
G1 X0.339 Y-3.314 E0.02419 F2400.000
G1 X1.151 Y-3.104 E0.02419
G1 X1.211 Y-3.070 E0.00201
G1 X1.038 Y-2.758 F15000.000
G1 X1.770 Y-2.351 E0.02418 F2400.000
G1 X1.770 Y2.293 E0.13403
G1 X1.017 Y2.712 E0.02488
G1 X0.294 Y2.900 E0.02156
G1 X-0.453 Y2.900 E0.02156
G1 X-1.176 Y2.712 E0.02156
G1 X-1.930 Y2.293 E0.02488
G1 X-1.930 Y-2.351 E0.13403
G1 X-1.176 Y-2.770 E0.02488
G1 X-0.453 Y-2.957 E0.02156
G1 X0.294 Y-2.957 E0.02156 F2400.000
G1 X0.982 Y-2.779 E0.02053
G1 X1.363 Y-2.991 F15000.000
G1 E-3.50000 F1500.00000
G1 Z0.900 F15000.000
G1 X-5.535 Y4.889 F15000.000
G1 Z0.500 F15000.000
G1 E3.50000 F1500.00000
G1 X-5.716 Y4.948 E0.00549 F2400.000
G1 X-6.261 Y5.045 E0.01598
G1 X-6.700 Y5.060 E0.01269
G1 X-6.880 Y4.802 E0.00907
G1 X-6.733 Y4.395 E0.01250
G1 X-6.472 Y3.907 E0.01598
G1 X-6.231 Y3.577 E0.01180
G1 X-5.973 Y3.326 E0.01039
G1 X-4.819 Y2.799 E0.03660
G1 X-4.543 Y2.626 E0.00941
G1 X-4.299 Y2.347 E0.01070
G1 X-4.143 Y2.010 E0.01070
G1 X-4.091 Y1.643 E0.01070
G1 X-4.136 Y1.335 E0.00897
G1 X-4.291 Y0.688 E0.01922
G1 X-4.391 Y0.393 E0.00897
G1 X-4.604 Y0.090 E0.01070
G1 X-4.895 Y-0.140 E0.01070
G1 X-5.240 Y-0.277 E0.01070
G1 X-5.562 Y-0.306 E0.00933
G1 X-6.827 Y-0.251 E0.03655
G1 X-7.172 Y-0.357 E0.01041
G1 X-7.541 Y-0.543 E0.01191
G1 X-7.994 Y-0.860 E0.01598
G1 X-8.315 Y-1.160 E0.01269
G1 X-8.261 Y-1.469 E0.00907
G1 X-7.869 Y-1.653 E0.01250
G1 X-7.339 Y-1.814 E0.01598
G1 X-6.935 Y-1.876 E0.01180
G1 X-6.575 Y-1.871 E0.01039
G1 X-5.387 Y-1.428 E0.03660
G1 X-5.069 Y-1.356 E0.00941
G1 X-4.699 Y-1.380 E0.01070
G1 X-4.351 Y-1.509 E0.01070
G1 X-4.054 Y-1.731 E0.01070
G1 X-3.869 Y-1.980 E0.00897
G1 X-3.521 Y-2.548 E0.01922
G1 X-3.383 Y-2.827 E0.00897
G1 X-3.319 Y-3.192 E0.01070
G1 X-3.363 Y-3.560 E0.01070
