; generated by Slic3r 1.2.9 on 2018-01-18 at 10:19:03

; external perimeters extrusion width = 0.40mm
; perimeters extrusion width = 0.40mm
; infill extrusion width = 0.40mm
; solid infill extrusion width = 0.40mm
; top infill extrusion width = 0.40mm

M107
M83
T0
M116
G21 ; set units to millimeters
G90 ; use absolute coordinates
M83 ; use relative distances for extrusion
G1 E-3.50000 F1500.00000
G1 Z0.400 F15000.000
G1 X27.637 Y17.508 F15000.000
G1 Z0.300 F15000.000
G1 E3.50000 F1500.00000
G1 X26.931 Y18.607 E0.10072 F960.000
G1 X25.917 Y19.996 E0.13253
G1 X24.690 Y21.492 E0.14909
G1 X23.378 Y22.913 E0.14909
G1 X21.982 Y24.255 E0.14922
G1 X20.344 Y25.645 E0.16551
G1 X18.794 Y26.802 E0.14909
G1 X17.178 Y27.865 E0.14908
G1 X15.502 Y28.831 E0.14909
G1 X13.748 Y29.706 E0.15104
G1 X11.745 Y30.550 E0.16747
G1 X10.173 Y31.113 E0.12872
G1 X8.525 Y31.605 E0.13253
G1 X6.643 Y32.053 E0.14908
G1 X4.738 Y32.389 E0.14909
G1 X2.534 Y32.632 E0.17090
G1 X0.670 Y32.727 E0.14380
G1 X-1.286 Y32.708 E0.15076
G1 X-3.462 Y32.548 E0.16812
G1 X-5.113 Y32.332 E0.12835
G1 X-6.804 Y32.019 E0.13253
G1 X-8.684 Y31.561 E0.14908
G1 X-10.533 Y30.993 E0.14908
G1 X-12.603 Y30.208 E0.17063
G1 X-14.125 Y29.529 E0.12843
G1 X-16.022 Y28.544 E0.16473
G1 X-17.680 Y27.548 E0.14908
G1 X-19.290 Y26.444 E0.15041
G1 X-20.853 Y25.229 E0.15257
G1 X-22.262 Y23.997 E0.14424
G1 X-23.651 Y22.628 E0.15031
G1 X-25.125 Y20.980 E0.17036
G1 X-26.321 Y19.459 E0.14908
G1 X-27.424 Y17.871 E0.14908
G1 X-28.325 Y16.406 E0.13253
G1 X-29.120 Y14.948 E0.12798
G1 X-30.055 Y12.967 E0.16877
G1 X-30.775 Y11.152 E0.15048
G1 X-31.380 Y9.315 E0.14908
G1 X-31.876 Y7.445 E0.14908
G1 X-32.246 Y5.613 E0.14400
G1 X-32.554 Y3.420 E0.17070
G1 X-32.700 Y1.491 E0.14908
G1 X-32.731 Y-0.443 E0.14908
G1 X-32.647 Y-2.376 E0.14908
G1 X-32.450 Y-4.300 E0.14908
G1 X-32.180 Y-5.999 E0.13253
G1 X-31.829 Y-7.629 E0.12854
G1 X-31.254 Y-9.729 E0.16780
G1 X-30.617 Y-11.581 E0.15090
G1 X-29.879 Y-13.369 E0.14909
G1 X-29.037 Y-15.111 E0.14908
G1 X-28.126 Y-16.736 E0.14359
G1 X-27.067 Y-18.409 E0.15257
G1 X-25.917 Y-19.996 E0.15107
G1 X-24.690 Y-21.492 E0.14909
G1 X-23.227 Y-23.066 E0.16561
G1 X-21.823 Y-24.398 E0.14911
G1 X-20.344 Y-25.645 E0.14909
G1 X-18.969 Y-26.678 E0.13253
G1 X-17.360 Y-27.752 E0.14909
G1 X-15.691 Y-28.729 E0.14909
G1 X-13.966 Y-29.605 E0.14908
G1 X-11.925 Y-30.479 E0.17107
G1 X-10.173 Y-31.113 E0.14363
G1 X-8.317 Y-31.660 E0.14908
G1 X-6.432 Y-32.096 E0.14908
G1 X-4.502 Y-32.422 E0.15086
G1 X-2.336 Y-32.647 E0.16788
G1 X-0.670 Y-32.727 E0.12849
G1 X1.050 Y-32.717 E0.13253
G1 X3.261 Y-32.568 E0.17080 F960.000
G1 X4.909 Y-32.364 E0.12802
G1 X7.014 Y-31.973 E0.16496
G1 X8.891 Y-31.503 E0.14908
G1 X10.754 Y-30.916 E0.15059
G1 X12.794 Y-30.128 E0.16853
G1 X14.308 Y-29.441 E0.12812
G1 X15.834 Y-28.648 E0.13253
G1 X17.499 Y-27.663 E0.14908
G1 X19.103 Y-26.581 E0.14908
G1 X20.853 Y-25.229 E0.17046
G1 X22.262 Y-23.997 E0.14424
G1 X23.651 Y-22.628 E0.15031
G1 X25.125 Y-20.980 E0.17036
G1 X26.321 Y-19.459 E0.14908
G1 X27.424 Y-17.871 E0.14908
G1 X28.325 Y-16.406 E0.13253
G1 X29.120 Y-14.948 E0.12798
G1 X30.055 Y-12.967 E0.16877
G1 X30.775 Y-11.152 E0.15048
G1 X31.380 Y-9.315 E0.14908
G1 X31.922 Y-7.246 E0.16482
G1 X32.246 Y-5.613 E0.12827
G1 X32.554 Y-3.420 E0.17070
G1 X32.700 Y-1.491 E0.14908
G1 X32.733 Y0.228 E0.13253
G1 X32.662 Y2.162 E0.14908
G1 X32.478 Y4.087 E0.14908
G1 X32.141 Y6.204 E0.16515
G1 X31.781 Y7.821 E0.12770
G1 X31.183 Y9.957 E0.17093
G1 X30.540 Y11.782 E0.14909
G1 X29.791 Y13.565 E0.14908
G1 X28.939 Y15.299 E0.14883
G1 X28.225 Y16.571 E0.11247
G1 X27.669 Y17.457 E0.08058
G1 E-3.50000 F1500.00000
G1 Z0.700 F15000.000
G1 X4.670 Y0.571 F15000.000
G1 Z0.300 F15000.000
G1 E3.50000 F1500.00000
G1 X1.796 Y4.385 E0.36802 F600.000
G1 X-2.944 Y3.803 E0.36802
G1 X-4.810 Y-0.593 E0.36802
G1 X-2.869 Y-3.169 E0.24853
G1 X-1.936 Y-4.407 E0.11949 F600.000
G1 X2.804 Y-3.825 E0.36802
G1 X4.647 Y0.516 E0.36339
G1 X3.941 Y0.481 F15000.000
G1 X1.509 Y3.709 E0.31146 F600.000
G1 X-2.502 Y3.217 E0.31146
G1 X-4.081 Y-0.504 E0.31146
G1 X-2.361 Y-2.786 E0.22024
G1 X-1.649 Y-3.731 E0.09121 F600.000
G1 X2.362 Y-3.239 E0.31146
G1 X3.918 Y0.426 E0.30683
G1 X4.214 Y0.774 F15000.000
G1 X20.488 Y19.235 F15000.000
G1 X20.013 Y19.745 E0.05369 F720.000
G1 X18.812 Y20.893 E0.12802
G1 X17.545 Y21.967 E0.12806
G1 X16.217 Y22.966 E0.12804
G1 X14.832 Y23.883 E0.12804
G1 X13.395 Y24.718 E0.12804
G1 X11.914 Y25.464 E0.12778
G1 X10.146 Y26.214 E0.14803
G1 X8.825 Y26.693 E0.10825
G1 X7.233 Y27.168 E0.12808
G1 X5.615 Y27.547 E0.12804
G1 X3.981 Y27.830 E0.12780
G1 X2.071 Y28.034 E0.14801
G1 X0.669 Y28.106 E0.10823
G1 X-0.991 Y28.096 E0.12789
G1 X-2.906 Y27.960 E0.14799
G1 X-4.299 Y27.783 E0.10821
G1 X-5.934 Y27.480 E0.12813
G1 X-7.547 Y27.081 E0.12804
G1 X-9.131 Y26.589 E0.12783
G1 X-10.924 Y25.902 E0.14796
G1 X-12.204 Y25.326 E0.10819
G1 X-13.680 Y24.560 E0.12816
G1 X-15.107 Y23.709 E0.12804
G1 X-16.479 Y22.776 E0.12786
G1 X-17.994 Y21.598 E0.14793
G1 X-19.050 Y20.674 E0.10817
G1 X-20.238 Y19.512 E0.12802
G1 X-21.521 Y18.088 E0.14775
G1 X-22.551 Y16.786 E0.12787
G1 X-23.503 Y15.425 E0.12804
G1 X-24.374 Y14.008 E0.12818
G1 X-25.042 Y12.774 E0.10817
G1 X-25.856 Y11.035 E0.14794
G1 X-26.462 Y9.491 E0.12785
G1 X-26.977 Y7.911 E0.12804
G1 X-27.398 Y6.303 E0.12815
G1 X-27.676 Y4.926 E0.10820
G1 X-27.950 Y3.026 E0.14797
G1 X-28.080 Y1.372 E0.12783
G1 X-28.112 Y-0.289 E0.12804
G1 X-28.046 Y-1.949 E0.12804
G1 X-27.882 Y-3.602 E0.12804
G1 X-27.620 Y-5.244 E0.12811
G1 X-27.320 Y-6.616 E0.10823
G1 X-26.808 Y-8.467 E0.14801
G1 X-26.263 Y-10.033 E0.12780
G1 X-25.624 Y-11.567 E0.12804
G1 X-24.896 Y-13.061 E0.12808
G1 X-24.208 Y-14.285 E0.10825
G1 X-23.180 Y-15.908 E0.14804
G1 X-22.202 Y-17.247 E0.12777
G1 X-21.145 Y-18.528 E0.12804
G1 X-20.013 Y-19.745 E0.12805
G1 X-18.812 Y-20.893 E0.12802
G1 X-17.545 Y-21.968 E0.12806
G1 X-16.217 Y-22.966 E0.12804
G1 X-14.832 Y-23.883 E0.12804
G1 X-13.395 Y-24.718 E0.12804
G1 X-11.914 Y-25.464 E0.12778
G1 X-10.146 Y-26.214 E0.14803
G1 X-8.825 Y-26.693 E0.10825
G1 X-7.233 Y-27.168 E0.12808
G1 X-5.615 Y-27.547 E0.12804
G1 X-3.981 Y-27.830 E0.12780
G1 X-2.071 Y-28.034 E0.14801
G1 X-0.669 Y-28.106 E0.10823
G1 X0.991 Y-28.096 E0.12789
G1 X2.906 Y-27.960 E0.14799 F720.000
G1 X4.299 Y-27.783 E0.10821
G1 X5.934 Y-27.480 E0.12813
G1 X7.547 Y-27.081 E0.12804
G1 X9.131 Y-26.589 E0.12783
G1 X10.924 Y-25.902 E0.14796
G1 X12.204 Y-25.326 E0.10819
G1 X13.680 Y-24.560 E0.12816
G1 X15.107 Y-23.709 E0.12804
G1 X16.479 Y-22.776 E0.12786
G1 X17.994 Y-21.598 E0.14793
G1 X19.050 Y-20.674 E0.10817
G1 X20.238 Y-19.512 E0.12802
G1 X21.521 Y-18.088 E0.14775
G1 X22.551 Y-16.786 E0.12787
G1 X23.503 Y-15.425 E0.12804
G1 X24.374 Y-14.008 E0.12818
G1 X25.042 Y-12.774 E0.10817
G1 X25.856 Y-11.035 E0.14794
G1 X26.462 Y-9.491 E0.12785
G1 X26.977 Y-7.911 E0.12804
G1 X27.398 Y-6.303 E0.12815
G1 X27.676 Y-4.926 E0.10820
G1 X27.950 Y-3.026 E0.14797
G1 X28.080 Y-1.372 E0.12783
G1 X28.112 Y0.289 E0.12804
G1 X28.046 Y1.949 E0.12804
G1 X27.882 Y3.602 E0.12804
G1 X27.620 Y5.244 E0.12811
G1 X27.320 Y6.616 E0.10823
G1 X26.808 Y8.467 E0.14801
G1 X26.263 Y10.033 E0.12780
G1 X25.624 Y11.567 E0.12804
G1 X24.896 Y13.061 E0.12808
G1 X24.208 Y14.285 E0.10825
G1 X23.180 Y15.908 E0.14804
G1 X22.202 Y17.247 E0.12777
G1 X21.145 Y18.528 E0.12804
G1 X20.528 Y19.191 E0.06973
G1 X20.994 Y19.624 F15000.000
G1 X20.466 Y20.192 E0.05976 F720.000
G1 X19.237 Y21.365 E0.13093
G1 X17.942 Y22.464 E0.13095
G1 X16.583 Y23.485 E0.13094
G1 X15.167 Y24.424 E0.13094
G1 X13.698 Y25.277 E0.13094
G1 X12.182 Y26.041 E0.13084
G1 X10.378 Y26.806 E0.15096
G1 X9.025 Y27.297 E0.11097
G1 X7.396 Y27.782 E0.13095
G1 X5.742 Y28.170 E0.13094
G1 X4.069 Y28.460 E0.13085
G1 X2.121 Y28.667 E0.15095
G1 X0.683 Y28.741 E0.11097
G1 X-1.015 Y28.731 E0.13088
G1 X-2.969 Y28.593 E0.15094
G1 X-4.397 Y28.411 E0.11096
G1 X-6.068 Y28.102 E0.13097
G1 X-7.717 Y27.694 E0.13094
G1 X-9.339 Y27.190 E0.13086
G1 X-11.168 Y26.489 E0.15094
G1 X-12.481 Y25.898 E0.11095
G1 X-13.989 Y25.116 E0.13098
G1 X-15.448 Y24.245 E0.13093
G1 X-16.853 Y23.291 E0.13087
G1 X-18.399 Y22.089 E0.15092
G1 X-19.482 Y21.140 E0.11094
G1 X-20.697 Y19.953 E0.13093
G1 X-22.007 Y18.498 E0.15086
G1 X-23.061 Y17.166 E0.13087
G1 X-24.034 Y15.774 E0.13093
G1 X-24.925 Y14.326 E0.13098
G1 X-25.610 Y13.060 E0.11095
G1 X-26.441 Y11.287 E0.15093
G1 X-27.061 Y9.706 E0.13087
G1 X-27.587 Y8.090 E0.13093
G1 X-28.017 Y6.446 E0.13097
G1 X-28.303 Y5.035 E0.11096
G1 X-28.582 Y3.096 E0.15094
G1 X-28.715 Y1.404 E0.13086
G1 X-28.748 Y-0.295 E0.13094
G1 X-28.680 Y-1.993 E0.13094
G1 X-28.513 Y-3.684 E0.13094
G1 X-28.245 Y-5.362 E0.13096
G1 X-27.937 Y-6.768 E0.11097
G1 X-27.415 Y-8.656 E0.15095
G1 X-26.857 Y-10.260 E0.13085
G1 X-26.204 Y-11.828 E0.13094
G1 X-25.459 Y-13.356 E0.13095
G1 X-24.754 Y-14.611 E0.11098
G1 X-23.706 Y-16.266 E0.15096
G1 X-22.704 Y-17.637 E0.13084
G1 X-21.623 Y-18.947 E0.13094
G1 X-20.466 Y-20.192 E0.13094
G1 X-19.237 Y-21.365 E0.13093
G1 X-17.942 Y-22.464 E0.13095
G1 X-16.583 Y-23.485 E0.13094
G1 X-15.167 Y-24.424 E0.13094
G1 X-13.698 Y-25.277 E0.13094
G1 X-12.182 Y-26.041 E0.13084
G1 X-10.378 Y-26.806 E0.15096
G1 X-9.025 Y-27.297 E0.11097
G1 X-7.396 Y-27.782 E0.13095
G1 X-5.742 Y-28.170 E0.13094
G1 X-4.069 Y-28.460 E0.13085
G1 X-2.121 Y-28.667 E0.15095
G1 X-0.683 Y-28.741 E0.11097
G1 X1.015 Y-28.732 E0.13088
G1 X2.969 Y-28.593 E0.15094 F720.000
G1 X4.397 Y-28.411 E0.11096
G1 X6.068 Y-28.102 E0.13097
G1 X7.717 Y-27.694 E0.13094
G1 X9.339 Y-27.190 E0.13086
G1 X11.168 Y-26.489 E0.15094
G1 X12.481 Y-25.898 E0.11095
G1 X13.989 Y-25.116 E0.13098
G1 X15.448 Y-24.245 E0.13093
G1 X16.853 Y-23.291 E0.13087
G1 X18.399 Y-22.089 E0.15092
G1 X19.482 Y-21.140 E0.11094
G1 X20.697 Y-19.953 E0.13093
G1 X22.007 Y-18.498 E0.15086
G1 X23.061 Y-17.166 E0.13087
G1 X24.034 Y-15.774 E0.13093
G1 X24.925 Y-14.326 E0.13098
G1 X25.610 Y-13.060 E0.11095
G1 X26.441 Y-11.287 E0.15093
G1 X27.061 Y-9.706 E0.13087
G1 X27.587 Y-8.090 E0.13093
G1 X28.017 Y-6.446 E0.13097
G1 X28.303 Y-5.035 E0.11096
G1 X28.582 Y-3.096 E0.15094
G1 X28.715 Y-1.404 E0.13086
G1 X28.748 Y0.295 E0.13094
G1 X28.680 Y1.993 E0.13094
G1 X28.513 Y3.684 E0.13094
G1 X28.245 Y5.362 E0.13096
G1 X27.937 Y6.768 E0.11097
G1 X27.415 Y8.656 E0.15095
G1 X26.857 Y10.260 E0.13085
G1 X26.204 Y11.828 E0.13094
G1 X25.459 Y13.356 E0.13095
G1 X24.754 Y14.611 E0.11098
G1 X23.706 Y16.266 E0.15096
G1 X22.704 Y17.637 E0.13084
G1 X21.623 Y18.947 E0.13094
G1 X21.035 Y19.580 E0.06656
G1 X20.604 Y19.534 F15000.000
G1 X4.528 Y-0.912 F15000.000
G1 X22.169 Y16.729 E1.93922 F960.000
G1 X21.777 Y17.243 E0.05028
G1 X5.093 Y0.560 E1.83395
G1 X4.704 Y1.077 E0.05032
G1 X21.367 Y17.740 E1.83172
G1 X20.957 Y18.237 E0.05006
G1 X4.314 Y1.594 E1.82948
G1 X3.924 Y2.111 E0.05032
G1 X20.524 Y18.711 E1.82479
G1 X20.085 Y19.178 E0.04986
G1 X3.535 Y2.628 E1.81932
G1 X3.145 Y3.145 E0.05032
G1 X19.632 Y19.632 E1.81232
G1 X19.178 Y20.085 E0.04983
G1 X2.756 Y3.662 E1.80531
G1 X2.366 Y4.179 E0.05032
G1 X18.713 Y20.526 E1.79700
G1 X18.226 Y20.946 E0.04997
G1 X1.976 Y4.696 E1.78626
G1 X1.075 Y4.702 E0.07002
G1 X17.739 Y21.365 E1.83172
G1 X17.245 Y21.778 E0.05003
G1 X0.042 Y4.575 E1.89107
G1 X-0.992 Y4.448 E0.08094
G1 X16.727 Y22.167 E1.94778
G1 X16.210 Y22.556 E0.05033
G1 X-2.025 Y4.321 E2.00449
G1 X-3.059 Y4.195 E0.08094
G1 X15.673 Y22.926 E2.05909
G1 X15.127 Y23.287 E0.05085
G1 X-23.282 Y-15.122 E4.22225
G1 X-23.634 Y-14.567 E0.05107
G1 X14.576 Y23.643 E4.20034
G1 X14.003 Y23.976 E0.05156
G1 X-23.979 Y-14.006 E4.17523
G1 X-24.305 Y-13.425 E0.05176
G1 X13.429 Y24.309 E4.14802
G1 X12.834 Y24.621 E0.05222
G1 X-24.626 Y-12.839 E4.11784
G1 X-24.923 Y-12.230 E0.05271
G1 X12.231 Y24.925 E4.08424
G1 X11.617 Y25.217 E0.05287
G1 X-25.220 Y-11.620 E4.04940
G1 X-25.493 Y-10.987 E0.05362
G1 X10.981 Y25.487 E4.00943
G1 X10.344 Y25.757 E0.05376
G1 X-25.760 Y-10.346 E3.96873
G1 X-26.012 Y-9.692 E0.05450
G1 X9.690 Y26.010 E3.92461
G1 X9.024 Y26.251 E0.05502
G1 X-26.246 Y-9.020 E3.87722
G1 X-26.475 Y-8.342 E0.05561
G1 X8.337 Y26.470 E3.82682
G1 X7.639 Y26.679 E0.05665
G1 X-26.672 Y-7.632 E3.77163
G1 X-26.868 Y-6.922 E0.05728
G1 X6.925 Y26.872 E3.71479
G1 X6.191 Y27.044 E0.05863
G1 X-27.045 Y-6.192 E3.65351
G1 X-27.207 Y-5.448 E0.05919
G1 X5.447 Y27.207 E3.58959
G1 X4.674 Y27.340 E0.06096
G1 X-27.341 Y-4.674 E3.51927
G1 X-27.465 Y-3.892 E0.06156
G1 X3.893 Y27.466 E3.44707
G1 X3.073 Y27.553 E0.06405
G1 X-27.559 Y-3.080 E3.36732
G1 X-27.641 Y-2.255 E0.06443
G1 X2.254 Y27.640 E3.28624
G1 X1.396 Y27.689 E0.06678
G1 X-27.688 Y-1.395 E3.19707
G1 X-27.722 Y-0.523 E0.06783
G1 X0.519 Y27.719 E3.10447
G1 X-0.393 Y27.713 E0.07089
G1 X-27.711 Y0.396 E3.00295
G1 X-27.686 Y1.327 E0.07243
G1 X-1.338 Y27.675 E2.89635
G1 X-2.314 Y27.606 E0.07606
G1 X-27.609 Y2.311 E2.78056
G1 X-27.496 Y3.330 E0.07971
G1 X-3.326 Y27.500 E2.65686
G1 X-4.385 Y27.348 E0.08314
G1 X-27.343 Y4.390 E2.52369
G1 X-27.136 Y5.503 E0.08805
G1 X-5.498 Y27.141 E2.37860
G1 X-6.687 Y26.860 E0.09495
G1 X-26.859 Y6.687 E2.21748
G1 X-26.511 Y7.942 E0.10122
G1 X-7.948 Y26.505 E2.04055
G1 X-9.315 Y26.045 F15000.000
G1 X-26.061 Y9.298 E1.84086 F960.000
G1 X-25.462 Y10.804 F15000.000
G1 X-10.808 Y25.458 E1.61080 F960.000
G1 X-12.545 Y24.628 F15000.000
G1 X-24.646 Y12.527 E1.33024 F960.000
G1 X-23.407 Y14.673 F15000.000
G1 X-14.648 Y23.431 E0.96281 F960.000
G1 X-18.542 Y20.444 F15000.000
G1 X-20.252 Y18.734 E0.18807 F960.000
G1 X-3.417 Y3.836 F15000.000
G1 X-22.931 Y-15.677 E2.14505 F960.000
G1 X-22.552 Y-16.205 E0.05050
G1 X-4.086 Y2.261 E2.02992
G1 X-4.755 Y0.685 F15000.000
G1 X-22.169 Y-16.729 E1.91434 F960.000
G1 X-21.777 Y-17.243 E0.05028
G1 X-5.182 Y-0.649 E1.82415
G1 X-4.793 Y-1.166 E0.05032
G1 X-21.367 Y-17.740 E1.82192
G1 X-20.957 Y-18.237 E0.05006
G1 X-4.403 Y-1.683 E1.81968
G1 X-4.014 Y-2.200 E0.05032
G1 X-20.524 Y-18.711 E1.81498
G1 X-20.085 Y-19.178 E0.04986
G1 X-3.624 Y-2.717 E1.80952
G1 X-3.234 Y-3.234 E0.05032
G1 X-19.632 Y-19.632 E1.80252
G1 X-19.178 Y-20.085 E0.04983
G1 X-2.845 Y-3.751 E1.79551
G1 X-2.455 Y-4.268 E0.05032
G1 X-18.713 Y-20.526 E1.78720
G1 X-18.226 Y-20.946 E0.04997
G1 X-2.065 Y-4.785 E1.77646
G1 X-1.081 Y-4.708 E0.07674
G1 X-17.739 Y-21.365 E1.83109
G1 X-17.245 Y-21.778 E0.05003
G1 X-0.048 Y-4.581 E1.89044
G1 X0.986 Y-4.454 E0.08094
G1 X-16.727 Y-22.167 E1.94715
G1 X-16.210 Y-22.556 E0.05033
G1 X2.019 Y-4.327 E2.00386
G1 X3.860 Y-2.487 F15000.000
G1 X22.552 Y16.205 E2.05479 F960.000
G1 X22.931 Y15.677 E0.05050
G1 X-15.673 Y-22.926 E4.24354
G1 X-15.128 Y-23.287 E0.05085
G1 X23.282 Y15.122 E4.22225
G1 X23.634 Y14.567 E0.05107
G1 X-14.577 Y-23.643 E4.20034
G1 X-14.003 Y-23.976 E0.05156
G1 X23.979 Y14.006 E4.17523
G1 X24.305 Y13.425 E0.05176
G1 X-13.429 Y-24.309 E4.14802
G1 X-12.834 Y-24.621 E0.05222
G1 X24.626 Y12.839 E4.11784
G1 X24.923 Y12.230 E0.05271
G1 X-12.232 Y-24.925 E4.08425
G1 X-11.617 Y-25.217 E0.05287
G1 X25.220 Y11.620 E4.04940
G1 X25.493 Y10.987 E0.05362
G1 X-10.981 Y-25.487 E4.00943
G1 X-10.344 Y-25.757 E0.05376
G1 X25.760 Y10.346 E3.96873
G1 X26.012 Y9.692 E0.05450
G1 X-9.690 Y-26.010 E3.92461
G1 X-9.025 Y-26.251 E0.05502
G1 X26.246 Y9.020 E3.87722
G1 X26.475 Y8.342 E0.05561
G1 X-8.337 Y-26.470 E3.82683
G1 X-7.639 Y-26.679 E0.05665
G1 X26.672 Y7.632 E3.77164
G1 X26.868 Y6.922 E0.05728
G1 X-6.925 Y-26.872 E3.71479
G1 X-6.191 Y-27.044 E0.05863
G1 X27.045 Y6.192 E3.65351
G1 X27.207 Y5.448 E0.05919
G1 X-5.447 Y-27.207 E3.58959
G1 X-4.674 Y-27.340 E0.06096
G1 X27.341 Y4.674 E3.51927
G1 X27.465 Y3.892 E0.06156
G1 X-3.893 Y-27.466 E3.44708
G1 X-3.073 Y-27.553 E0.06405
G1 X27.559 Y3.080 E3.36733
G1 X27.641 Y2.255 E0.06443
G1 X-2.254 Y-27.640 E3.28625
G1 X-1.396 Y-27.689 E0.06678
G1 X27.688 Y1.395 E3.19708
G1 X27.722 Y0.523 E0.06783
G1 X-0.519 Y-27.719 E3.10447
G1 X0.393 Y-27.713 E0.07089
G1 X27.711 Y-0.395 E3.00295
G1 X27.686 Y-1.327 E0.07243
G1 X1.338 Y-27.675 E2.89636
G1 X2.314 Y-27.606 E0.07606
G1 X27.609 Y-2.311 E2.78057
G1 X27.496 Y-3.330 E0.07971
G1 X3.326 Y-27.500 E2.65687
G1 X4.385 Y-27.348 E0.08314
G1 X27.343 Y-4.390 E2.52370
G1 X27.136 Y-5.503 E0.08805
G1 X5.498 Y-27.142 E2.37861
G1 X6.686 Y-26.860 E0.09495
G1 X26.859 Y-6.687 E2.21750
