; generated by Slic3r 1.2.9 on 2017-01-16 at 15:01:36

; external perimeters extrusion width = 0.50mm
; perimeters extrusion width = 0.85mm
; infill extrusion width = 0.87mm
; solid infill extrusion width = 0.85mm
; top infill extrusion width = 0.85mm

M107
G21 ; set units to millimeters
G90 ; use absolute coordinates
M83 ; use relative distances for extrusion
G10 P2 S185 R0 ; Set extruder temperature
T2
M116; Wait for all temperatures

G21 ; set units to millimeters
G90 ; use absolute coordinates
M83 ; use relative distances for extrusion
G1 E-4.00000 F1800.00000
G1 Z0.300 F6000.000
G1 X48.512 Y88.628 F6000.000
G1 E4.00000 F1800.00000
G1 X50.721 Y87.664 E0.19672 F900.000
G1 X52.356 Y87.446 E0.13467
G1 X139.356 Y85.728 E7.10342
G1 X155.500 Y85.727 E1.31790
G1 X157.877 Y86.124 E0.19672
G1 X160.261 Y87.491 E0.22435 F900.000
G1 X162.261 Y89.208 E0.21519
G1 X163.806 Y91.058 E0.19672
G1 X164.665 Y93.309 E0.19672
G1 X164.809 Y94.753 E0.11847
G1 X164.809 Y100.036 E0.43125
G1 X164.412 Y102.413 E0.19672
G1 X163.263 Y104.531 E0.19672
G1 X161.488 Y106.161 E0.19672
G1 X158.457 Y107.282 E0.26381
G1 X118.457 Y112.565 E3.29366
G1 X117.500 Y112.628 E0.07829
G1 X52.500 Y112.628 E5.30612
G1 X50.123 Y112.230 E0.19672
G1 X48.005 Y111.082 E0.19672
G1 X46.375 Y109.307 E0.19672
G1 X45.411 Y107.098 E0.19672
G1 X45.191 Y105.319 E0.14636
G1 X45.191 Y94.753 E0.86249
G1 X45.588 Y92.376 E0.19672
G1 X46.737 Y90.258 E0.19672
G1 X48.457 Y88.679 E0.19060
G1 X48.905 Y89.208 F6000.000
G1 X49.140 Y89.009 E0.02511 F900.000
G1 X52.369 Y88.100 E0.27383
G1 X139.369 Y86.383 E7.10342
G1 X155.500 Y86.381 E1.31684
G1 X157.764 Y86.778 E0.18764
G1 X159.835 Y87.987 E0.19574 F900.000
G1 X161.835 Y89.704 E0.21519
G1 X163.294 Y91.480 E0.18764
G1 X164.154 Y94.753 E0.27624
G1 X164.154 Y100.036 E0.43125
G1 X163.758 Y102.300 E0.18764
G1 X162.614 Y104.294 E0.18764
G1 X160.860 Y105.780 E0.18764
G1 X158.371 Y106.633 E0.21478
G1 X118.371 Y111.916 E3.29366
G1 X117.500 Y111.973 E0.07128
G1 X52.500 Y111.973 E5.30612
G1 X50.236 Y111.576 E0.18764
G1 X48.242 Y110.433 E0.18764
G1 X46.756 Y108.679 E0.18764
G1 X45.956 Y106.524 E0.18764
G1 X45.846 Y105.319 E0.09881
G1 X45.846 Y94.753 E0.86249
G1 X46.242 Y92.489 E0.18764
G1 X47.386 Y90.495 E0.18764
G1 X48.848 Y89.257 E0.15641
G1 E-4.00000 F1800.00000
G1 X55.347 Y102.531 F6000.000
G1 E4.00000 F1800.00000
G1 X60.705 Y102.531 E0.43740 F900.000
G1 X60.705 Y104.524 E0.16266
G1 X53.295 Y104.524 E0.60489 F900.000
G1 X53.295 Y102.531 E0.16266
G1 X55.272 Y102.531 E0.16137
G1 E-4.00000 F1800.00000
G1 X53.500 Y97.336 F6000.000
G1 X53.500 Y97.336 F6000.000
G1 X55.962 Y97.541 F6000.000
G1 E4.00000 F1800.00000
G1 X53.295 Y97.541 E0.21774 F900.000
G1 X53.295 Y95.548 E0.16266
G1 X60.705 Y95.548 E0.60489
G1 X60.705 Y97.541 E0.16266
G1 X56.037 Y97.541 E0.38102 F900.000
G1 E-4.00000 F1800.00000
G1 X68.500 Y103.786 F6000.000
G1 X113.217 Y99.036 F6000.000
G1 X140.500 Y95.753 F6000.000
G1 X142.217 Y95.753 F6000.000
G1 X140.500 Y94.036 F6000.000
G1 X154.705 Y93.831 F6000.000
G1 E4.00000 F1800.00000
G1 X154.705 Y95.548 E0.14018 F900.000
G1 X156.705 Y95.548 E0.16327 F900.000
G1 X156.705 Y99.241 E0.30144
G1 X116.705 Y99.241 E3.26531
G1 X116.705 Y104.524 E0.43125
G1 X63.295 Y104.524 E4.35999
G1 X63.295 Y103.581 E0.07695
G1 X68.295 Y103.581 E0.40816
G1 X68.295 Y96.491 E0.57879
G1 X63.295 Y96.491 E0.40816
G1 X63.295 Y95.548 E0.07695
G1 X140.295 Y95.548 E6.28571
G1 X140.295 Y93.831 E0.14018
G1 X154.630 Y93.831 E1.17019
G1 X154.630 Y93.286 F6000.000
G1 X155.250 Y93.286 E0.03369 F630.000
G1 X155.250 Y95.003 E0.09330
G1 X157.250 Y95.003 E0.10867 F630.000
G1 X157.250 Y99.786 E0.25986
G1 X117.250 Y99.786 E2.17331
G1 X117.250 Y105.069 E0.28703
G1 X52.750 Y105.069 E3.50447
G1 X52.750 Y101.986 E0.16749
G1 X61.250 Y101.986 E0.46183
G1 X61.250 Y103.786 E0.09780
G1 X62.750 Y103.786 E0.08150
G1 X62.750 Y103.036 E0.04075
G1 X67.750 Y103.036 E0.27166
G1 X67.750 Y97.036 E0.32600
G1 X62.750 Y97.036 E0.27166
G1 X62.750 Y96.286 E0.04075
G1 X61.250 Y96.286 E0.08150
G1 X61.250 Y98.086 E0.09780
G1 X52.750 Y98.086 E0.46183
G1 X52.750 Y95.003 E0.16749
G1 X139.750 Y95.003 E4.72696
G1 X139.750 Y93.286 E0.09330
G1 X154.555 Y93.286 E0.80439
G1 X154.880 Y93.719 F6000.000
G1 X153.343 Y94.228 F6000.000
G1 X154.307 Y95.193 E0.11186 F900.000
G1 X156.307 Y96.263 F6000.000
G1 X155.990 Y95.946 E0.03684 F900.000
G1 X155.060 Y95.946 E0.07624
G1 X156.307 Y97.193 E0.14465
G1 X156.307 Y98.123 E0.07624
G1 X152.413 Y94.228 E0.45160
G1 X151.483 Y94.228 E0.07624
G1 X156.098 Y98.843 E0.53516
G1 X155.169 Y98.843 E0.07624
G1 X150.554 Y94.228 E0.53516
G1 X149.624 Y94.228 E0.07624
G1 X154.239 Y98.843 E0.53516
G1 X153.309 Y98.843 E0.07624
G1 X148.694 Y94.228 E0.53516
G1 X147.764 Y94.228 E0.07624
G1 X152.379 Y98.843 E0.53516
G1 X151.450 Y98.843 E0.07624
G1 X146.835 Y94.228 E0.53516
G1 X145.905 Y94.228 E0.07624
G1 X150.520 Y98.843 E0.53516
G1 X149.590 Y98.843 E0.07624
G1 X144.975 Y94.228 E0.53516
G1 X144.045 Y94.228 E0.07624
G1 X148.660 Y98.843 E0.53516
G1 X147.731 Y98.843 E0.07624
G1 X143.116 Y94.228 E0.53516
G1 X142.186 Y94.228 E0.07624
G1 X146.801 Y98.843 E0.53516
G1 X145.871 Y98.843 E0.07624
G1 X141.256 Y94.228 E0.53516
G1 X140.693 Y94.594 E0.05511
G1 X144.941 Y98.843 E0.49272
G1 X144.012 Y98.843 E0.07624
G1 X140.693 Y95.524 E0.38490
G1 X140.184 Y95.946 F6000.000
G1 X143.082 Y98.843 E0.33602 F900.000
G1 X142.152 Y98.843 E0.07624
G1 X139.255 Y95.946 E0.33602
G1 X138.325 Y95.946 E0.07624
G1 X141.223 Y98.843 E0.33602
G1 X140.293 Y98.843 E0.07624
G1 X137.395 Y95.946 E0.33602
G1 X136.465 Y95.946 E0.07624
G1 X139.363 Y98.843 E0.33602
G1 X138.433 Y98.843 E0.07624
G1 X135.536 Y95.946 E0.33602
G1 X134.606 Y95.946 E0.07624
G1 X137.504 Y98.843 E0.33602
G1 X136.574 Y98.843 E0.07624
G1 X133.676 Y95.946 E0.33602
G1 X132.746 Y95.946 E0.07624
G1 X135.644 Y98.843 E0.33602
G1 X134.714 Y98.843 E0.07624
G1 X131.817 Y95.946 E0.33602
G1 X130.887 Y95.946 E0.07624
G1 X133.785 Y98.843 E0.33602
G1 X132.855 Y98.843 E0.07624
G1 X129.957 Y95.946 E0.33602
G1 X129.028 Y95.946 E0.07624
G1 X131.925 Y98.843 E0.33602
G1 X130.995 Y98.843 E0.07624
G1 X128.098 Y95.946 E0.33602
G1 X127.168 Y95.946 E0.07624
G1 X130.066 Y98.843 E0.33602
G1 X129.136 Y98.843 E0.07624
G1 X126.238 Y95.946 E0.33602
G1 X125.309 Y95.946 E0.07624
G1 X128.206 Y98.843 E0.33602
G1 X127.277 Y98.843 E0.07624
G1 X124.379 Y95.946 E0.33602
G1 X123.449 Y95.946 E0.07624
G1 X126.347 Y98.843 E0.33602
G1 X125.417 Y98.843 E0.07624
G1 X122.519 Y95.946 E0.33602
G1 X121.590 Y95.946 E0.07624
G1 X124.487 Y98.843 E0.33602
G1 X123.558 Y98.843 E0.07624
G1 X120.660 Y95.946 E0.33602
G1 X119.730 Y95.946 E0.07624
G1 X122.628 Y98.843 E0.33602
G1 X121.698 Y98.843 E0.07624
G1 X118.800 Y95.946 E0.33602
G1 X117.871 Y95.946 E0.07624
G1 X120.768 Y98.843 E0.33602
G1 X119.839 Y98.843 E0.07624
G1 X116.941 Y95.946 E0.33602
G1 X116.011 Y95.946 E0.07624
G1 X118.909 Y98.843 E0.33602
G1 X117.979 Y98.843 E0.07624
G1 X115.081 Y95.946 E0.33602
G1 X114.152 Y95.946 E0.07624
G1 X117.049 Y98.843 E0.33602
G1 X116.307 Y99.031 E0.06276
G1 X113.222 Y95.946 E0.35779
G1 X112.292 Y95.946 E0.07624
G1 X116.307 Y99.961 E0.46561
G1 X116.307 Y100.891 E0.07624
G1 X111.363 Y95.946 E0.57342
G1 X110.433 Y95.946 E0.07624
G1 X116.307 Y101.820 E0.68123
G1 X116.307 Y102.750 E0.07624
G1 X109.503 Y95.946 E0.78905
G1 X108.573 Y95.946 E0.07624
G1 X116.307 Y103.680 E0.89686
G1 X115.824 Y104.126 E0.05395
G1 X107.644 Y95.946 E0.94862
G1 X106.714 Y95.946 E0.07624
G1 X114.894 Y104.126 E0.94862
G1 X113.965 Y104.126 E0.07624
G1 X105.784 Y95.946 E0.94862
G1 X104.854 Y95.946 E0.07624
G1 X113.035 Y104.126 E0.94862
G1 X112.105 Y104.126 E0.07624
G1 X103.925 Y95.946 E0.94862
G1 X102.995 Y95.946 E0.07624
G1 X111.175 Y104.126 E0.94862
G1 X110.246 Y104.126 E0.07624
G1 X102.065 Y95.946 E0.94862
G1 X101.135 Y95.946 E0.07624
G1 X109.316 Y104.126 E0.94862
G1 X108.386 Y104.126 E0.07624
G1 X100.206 Y95.946 E0.94862
G1 X99.276 Y95.946 E0.07624
G1 X107.456 Y104.126 E0.94862
G1 X106.527 Y104.126 E0.07624
G1 X98.346 Y95.946 E0.94862
G1 X97.417 Y95.946 E0.07624
G1 X105.597 Y104.126 E0.94862
G1 X104.667 Y104.126 E0.07624
G1 X96.487 Y95.946 E0.94862
G1 X95.557 Y95.946 E0.07624
G1 X103.738 Y104.126 E0.94862
G1 X102.808 Y104.126 E0.07624
G1 X94.627 Y95.946 E0.94862
G1 X93.698 Y95.946 E0.07624
G1 X101.878 Y104.126 E0.94862
G1 X100.948 Y104.126 E0.07624
G1 X92.768 Y95.946 E0.94862
G1 X91.838 Y95.946 E0.07624
G1 X100.019 Y104.126 E0.94862
G1 X99.089 Y104.126 E0.07624
G1 X90.908 Y95.946 E0.94862
G1 X89.979 Y95.946 E0.07624
G1 X98.159 Y104.126 E0.94862
G1 X97.229 Y104.126 E0.07624
G1 X89.049 Y95.946 E0.94862
G1 X88.119 Y95.946 E0.07624
G1 X96.300 Y104.126 E0.94862
G1 X95.370 Y104.126 E0.07624
G1 X87.189 Y95.946 E0.94862
G1 X86.260 Y95.946 E0.07624
G1 X94.440 Y104.126 E0.94862
G1 X93.510 Y104.126 E0.07624
G1 X85.330 Y95.946 E0.94862
G1 X84.400 Y95.946 E0.07624
G1 X92.581 Y104.126 E0.94862
G1 X91.651 Y104.126 E0.07624
G1 X83.471 Y95.946 E0.94862
G1 X82.541 Y95.946 E0.07624
G1 X90.721 Y104.126 E0.94862
G1 X89.792 Y104.126 E0.07624
G1 X81.611 Y95.946 E0.94862
G1 X80.681 Y95.946 E0.07624
G1 X88.862 Y104.126 E0.94862
G1 X87.932 Y104.126 E0.07624
G1 X79.752 Y95.946 E0.94862
G1 X78.822 Y95.946 E0.07624
G1 X87.002 Y104.126 E0.94862
G1 X86.073 Y104.126 E0.07624
G1 X77.892 Y95.946 E0.94862
G1 X76.962 Y95.946 E0.07624
G1 X85.143 Y104.126 E0.94862
G1 X84.213 Y104.126 E0.07624
G1 X76.033 Y95.946 E0.94862
G1 X75.103 Y95.946 E0.07624
G1 X83.283 Y104.126 E0.94862
G1 X82.354 Y104.126 E0.07624
G1 X74.173 Y95.946 E0.94862
G1 X73.243 Y95.946 E0.07624
G1 X81.424 Y104.126 E0.94862
G1 X80.494 Y104.126 E0.07624
G1 X72.314 Y95.946 E0.94862
G1 X71.384 Y95.946 E0.07624
G1 X79.564 Y104.126 E0.94862
G1 X78.635 Y104.126 E0.07624
G1 X70.454 Y95.946 E0.94862
G1 X69.525 Y95.946 E0.07624
G1 X77.705 Y104.126 E0.94862
G1 X76.775 Y104.126 E0.07624
G1 X69.020 Y96.371 E0.89934
G1 X68.693 Y96.973 E0.05622
G1 X75.846 Y104.126 E0.82947
G1 X74.916 Y104.126 E0.07624
G1 X68.693 Y97.903 E0.72166
G1 X68.693 Y98.833 E0.07624
G1 X73.986 Y104.126 E0.61385
G1 X73.056 Y104.126 E0.07624
G1 X68.693 Y99.762 E0.50603
G1 X68.693 Y100.692 E0.07624
G1 X72.127 Y104.126 E0.39822
G1 X71.197 Y104.126 E0.07624
G1 X68.693 Y101.622 E0.29040
G1 X68.693 Y102.552 E0.07624
G1 X70.267 Y104.126 E0.18259
G1 X69.337 Y104.126 E0.07624
G1 X69.020 Y103.809 E0.03683
G1 X68.622 Y96.020 F6000.000
G1 X63.622 Y96.020 E0.40816 F300.000
G1 X63.023 Y95.645 F6000.000
G1 X60.977 Y95.645 E0.35030 F300.000
G1 X60.307 Y96.263 F6000.000
G1 X59.990 Y95.946 E0.04063 F900.000
G1 X58.964 Y95.946 E0.09272
G1 X60.162 Y97.143 E0.15317
G1 X59.137 Y97.143 E0.09272
G1 X57.939 Y95.946 E0.15317
G1 X56.914 Y95.946 E0.09272
G1 X58.112 Y97.143 E0.15317
G1 X57.086 Y97.143 E0.09272
G1 X55.888 Y95.946 E0.15317
G1 X54.863 Y95.946 E0.09272
G1 X56.061 Y97.143 E0.15317
G1 X55.036 Y97.143 E0.09272
G1 X53.838 Y95.946 E0.15317
G1 X53.693 Y96.826 E0.08066
G1 X54.010 Y97.143 E0.04063
G1 E-4.00000 F1800.00000
G1 X53.500 Y97.336 F6000.000
G1 X53.500 Y104.319 F6000.000
G1 X54.010 Y104.126 F6000.000
G1 E4.00000 F1800.00000
G1 X53.693 Y103.808 E0.04063 F900.000
G1 X53.838 Y102.928 E0.08066
G1 X55.036 Y104.126 E0.15317
G1 X56.061 Y104.126 E0.09272
G1 X54.863 Y102.928 E0.15317
G1 X55.888 Y102.928 E0.09272
G1 X57.086 Y104.126 E0.15317
G1 X58.112 Y104.126 E0.09272
G1 X56.914 Y102.928 E0.15317
G1 X57.939 Y102.928 E0.09272
G1 X59.137 Y104.126 E0.15317
G1 X60.162 Y104.126 E0.09272
G1 X58.964 Y102.928 E0.15317
G1 X59.990 Y102.928 E0.09272
G1 X60.307 Y103.246 E0.04063
G1 X60.977 Y104.427 F6000.000
G1 X63.023 Y104.427 E0.35030 F300.000
G1 X63.622 Y104.052 F6000.000
G1 X68.622 Y104.052 E0.40816 F300.000
M106 S255
G1 E-4.00000 F1800.00000
G1 Z0.540 F6000.000
G1 X60.627 Y103.530 F6000.000
G1 E4.00000 F1800.00000
G1 X60.627 Y104.601 E0.08536 F1800.000
G1 X53.373 Y104.601 E0.57788 F1800.000
G1 X53.373 Y102.609 E0.15868
G1 X60.627 Y102.609 E0.57788
G1 X60.627 Y103.455 E0.06735
G1 E-4.00000 F1800.00000
G1 X60.500 Y97.336 F6000.000
G1 X60.500 Y97.336 F6000.000
G1 X59.631 Y96.467 F6000.000
G1 X60.500 Y95.597 F6000.000
G1 X53.840 Y95.471 F6000.000
G1 E4.00000 F1800.00000
G1 X60.627 Y95.471 E0.54070 F1800.000
G1 X60.627 Y97.462 E0.15868
G1 X53.373 Y97.462 E0.57788 F1800.000
G1 X53.373 Y95.471 E0.15868
G1 X53.765 Y95.471 E0.03120
G1 E-4.00000 F1800.00000
G1 X140.500 Y94.036 F6000.000
G1 X142.817 Y96.536 F6000.000
G1 X152.939 Y95.597 F6000.000
G1 X154.500 Y94.036 F6000.000
G1 X154.627 Y93.909 F6000.000
G1 E4.00000 F1800.00000
G1 X154.627 Y95.471 E0.12440 F1800.000
G1 X156.627 Y95.471 E0.15935 F1800.000
G1 X156.627 Y99.162 E0.29413
G1 X116.627 Y99.162 E3.18697
G1 X116.627 Y104.601 E0.43332
G1 X63.373 Y104.601 E4.24289
G1 X63.373 Y103.659 E0.07503
G1 X68.373 Y103.659 E0.39837
G1 X68.373 Y96.412 E0.57740
G1 X63.373 Y96.412 E0.39837
G1 X63.373 Y95.471 E0.07502
G1 X140.373 Y95.471 E6.13491
G1 X140.373 Y93.909 E0.12440
G1 X154.552 Y93.909 E1.12962
G1 X154.552 Y93.286 F6000.000
G1 X155.250 Y93.286 E0.03126 F1260.000
G1 X155.250 Y94.847 E0.06987
G1 X157.250 Y94.847 E0.08950 F1260.000
G1 X157.250 Y99.786 E0.22101
G1 X117.250 Y99.786 E1.79004
G1 X117.250 Y105.225 E0.24338
G1 X52.750 Y105.225 E2.88644
G1 X52.750 Y101.986 E0.14493
G1 X61.250 Y101.986 E0.38038
G1 X61.250 Y103.786 E0.08055
G1 X62.750 Y103.786 E0.06713
G1 X62.750 Y103.036 E0.03356
G1 X67.750 Y103.036 E0.22376
G1 X67.750 Y97.036 E0.26851
G1 X62.750 Y97.036 E0.22376
G1 X62.750 Y96.286 E0.03356
G1 X61.250 Y96.286 E0.06713
G1 X61.250 Y98.086 E0.08055
G1 X52.750 Y98.086 E0.38038
G1 X52.750 Y94.847 E0.14493
G1 X139.750 Y94.847 E3.89334
G1 X139.750 Y93.286 E0.06987
G1 X154.477 Y93.286 E0.65903
G1 X154.802 Y93.719 F6000.000
G1 X155.758 Y98.673 F6000.000
G1 X156.137 Y98.294 E0.04269 F1800.000
G1 X156.137 Y97.165 E0.09001
G1 X154.629 Y98.673 E0.16998
G1 X153.499 Y98.673 E0.09001
G1 X156.137 Y96.035 E0.29728
G1 X155.083 Y95.960 E0.08423
G1 X152.370 Y98.673 E0.30576
G1 X151.240 Y98.673 E0.09001
G1 X154.137 Y95.776 E0.32647
G1 X154.137 Y94.647 E0.09001
G1 X150.111 Y98.673 E0.45376
G1 X148.981 Y98.673 E0.09001
G1 X153.256 Y94.399 E0.48173
G1 X152.126 Y94.399 E0.09001
G1 X147.852 Y98.673 E0.48173
G1 X146.722 Y98.673 E0.09001
G1 X150.997 Y94.399 E0.48173
G1 X149.867 Y94.399 E0.09001
G1 X145.593 Y98.673 E0.48173
G1 X144.463 Y98.673 E0.09001
G1 X148.738 Y94.399 E0.48173
G1 X147.608 Y94.399 E0.09001
G1 X143.334 Y98.673 E0.48173
G1 X142.205 Y98.673 E0.09001
G1 X146.479 Y94.399 E0.48173
G1 X145.349 Y94.399 E0.09001
G1 X141.075 Y98.673 E0.48173
G1 X139.946 Y98.673 E0.09001
G1 X144.220 Y94.399 E0.48173
G1 X143.090 Y94.399 E0.09001
G1 X138.816 Y98.673 E0.48173
G1 X137.687 Y98.673 E0.09001
G1 X140.400 Y95.960 E0.30576
G1 X140.863 Y95.497 F6000.000
G1 X141.961 Y94.399 E0.12376 F1800.000
G1 X139.270 Y95.960 F6000.000
G1 X136.557 Y98.673 E0.30576 F1800.000
G1 X135.428 Y98.673 E0.09001
G1 X138.141 Y95.960 E0.30576
G1 X137.011 Y95.960 E0.09001
G1 X134.298 Y98.673 E0.30576
G1 X133.169 Y98.673 E0.09001
G1 X135.882 Y95.960 E0.30576
G1 X134.752 Y95.960 E0.09001
G1 X132.039 Y98.673 E0.30576
G1 X130.910 Y98.673 E0.09001
G1 X133.623 Y95.960 E0.30576
G1 X132.493 Y95.960 E0.09001
G1 X129.780 Y98.673 E0.30576
G1 X128.651 Y98.673 E0.09001
G1 X131.364 Y95.960 E0.30576
G1 X130.234 Y95.960 E0.09001
G1 X127.521 Y98.673 E0.30576
G1 X126.392 Y98.673 E0.09001
G1 X129.105 Y95.960 E0.30576
G1 X127.975 Y95.960 E0.09001
G1 X125.262 Y98.673 E0.30576
G1 X124.133 Y98.673 E0.09001
G1 X126.846 Y95.960 E0.30576
G1 X125.716 Y95.960 E0.09001
G1 X123.003 Y98.673 E0.30576
G1 X121.874 Y98.673 E0.09001
G1 X124.587 Y95.960 E0.30576
G1 X123.457 Y95.960 E0.09001
G1 X120.744 Y98.673 E0.30576
G1 X119.615 Y98.673 E0.09001
G1 X122.328 Y95.960 E0.30576
G1 X121.198 Y95.960 E0.09001
G1 X118.485 Y98.673 E0.30576
G1 X117.356 Y98.673 E0.09001
G1 X120.069 Y95.960 E0.30576
G1 X118.939 Y95.960 E0.09001
G1 X110.788 Y104.112 E0.91870
G1 X111.917 Y104.112 E0.09001
G1 X116.137 Y99.892 E0.47562
G1 X116.137 Y101.021 E0.09001
G1 X113.047 Y104.112 E0.34832
G1 X114.176 Y104.112 E0.09001
G1 X116.137 Y102.151 E0.22103
G1 X116.137 Y103.280 E0.09001
G1 X115.306 Y104.112 E0.09373
G1 X109.658 Y104.112 F6000.000
