; generated by Slic3r 1.2.9 on 2016-12-31 at 14:58:06

; external perimeters extrusion width = 0.50mm
; perimeters extrusion width = 0.50mm
; infill extrusion width = 0.50mm
; solid infill extrusion width = 0.50mm
; top infill extrusion width = 0.50mm

M107
;Basic settings: Layer height: {layer_height} Walls: {wall_thickness} Fill: {fill_density}
;Print time: {print_time}
;Filament used: {filament_amount}m {filament_weight}g
;Filament cost: {filament_cost}
;M190 S{print_bed_temperature} ;Uncomment to add your own bed temperature line
;M109 S{print_temperature} ;Uncomment to add your own temperature line
G21        ;metric values
G90        ;absolute positioning
M83
G10 P0 S200
T0
M116


G21 ; set units to millimeters
G90 ; use absolute coordinates
M83 ; use relative distances for extrusion
G1 E-3.20000 F3000.00000
G1 Z0.400 F9000.000
G1 X20.205 Y0.000 F9000.000
G1 Z0.300 F9000.000
G1 E3.20000 F3000.00000
G1 X20.205 Y29.690 E2.72403 F1200.000
G1 X19.810 Y31.361 E0.15755
G1 X18.710 Y32.679 E0.15755
G1 X16.539 Y33.425 E0.21062
G1 X-11.500 Y33.945 E2.57303
G1 X-16.469 Y33.946 E0.45594
G1 X-18.141 Y33.551 E0.15755
G1 X-19.459 Y32.451 E0.15755
G1 X-20.205 Y30.210 E0.21667
G1 X-20.205 Y-29.690 E5.49586
G1 X-19.810 Y-31.361 E0.15755
G1 X-18.710 Y-32.679 E0.15755
G1 X-16.711 Y-33.417 E0.19552
G1 X-8.672 Y-33.938 E0.73912
G1 X16.469 Y-33.946 E2.30675
G1 X18.141 Y-33.551 E0.15755
G1 X19.459 Y-32.451 E0.15755 F1200.000
G1 X20.205 Y-30.210 E0.21667
G1 X20.205 Y-0.060 E2.76632
G1 E-3.20000 F3000.00000
G1 Z0.700 F9000.000
G1 X14.292 Y24.312 F9000.000
G1 Z0.300 F9000.000
G1 E3.20000 F3000.00000
G1 X14.638 Y24.424 E0.03343 F900.000
G1 X14.946 Y24.620 E0.03343
G1 X15.195 Y24.885 E0.03343
G1 X15.371 Y25.204 E0.03343
G1 X15.462 Y25.557 E0.03343
G1 X15.462 Y25.922 E0.03343
G1 X15.371 Y26.275 E0.03343
G1 X15.195 Y26.594 E0.03343
G1 X14.946 Y26.860 E0.03343
G1 X14.638 Y27.055 E0.03343
G1 X14.292 Y27.167 E0.03343
G1 X13.928 Y27.190 E0.03343
G1 X13.570 Y27.122 E0.03343
G1 X13.241 Y26.967 E0.03343
G1 X12.960 Y26.735 E0.03343
G1 X12.746 Y26.440 E0.03343
G1 X12.612 Y26.101 E0.03343
G1 X12.566 Y25.740 E0.03343
G1 X12.612 Y25.378 E0.03343
G1 X12.746 Y25.039 E0.03343
G1 X12.960 Y24.745 E0.03343
G1 X13.241 Y24.512 E0.03343
G1 X13.570 Y24.357 E0.03343
G1 X13.928 Y24.289 E0.03343 F900.000
G1 X14.232 Y24.308 E0.02792
G1 X14.541 Y24.046 F9000.000
G1 X13.928 Y15.190 F9000.000
G1 X13.570 Y15.122 E0.03343 F900.000
G1 X13.241 Y14.967 E0.03343
G1 X12.960 Y14.735 E0.03343
G1 X12.746 Y14.440 E0.03343
G1 X12.612 Y14.101 E0.03343
G1 X12.566 Y13.740 E0.03343
G1 X12.612 Y13.378 E0.03343
G1 X12.746 Y13.039 E0.03343
G1 X12.960 Y12.745 E0.03343
G1 X13.241 Y12.512 E0.03343
G1 X13.570 Y12.357 E0.03343
G1 X13.928 Y12.289 E0.03343 F900.000
G1 X14.292 Y12.312 E0.03343
G1 X14.638 Y12.424 E0.03343
G1 X14.946 Y12.620 E0.03343
G1 X15.195 Y12.885 E0.03343
G1 X15.371 Y13.204 E0.03343
G1 X15.462 Y13.557 E0.03343
G1 X15.462 Y13.922 E0.03343
G1 X15.371 Y14.275 E0.03343
G1 X15.195 Y14.594 E0.03343
G1 X14.946 Y14.860 E0.03343
G1 X14.638 Y15.055 E0.03343
G1 X14.292 Y15.167 E0.03343
G1 X13.988 Y15.187 E0.02793
G1 X13.714 Y15.485 F9000.000
G1 E-3.20000 F3000.00000
G1 Z0.700 F9000.000
G1 X13.928 Y-12.810 F9000.000
G1 Z0.300 F9000.000
G1 E3.20000 F3000.00000
G1 X13.570 Y-12.878 E0.03343 F900.000
G1 X13.241 Y-13.033 E0.03343
G1 X12.960 Y-13.265 E0.03343
G1 X12.746 Y-13.560 E0.03343
G1 X12.612 Y-13.899 E0.03343
G1 X12.566 Y-14.260 E0.03343
G1 X12.612 Y-14.622 E0.03343
G1 X12.746 Y-14.961 E0.03343
G1 X12.960 Y-15.255 E0.03343
G1 X13.241 Y-15.488 E0.03343
G1 X13.570 Y-15.643 E0.03343
G1 X13.928 Y-15.711 E0.03343 F900.000
G1 X14.292 Y-15.688 E0.03343
G1 X14.638 Y-15.576 E0.03343
G1 X14.946 Y-15.380 E0.03343
G1 X15.195 Y-15.115 E0.03343
G1 X15.371 Y-14.796 E0.03343
G1 X15.462 Y-14.443 E0.03343
G1 X15.462 Y-14.078 E0.03343
G1 X15.371 Y-13.725 E0.03343
G1 X15.195 Y-13.406 E0.03343
G1 X14.946 Y-13.140 E0.03343
G1 X14.638 Y-12.945 E0.03343
G1 X14.292 Y-12.833 E0.03343
G1 X13.988 Y-12.813 E0.02793
G1 X13.714 Y-12.515 F9000.000
G1 E-3.20000 F3000.00000
G1 Z0.700 F9000.000
G1 X13.928 Y-24.810 F9000.000
G1 Z0.300 F9000.000
G1 E3.20000 F3000.00000
G1 X13.570 Y-24.878 E0.03343 F900.000
G1 X13.241 Y-25.033 E0.03343
G1 X12.960 Y-25.265 E0.03343
G1 X12.746 Y-25.560 E0.03343
G1 X12.612 Y-25.899 E0.03343
G1 X12.566 Y-26.260 E0.03343
G1 X12.612 Y-26.622 E0.03343
G1 X12.746 Y-26.961 E0.03343
G1 X12.960 Y-27.255 E0.03343
G1 X13.241 Y-27.488 E0.03343
G1 X13.570 Y-27.643 E0.03343
G1 X13.928 Y-27.711 E0.03343 F900.000
G1 X14.292 Y-27.688 E0.03343
G1 X14.638 Y-27.576 E0.03343
G1 X14.946 Y-27.380 E0.03343
G1 X15.195 Y-27.115 E0.03343
G1 X15.371 Y-26.796 E0.03343
G1 X15.462 Y-26.443 E0.03343
G1 X15.462 Y-26.078 E0.03343
G1 X15.371 Y-25.725 E0.03343
G1 X15.195 Y-25.406 E0.03343
G1 X14.946 Y-25.140 E0.03343
G1 X14.638 Y-24.945 E0.03343
G1 X14.292 Y-24.833 E0.03343
G1 X13.988 Y-24.813 E0.02793
G1 X13.714 Y-24.515 F9000.000
G1 X10.069 Y-3.103 F9000.000
G1 X10.768 Y-2.872 E0.06750 F900.000
G1 X11.380 Y-2.478 E0.06677
G1 X11.871 Y-1.947 E0.06633
G1 X12.203 Y-1.343 E0.06321
G1 X12.392 Y-0.608 E0.06967
G1 X12.392 Y0.081 E0.06328
G1 X12.219 Y0.782 E0.06624
G1 X11.874 Y1.423 E0.06677
G1 X11.380 Y1.957 E0.06677
G1 X10.761 Y2.355 E0.06747
G1 X10.034 Y2.586 E0.07001
G1 X9.348 Y2.629 E0.06307
G1 X8.635 Y2.496 E0.06651
G1 X7.976 Y2.189 E0.06678
G1 X7.414 Y1.726 E0.06678
G1 X6.979 Y1.130 E0.06769
G1 X6.710 Y0.419 E0.06974
G1 X6.624 Y-0.261 E0.06285
G1 X6.716 Y-0.982 E0.06675
G1 X6.984 Y-1.658 E0.06668
G1 X7.387 Y-2.213 E0.06293
G1 X7.967 Y-2.706 E0.06984
G1 X8.633 Y-3.016 E0.06739
G1 X9.308 Y-3.145 E0.06303 F900.000
G1 X10.010 Y-3.107 E0.06447
G1 X9.931 Y-2.374 F9000.000
G1 X10.448 Y-2.203 E0.04992 F900.000
G1 X10.903 Y-1.910 E0.04966
G1 X11.269 Y-1.514 E0.04951
G1 X11.513 Y-1.070 E0.04646
G1 X11.657 Y-0.515 E0.05261
G1 X11.657 Y-0.008 E0.04649
G1 X11.527 Y0.515 E0.04947
G1 X11.271 Y0.992 E0.04966
G1 X10.903 Y1.389 E0.04966
G1 X10.446 Y1.684 E0.04991
G1 X9.898 Y1.857 E0.05273
G1 X9.393 Y1.889 E0.04641
G1 X8.862 Y1.790 E0.04958
G1 X8.371 Y1.561 E0.04967
G1 X7.953 Y1.217 E0.04968
G1 X7.632 Y0.777 E0.05000
G1 X7.429 Y0.240 E0.05262
G1 X7.366 Y-0.261 E0.04633
G1 X7.434 Y-0.797 E0.04966
G1 X7.634 Y-1.300 E0.04964
G1 X7.931 Y-1.709 E0.04636
G1 X8.368 Y-2.081 E0.05266
G1 X8.861 Y-2.310 E0.04989
G1 X9.358 Y-2.405 E0.04640 F900.000
G1 X9.872 Y-2.377 E0.04721
G1 X10.206 Y-2.665 F9000.000
G1 E-3.20000 F3000.00000
G1 Z0.700 F9000.000
G1 X12.096 Y12.682 F9000.000
G1 Z0.300 F9000.000
G1 E3.20000 F3000.00000
G1 X11.893 Y13.194 E0.05048 F900.000
G1 X11.824 Y13.740 E0.05048
G1 X11.893 Y14.285 E0.05048
G1 X12.096 Y14.797 E0.05048
G1 X12.419 Y15.242 E0.05048
G1 X12.843 Y15.593 E0.05048
G1 X13.341 Y15.827 E0.05048
G1 X13.882 Y15.930 E0.05048
G1 X14.431 Y15.896 E0.05048
G1 X14.954 Y15.726 E0.05048
G1 X15.334 Y15.485 E0.04127
G1 X15.334 Y23.994 E0.78077
G1 X14.954 Y23.753 E0.04127
G1 X14.431 Y23.583 E0.05048
G1 X13.882 Y23.549 E0.05048
G1 X13.341 Y23.652 E0.05048
G1 X12.843 Y23.886 E0.05048
G1 X12.419 Y24.237 E0.05048
G1 X12.096 Y24.682 E0.05048
G1 X11.893 Y25.194 E0.05048
G1 X11.824 Y25.740 E0.05048
G1 X11.893 Y26.285 E0.05048
G1 X12.096 Y26.797 E0.05048
G1 X12.419 Y27.242 E0.05048
G1 X12.843 Y27.593 E0.05048
G1 X13.341 Y27.827 E0.05048
G1 X13.882 Y27.930 E0.05048
G1 X14.431 Y27.896 E0.05048
G1 X14.954 Y27.726 E0.05048
G1 X15.334 Y27.485 E0.04127
G1 X15.334 Y28.554 E0.09810
G1 X-0.197 Y28.554 E1.42494
G1 X0.219 Y27.782 E0.08043
G1 X0.392 Y27.081 E0.06624
G1 X0.392 Y26.392 E0.06328
G1 X0.203 Y25.657 E0.06967
G1 X-0.129 Y25.053 E0.06321
G1 X-0.620 Y24.522 E0.06633
G1 X-1.232 Y24.128 E0.06677
G1 X-1.931 Y23.897 E0.06750
G1 X-2.692 Y23.855 E0.06997
G1 X-3.367 Y23.984 E0.06303
G1 X-4.033 Y24.294 E0.06739
G1 X-4.613 Y24.787 E0.06984
G1 X-5.016 Y25.342 E0.06293
G1 X-5.284 Y26.018 E0.06668
G1 X-5.376 Y26.739 E0.06675
G1 X-5.290 Y27.419 E0.06285
G1 X-5.021 Y28.130 E0.06974
G1 X-4.712 Y28.554 E0.04814
G1 X-7.295 Y28.554 E0.23699
G1 X-7.295 Y-29.075 E5.28747
G1 X-4.713 Y-29.075 E0.23690
G1 X-5.016 Y-28.658 E0.04729
G1 X-5.284 Y-27.982 E0.06668 F900.000
G1 X-5.376 Y-27.261 E0.06675
G1 X-5.290 Y-26.581 E0.06285
G1 X-5.021 Y-25.870 E0.06974
G1 X-4.586 Y-25.274 E0.06769
G1 X-4.024 Y-24.811 E0.06678
G1 X-3.365 Y-24.504 E0.06678
G1 X-2.652 Y-24.371 E0.06651
G1 X-1.966 Y-24.414 E0.06307
G1 X-1.239 Y-24.645 E0.07002
G1 X-0.620 Y-25.043 E0.06747
G1 X-0.126 Y-25.577 E0.06677
G1 X0.219 Y-26.218 E0.06677
G1 X0.392 Y-26.919 E0.06624
G1 X0.392 Y-27.608 E0.06328
G1 X0.203 Y-28.343 E0.06967
G1 X-0.199 Y-29.075 E0.07657
G1 X15.334 Y-29.075 E1.42519
G1 X15.334 Y-28.006 E0.09810
G1 X14.954 Y-28.247 E0.04127
G1 X14.431 Y-28.417 E0.05048
G1 X13.882 Y-28.451 E0.05048
G1 X13.341 Y-28.348 E0.05048
G1 X12.843 Y-28.114 E0.05048
G1 X12.419 Y-27.763 E0.05048
G1 X12.096 Y-27.318 E0.05048
G1 X11.893 Y-26.806 E0.05048
G1 X11.824 Y-26.260 E0.05048
G1 X11.893 Y-25.715 E0.05048
G1 X12.096 Y-25.203 E0.05048
G1 X12.419 Y-24.758 E0.05048
G1 X12.843 Y-24.407 E0.05048
G1 X13.341 Y-24.173 E0.05048
G1 X13.882 Y-24.070 E0.05048
G1 X14.431 Y-24.104 E0.05048
G1 X14.954 Y-24.274 E0.05048
G1 X15.334 Y-24.515 E0.04127
G1 X15.334 Y-16.006 E0.78077
G1 X14.954 Y-16.247 E0.04127
G1 X14.431 Y-16.417 E0.05048
G1 X13.882 Y-16.451 E0.05048
G1 X13.341 Y-16.348 E0.05048
G1 X12.843 Y-16.114 E0.05048
G1 X12.419 Y-15.763 E0.05048
G1 X12.096 Y-15.318 E0.05048
G1 X11.893 Y-14.806 E0.05048
G1 X11.824 Y-14.260 E0.05048
G1 X11.893 Y-13.715 E0.05048
G1 X12.096 Y-13.203 E0.05048
G1 X12.419 Y-12.758 E0.05048
G1 X12.843 Y-12.407 E0.05048
G1 X13.341 Y-12.173 E0.05048
G1 X13.882 Y-12.070 E0.05048
G1 X14.431 Y-12.104 E0.05048
G1 X14.954 Y-12.274 E0.05048
G1 X15.334 Y-12.515 E0.04127
G1 X15.334 Y11.994 E2.24878
G1 X14.954 Y11.753 E0.04127
G1 X14.431 Y11.583 E0.05048
G1 X13.882 Y11.549 E0.05048
G1 X13.341 Y11.652 E0.05048
G1 X12.843 Y11.886 E0.05048
G1 X12.419 Y12.237 E0.05048
G1 X12.131 Y12.634 E0.04498
G1 X16.069 Y12.634 F9000.000
G1 X16.069 Y29.290 E1.52820 F900.000
G1 X-2.229 Y29.290 E1.67888
G1 X-2.287 Y28.916 E0.03471
G1 X-1.554 Y28.684 E0.07049
G1 X-1.097 Y28.389 E0.04991
G1 X-0.729 Y27.992 E0.04966
G1 X-0.473 Y27.515 E0.04966
G1 X-0.343 Y26.992 E0.04947
G1 X-0.343 Y26.485 E0.04649
G1 X-0.487 Y25.930 E0.05261
G1 X-0.731 Y25.486 E0.04646
G1 X-1.097 Y25.090 E0.04951
G1 X-1.552 Y24.797 E0.04967
G1 X-2.069 Y24.626 E0.04992
G1 X-2.642 Y24.595 E0.05272
G1 X-3.139 Y24.690 E0.04640
G1 X-3.632 Y24.919 E0.04989
G1 X-4.069 Y25.291 E0.05266
G1 X-4.366 Y25.700 E0.04636
G1 X-4.566 Y26.203 E0.04964
G1 X-4.634 Y26.739 E0.04966
G1 X-4.571 Y27.240 E0.04633
G1 X-4.368 Y27.777 E0.05262
G1 X-4.047 Y28.217 E0.05000
G1 X-3.629 Y28.561 E0.04968
G1 X-3.138 Y28.790 E0.04967
G1 X-2.608 Y28.889 E0.04950
G1 X-2.645 Y29.290 E0.03693
G1 X-8.031 Y29.290 E0.49413
G1 X-8.031 Y-29.810 E5.42246
G1 X-2.652 Y-29.810 E0.49348
G1 X-2.614 Y-29.411 E0.03685
G1 X-3.139 Y-29.310 E0.04902 F900.000
G1 X-3.632 Y-29.081 E0.04989
G1 X-4.069 Y-28.709 E0.05266
G1 X-4.366 Y-28.300 E0.04636
G1 X-4.566 Y-27.797 E0.04964
G1 X-4.634 Y-27.261 E0.04966
G1 X-4.571 Y-26.760 E0.04633
G1 X-4.368 Y-26.223 E0.05262
G1 X-4.047 Y-25.783 E0.05000
G1 X-3.629 Y-25.439 E0.04968
G1 X-3.138 Y-25.210 E0.04967
G1 X-2.607 Y-25.111 E0.04958
G1 X-2.102 Y-25.143 E0.04641
G1 X-1.554 Y-25.316 E0.05273
G1 X-1.097 Y-25.611 E0.04991
G1 X-0.729 Y-26.008 E0.04966
G1 X-0.473 Y-26.485 E0.04966
G1 X-0.343 Y-27.008 E0.04947
G1 X-0.343 Y-27.515 E0.04649
G1 X-0.487 Y-28.070 E0.05261
G1 X-0.731 Y-28.514 E0.04646
G1 X-1.097 Y-28.910 E0.04951
G1 X-1.552 Y-29.203 E0.04966
G1 X-2.265 Y-29.439 E0.06895
G1 X-2.206 Y-29.810 E0.03448
G1 X16.069 Y-29.810 E1.67674
G1 X16.069 Y12.574 E3.88875
G1 X15.723 Y12.834 F9000.000
G1 X14.885 Y10.779 F9000.000
G1 X-6.846 Y-10.951 E2.83516 F900.000
G1 X-6.846 Y-9.905 E0.09651
G1 X14.166 Y11.107 E2.74144
G1 X13.263 Y11.249 E0.08437
G1 X-6.846 Y-8.859 E2.62358
G1 X-6.846 Y-7.813 E0.09651
G1 X12.575 Y11.608 E2.53385
G1 X12.032 Y12.111 E0.06829
G1 X-6.846 Y-6.767 E2.46302
G1 X-6.846 Y-5.721 E0.09651
G1 X11.633 Y12.757 E2.41091
G1 X11.410 Y13.581 E0.07868
G1 X-6.846 Y-4.675 E2.38185
G1 X-6.846 Y-3.629 E0.09651
G1 X11.512 Y14.729 E2.39517
G1 X13.044 Y16.260 F9000.000
G1 X14.885 Y18.101 E0.24019 F900.000
G1 X14.885 Y19.147 E0.09651
G1 X-6.846 Y-2.583 E2.83516
G1 X-6.846 Y-1.537 E0.09651
G1 X14.885 Y20.193 E2.83516
G1 X14.885 Y21.239 E0.09651
G1 X-6.846 Y-0.491 E2.83516
G1 X-6.846 Y0.555 E0.09651
G1 X14.885 Y22.286 E2.83516
G1 X14.693 Y23.140 E0.08077
G1 X-6.846 Y1.601 E2.81013
G1 X-6.846 Y2.647 E0.09651
G1 X13.667 Y23.160 E2.67624
G1 X12.887 Y23.426 E0.07600
G1 X-6.846 Y3.693 E2.57455
G1 X-6.846 Y4.739 E0.09651
G1 X12.273 Y23.858 E2.49439
G1 X11.800 Y24.431 E0.06855
G1 X-6.846 Y5.785 E2.43267
G1 X-6.846 Y6.832 E0.09651
G1 X11.476 Y25.153 E2.39046
G1 X11.399 Y26.122 E0.08967
G1 X-6.846 Y7.878 E2.38040
G1 X-6.846 Y8.924 E0.09651
G1 X12.335 Y28.105 E2.50256
G1 X11.289 Y28.105 E0.09651
G1 X-6.846 Y9.970 E2.36608
G1 X-6.846 Y11.016 E0.09651
G1 X10.243 Y28.105 E2.22960
G1 X9.197 Y28.105 E0.09651
G1 X-6.846 Y12.062 E2.09312
G1 X-6.846 Y13.108 E0.09651
G1 X8.151 Y28.105 E1.95664
G1 X7.105 Y28.105 E0.09651
G1 X-6.846 Y14.154 E1.82017
G1 X-6.846 Y15.200 E0.09651
G1 X6.059 Y28.105 E1.68369
G1 X5.013 Y28.105 E0.09651
G1 X-6.846 Y16.246 E1.54721
G1 X-6.846 Y17.292 E0.09651
G1 X3.967 Y28.105 E1.41073
G1 X2.921 Y28.105 E0.09651
G1 X0.795 Y25.979 E0.27732
G1 X0.827 Y27.057 E0.09950
G1 X1.875 Y28.105 E0.13667
G1 X-1.735 Y23.449 F9000.000
G1 X-6.846 Y18.338 E0.66677 F900.000
G1 X-6.846 Y19.384 E0.09651
G1 X-2.787 Y23.443 E0.52956
G1 X-3.615 Y23.661 E0.07901
G1 X-6.846 Y20.430 E0.42149
G1 X-6.846 Y21.476 E0.09651
G1 X-4.303 Y24.019 E0.33172
G1 X-4.869 Y24.499 E0.06847
G1 X-6.846 Y22.522 E0.25793
G1 X-6.846 Y23.568 E0.09651
G1 X-5.317 Y25.097 E0.19949
G1 X-5.639 Y25.821 E0.07308
G1 X-6.846 Y24.615 E0.15741
G1 X-6.846 Y25.661 E0.09651
G1 X-5.805 Y26.701 E0.13577
G1 X-6.846 Y26.707 E0.09601
G1 X-5.661 Y27.891 E0.15452
G1 X-6.494 Y28.105 E0.07928
G1 X-6.846 Y27.753 E0.04593
G1 E-3.20000 F3000.00000
G1 Z0.700 F9000.000
G1 X14.181 Y16.352 F9000.000
G1 Z0.300 F9000.000
G1 E3.20000 F3000.00000
G1 X14.885 Y17.055 E0.09175 F900.000
G1 E-3.20000 F3000.00000
G1 Z0.700 F9000.000
G1 X14.885 Y1.364 F9000.000
G1 Z0.300 F9000.000
G1 E3.20000 F3000.00000
G1 X12.842 Y-0.679 E0.26654 F900.000
G1 X12.769 Y0.294 E0.09002
G1 X14.885 Y2.410 E0.27607
G1 X14.885 Y3.456 E0.09651
G1 X12.507 Y1.079 E0.31023
G1 X12.113 Y1.731 E0.07029
G1 X14.885 Y4.503 E0.36161
G1 X14.885 Y5.549 E0.09651
G1 X11.609 Y2.273 E0.42739
G1 X10.973 Y2.683 E0.06982
G1 X14.885 Y6.595 E0.51041
G1 X14.885 Y7.641 E0.09651
G1 X10.205 Y2.961 E0.61056
G1 X9.272 Y3.074 E0.08669
G1 X14.885 Y8.687 E0.73227
G1 X14.885 Y9.733 E0.09651
G1 X7.880 Y2.729 E0.91384
G1 X6.518 Y1.366 F9000.000
G1 X-6.846 Y-11.998 E1.74359 F900.000
G1 X-6.846 Y-13.044 E0.09651
G1 X6.182 Y-0.016 E1.69967
G1 X6.279 Y-0.965 E0.08795
G1 X-6.846 Y-14.090 E1.71243
G1 X-6.846 Y-15.136 E0.09651
G1 X6.574 Y-1.716 E1.75088
G1 X6.999 Y-2.337 E0.06943
G1 X-6.846 Y-16.182 E1.80632
G1 X-6.846 Y-17.228 E0.09651
G1 X7.537 Y-2.845 E1.87649
G1 X8.183 Y-3.245 E0.07011
G1 X-6.846 Y-18.274 E1.96081
G1 X-6.846 Y-19.320 E0.09651
G1 X8.965 Y-3.510 E2.06279
G1 X9.952 Y-3.568 E0.09124
G1 X-6.846 Y-20.366 E2.19160
G1 X-6.846 Y-21.412 E0.09651
G1 X14.885 Y0.318 E2.83516
G1 X14.885 Y-0.728 E0.09651
G1 X-6.846 Y-22.458 E2.83516
G1 X-6.846 Y-23.504 E0.09651
G1 X14.885 Y-1.774 E2.83516
G1 X14.885 Y-2.820 E0.09651
G1 X-6.846 Y-24.550 E2.83516
G1 X-6.846 Y-25.596 E0.09651
G1 X14.885 Y-3.866 E2.83516
G1 X14.885 Y-4.912 E0.09651
G1 X-6.846 Y-26.642 E2.83516
G1 X-5.767 Y-26.610 F9000.000
G1 X-6.846 Y-27.688 E0.14072 F900.000
G1 X-6.737 Y-28.626 E0.08704
G1 X-5.761 Y-27.649 E0.12737
G1 X-3.129 Y-23.971 F9000.000
G1 X14.885 Y-5.958 E2.35018 F900.000
G1 X14.885 Y-7.004 E0.09651
G1 X-2.078 Y-23.967 E2.21311
G1 X-1.270 Y-24.205 E0.07768
G1 X14.885 Y-8.050 E2.10776
G1 X14.885 Y-11.188 F9000.000
G1 X14.406 Y-11.667 E0.06240 F900.000
G1 X13.345 Y-11.682 E0.09795
G1 X14.885 Y-10.142 E0.20092
G1 X14.885 Y-9.096 E0.09651
