; generated by Slic3r 1.2.9 on 2016-12-21 at 10:10:16

; external perimeters extrusion width = 0.50mm
; perimeters extrusion width = 0.50mm
; infill extrusion width = 0.50mm
; solid infill extrusion width = 0.50mm
; top infill extrusion width = 0.50mm

M107
;Basic settings: Layer height: {layer_height} Walls: {wall_thickness} Fill: {fill_density}
;Print time: {print_time}
;Filament used: {filament_amount}m {filament_weight}g
;Filament cost: {filament_cost}
;M190 S{print_bed_temperature} ;Uncomment to add your own bed temperature line
;M109 S{print_temperature} ;Uncomment to add your own temperature line
G21        ;metric values
G90        ;absolute positioning
M83
G10 P0 S200
T0
M116


G21 ; set units to millimeters
G90 ; use absolute coordinates
M83 ; use relative distances for extrusion
G1 E-3.20000 F3000.00000
G1 Z0.400 F9000.000
G1 X11.686 Y0.000 F9000.000
G1 Z0.300 F9000.000
G1 E3.20000 F3000.00000
G1 X11.686 Y5.979 E0.54860 F1200.000
G1 X11.291 Y7.650 E0.15755
G1 X10.591 Y8.621 E0.10975
G1 X2.621 Y16.591 E1.03424
G1 X1.160 Y17.494 E0.15755
G1 X-0.021 Y17.686 E0.10975
G1 X-7.950 Y17.686 E0.72752
G1 X-9.621 Y17.291 E0.15755
G1 X-10.939 Y16.190 E0.15755
G1 X-11.686 Y13.950 E0.21667
G1 X-11.686 Y-13.950 E2.55984
G1 X-11.291 Y-15.621 E0.15755
G1 X-10.190 Y-16.939 E0.15755
G1 X-7.950 Y-17.686 E0.21667
G1 X-0.021 Y-17.686 E0.72752
G1 X1.650 Y-17.291 E0.15755
G1 X2.621 Y-16.591 E0.10975 F1200.000
G1 X10.591 Y-8.621 E1.03424
G1 X11.494 Y-7.160 E0.15755
G1 X11.686 Y-5.979 E0.10975
G1 X11.686 Y-0.060 E0.54310
G1 E-3.20000 F3000.00000
G1 Z0.700 F9000.000
G1 X0.498 Y13.431 F9000.000
G1 Z0.300 F9000.000
G1 E3.20000 F3000.00000
G1 X-7.950 Y13.428 E0.77514 F900.000
G1 E-3.20000 F3000.00000
G1 Z0.700 F9000.000
G1 X-4.450 Y7.450 F9000.000
G1 Z0.300 F9000.000
G1 E3.20000 F3000.00000
G1 X-4.450 Y-7.450 E1.36708 F900.000
G1 X4.450 Y-7.450 E0.81658 F900.000
G1 X4.450 Y7.450 E1.36708
G1 X-4.390 Y7.450 E0.81107
G1 X-4.850 Y7.450 F9000.000
G1 E-3.20000 F3000.00000
G1 Z0.700 F9000.000
G1 X-1.522 Y-8.186 F9000.000
G1 Z0.300 F9000.000
G1 E3.20000 F3000.00000
G1 X-5.186 Y-8.186 E0.33614 F900.000
G1 X-5.186 Y7.957 E1.48105
G1 X-6.814 Y7.958 E0.14944
G1 X-6.814 Y-12.814 E1.90589
G1 X-1.222 Y-12.814 E0.51307
G1 X-2.019 Y-11.967 E0.10671
G1 X-2.320 Y-11.418 E0.05738 F900.000
G1 X-2.475 Y-10.813 E0.05738
G1 X-2.475 Y-10.187 E0.05738
G1 X-2.320 Y-9.582 E0.05738
G1 X-2.019 Y-9.033 E0.05738
G1 X-1.222 Y-8.186 E0.10671
G1 X-1.462 Y-8.186 E0.02199
G1 X3.868 Y-8.456 F9000.000
G1 X4.138 Y-8.186 E0.03505 F900.000
G1 X1.086 Y-8.186 E0.28001 F900.000
G1 X1.819 Y-8.792 E0.08729
G1 X2.186 Y-9.298 E0.05738
G1 X2.424 Y-9.899 E0.05930
G1 X3.825 Y-8.498 E0.18176
G1 X6.814 Y0.303 F9000.000
G1 X6.814 Y5.509 E0.47766 F900.000
G1 X5.186 Y7.138 E0.21134
G1 X5.186 Y-7.138 E1.30977
G1 X6.814 Y-5.509 E0.21134
G1 X6.814 Y0.243 E0.52773 F900.000
G1 X7.550 Y0.243 F9000.000
G1 X7.550 Y5.814 E0.51112 F900.000
G1 X4.682 Y8.682 E0.37220
G1 X-7.550 Y8.695 E1.12225
G1 X-7.550 Y-13.550 E2.04095
G1 X-0.186 Y-13.550 E0.67561
G1 X1.014 Y-12.349 E0.15578
G1 X0.801 Y-12.046 E0.03404 F900.000
G1 X0.542 Y-12.168 E0.02626
G1 X0.110 Y-12.250 E0.04033
G1 X-0.329 Y-12.223 E0.04033
G1 X-0.747 Y-12.087 E0.04033
G1 X-1.118 Y-11.851 E0.04033
G1 X-1.419 Y-11.531 E0.04033
G1 X-1.630 Y-11.146 E0.04033
G1 X-1.740 Y-10.720 E0.04033
G1 X-1.740 Y-10.280 E0.04033
G1 X-1.630 Y-9.854 E0.04033
G1 X-1.419 Y-9.469 E0.04033
G1 X-1.118 Y-9.149 E0.04033
G1 X-0.747 Y-8.913 E0.04033
G1 X-0.329 Y-8.777 E0.04033
G1 X0.110 Y-8.750 E0.04033
G1 X0.542 Y-8.832 E0.04033
G1 X0.940 Y-9.019 E0.04033
G1 X1.278 Y-9.300 E0.04033
G1 X1.537 Y-9.655 E0.04033
G1 X1.698 Y-10.064 E0.04033
G1 X1.754 Y-10.500 E0.04033
G1 X1.698 Y-10.936 E0.04033
G1 X1.547 Y-11.319 E0.03780
G1 X1.847 Y-11.516 E0.03297
G1 X7.550 Y-5.814 E0.73997
G1 X7.550 Y0.183 E0.55018
G1 X7.204 Y0.443 F9000.000
G1 X6.000 Y5.803 F9000.000
G1 X6.000 Y-5.803 E2.22295 F600.000
G1 X2.784 Y-8.655 F9000.000
G1 X2.459 Y-8.980 E0.04221 F900.000
G1 X0.997 Y-8.617 F9000.000
G1 X0.670 Y-8.410 E0.03548 F600.000
G1 X0.172 Y-8.176 E0.05044
G1 X-0.039 Y-8.104 E0.02047
G1 X-0.246 Y-8.110 E0.01899
G1 X-0.462 Y-8.216 E0.02209
G1 X-0.926 Y-8.511 E0.05044
G1 X-1.225 Y-8.756 E0.03548
G1 X-2.439 Y-12.018 F9000.000
G1 X-2.786 Y-12.365 E0.04751 F900.000
G1 X-2.787 Y-11.268 E0.10625
G1 X-3.884 Y-12.365 E0.15026
G1 X-4.982 Y-12.365 E0.10639
G1 X-2.925 Y-10.307 E0.28189
G1 X-2.505 Y-8.789 E0.15259
G1 X-6.081 Y-12.365 E0.48987
G1 X-6.365 Y-11.551 E0.08351
G1 X-3.449 Y-8.635 E0.39953
G1 X-4.915 Y-9.003 E0.14642
G1 X-6.365 Y-10.453 E0.19869
G1 X-6.365 Y-9.355 E0.10639
G1 X-6.013 Y-9.003 E0.04823
G1 X-6.000 Y-8.553 F9000.000
G1 X-6.000 Y7.590 E3.09188 F600.000
G1 X-4.818 Y8.071 F9000.000
G1 X4.777 Y8.066 E1.83779 F600.000
G1 E-3.20000 F3000.00000
G1 Z0.700 F9000.000
G1 X-3.099 Y12.945 F9000.000
G1 Z0.600 F9000.000
G1 E3.20000 F3000.00000
G1 X0.631 Y12.945 E0.20264 F1630.530
G1 X-0.124 Y13.700 E0.05803
G1 X-7.700 Y13.700 E0.41161 F1630.530
G1 X-7.700 Y12.946 E0.04099
G1 X-3.159 Y12.945 E0.24674
G1 X-2.899 Y13.292 F9000.000
G1 X-0.055 Y13.322 F9000.000
G1 X-7.482 Y13.323 E0.86675 F1087.020
G1 E-3.20000 F3000.00000
G1 Z1.000 F9000.000
G1 X-0.300 Y-8.926 F9000.000
G1 Z0.600 F9000.000
G1 E3.20000 F3000.00000
G1 X-0.682 Y-9.050 E0.02182 F1630.530
G1 X-1.021 Y-9.265 E0.02182
G1 X-1.296 Y-9.558 E0.02182
G1 X-1.490 Y-9.910 E0.02182
G1 X-1.590 Y-10.299 E0.02182
G1 X-1.590 Y-10.701 E0.02182
G1 X-1.490 Y-11.090 E0.02182
G1 X-1.296 Y-11.442 E0.02182
G1 X-1.021 Y-11.735 E0.02182
G1 X-0.681 Y-11.951 E0.02192
G1 X-0.277 Y-12.075 E0.02293
G1 X0.101 Y-12.099 E0.02058 F1630.530
G1 X0.495 Y-12.024 E0.02182
G1 X0.859 Y-11.853 E0.02182
G1 X1.168 Y-11.597 E0.02182
G1 X1.404 Y-11.272 E0.02182
G1 X1.552 Y-10.898 E0.02182
G1 X1.602 Y-10.500 E0.02182
G1 X1.552 Y-10.102 E0.02182
G1 X1.404 Y-9.728 E0.02182
G1 X1.168 Y-9.403 E0.02182
G1 X0.859 Y-9.147 E0.02182
G1 X0.495 Y-8.976 E0.02182
G1 X0.101 Y-8.901 E0.02182
G1 X-0.240 Y-8.922 E0.01856
G1 X-0.574 Y-8.634 F9000.000
G1 X-0.240 Y-7.736 F9000.000
G1 X4.736 Y-7.736 E0.27036 F1630.530
G1 X4.736 Y-0.349 E0.40132
G1 X4.691 Y-0.000 E0.01913
G1 X4.736 Y0.349 E0.01913
G1 X4.736 Y7.736 E0.40132
G1 X-4.736 Y7.736 E0.51460
G1 X-4.736 Y0.349 E0.40132
G1 X-4.691 Y-0.000 E0.01913
G1 X-4.736 Y-0.349 E0.01913
G1 X-4.736 Y-7.736 E0.40132
G1 X-0.300 Y-7.736 E0.24098 F1630.530
G1 X-0.300 Y-7.300 F9000.000
G1 X4.300 Y-7.300 E0.24995 F1630.530
G1 X4.300 Y-0.377 E0.37616
G1 X4.252 Y-0.000 E0.02063
G1 X4.300 Y0.377 E0.02063
G1 X4.300 Y7.300 E0.37616
G1 X-4.300 Y7.300 E0.46726
G1 X-4.300 Y0.377 E0.37616
G1 X-4.252 Y-0.000 E0.02063
G1 X-4.300 Y-0.377 E0.02063
G1 X-4.300 Y-7.300 E0.37616
G1 X-0.360 Y-7.300 E0.21405 F1630.530
G1 X-0.100 Y-7.646 F9000.000
G1 E-3.20000 F3000.00000
G1 Z1.000 F9000.000
G1 X-0.983 Y8.618 F9000.000
G1 Z0.600 F9000.000
G1 E3.20000 F3000.00000
G1 X-7.264 Y8.619 E0.34126 F1630.530
G1 X-7.264 Y-13.264 E1.18897
G1 X-0.305 Y-13.264 E0.37814
G1 X0.405 Y-12.555 E0.05452
G1 X-0.357 Y-12.507 E0.04145 F1630.530
G1 X-0.865 Y-12.350 E0.02891
G1 X-1.301 Y-12.073 E0.02808
G1 X-1.652 Y-11.700 E0.02780
G1 X-1.898 Y-11.252 E0.02780
G1 X-2.025 Y-10.756 E0.02780
G1 X-2.025 Y-10.244 E0.02780
G1 X-1.898 Y-9.748 E0.02780
G1 X-1.652 Y-9.300 E0.02780
G1 X-1.301 Y-8.927 E0.02780
G1 X-0.869 Y-8.653 E0.02780
G1 X-0.383 Y-8.495 E0.02780
G1 X0.128 Y-8.463 E0.02780
G1 X0.631 Y-8.558 E0.02780
G1 X1.094 Y-8.776 E0.02780
G1 X1.488 Y-9.103 E0.02780
G1 X1.789 Y-9.517 E0.02780
G1 X1.977 Y-9.992 E0.02780
G1 X2.041 Y-10.500 E0.02780
G1 X2.017 Y-10.693 E0.01055
G1 X2.185 Y-10.775 E0.01015
G1 X7.264 Y-5.695 E0.39030
G1 X7.264 Y5.695 E0.61888
G1 X4.342 Y8.618 E0.22454
G1 X-0.923 Y8.618 E0.28610
G1 X-0.923 Y9.054 F9000.000
G1 X-7.700 Y9.054 E0.36819 F1630.530
G1 X-7.700 Y-13.700 E1.23631
G1 X-0.124 Y-13.700 E0.41161
G1 X7.700 Y-5.876 E0.60120
G1 X7.700 Y5.876 E0.63849 F1630.530
G1 X4.523 Y9.053 E0.24414
G1 X-0.863 Y9.054 E0.29264
G1 X-1.123 Y8.707 F9000.000
G1 X-4.953 Y8.177 F9000.000
G1 X4.475 Y8.177 E1.10026 F1087.020
G1 X5.013 Y7.423 F9000.000
G1 X7.007 Y5.430 E0.15845 F1630.530
G1 X7.007 Y4.792 E0.03583
G1 X4.993 Y6.805 E0.16004
G1 X4.993 Y6.168 E0.03583
G1 X7.007 Y4.155 E0.16004
G1 X7.007 Y3.517 E0.03583
G1 X4.993 Y5.530 E0.16004
G1 X4.993 Y4.893 E0.03583
G1 X7.007 Y2.880 E0.16004
G1 X7.007 Y2.242 E0.03583
G1 X4.993 Y4.256 E0.16004
G1 X4.993 Y3.618 E0.03583
G1 X7.007 Y1.605 E0.16004
G1 X7.007 Y0.968 E0.03583
G1 X4.993 Y2.981 E0.16004
G1 X4.993 Y2.343 E0.03583
G1 X7.007 Y0.330 E0.16004
G1 X7.007 Y-0.307 E0.03583
G1 X4.993 Y1.706 E0.16004
G1 X4.993 Y1.069 E0.03583
G1 X7.007 Y-0.945 E0.16004
G1 X7.007 Y-1.582 E0.03583
G1 X4.993 Y0.431 E0.16004
G1 X4.989 Y-0.202 E0.03560
G1 X7.007 Y-2.219 E0.16037
G1 X7.007 Y-2.857 E0.03583
G1 X4.993 Y-0.844 E0.16004
G1 X4.993 Y-1.481 E0.03583
G1 X7.007 Y-3.494 E0.16004
G1 X7.007 Y-4.132 E0.03583
G1 X4.993 Y-2.119 E0.16004
G1 X4.993 Y-2.756 E0.03583
G1 X7.007 Y-4.769 E0.16004
G1 X7.007 Y-5.406 E0.03583
G1 X4.993 Y-3.393 E0.16004
G1 X4.993 Y-4.031 E0.03583
G1 X6.792 Y-5.829 E0.14297
G1 X6.473 Y-6.148 E0.02534
G1 X4.993 Y-4.668 E0.11763
G1 X4.993 Y-5.306 E0.03583
G1 X6.154 Y-6.466 E0.09229
G1 X5.836 Y-6.785 E0.02534
G1 X4.993 Y-5.943 E0.06696
G1 X4.993 Y-6.580 E0.03583
G1 X5.517 Y-7.104 E0.04162
G1 X5.198 Y-7.423 E0.02534
G1 X4.993 Y-7.218 E0.01628
G1 X4.218 Y-7.993 F9000.000
G1 X4.423 Y-8.198 E0.01677 F1630.530
G1 X4.094 Y-8.526 E0.02687
G1 X3.561 Y-7.993 E0.04364
G1 X2.905 Y-7.993 E0.03800
G1 X3.766 Y-8.855 E0.07051
G1 X3.438 Y-9.183 E0.02687
G1 X2.249 Y-7.993 E0.09738
G1 X1.592 Y-7.993 E0.03800
G1 X3.110 Y-9.511 E0.12425
G1 X2.782 Y-9.839 E0.02687
G1 X1.422 Y-8.480 E0.11132
G1 X2.245 Y-9.960 F9000.000
G1 X2.453 Y-10.167 E0.01702 F1630.530
G1 X2.015 Y-10.934 F9000.000
G1 X1.681 Y-11.439 E0.03289 F1087.020
G1 X1.372 Y-11.800 E0.02582
G1 X1.016 Y-12.122 E0.02609
G1 X0.851 Y-12.238 E0.01094
G1 X0.574 Y-12.289 E0.01531
G1 X0.219 Y-12.312 E0.01932
G1 X-0.258 Y-12.909 F9000.000
G1 X-1.037 Y-12.792 E0.04285 F1087.020
G1 E-3.20000 F3000.00000
G1 Z1.000 F9000.000
G1 X-1.037 Y-8.209 F9000.000
G1 Z0.600 F9000.000
G1 E3.20000 F3000.00000
G1 X-0.434 Y-8.116 E0.07123 F1087.020
G1 X0.160 Y-8.099 E0.06938
G1 X0.381 Y-8.120 E0.02585
G1 X0.576 Y-8.212 E0.02516
G1 X0.576 Y-8.212 F9000.000
G1 X0.729 Y-8.285 E0.00923 F1087.020
G1 X1.123 Y-8.535 E0.02535
G1 X-1.282 Y-8.412 F9000.000
G1 X-1.700 Y-7.993 E0.03292 F1630.530
G1 X-2.331 Y-7.993 E0.03511
G1 X-1.503 Y-8.821 E0.06514
G1 X-1.809 Y-9.147 E0.02484
G1 X-2.962 Y-7.993 E0.09075
G1 X-3.593 Y-7.993 E0.03511
G1 X-2.042 Y-9.544 E0.12203
G1 X-2.210 Y-10.007 E0.02741
G1 X-4.224 Y-7.993 E0.15847
G1 X-4.855 Y-7.993 E0.03511
G1 X-2.283 Y-10.565 E0.20236
G1 X-2.178 Y-11.301 E0.04135
G1 X-7.007 Y-6.473 E0.37993
G1 X-7.007 Y-5.842 E0.03511
G1 X-4.993 Y-7.855 E0.15841
G1 X-4.993 Y-7.224 E0.03511
G1 X-7.007 Y-5.211 E0.15841
G1 X-7.007 Y-4.580 E0.03511
G1 X-4.993 Y-6.593 E0.15841
G1 X-4.993 Y-5.962 E0.03511
G1 X-7.007 Y-3.949 E0.15841
G1 X-7.007 Y-3.318 E0.03511
G1 X-4.993 Y-5.331 E0.15841
G1 X-4.993 Y-4.700 E0.03511
G1 X-7.007 Y-2.687 E0.15841
G1 X-7.007 Y-2.056 E0.03511
G1 X-4.993 Y-4.069 E0.15841
G1 X-4.993 Y-3.438 E0.03511
G1 X-7.007 Y-1.425 E0.15841
G1 X-7.007 Y-0.794 E0.03511
G1 X-4.993 Y-2.808 E0.15841
G1 X-4.993 Y-2.177 E0.03511
G1 X-7.007 Y-0.164 E0.15841
G1 X-7.007 Y0.467 E0.03511
G1 X-4.993 Y-1.546 E0.15841
G1 X-4.993 Y-0.915 E0.03511
G1 X-7.007 Y1.098 E0.15841
G1 X-7.007 Y1.729 E0.03511
G1 X-4.978 Y-0.299 E0.15961
G1 X-4.993 Y0.347 E0.03596
G1 X-7.007 Y2.360 E0.15841
G1 X-7.007 Y2.991 E0.03511
G1 X-4.993 Y0.978 E0.15841
G1 X-4.993 Y1.609 E0.03511
G1 X-7.007 Y3.622 E0.15841
G1 X-7.007 Y4.253 E0.03511
G1 X-4.993 Y2.240 E0.15841
G1 X-4.993 Y2.871 E0.03511
G1 X-7.007 Y4.884 E0.15841
G1 X-7.007 Y5.515 E0.03511
G1 X-4.993 Y3.502 E0.15841
G1 X-4.993 Y4.133 E0.03511
G1 X-7.007 Y6.146 E0.15841
G1 X-7.007 Y6.776 E0.03511
G1 X-4.993 Y4.763 E0.15841
G1 X-4.993 Y5.394 E0.03511
G1 X-7.007 Y7.407 E0.15841
G1 X-7.007 Y8.038 E0.03511
G1 X-4.993 Y6.025 E0.15841
G1 X-4.993 Y6.656 E0.03511
G1 X-6.698 Y8.361 E0.13413
G1 X-6.067 Y8.361 E0.03511
G1 X-5.211 Y7.505 E0.06734
G1 X-5.211 Y8.136 E0.03510
G1 X-5.436 Y8.361 E0.01769
G1 X-6.782 Y-13.007 F9000.000
G1 X-7.007 Y-12.782 E0.01769 F1630.530
G1 X-7.007 Y-12.151 E0.03511
G1 X-6.151 Y-13.007 E0.06734
G1 X-5.520 Y-13.007 E0.03511
G1 X-7.007 Y-11.520 E0.11698
G1 X-7.007 Y-10.889 E0.03511
G1 X-4.889 Y-13.007 E0.16663
G1 X-4.258 Y-13.007 E0.03511
G1 X-7.007 Y-10.258 E0.21628
G1 X-7.007 Y-9.627 E0.03511
G1 X-3.627 Y-13.007 E0.26592
G1 X-2.996 Y-13.007 E0.03511
G1 X-7.007 Y-8.996 E0.31557
G1 X-7.007 Y-8.365 E0.03511
G1 X-2.365 Y-13.007 E0.36522
G1 X-1.734 Y-13.007 E0.03511
G1 X-7.007 Y-7.734 E0.41486
G1 X-7.007 Y-7.104 E0.03511
G1 X-1.290 Y-12.820 E0.44987
G1 E-3.20000 F3000.00000
G1 Z1.000 F9000.000
G1 X-0.124 Y13.700 F9000.000
G1 Z0.900 F9000.000
G1 E3.20000 F3000.00000
G1 X-7.700 Y13.700 E0.41161 F1644.306
G1 X-7.700 Y12.604 E0.05956
G1 X-0.536 Y12.628 E0.38926
G1 X0.951 Y12.625 E0.08077 F1644.306
G1 X-0.082 Y13.658 E0.07936
G1 X-0.407 Y13.417 F9000.000
G1 X0.104 Y13.163 F9000.000
G1 X-7.482 Y13.152 E0.88532 F1096.204
G1 E-3.20000 F3000.00000
G1 Z1.300 F9000.000
G1 X-0.308 Y-8.928 F9000.000
G1 Z0.900 F9000.000
G1 E3.20000 F3000.00000
G1 X-0.682 Y-9.050 E0.02139 F1644.306
G1 X-1.021 Y-9.265 E0.02182
G1 X-1.296 Y-9.558 E0.02182
G1 X-1.490 Y-9.910 E0.02182
G1 X-1.590 Y-10.299 E0.02182
G1 X-1.590 Y-10.701 E0.02182
G1 X-1.490 Y-11.090 E0.02182
G1 X-1.296 Y-11.442 E0.02182
G1 X-1.021 Y-11.735 E0.02182
G1 X-0.680 Y-11.951 E0.02197
G1 X-0.267 Y-12.076 E0.02345
G1 X0.101 Y-12.099 E0.02001 F1644.306
G1 X0.495 Y-12.024 E0.02182
G1 X0.859 Y-11.853 E0.02182
G1 X1.168 Y-11.597 E0.02182
G1 X1.404 Y-11.272 E0.02182
G1 X1.552 Y-10.898 E0.02182
G1 X1.602 Y-10.500 E0.02182
G1 X1.552 Y-10.102 E0.02182
G1 X1.404 Y-9.728 E0.02182
G1 X1.168 Y-9.403 E0.02182
G1 X0.859 Y-9.147 E0.02182
G1 X0.495 Y-8.976 E0.02182
G1 X0.101 Y-8.901 E0.02182
G1 X-0.248 Y-8.923 E0.01899
G1 X-0.578 Y-8.642 F9000.000
G1 X-0.248 Y-7.736 F9000.000
G1 X4.736 Y-7.736 E0.27079 F1644.306
G1 X4.736 Y-1.539 E0.33670
G1 X4.486 Y-0.822 E0.04123
G1 X4.390 Y-0.000 E0.04496
G1 X4.486 Y0.822 E0.04496
G1 X4.736 Y1.539 E0.04123
G1 X4.736 Y7.736 E0.33670
G1 X-4.736 Y7.736 E0.51460
G1 X-4.736 Y1.539 E0.33670
G1 X-4.486 Y0.822 E0.04123
G1 X-4.390 Y-0.000 E0.04496
G1 X-4.486 Y-0.822 E0.04496
G1 X-4.736 Y-1.539 E0.04123
G1 X-4.736 Y-7.736 E0.33670
G1 X-0.308 Y-7.736 E0.24055 F1644.306
G1 X-0.308 Y-7.300 F9000.000
G1 X4.300 Y-7.300 E0.25038 F1644.306
G1 X4.300 Y-1.612 E0.30903
G1 X4.059 Y-0.920 E0.03983
G1 X3.952 Y-0.000 E0.05031
G1 X4.059 Y0.920 E0.05031
G1 X4.300 Y1.612 E0.03983
G1 X4.300 Y7.300 E0.30903
G1 X-4.300 Y7.300 E0.46726
G1 X-4.300 Y1.612 E0.30903
G1 X-4.059 Y0.920 E0.03983
G1 X-3.952 Y-0.000 E0.05031
G1 X-4.059 Y-0.920 E0.05031
G1 X-4.300 Y-1.612 E0.03983
G1 X-4.300 Y-7.300 E0.30903
G1 X-0.368 Y-7.300 E0.21362 F1644.306
G1 X-0.108 Y-7.646 F9000.000
G1 E-3.20000 F3000.00000
G1 Z1.300 F9000.000
G1 X-7.264 Y-6.110 F9000.000
G1 Z0.900 F9000.000
G1 E3.20000 F3000.00000
G1 X-7.264 Y-13.264 E0.38873 F1644.306
G1 X-0.305 Y-13.264 E0.37814
G1 X0.405 Y-12.555 E0.05452
G1 X-0.345 Y-12.508 E0.04080 F1644.306
G1 X-0.863 Y-12.351 E0.02943
G1 X-1.301 Y-12.073 E0.02820
G1 X-1.652 Y-11.700 E0.02780
G1 X-1.898 Y-11.252 E0.02780
G1 X-2.025 Y-10.756 E0.02780
G1 X-2.025 Y-10.244 E0.02780
G1 X-1.898 Y-9.748 E0.02780
G1 X-1.652 Y-9.300 E0.02780
G1 X-1.301 Y-8.927 E0.02780
G1 X-0.869 Y-8.653 E0.02780
G1 X-0.383 Y-8.495 E0.02780
G1 X0.128 Y-8.463 E0.02780
G1 X0.631 Y-8.558 E0.02780
G1 X1.094 Y-8.776 E0.02780
G1 X1.488 Y-9.103 E0.02780
G1 X1.789 Y-9.517 E0.02780
G1 X1.977 Y-9.992 E0.02780
G1 X2.041 Y-10.500 E0.02780
G1 X2.017 Y-10.693 E0.01055
G1 X2.185 Y-10.775 E0.01015
G1 X7.264 Y-5.695 E0.39030
G1 X7.264 Y5.695 E0.61888
G1 X4.012 Y8.948 E0.24993
G1 X-7.264 Y8.961 E0.61266
G1 X-7.264 Y-6.050 E0.81557
G1 X-7.700 Y-6.050 F9000.000
G1 X-7.700 Y-13.700 E0.41566 F1644.306
G1 X-0.124 Y-13.700 E0.41161
G1 X7.700 Y-5.876 E0.60120
G1 X7.700 Y5.876 E0.63849 F1644.306
