; generated by Slic3r 1.2.9 on 2017-01-12 at 17:38:25

; external perimeters extrusion width = 0.50mm
; perimeters extrusion width = 0.50mm
; infill extrusion width = 0.50mm
; solid infill extrusion width = 0.50mm
; top infill extrusion width = 0.50mm

M107
;Basic settings: Layer height: {layer_height} Walls: {wall_thickness} Fill: {fill_density}
;Print time: {print_time}
;Filament used: {filament_amount}m {filament_weight}g
;Filament cost: {filament_cost}
;M190 S{print_bed_temperature} ;Uncomment to add your own bed temperature line
;M109 S{print_temperature} ;Uncomment to add your own temperature line
G21        ;metric values
G90        ;absolute positioning
M83
G10 P0 S200
T0
M116


G21 ; set units to millimeters
G90 ; use absolute coordinates
M83 ; use relative distances for extrusion
G1 E-3.20000 F3000.00000
G1 Z0.400 F9000.000
G1 X6.350 Y-10.999 F9000.000
G1 Z0.300 F9000.000
G1 E3.20000 F3000.00000
G1 X40.218 Y8.555 E3.58817 F1200.000
G1 X41.468 Y9.733 E0.15755
G1 X41.959 Y10.824 E0.10975
G1 X46.164 Y26.516 E1.49054
G1 X46.215 Y28.232 E0.15755
G1 X45.493 Y29.790 E0.15755
G1 X44.150 Y30.861 E0.15755
G1 X43.001 Y31.192 E0.10975
G1 X29.074 Y32.865 E1.28701
G1 X26.760 Y32.391 E0.21666
G1 X-44.420 Y-8.705 E7.54117
G1 X-45.670 Y-9.882 E0.15755
G1 X-46.261 Y-11.495 E0.15755
G1 X-45.787 Y-13.808 E0.21667
G1 X-35.912 Y-30.912 E1.81207
G1 X-35.837 Y-31.042 E0.01376
G1 X-34.660 Y-32.292 E0.15755
G1 X-33.048 Y-32.883 E0.15755
G1 X-30.734 Y-32.409 E0.21667
G1 X6.298 Y-11.029 E3.92338 F1200.000
G1 E-3.20000 F3000.00000
G1 Z0.700 F9000.000
G1 X21.379 Y20.382 F9000.000
G1 Z0.300 F9000.000
G1 E3.20000 F3000.00000
G1 X21.819 Y20.250 E0.04215 F900.000
G1 X22.254 Y20.234 E0.03996 F900.000
G1 X22.679 Y20.325 E0.03987
G1 X23.064 Y20.516 E0.03943
G1 X23.393 Y20.797 E0.03967
G1 X23.657 Y21.177 E0.04242
G1 X23.807 Y21.584 E0.03980
G1 X23.852 Y22.013 E0.03964
G1 X23.786 Y22.459 E0.04134
G1 X23.617 Y22.858 E0.03977
G1 X23.352 Y23.208 E0.04027
G1 X23.007 Y23.481 E0.04034
G1 X22.623 Y23.652 E0.03858
G1 X22.173 Y23.732 E0.04197
G1 X21.723 Y23.692 E0.04144
G1 X21.317 Y23.549 E0.03944
G1 X20.955 Y23.308 E0.03995
G1 X20.656 Y22.975 E0.04105
G1 X20.463 Y22.605 E0.03825
G1 X20.355 Y22.157 E0.04228
G1 X20.366 Y21.719 E0.04020
G1 X20.482 Y21.304 E0.03956
G1 X20.697 Y20.928 E0.03979
G1 X21.003 Y20.612 E0.04030
G1 X21.328 Y20.413 E0.03500
G1 X21.438 Y19.986 F9000.000
G1 X1.966 Y10.358 F9000.000
G1 X1.701 Y10.708 E0.04027 F900.000
G1 X1.356 Y10.981 E0.04034
G1 X0.972 Y11.152 E0.03858
G1 X0.522 Y11.232 E0.04197
G1 X0.072 Y11.192 E0.04144
G1 X-0.334 Y11.049 E0.03944
G1 X-0.696 Y10.808 E0.03995
G1 X-0.995 Y10.475 E0.04105
G1 X-1.188 Y10.105 E0.03825
G1 X-1.296 Y9.657 E0.04228
G1 X-1.285 Y9.219 E0.04020
G1 X-1.169 Y8.804 E0.03956
G1 X-0.953 Y8.428 E0.03979
G1 X-0.648 Y8.112 E0.04030
G1 X-0.271 Y7.882 E0.04051
G1 X0.169 Y7.750 E0.04215
G1 X0.604 Y7.734 E0.03996 F900.000
G1 X1.029 Y7.825 E0.03987
G1 X1.414 Y8.016 E0.03943
G1 X1.742 Y8.297 E0.03967
G1 X2.007 Y8.677 E0.04242
G1 X2.157 Y9.084 E0.03980
G1 X2.202 Y9.513 E0.03964
G1 X2.135 Y9.959 E0.04134
G1 X1.990 Y10.303 E0.03426
G1 X2.151 Y10.713 F9000.000
G1 E-3.20000 F3000.00000
G1 Z0.700 F9000.000
G1 X-19.684 Y-2.142 F9000.000
G1 Z0.300 F9000.000
G1 E3.20000 F3000.00000
G1 X-19.950 Y-1.792 E0.04027 F900.000
G1 X-20.294 Y-1.519 E0.04034
G1 X-20.679 Y-1.348 E0.03858
G1 X-21.129 Y-1.268 E0.04197
G1 X-21.579 Y-1.308 E0.04144
G1 X-21.984 Y-1.451 E0.03943
G1 X-22.347 Y-1.692 E0.03996
G1 X-22.645 Y-2.025 E0.04105
G1 X-22.838 Y-2.395 E0.03826
G1 X-22.946 Y-2.843 E0.04228
G1 X-22.936 Y-3.281 E0.04020
G1 X-22.820 Y-3.696 E0.03956
G1 X-22.604 Y-4.072 E0.03979
G1 X-22.298 Y-4.388 E0.04030
G1 X-21.922 Y-4.618 E0.04051
G1 X-21.482 Y-4.750 E0.04215
G1 X-21.047 Y-4.766 E0.03995 F900.000
G1 X-20.622 Y-4.675 E0.03987
G1 X-20.237 Y-4.484 E0.03943
G1 X-19.909 Y-4.203 E0.03967
G1 X-19.644 Y-3.823 E0.04242
G1 X-19.494 Y-3.416 E0.03980
G1 X-19.449 Y-2.987 E0.03964
G1 X-19.516 Y-2.541 E0.04134
G1 X-19.661 Y-2.197 E0.03426
G1 X-19.499 Y-1.787 F9000.000
G1 E-3.20000 F3000.00000
G1 Z0.700 F9000.000
G1 X-31.194 Y-9.814 F9000.000
G1 Z0.300 F9000.000
G1 E3.20000 F3000.00000
G1 X-31.532 Y-9.424 E0.04738 F900.000
G1 X-31.912 Y-9.160 E0.04246
G1 X-32.374 Y-8.986 E0.04525
G1 X-32.882 Y-8.935 E0.04688
G1 X-33.347 Y-9.004 E0.04316
G1 X-33.803 Y-9.194 E0.04532
G1 X-34.196 Y-9.493 E0.04532
G1 X-34.488 Y-9.862 E0.04316
G1 X-34.698 Y-10.328 E0.04687
G1 X-34.778 Y-10.814 E0.04525
G1 X-34.739 Y-11.276 E0.04246
G1 X-34.571 Y-11.764 E0.04738
G1 X-34.296 Y-12.172 E0.04515
G1 X-33.930 Y-12.497 E0.04496
G1 X-33.495 Y-12.721 E0.04482
G1 X-33.044 Y-12.826 E0.04248 F900.000
G1 X-32.528 Y-12.816 E0.04741
G1 X-32.057 Y-12.680 E0.04497
G1 X-31.656 Y-12.449 E0.04249
G1 X-31.288 Y-12.088 E0.04726
G1 X-31.048 Y-11.692 E0.04248
G1 X-30.903 Y-11.224 E0.04499
G1 X-30.882 Y-10.708 E0.04740
G1 X-30.978 Y-10.255 E0.04247
G1 X-31.167 Y-9.868 E0.03952
G1 X-31.031 Y-9.448 F9000.000
G1 X-30.586 Y-12.606 F9000.000
G1 X-31.006 Y-12.780 E0.04167 F900.000
G1 X-35.561 Y-15.409 E0.48252
G1 X-35.921 Y-15.686 E0.04167
G1 X-36.215 Y-16.070 E0.04440
G1 X-36.401 Y-16.517 E0.04440
G1 X-36.464 Y-16.997 E0.04440
G1 X-36.401 Y-17.476 E0.04440
G1 X-36.227 Y-17.896 E0.04167
G1 X-36.097 Y-18.120 E0.02376
G1 X-35.821 Y-18.481 E0.04167
G1 X-35.434 Y-18.777 E0.04470
G1 X-34.962 Y-18.964 E0.04661
G1 X-34.510 Y-19.024 E0.04183 F900.000
G1 X-34.030 Y-18.960 E0.04440
G1 X-33.611 Y-18.787 E0.04167
G1 X-29.056 Y-16.157 E0.48252
G1 X-28.696 Y-15.881 E0.04167
G1 X-28.401 Y-15.497 E0.04440
G1 X-28.216 Y-15.050 E0.04440
G1 X-28.153 Y-14.570 E0.04440
G1 X-28.216 Y-14.090 E0.04440
G1 X-28.390 Y-13.670 E0.04167
G1 X-28.519 Y-13.446 E0.02376
G1 X-28.796 Y-13.086 E0.04167
G1 X-29.180 Y-12.791 E0.04440
G1 X-29.627 Y-12.606 E0.04440
G1 X-30.107 Y-12.543 E0.04440
G1 X-30.527 Y-12.598 E0.03890
G1 X-30.881 Y-12.336 F9000.000
G1 X21.928 Y3.620 F9000.000
G1 X37.375 Y12.539 E1.63657 F900.000
G1 X41.075 Y26.347 E1.31160
G1 X27.493 Y26.347 E1.24623
G1 X27.493 Y27.189 E0.07725
G1 X22.700 Y24.422 E0.50770
G1 X23.391 Y24.115 E0.06931
G1 X23.881 Y23.727 E0.05738
G1 X24.259 Y23.229 E0.05729
G1 X24.499 Y22.660 E0.05676
G1 X24.594 Y22.029 E0.05846
G1 X24.529 Y21.415 E0.05666
G1 X24.315 Y20.833 E0.05690
G1 X23.942 Y20.299 E0.05974
G1 X23.473 Y19.898 E0.05664
G1 X22.924 Y19.625 E0.05625
G1 X22.319 Y19.495 E0.05675
G1 X21.698 Y19.518 E0.05700
G1 X21.076 Y19.704 E0.05958
G1 X20.539 Y20.034 E0.05785
G1 X20.105 Y20.482 E0.05726
G1 X19.798 Y21.018 E0.05663
G1 X19.632 Y21.610 E0.05640
G1 X19.617 Y22.236 E0.05746
G1 X19.731 Y22.708 E0.04451
G1 X1.050 Y11.922 E1.97914
G1 X1.740 Y11.615 E0.06931
G1 X2.230 Y11.227 E0.05738
G1 X2.608 Y10.729 E0.05730
G1 X2.849 Y10.160 E0.05676
G1 X2.943 Y9.529 E0.05846
G1 X2.879 Y8.915 E0.05666
G1 X2.664 Y8.333 E0.05690
G1 X2.292 Y7.799 E0.05974
G1 X1.822 Y7.398 E0.05664
G1 X1.273 Y7.125 E0.05625
G1 X0.669 Y6.995 E0.05675
G1 X0.048 Y7.018 E0.05700
G1 X-0.574 Y7.204 E0.05958
G1 X-1.112 Y7.534 E0.05784
G1 X-1.546 Y7.982 E0.05726
G1 X-1.853 Y8.518 E0.05663
G1 X-2.018 Y9.110 E0.05640
G1 X-2.033 Y9.736 E0.05746
G1 X-1.920 Y10.208 E0.04451
G1 X-20.601 Y-0.578 E1.97914
G1 X-19.911 Y-0.885 E0.06931
G1 X-19.420 Y-1.273 E0.05738
G1 X-19.043 Y-1.771 E0.05729
G1 X-18.802 Y-2.340 E0.05676
G1 X-18.707 Y-2.971 E0.05847
G1 X-18.772 Y-3.585 E0.05665
G1 X-18.986 Y-4.167 E0.05690
G1 X-19.359 Y-4.701 E0.05974
G1 X-19.828 Y-5.102 E0.05664
G1 X-20.377 Y-5.375 E0.05626
G1 X-20.982 Y-5.505 E0.05675
G1 X-21.603 Y-5.482 E0.05699
G1 X-22.225 Y-5.296 E0.05958
G1 X-22.762 Y-4.966 E0.05785
G1 X-23.196 Y-4.518 E0.05726
G1 X-23.503 Y-3.982 E0.05663
G1 X-23.669 Y-3.390 E0.05640
G1 X-23.684 Y-2.764 E0.05746
G1 X-23.570 Y-2.292 E0.04451
G1 X-33.255 Y-7.884 E1.02601
G1 X-33.135 Y-8.229 E0.03350
G1 X-32.900 Y-8.194 E0.02182
G1 X-32.204 Y-8.263 E0.06413
G1 X-31.567 Y-8.504 E0.06248
G1 X-31.037 Y-8.872 E0.05919
G1 X-30.575 Y-9.404 E0.06466
G1 X-30.278 Y-10.013 E0.06220
G1 X-30.143 Y-10.645 E0.05922
G1 X-30.171 Y-11.350 E0.06471
G1 X-30.303 Y-11.775 E0.04085
G1 X-29.435 Y-11.889 E0.08038
G1 X-28.809 Y-12.148 E0.06218
G1 X-28.271 Y-12.561 E0.06217
G1 X-27.906 Y-13.036 E0.05498
G1 X-27.729 Y-13.344 E0.03261
G1 X-27.499 Y-13.898 E0.05498
G1 X-27.411 Y-14.570 E0.06217
G1 X-27.499 Y-15.242 E0.06217
G1 X-27.759 Y-15.868 E0.06218
G1 X-28.171 Y-16.405 E0.06217
G1 X-28.647 Y-16.770 E0.05498
G1 X-33.284 Y-19.448 E0.49136
G1 X-33.838 Y-19.677 E0.05498
G1 X-34.510 Y-19.766 E0.06218
G1 X-35.148 Y-19.682 E0.05905
G1 X-35.801 Y-19.423 E0.06438
G1 X-36.346 Y-19.005 E0.06302
G1 X-36.710 Y-18.530 E0.05498
G1 X-36.888 Y-18.222 E0.03261
G1 X-37.117 Y-17.668 E0.05498
G1 X-37.206 Y-16.997 E0.06217
G1 X-37.117 Y-16.325 E0.06218
G1 X-36.858 Y-15.699 E0.06218
G1 X-36.446 Y-15.161 E0.06217
G1 X-35.970 Y-14.796 E0.05498
G1 X-33.660 Y-13.463 E0.24471
G1 X-34.348 Y-13.109 E0.07098
G1 X-34.854 Y-12.660 E0.06203
G1 X-35.235 Y-12.095 E0.06257
G1 X-35.464 Y-11.428 E0.06466
G1 X-35.518 Y-10.786 E0.05919
G1 X-35.409 Y-10.113 E0.06248
G1 X-35.121 Y-9.476 E0.06413
G1 X-34.973 Y-9.290 E0.02182
G1 X-35.212 Y-9.014 E0.03350
G1 X-41.001 Y-12.356 E0.61330
G1 X-32.187 Y-27.623 E1.61745
G1 X-27.887 Y-25.141 E0.45548
G1 X21.876 Y3.590 E5.27215 F900.000
G1 X22.244 Y2.953 F9000.000
G1 X38.007 Y12.054 E1.67003 F900.000
G1 X42.034 Y27.083 E1.42751
G1 X28.228 Y27.083 E1.26669
G1 X28.228 Y28.463 E0.12665
G1 X-42.006 Y-12.087 E7.44089
G1 X-32.456 Y-28.628 E1.75243
G1 X-27.519 Y-25.778 E0.52297
G1 X22.192 Y2.923 E5.26665 F900.000
G1 X22.244 Y3.353 F9000.000
G1 X21.841 Y4.203 F9000.000
G1 X39.310 Y21.672 E2.26955 F900.000
G1 X39.692 Y23.095 E0.13532
G1 X19.377 Y2.780 E2.63925
G1 X16.912 Y1.357 F9000.000
G1 X40.073 Y24.518 E3.00896 F900.000
G1 X40.404 Y25.891 E0.12969
G1 X14.448 Y-0.066 E3.37211
G1 X11.983 Y-1.489 F9000.000
G1 X39.369 Y25.898 E3.55790 F900.000
G1 X38.328 Y25.898 E0.09569
G1 X9.519 Y-2.911 E3.74275
G1 X7.054 Y-4.334 F9000.000
G1 X37.286 Y25.898 E3.92760 F900.000
G1 X36.245 Y25.898 E0.09569
G1 X4.590 Y-5.757 E4.11246
G1 X2.125 Y-7.180 F9000.000
G1 X35.203 Y25.898 E4.29731 F900.000
G1 X34.161 Y25.898 E0.09569
G1 X-0.339 Y-8.603 E4.48216
G1 X-2.804 Y-10.026 F9000.000
G1 X33.120 Y25.898 E4.66701 F900.000
G1 X32.078 Y25.898 E0.09569
G1 X-5.268 Y-11.449 E4.85187
G1 X-7.733 Y-12.871 F9000.000
G1 X31.037 Y25.898 E5.03672 F900.000
G1 X29.995 Y25.898 E0.09569
G1 X24.821 Y20.724 E0.67219
G1 X25.034 Y21.979 E0.11692
G1 X28.953 Y25.898 E0.50917
G1 X27.912 Y25.898 E0.09569
G1 X24.857 Y22.843 E0.39685
G1 X24.510 Y23.538 E0.07133
G1 X27.043 Y26.071 E0.32911
G1 X25.113 Y25.182 F9000.000
G1 X24.031 Y24.100 E0.14049 F900.000
G1 X23.324 Y19.227 F9000.000
G1 X-10.197 Y-14.294 E4.35488 F900.000
G1 X-12.662 Y-15.717 F9000.000
G1 X22.115 Y19.059 E4.51796 F900.000
G1 X21.240 Y19.226 E0.08178
G1 X-15.126 Y-17.140 E4.72454
G1 X-17.591 Y-18.563 F9000.000
G1 X20.545 Y19.572 E4.95434 F900.000
G1 X19.984 Y20.054 E0.06785
G1 X-20.055 Y-19.986 E5.20175
G1 X-22.520 Y-21.409 F9000.000
G1 X19.550 Y20.661 E5.46551 F900.000
G1 X19.259 Y21.412 E0.07394
G1 X-24.984 Y-22.832 E5.74786
G1 X-27.449 Y-24.254 F9000.000
G1 X17.719 Y20.913 E5.86796 F900.000
G1 X15.255 Y19.490 F9000.000
G1 X-29.913 Y-25.677 E5.86796 F900.000
G1 X-32.158 Y-26.881 F9000.000
G1 X1.373 Y6.650 E4.35615 F900.000
G1 X0.248 Y6.567 E0.10361
G1 X-32.542 Y-26.223 E4.25991
G1 X-32.923 Y-25.563 E0.07005
G1 X-0.583 Y6.778 E4.20152
G1 X-1.245 Y7.157 E0.07011
G1 X-33.304 Y-24.902 E4.16503
G1 X-33.686 Y-24.242 E0.07005
G1 X-1.776 Y7.668 E4.14553
G1 X-2.182 Y8.303 E0.06929
G1 X-34.067 Y-23.582 E4.14235
G1 X-34.448 Y-22.921 E0.07005
G1 X-29.317 Y-17.790 E0.66660
G1 X-31.782 Y-19.213 F9000.000
G1 X-34.829 Y-22.261 E0.39595 F900.000
G1 X-35.211 Y-21.601 E0.07005
G1 X-33.751 Y-20.141 E0.18967
G1 X-34.812 Y-20.160 E0.09746
G1 X-35.592 Y-20.940 E0.10139
G1 X-35.973 Y-20.280 E0.07005
G1 X-35.621 Y-19.928 E0.04576
G1 X-27.063 Y-15.536 F9000.000
G1 X-2.441 Y9.086 E3.19884 F900.000
G1 X-4.461 Y8.107 F9000.000
G1 X-26.996 Y-14.427 E2.92757 F900.000
G1 X-27.195 Y-13.584 E0.07954
G1 X-6.926 Y6.685 E2.63325
G1 X-9.390 Y5.262 F9000.000
G1 X-18.311 Y-3.659 E1.15895 F900.000
G1 X-18.326 Y-2.632 E0.09436
G1 X-11.855 Y3.839 E0.84067
G1 X-14.319 Y2.416 F9000.000
G1 X-18.577 Y-1.842 E0.55319 F900.000
G1 X-18.984 Y-1.208 E0.06925
G1 X-16.784 Y0.993 E0.28592
G1 X-20.563 Y-5.911 F9000.000
G1 X-27.539 Y-12.888 E0.90636 F900.000
G1 X-27.988 Y-12.295 E0.06830
G1 X-21.604 Y-5.911 E0.82941
G1 X-22.389 Y-5.654 E0.07585
G1 X-28.575 Y-11.840 E0.80376
G1 X-29.291 Y-11.514 E0.07223
G1 X-23.025 Y-5.248 E0.81408
G1 X-23.535 Y-4.716 E0.06768
G1 X-29.697 Y-10.879 E0.80056
G1 X-29.852 Y-9.993 E0.08263
G1 X-23.912 Y-4.053 E0.77170
G1 X-24.177 Y-3.276 E0.07541
G1 X-30.190 Y-9.289 E0.78119
G1 X-30.661 Y-8.718 E0.06797
G1 X-26.642 Y-4.698 E0.52223
G1 X-29.106 Y-6.121 F9000.000
G1 X-31.242 Y-8.258 E0.27753 F900.000
G1 X-31.953 Y-7.926 E0.07200
G1 X-31.570 Y-7.544 E0.04965
G1 E-3.20000 F3000.00000
G1 Z0.700 F9000.000
G1 X3.301 Y8.578 F9000.000
G1 Z0.300 F9000.000
G1 E3.20000 F3000.00000
G1 X12.790 Y18.067 E1.23282 F900.000
G1 X10.326 Y16.645 F9000.000
G1 X3.354 Y9.673 E0.90569 F900.000
G1 X3.140 Y10.500 E0.07851
G1 X7.861 Y15.222 E0.61336
G1 X5.397 Y13.799 F9000.000
G1 X2.763 Y11.165 E0.34218 F900.000
G1 X2.255 Y11.699 E0.06768
G1 X2.932 Y12.376 E0.08792
G1 X24.305 Y5.626 F9000.000
G1 X38.929 Y20.249 E1.89984 F900.000
G1 X38.548 Y18.827 E0.13532
G1 X26.770 Y7.049 E1.53014
G1 X29.234 Y8.472 F9000.000
G1 X38.167 Y17.404 E1.16043 F900.000
G1 X37.785 Y15.981 E0.13532
G1 X31.699 Y9.894 E0.79073
G1 X34.163 Y11.317 F9000.000
G1 X37.404 Y14.558 E0.42102 F900.000
G1 X37.023 Y13.135 F9000.000
G1 X36.628 Y12.740 E0.05132 F900.000
G1 X-33.544 Y-8.173 F9000.000
G1 X-34.155 Y-8.476 E0.13057 F600.000
G1 X-34.817 Y-8.908 E0.15157
G1 X-37.400 Y-10.910 F9000.000
G1 X-39.925 Y-13.435 E0.33766 F900.000
G1 X-39.533 Y-14.115 E0.07420
G1 X-35.962 Y-10.544 E0.47748
G1 X-35.864 Y-11.518 E0.09258
G1 X-39.140 Y-14.794 E0.43807
G1 X-38.748 Y-15.474 E0.07420
G1 X-35.569 Y-12.295 E0.42506
G1 X-35.131 Y-12.929 E0.07286
G1 X-38.356 Y-16.154 E0.43114
G1 X-37.949 Y-16.819 E0.07371
G1 X-37.613 Y-16.483 E0.04484
G1 X-40.317 Y-12.755 F9000.000
G1 X-39.936 Y-12.374 E0.05099 F900.000
G1 E-3.20000 F3000.00000
G1 Z0.700 F9000.000
G1 X20.620 Y21.364 F9000.000
G1 Z0.600 F9000.000
G1 E3.20000 F3000.00000
G1 X20.837 Y20.995 E0.02324 F1800.000
G1 X21.090 Y20.737 E0.01964
G1 X21.432 Y20.524 E0.02188
G1 X21.859 Y20.397 E0.02421
G1 X22.251 Y20.386 E0.02128 F1800.000
G1 X22.626 Y20.467 E0.02084
G1 X22.974 Y20.638 E0.02110
G1 X23.269 Y20.888 E0.02099
G1 X23.528 Y21.257 E0.02450
G1 X23.661 Y21.621 E0.02108
G1 X23.701 Y22.006 E0.02100
G1 X23.638 Y22.425 E0.02305
G1 X23.486 Y22.783 E0.02110
G1 X23.243 Y23.103 E0.02184
G1 X22.927 Y23.352 E0.02188
G1 X22.599 Y23.498 E0.01952
G1 X22.165 Y23.582 E0.02399
G1 X21.741 Y23.540 E0.02314
G1 X21.393 Y23.418 E0.02004
G1 X21.055 Y23.195 E0.02197
G1 X20.776 Y22.883 E0.02278
G1 X20.613 Y22.570 E0.01919
G1 X20.505 Y22.135 E0.02434
G1 X20.516 Y21.737 E0.02163
G1 X20.604 Y21.422 E0.01778
G1 X20.394 Y21.034 F9000.000
G1 X1.835 Y10.283 F9000.000
G1 X1.592 Y10.603 E0.02184 F1800.000
G1 X1.276 Y10.852 E0.02188
G1 X0.948 Y10.998 E0.01952
G1 X0.514 Y11.082 E0.02399
G1 X0.090 Y11.040 E0.02314
G1 X-0.258 Y10.918 E0.02004
G1 X-0.595 Y10.695 E0.02197
G1 X-0.874 Y10.383 E0.02278
G1 X-1.038 Y10.070 E0.01919
G1 X-1.146 Y9.635 E0.02434
G1 X-1.135 Y9.237 E0.02163
G1 X-1.030 Y8.864 E0.02104
G1 X-0.813 Y8.495 E0.02324
G1 X-0.560 Y8.237 E0.01964
G1 X-0.219 Y8.024 E0.02188
G1 X0.209 Y7.897 E0.02421
G1 X0.600 Y7.886 E0.02128 F1800.000
G1 X0.975 Y7.967 E0.02084
G1 X1.323 Y8.138 E0.02110
G1 X1.619 Y8.388 E0.02099
G1 X1.877 Y8.757 E0.02450
G1 X2.010 Y9.121 E0.02108
G1 X2.051 Y9.506 E0.02100
G1 X1.987 Y9.925 E0.02305
G1 X1.859 Y10.227 E0.01784
G1 X2.020 Y10.637 F9000.000
G1 E-3.20000 F3000.00000
G1 Z1.000 F9000.000
G1 X-19.815 Y-2.217 F9000.000
G1 Z0.600 F9000.000
G1 E3.20000 F3000.00000
G1 X-20.058 Y-1.897 E0.02184 F1800.000
G1 X-20.374 Y-1.648 E0.02188
G1 X-20.703 Y-1.502 E0.01952
G1 X-21.136 Y-1.418 E0.02399
