; generated by Slic3r 1.2.9 on 2017-01-12 at 15:14:54

; external perimeters extrusion width = 0.50mm
; perimeters extrusion width = 0.50mm
; infill extrusion width = 0.50mm
; solid infill extrusion width = 0.50mm
; top infill extrusion width = 0.50mm

M107
;Basic settings: Layer height: {layer_height} Walls: {wall_thickness} Fill: {fill_density}
;Print time: {print_time}
;Filament used: {filament_amount}m {filament_weight}g
;Filament cost: {filament_cost}
;M190 S{print_bed_temperature} ;Uncomment to add your own bed temperature line
;M109 S{print_temperature} ;Uncomment to add your own temperature line
G21        ;metric values
G90        ;absolute positioning
M83
G10 P0 S200
T0
M116


G21 ; set units to millimeters
G90 ; use absolute coordinates
M83 ; use relative distances for extrusion
G1 E-3.20000 F3000.00000
G1 Z0.400 F9000.000
G1 X6.350 Y10.999 F9000.000
G1 Z0.300 F9000.000
G1 E3.20000 F3000.00000
G1 X-30.734 Y32.409 E3.92888 F1200.000
G1 X-32.379 Y32.903 E0.15755
G1 X-34.071 Y32.609 E0.15755
G1 X-35.837 Y31.042 E0.21667
G1 X-45.787 Y13.808 E1.82584
G1 X-46.281 Y12.163 E0.15755
G1 X-45.987 Y10.472 E0.15755
G1 X-44.420 Y8.705 E0.21666
G1 X26.760 Y-32.391 E7.54117
G1 X29.074 Y-32.865 E0.21666
G1 X43.001 Y-31.192 E1.28701
G1 X44.613 Y-30.600 E0.15755 F1200.000
G1 X45.790 Y-29.350 E0.15755
G1 X46.284 Y-27.706 E0.15755
G1 X46.164 Y-26.516 E0.10975
G1 X41.959 Y-10.824 E1.49054
G1 X41.145 Y-9.312 E0.15755
G1 X40.218 Y-8.555 E0.10975
G1 X6.402 Y10.969 E3.58267
G1 E-3.20000 F3000.00000
G1 Z0.700 F9000.000
G1 X-28.153 Y14.570 F9000.000
G1 Z0.300 F9000.000
G1 E3.20000 F3000.00000
G1 X-28.216 Y15.050 E0.04440 F900.000
G1 X-28.401 Y15.497 E0.04440
G1 X-28.696 Y15.881 E0.04440
G1 X-29.056 Y16.157 E0.04167
G1 X-33.611 Y18.787 E0.48252
G1 X-34.030 Y18.960 E0.04167
G1 X-34.510 Y19.024 E0.04440
G1 X-34.990 Y18.960 E0.04440
G1 X-35.437 Y18.775 E0.04440
G1 X-35.821 Y18.481 E0.04440
G1 X-36.097 Y18.120 E0.04168
G1 X-36.227 Y17.896 E0.02376
G1 X-36.401 Y17.476 E0.04167
G1 X-36.464 Y16.997 E0.04440
G1 X-36.401 Y16.517 E0.04440
G1 X-36.215 Y16.070 E0.04440
G1 X-35.921 Y15.686 E0.04440
G1 X-35.561 Y15.409 E0.04167
G1 X-31.003 Y12.778 E0.48281
G1 X-30.559 Y12.602 E0.04388
G1 X-30.107 Y12.543 E0.04182 F900.000
G1 X-29.627 Y12.606 E0.04440
G1 X-29.180 Y12.791 E0.04440
G1 X-28.799 Y13.083 E0.04408
G1 X-28.543 Y13.404 E0.03764
G1 X-28.390 Y13.670 E0.02816
G1 X-28.216 Y14.090 E0.04167
G1 X-28.161 Y14.510 E0.03890
G1 X-27.815 Y14.785 F9000.000
G1 E-3.20000 F3000.00000
G1 Z0.700 F9000.000
G1 X-31.304 Y12.110 F9000.000
G1 Z0.300 F9000.000
G1 E3.20000 F3000.00000
G1 X-31.657 Y12.450 E0.04497 F900.000
G1 X-32.058 Y12.681 E0.04249
G1 X-32.554 Y12.820 E0.04726
G1 X-33.017 Y12.829 E0.04248
G1 X-33.494 Y12.721 E0.04482
G1 X-33.930 Y12.497 E0.04496
G1 X-34.296 Y12.172 E0.04496
G1 X-34.571 Y11.764 E0.04515
G1 X-34.739 Y11.276 E0.04738
G1 X-34.778 Y10.814 E0.04246
G1 X-34.699 Y10.330 E0.04507
G1 X-34.501 Y9.881 E0.04494
G1 X-34.197 Y9.494 E0.04523
G1 X-33.803 Y9.194 E0.04538
G1 X-33.347 Y9.004 E0.04532
G1 X-32.882 Y8.935 E0.04316 F900.000
G1 X-32.374 Y8.986 E0.04688
G1 X-31.911 Y9.161 E0.04536
G1 X-31.511 Y9.443 E0.04497
G1 X-31.194 Y9.815 E0.04484
G1 X-30.988 Y10.229 E0.04247
G1 X-30.879 Y10.734 E0.04739
G1 X-30.903 Y11.224 E0.04500
G1 X-31.037 Y11.667 E0.04248
G1 X-31.273 Y12.058 E0.04190
G1 X-31.175 Y12.488 F9000.000
G1 X-22.603 Y4.072 F9000.000
G1 X-22.814 Y3.707 E0.03870 F900.000
G1 X-22.937 Y3.263 E0.04227
G1 X-22.946 Y2.844 E0.03845
G1 X-22.849 Y2.422 E0.03971
G1 X-22.636 Y2.012 E0.04237
G1 X-22.346 Y1.691 E0.03974
G1 X-21.984 Y1.450 E0.03993
G1 X-21.562 Y1.304 E0.04095
G1 X-21.145 Y1.269 E0.03837 F900.000
G1 X-20.680 Y1.348 E0.04323
G1 X-20.294 Y1.519 E0.03877
G1 X-19.950 Y1.792 E0.04034
G1 X-19.684 Y2.142 E0.04027
G1 X-19.516 Y2.541 E0.03977
G1 X-19.449 Y2.987 E0.04134
G1 X-19.494 Y3.416 E0.03964
G1 X-19.643 Y3.822 E0.03965
G1 X-19.896 Y4.191 E0.04103
G1 X-20.237 Y4.483 E0.04117
G1 X-20.623 Y4.675 E0.03961
G1 X-21.066 Y4.768 E0.04151
G1 X-21.502 Y4.747 E0.04006
G1 X-21.904 Y4.626 E0.03849
G1 X-22.297 Y4.389 E0.04213
G1 X-22.562 Y4.116 E0.03489
G1 X-23.002 Y4.105 F9000.000
G1 E-3.20000 F3000.00000
G1 Z0.700 F9000.000
G1 X-0.953 Y-8.427 F9000.000
G1 Z0.300 F9000.000
G1 E3.20000 F3000.00000
G1 X-1.164 Y-8.793 E0.03870 F900.000
G1 X-1.287 Y-9.237 E0.04227
G1 X-1.295 Y-9.656 E0.03845
G1 X-1.199 Y-10.078 E0.03971
G1 X-0.986 Y-10.488 E0.04237
G1 X-0.695 Y-10.809 E0.03974
G1 X-0.333 Y-11.050 E0.03993
G1 X0.089 Y-11.196 E0.04095
G1 X0.506 Y-11.231 E0.03837 F900.000
G1 X0.970 Y-11.152 E0.04323
G1 X1.356 Y-10.981 E0.03877
G1 X1.701 Y-10.708 E0.04034
G1 X1.966 Y-10.358 E0.04027
G1 X2.135 Y-9.959 E0.03977
G1 X2.202 Y-9.513 E0.04134
G1 X2.157 Y-9.084 E0.03964
G1 X2.007 Y-8.678 E0.03965
G1 X1.754 Y-8.309 E0.04103
G1 X1.414 Y-8.017 E0.04117
G1 X1.027 Y-7.825 E0.03961
G1 X0.584 Y-7.732 E0.04152
G1 X0.148 Y-7.753 E0.04006
G1 X-0.253 Y-7.874 E0.03849
G1 X-0.647 Y-8.111 E0.04213
G1 X-0.911 Y-8.384 E0.03489
G1 X-1.352 Y-8.395 F9000.000
G1 E-3.20000 F3000.00000
G1 Z0.700 F9000.000
G1 X20.698 Y-20.927 F9000.000
G1 Z0.300 F9000.000
G1 E3.20000 F3000.00000
G1 X20.487 Y-21.293 E0.03870 F900.000
G1 X20.364 Y-21.737 E0.04227
G1 X20.355 Y-22.156 E0.03845
G1 X20.452 Y-22.578 E0.03971
G1 X20.665 Y-22.988 E0.04237
G1 X20.955 Y-23.309 E0.03974
G1 X21.318 Y-23.550 E0.03994
G1 X21.740 Y-23.696 E0.04095
G1 X22.156 Y-23.731 E0.03837 F900.000
G1 X22.621 Y-23.652 E0.04323
G1 X23.007 Y-23.481 E0.03877
G1 X23.352 Y-23.208 E0.04034
G1 X23.617 Y-22.858 E0.04027
G1 X23.786 Y-22.459 E0.03977
G1 X23.852 Y-22.013 E0.04134
G1 X23.807 Y-21.584 E0.03964
G1 X23.658 Y-21.178 E0.03965
G1 X23.405 Y-20.809 E0.04103
G1 X23.065 Y-20.517 E0.04117
G1 X22.678 Y-20.325 E0.03961
G1 X22.235 Y-20.232 E0.04151
G1 X21.799 Y-20.253 E0.04006
G1 X21.397 Y-20.374 E0.03849
G1 X21.004 Y-20.611 E0.04213
G1 X20.740 Y-20.884 E0.03489
G1 X20.299 Y-20.895 F9000.000
G1 E-3.20000 F3000.00000
G1 Z0.700 F9000.000
G1 X33.833 Y-26.347 F9000.000
G1 Z0.300 F9000.000
G1 E3.20000 F3000.00000
G1 X41.075 Y-26.347 E0.66449 F900.000
G1 X37.375 Y-12.539 E1.31160
G1 X-32.187 Y27.623 E7.36970
G1 X-41.001 Y12.356 E1.61745
G1 X-35.209 Y9.012 E0.61365
G1 X-34.970 Y9.287 E0.03344
G1 X-35.137 Y9.500 E0.02480
G1 X-35.410 Y10.119 E0.06208
G1 X-35.518 Y10.786 E0.06197
G1 X-35.464 Y11.428 E0.05919
G1 X-35.235 Y12.095 E0.06466
G1 X-34.854 Y12.660 E0.06257
G1 X-34.348 Y13.109 E0.06203
G1 X-33.660 Y13.463 E0.07098
G1 X-35.970 Y14.796 E0.24471
G1 X-36.446 Y15.161 E0.05498
G1 X-36.858 Y15.699 E0.06218
G1 X-37.117 Y16.325 E0.06218
G1 X-37.206 Y16.997 E0.06217
G1 X-37.117 Y17.668 E0.06217
G1 X-36.888 Y18.222 E0.05499
G1 X-36.710 Y18.530 E0.03261
G1 X-36.346 Y19.005 E0.05498
G1 X-35.808 Y19.418 E0.06217
G1 X-35.182 Y19.677 E0.06217
G1 X-34.510 Y19.766 E0.06218
G1 X-33.838 Y19.677 E0.06217
G1 X-33.284 Y19.448 E0.05498
G1 X-28.647 Y16.770 E0.49136
G1 X-28.171 Y16.405 E0.05498
G1 X-27.759 Y15.868 E0.06217
G1 X-27.499 Y15.242 E0.06218
G1 X-27.411 Y14.570 E0.06217
G1 X-27.499 Y13.898 E0.06217
G1 X-27.729 Y13.344 E0.05499
G1 X-27.933 Y12.989 E0.03760
G1 X-28.279 Y12.555 E0.05094
G1 X-28.809 Y12.148 E0.06125
G1 X-29.435 Y11.889 E0.06218
G1 X-30.301 Y11.775 E0.08017
G1 X-30.173 Y11.350 E0.04071
G1 X-30.140 Y10.674 E0.06214
G1 X-30.288 Y9.985 E0.06469
G1 X-30.575 Y9.407 E0.05921
G1 X-31.011 Y8.895 E0.06168
G1 X-31.564 Y8.506 E0.06204
G1 X-32.204 Y8.263 E0.06281
G1 X-32.900 Y8.194 E0.06413
G1 X-33.135 Y8.229 E0.02182
G1 X-33.255 Y7.884 E0.03350
G1 X-23.575 Y2.295 E1.02555
G1 X-23.683 Y2.769 E0.04458
G1 X-23.671 Y3.371 E0.05525
G1 X-23.498 Y3.994 E0.05933
G1 X-23.195 Y4.519 E0.05563
G1 X-22.759 Y4.970 E0.05754
G1 X-22.205 Y5.303 E0.05939
G1 X-21.628 Y5.477 E0.05527
G1 X-21.008 Y5.507 E0.05696
G1 X-20.381 Y5.376 E0.05877
G1 X-19.827 Y5.101 E0.05676
G1 X-19.344 Y4.686 E0.05841
G1 X-18.985 Y4.162 E0.05825
G1 X-18.772 Y3.585 E0.05649
G1 X-18.707 Y2.971 E0.05666
G1 X-18.802 Y2.340 E0.05846
G1 X-19.043 Y1.771 E0.05676
G1 X-19.420 Y1.273 E0.05729
G1 X-19.911 Y0.885 E0.05738
G1 X-20.601 Y0.578 E0.06931
G1 X-1.924 Y-10.205 E1.97869
G1 X-2.033 Y-9.731 E0.04458
G1 X-2.020 Y-9.129 E0.05525
G1 X-1.848 Y-8.506 E0.05932
G1 X-1.545 Y-7.981 E0.05564
G1 X-1.108 Y-7.530 E0.05754
G1 X-0.554 Y-7.197 E0.05939
G1 X0.023 Y-7.023 E0.05527
G1 X0.643 Y-6.993 E0.05696
G1 X1.270 Y-7.124 E0.05877
G1 X1.824 Y-7.399 E0.05676
G1 X2.307 Y-7.814 E0.05841
G1 X2.666 Y-8.338 E0.05825
G1 X2.879 Y-8.915 E0.05649
G1 X2.943 Y-9.529 E0.05666
G1 X2.849 Y-10.160 E0.05846
G1 X2.608 Y-10.729 E0.05676
G1 X2.230 Y-11.227 E0.05729
G1 X1.740 Y-11.615 E0.05738
G1 X1.050 Y-11.922 E0.06931
G1 X19.726 Y-22.705 E1.97869
G1 X19.618 Y-22.231 E0.04458
G1 X19.630 Y-21.629 E0.05525
G1 X19.803 Y-21.006 E0.05932
G1 X20.106 Y-20.481 E0.05564
G1 X20.542 Y-20.030 E0.05754
G1 X21.097 Y-19.697 E0.05939
G1 X21.673 Y-19.523 E0.05527
G1 X22.294 Y-19.493 E0.05696
G1 X22.921 Y-19.624 E0.05876
G1 X23.475 Y-19.899 E0.05676
G1 X23.957 Y-20.314 E0.05841
G1 X24.316 Y-20.838 E0.05825
G1 X24.529 Y-21.415 E0.05649
G1 X24.594 Y-22.029 E0.05666
G1 X24.499 Y-22.660 E0.05846
G1 X24.259 Y-23.229 E0.05676
G1 X23.881 Y-23.727 E0.05729
G1 X23.391 Y-24.115 E0.05738
G1 X22.700 Y-24.422 E0.06931
G1 X27.493 Y-27.189 E0.50770
G1 X27.493 Y-26.347 E0.07725
G1 X33.773 Y-26.347 E0.57623 F900.000
G1 X33.773 Y-27.083 F9000.000
G1 X42.034 Y-27.083 E0.75795 F900.000
G1 X38.007 Y-12.054 E1.42751
G1 X-32.456 Y28.628 E7.46515
G1 X-42.006 Y12.087 E1.75244
G1 X28.228 Y-28.463 E7.44089
G1 X28.228 Y-27.083 E0.12665
G1 X33.713 Y-27.083 E0.50324 F900.000
G1 X33.973 Y-26.736 F9000.000
G1 X40.433 Y-25.549 F9000.000
G1 X40.084 Y-25.898 E0.04554 F900.000
G1 X39.036 Y-25.898 E0.09686
G1 X40.211 Y-24.723 E0.15357
G1 X39.990 Y-23.896 E0.07908
G1 X37.989 Y-25.898 E0.26161
G1 X36.941 Y-25.898 E0.09686
G1 X39.768 Y-23.070 E0.36964
G1 X39.547 Y-22.243 E0.07908
G1 X35.893 Y-25.898 E0.47767
G1 X34.845 Y-25.898 E0.09686
G1 X39.326 Y-21.417 E0.58570
G1 X39.104 Y-20.590 E0.07908
G1 X33.797 Y-25.898 E0.69373
G1 X32.749 Y-25.898 E0.09686
G1 X38.883 Y-19.764 E0.80177
G1 X38.661 Y-18.937 E0.07908
G1 X31.701 Y-25.898 E0.90980
G1 X30.653 Y-25.898 E0.09686
G1 X38.440 Y-18.111 E1.01783
G1 X38.218 Y-17.284 E0.07908
G1 X29.605 Y-25.898 E1.12586
G1 X28.557 Y-25.898 E0.09686
G1 X37.997 Y-16.458 E1.23390
G1 X37.775 Y-15.631 E0.07908
G1 X27.509 Y-25.898 E1.34193
G1 X26.307 Y-26.052 E0.11199
G1 X37.554 Y-14.805 E1.47007
G1 X37.332 Y-13.978 E0.07908
G1 X25.643 Y-25.668 E1.52796
G1 X24.978 Y-25.284 E0.07091
G1 X37.111 Y-13.152 E1.58586
G1 X36.645 Y-12.570 E0.06891
G1 X24.314 Y-24.901 E1.61178
G1 X24.744 Y-23.423 E0.14229
G1 X35.981 Y-12.186 E1.46870
G1 X35.316 Y-11.803 E0.07091
G1 X25.036 Y-22.083 E1.34375
G1 X24.878 Y-21.192 E0.08361
G1 X34.652 Y-11.419 E1.27745
G1 X33.987 Y-11.035 E0.07091
G1 X24.542 Y-20.480 E1.23455
G1 X24.071 Y-19.904 E0.06883
G1 X33.323 Y-10.652 E1.20932
G1 X32.659 Y-10.268 E0.07091
G1 X23.472 Y-19.455 E1.20081
G1 X22.726 Y-19.153 E0.07439
G1 X31.994 Y-9.885 E1.21150
G1 X31.330 Y-9.501 E0.07091
G1 X21.770 Y-19.061 E1.24952
G1 X20.177 Y-19.606 F9000.000
G1 X30.665 Y-9.118 E1.37095 F900.000
G1 X30.001 Y-8.734 E0.07091
G1 X17.670 Y-21.065 E1.61178
G1 X18.334 Y-21.449 E0.07091
G1 X19.707 Y-20.076 E0.17945
G1 X17.006 Y-20.681 F9000.000
G1 X29.337 Y-8.350 E1.61178 F900.000
G1 X28.672 Y-7.967 E0.07091
G1 X16.341 Y-20.298 E1.61178
G1 X15.677 Y-19.914 E0.07091
G1 X28.008 Y-7.583 E1.61178
G1 X27.343 Y-7.200 E0.07091
G1 X15.012 Y-19.531 E1.61178
G1 X14.348 Y-19.147 E0.07091
G1 X26.679 Y-6.816 E1.61178
G1 X26.015 Y-6.432 E0.07091
G1 X13.684 Y-18.764 E1.61178
G1 X13.019 Y-18.380 E0.07091
G1 X25.350 Y-6.049 E1.61178
G1 X24.686 Y-5.665 E0.07091
G1 X12.355 Y-17.996 E1.61178
G1 X11.690 Y-17.613 E0.07091
G1 X24.022 Y-5.282 E1.61178
G1 X23.357 Y-4.898 E0.07091
G1 X11.026 Y-17.229 E1.61178
G1 X10.362 Y-16.846 E0.07091
G1 X22.693 Y-4.514 E1.61178
G1 X22.028 Y-4.131 E0.07091
G1 X9.697 Y-16.462 E1.61178
G1 X9.033 Y-16.078 E0.07091
G1 X21.364 Y-3.747 E1.61178
G1 X20.700 Y-3.364 E0.07091
G1 X8.369 Y-15.695 E1.61178
G1 X7.704 Y-15.311 E0.07091
G1 X20.035 Y-2.980 E1.61178
G1 X19.371 Y-2.597 E0.07091
G1 X7.040 Y-14.928 E1.61178
G1 X6.375 Y-14.544 E0.07091
G1 X18.706 Y-2.213 E1.61178
G1 X18.042 Y-1.829 E0.07091
G1 X5.711 Y-14.160 E1.61178
G1 X5.047 Y-13.777 E0.07091
G1 X17.378 Y-1.446 E1.61178
G1 X16.713 Y-1.062 E0.07091
G1 X4.382 Y-13.393 E1.61178
G1 X3.718 Y-13.010 E0.07091
G1 X16.049 Y-0.679 E1.61178
G1 X15.384 Y-0.295 E0.07091
G1 X3.053 Y-12.626 E1.61178
G1 X2.389 Y-12.243 E0.07091
G1 X14.720 Y0.089 E1.61178
G1 X14.056 Y0.472 E0.07091
G1 X3.311 Y-10.272 E1.40440
G1 X3.344 Y-9.192 E0.09991
G1 X13.391 Y0.856 E1.31331
G1 X12.727 Y1.239 E0.07091
G1 X3.111 Y-8.376 E1.25683
G1 X2.716 Y-7.724 E0.07051
G1 X12.063 Y1.623 E1.22172
G1 X11.398 Y2.006 E0.07091
G1 X2.188 Y-7.204 E1.20387
G1 X1.532 Y-6.812 E0.07062
G1 X10.734 Y2.390 E1.20274
G1 X10.069 Y2.774 E0.07091
G1 X0.717 Y-6.579 E1.22245
G1 X-0.370 Y-6.618 E0.10052
G1 X9.405 Y3.157 E1.27768
G1 X8.741 Y3.541 E0.07091
G1 X-3.590 Y-8.790 E1.61178
G1 X-4.255 Y-8.407 E0.07091
G1 X8.076 Y3.924 E1.61178
G1 X7.412 Y4.308 E0.07091
G1 X-4.919 Y-8.023 E1.61178
G1 X-5.584 Y-7.640 E0.07091
G1 X6.747 Y4.692 E1.61178
G1 X6.083 Y5.075 E0.07091
G1 X-6.248 Y-7.256 E1.61178
G1 X-6.912 Y-6.872 E0.07091
G1 X5.419 Y5.459 E1.61178
G1 X4.754 Y5.842 E0.07091
G1 X-7.577 Y-6.489 E1.61178
G1 X-8.241 Y-6.105 E0.07091
G1 X4.090 Y6.226 E1.61178
G1 X3.426 Y6.609 E0.07091
G1 X-8.906 Y-5.722 E1.61178
G1 X-9.570 Y-5.338 E0.07091
G1 X2.761 Y6.993 E1.61178
G1 X2.097 Y7.377 E0.07091
G1 X-10.234 Y-4.954 E1.61178
G1 X-10.899 Y-4.571 E0.07091
G1 X1.432 Y7.760 E1.61178
G1 X0.768 Y8.144 E0.07091
G1 X-11.563 Y-4.187 E1.61178
G1 X-12.228 Y-3.804 E0.07091
G1 X0.104 Y8.527 E1.61178
G1 X-0.561 Y8.911 E0.07091
G1 X-12.892 Y-3.420 E1.61178
G1 X-13.556 Y-3.037 E0.07091
G1 X-1.225 Y9.295 E1.61178
G1 X-1.890 Y9.678 E0.07091
G1 X-14.221 Y-2.653 E1.61178
G1 X-14.885 Y-2.269 E0.07091
G1 X-2.554 Y10.062 E1.61178
G1 X-3.218 Y10.445 E0.07091
G1 X-15.549 Y-1.886 E1.61178
G1 X-16.214 Y-1.502 E0.07091
G1 X-3.883 Y10.829 E1.61178
G1 X-4.547 Y11.212 E0.07091
G1 X-16.878 Y-1.119 E1.61178
G1 X-17.543 Y-0.735 E0.07091
G1 X-5.212 Y11.596 E1.61178
G1 X-5.876 Y11.980 E0.07091
G1 X-18.207 Y-0.351 E1.61178
G1 X-18.871 Y0.032 E0.07091
G1 X-6.540 Y12.363 E1.61178
G1 X-7.205 Y12.747 E0.07091
G1 X-18.759 Y1.192 E1.51027
G1 X-18.263 Y2.736 E0.14988
G1 X-7.869 Y13.130 E1.35860
G1 X-8.533 Y13.514 E0.07091
G1 X-18.374 Y3.674 E1.28618
G1 X-18.684 Y4.411 E0.07393
G1 X-9.198 Y13.898 E1.23999
G1 X-9.862 Y14.281 E0.07091
G1 X-19.132 Y5.011 E1.21163
G1 X-19.707 Y5.484 E0.06882
G1 X-10.527 Y14.665 E1.20000
G1 X-11.191 Y15.048 E0.07091
G1 X-20.424 Y5.815 E1.20686
G1 X-21.339 Y5.948 E0.08543
G1 X-11.855 Y15.432 E1.23958
G1 X-12.520 Y15.815 E0.07091
G1 X-22.664 Y5.671 E1.32599
G1 X-23.844 Y4.491 F9000.000
G1 X-24.851 Y3.484 E0.13159 F900.000
G1 X-25.515 Y3.868 E0.07091
G1 X-13.184 Y16.199 E1.61178
G1 X-13.849 Y16.583 E0.07091
G1 X-26.180 Y4.252 E1.61178
G1 X-26.844 Y4.635 E0.07091
G1 X-14.513 Y16.966 E1.61178
G1 X-15.177 Y17.350 E0.07091
G1 X-27.508 Y5.019 E1.61178
G1 X-28.173 Y5.402 E0.07091
G1 X-15.842 Y17.733 E1.61178
G1 X-16.506 Y18.117 E0.07091
G1 X-28.837 Y5.786 E1.61178
G1 X-29.502 Y6.169 E0.07091
G1 X-17.171 Y18.501 E1.61178
G1 X-17.835 Y18.884 E0.07091
G1 X-30.166 Y6.553 E1.61178
G1 X-30.830 Y6.937 E0.07091
G1 X-18.499 Y19.268 E1.61178
G1 X-19.164 Y19.651 E0.07091
G1 X-31.495 Y7.320 E1.61178
G1 X-29.767 Y10.096 F9000.000
G1 X-19.828 Y20.035 E1.29917 F900.000
G1 X-20.492 Y20.418 E0.07091
G1 X-27.026 Y13.885 E0.85399
G1 X-27.025 Y14.934 E0.09696
G1 X-21.157 Y20.802 E0.76701
G1 X-21.821 Y21.186 E0.07091
G1 X-27.270 Y15.737 E0.71220
G1 X-27.669 Y16.386 E0.07041
G1 X-22.486 Y21.569 E0.67752
G1 X-23.150 Y21.953 E0.07091
G1 X-28.193 Y16.909 E0.65921
G1 X-28.825 Y17.326 E0.06992
G1 X-23.814 Y22.336 E0.65493
G1 X-24.479 Y22.720 E0.07091
G1 X-29.489 Y17.709 E0.65493
G1 X-30.154 Y18.093 E0.07091
G1 X-25.143 Y23.104 E0.65493
G1 X-25.808 Y23.487 E0.07091
G1 X-30.818 Y18.477 E0.65493
G1 X-31.483 Y18.860 E0.07091
