; generated by Slic3r 1.2.9 on 2017-01-13 at 11:36:29

; external perimeters extrusion width = 0.50mm
; perimeters extrusion width = 0.50mm
; infill extrusion width = 0.50mm
; solid infill extrusion width = 0.50mm
; top infill extrusion width = 0.50mm

M107
;Basic settings: Layer height: {layer_height} Walls: {wall_thickness} Fill: {fill_density}
;Print time: {print_time}
;Filament used: {filament_amount}m {filament_weight}g
;Filament cost: {filament_cost}
;M190 S{print_bed_temperature} ;Uncomment to add your own bed temperature line
;M109 S{print_temperature} ;Uncomment to add your own temperature line
G21        ;metric values
G90        ;absolute positioning
M83
G10 P0 S200
T0
M116


G21 ; set units to millimeters
G90 ; use absolute coordinates
M83 ; use relative distances for extrusion
G1 E-3.20000 F3000.00000
G1 Z0.400 F9000.000
G1 X19.686 Y0.000 F9000.000
G1 Z0.300 F9000.000
G1 E3.20000 F3000.00000
G1 X19.686 Y29.950 E2.74793 F1200.000
G1 X19.291 Y31.621 E0.15755
G1 X18.190 Y32.939 E0.15755
G1 X15.950 Y33.686 E0.21667
G1 X-14.979 Y33.686 E2.83778
G1 X-16.650 Y33.291 E0.15755
G1 X-17.621 Y32.591 E0.10975
G1 X-18.591 Y31.621 E0.12595
G1 X-19.494 Y30.160 E0.15755
G1 X-19.686 Y28.979 E0.10975
G1 X-19.686 Y-28.979 E5.31773
G1 X-19.291 Y-30.650 E0.15755
G1 X-18.591 Y-31.621 E0.10975
G1 X-17.621 Y-32.591 E0.12595
G1 X-16.160 Y-33.494 E0.15755
G1 X-14.979 Y-33.686 E0.10975
G1 X15.950 Y-33.686 E2.83778
G1 X17.621 Y-33.291 E0.15755
G1 X18.939 Y-32.190 E0.15755 F1200.000
G1 X19.686 Y-29.950 E0.21667
G1 X19.686 Y-0.060 E2.74242
G1 E-3.20000 F3000.00000
G1 Z0.700 F9000.000
G1 X0.186 Y-0.060 F9000.000
G1 Z0.300 F9000.000
G1 E3.20000 F3000.00000
G1 X0.186 Y8.186 E0.75654 F900.000
G1 X-10.186 Y8.186 E0.95157
G1 X-10.186 Y-8.186 E1.50207
G1 X0.186 Y-8.186 E0.95157 F900.000
G1 X0.186 Y-0.120 E0.74002
G1 X-0.550 Y-0.120 F9000.000
G1 X-0.550 Y7.450 E0.69455 F900.000
G1 X-9.450 Y7.450 E0.81658
G1 X-9.450 Y-7.450 E1.36708
G1 X-0.550 Y-7.450 E0.81658 F900.000
G1 X-0.550 Y-0.180 E0.66703
G1 X-0.204 Y0.080 F9000.000
G1 E-3.20000 F3000.00000
G1 Z0.700 F9000.000
G1 X-14.814 Y-1.655 F9000.000
G1 Z0.300 F9000.000
G1 E3.20000 F3000.00000
G1 X-14.814 Y-28.509 E2.46385 F900.000
G1 X-14.509 Y-28.814 E0.03964
G1 X14.814 Y-28.814 E2.69043
G1 X14.814 Y-21.936 E0.63113
G1 X8.698 Y-21.936 E0.56117 F900.000
G1 X8.365 Y-22.618 E0.06967
G1 X7.973 Y-23.159 E0.06135
G1 X7.741 Y-23.662 E0.05079
G1 X7.217 Y-24.298 E0.07556
G1 X6.546 Y-24.779 E0.07576
G1 X5.749 Y-25.080 E0.07821
G1 X4.934 Y-25.157 E0.07509
G1 X4.337 Y-25.060 E0.05550
G1 X3.297 Y-25.045 E0.09542
G1 X2.011 Y-24.692 E0.12233
G1 X0.881 Y-24.029 E0.12024
G1 X-0.042 Y-23.103 E0.11998
G1 X-0.699 Y-21.972 E0.11998
G1 X-1.046 Y-20.711 E0.11997
G1 X-1.060 Y-19.422 E0.11826
G1 X-0.743 Y-18.137 E0.12145
G1 X-0.111 Y-16.990 E0.12018
G1 X0.790 Y-16.042 E0.11998
G1 X1.903 Y-15.356 E0.11997
G1 X3.136 Y-14.981 E0.11826
G1 X4.459 Y-14.925 E0.12144
G1 X5.737 Y-15.210 E0.12019
G1 X6.899 Y-15.810 E0.11998
G1 X7.870 Y-16.686 E0.11998
G1 X8.586 Y-17.780 E0.11998
G1 X8.681 Y-18.064 E0.02753
G1 X14.814 Y-18.064 E0.56271
G1 X14.814 Y-12.186 E0.53938
G1 X11.814 Y-12.186 E0.27525
G1 X11.814 Y12.186 E2.23607
G1 X14.814 Y12.186 E0.27525
G1 X14.814 Y18.064 E0.53938
G1 X8.681 Y18.064 E0.56271
G1 X8.586 Y17.780 E0.02753
G1 X7.870 Y16.686 E0.11998
G1 X6.899 Y15.810 E0.11998
G1 X5.737 Y15.210 E0.11998
G1 X4.459 Y14.925 E0.12019
G1 X3.136 Y14.981 E0.12144
G1 X1.903 Y15.356 E0.11826
G1 X0.788 Y16.044 E0.12018
G1 X-0.120 Y17.006 E0.12145
G1 X-0.742 Y18.135 E0.11826
G1 X-1.061 Y19.406 E0.12017
G1 X-1.041 Y20.729 E0.12145
G1 X-0.698 Y21.972 E0.11826
G1 X-0.042 Y23.103 E0.11997
G1 X0.881 Y24.029 E0.11998
G1 X2.011 Y24.692 E0.12024
G1 X3.297 Y25.045 E0.12232
G1 X4.337 Y25.060 E0.09543
G1 X4.934 Y25.157 E0.05550
G1 X5.749 Y25.080 E0.07509
G1 X6.546 Y24.779 E0.07821
G1 X7.217 Y24.298 E0.07576
G1 X7.741 Y23.662 E0.07556
G1 X7.973 Y23.159 E0.05079
G1 X8.365 Y22.618 E0.06135
G1 X8.698 Y21.936 E0.06967
G1 X14.814 Y21.936 E0.56117
G1 X14.814 Y28.814 E0.63113
G1 X-14.509 Y28.814 E2.69043
G1 X-14.814 Y28.509 E0.03964
G1 X-14.814 Y-1.595 E2.76206
G1 X-15.550 Y-1.595 F9000.000
G1 X-15.550 Y-28.814 E2.49731 F900.000
G1 X-14.814 Y-29.550 E0.09555
G1 X15.550 Y-29.550 E2.78588
G1 X15.550 Y-21.200 E0.76612
G1 X8.166 Y-21.200 E0.67752 F900.000
G1 X8.060 Y-21.567 E0.03506
G1 X7.732 Y-22.238 E0.06850
G1 X7.335 Y-22.786 E0.06214
G1 X7.113 Y-23.268 E0.04863
G1 X6.711 Y-23.755 E0.05800
G1 X6.196 Y-24.125 E0.05812
G1 X5.581 Y-24.357 E0.06032
G1 X4.959 Y-24.416 E0.05734
G1 X4.402 Y-24.325 E0.05177
G1 X3.401 Y-24.310 E0.09181
G1 X2.300 Y-24.008 E0.10483
G1 X1.335 Y-23.443 E0.10260
G1 X0.546 Y-22.651 E0.10251
G1 X-0.015 Y-21.685 E0.10251
G1 X-0.311 Y-20.607 E0.10251
G1 X-0.324 Y-19.507 E0.10093
G1 X-0.052 Y-18.407 E0.10398
G1 X0.487 Y-17.428 E0.10258
G1 X1.258 Y-16.619 E0.10251
G1 X2.208 Y-16.032 E0.10251
G1 X3.261 Y-15.712 E0.10093
G1 X4.393 Y-15.664 E0.10398
G1 X5.484 Y-15.907 E0.10259
G1 X6.477 Y-16.420 E0.10251
G1 X7.307 Y-17.168 E0.10251
G1 X7.919 Y-18.103 E0.10251
G1 X8.151 Y-18.800 E0.06742
G1 X15.550 Y-18.800 E0.67883
G1 X15.550 Y-11.450 E0.67437
G1 X12.550 Y-11.450 E0.27525
G1 X12.550 Y11.450 E2.10109
G1 X15.550 Y11.450 E0.27525
G1 X15.550 Y18.800 E0.67437
G1 X8.151 Y18.800 E0.67883
G1 X7.919 Y18.103 E0.06742
G1 X7.307 Y17.168 E0.10251
G1 X6.477 Y16.420 E0.10251
G1 X5.484 Y15.907 E0.10251
G1 X4.393 Y15.664 E0.10259
G1 X3.261 Y15.712 E0.10398
G1 X2.208 Y16.032 E0.10093
G1 X1.257 Y16.619 E0.10258
G1 X0.479 Y17.443 E0.10398
G1 X-0.052 Y18.407 E0.10093
G1 X-0.324 Y19.491 E0.10258
G1 X-0.307 Y20.624 E0.10398
G1 X-0.015 Y21.685 E0.10093
G1 X0.546 Y22.651 E0.10251
G1 X1.335 Y23.443 E0.10251
G1 X2.300 Y24.008 E0.10260
G1 X3.401 Y24.310 E0.10483
G1 X4.402 Y24.325 E0.09182
G1 X4.959 Y24.416 E0.05177
G1 X5.581 Y24.357 E0.05734
G1 X6.196 Y24.125 E0.06032
G1 X6.711 Y23.755 E0.05812
G1 X7.113 Y23.268 E0.05800
G1 X7.335 Y22.786 E0.04863
G1 X7.732 Y22.238 E0.06214
G1 X8.060 Y21.567 E0.06850
G1 X8.166 Y21.200 E0.03506
G1 X15.550 Y21.200 E0.67752
G1 X15.550 Y29.550 E0.76612
G1 X-14.814 Y29.550 E2.78588
G1 X-15.550 Y28.814 E0.09555
G1 X-15.550 Y-1.535 E2.78451
G1 X-15.204 Y-1.795 F9000.000
G1 X-14.365 Y6.039 F9000.000
G1 X-1.391 Y19.013 E1.69323 F900.000
G1 X-1.504 Y19.946 E0.08675
G1 X-14.365 Y7.086 E1.67846
G1 X-14.365 Y8.132 E0.09656
G1 X-1.475 Y21.022 E1.68232
G1 X-1.002 Y22.541 E0.14680
G1 X-14.365 Y9.178 E1.74399
G1 X-14.365 Y10.225 E0.09656
G1 X3.775 Y28.365 E2.36751
G1 X4.822 Y28.365 E0.09656
G1 X1.465 Y25.008 E0.43808
G1 X2.973 Y25.470 E0.14554
G1 X5.868 Y28.365 E0.37783
G1 X6.914 Y28.365 E0.09656
G1 X4.056 Y25.507 E0.37299
G1 X5.168 Y25.572 E0.10273
G1 X7.961 Y28.365 E0.36452
G1 X9.007 Y28.365 E0.09656
G1 X6.043 Y25.401 E0.38689
G1 X6.778 Y25.089 E0.07367
G1 X10.054 Y28.365 E0.42752
G1 X11.100 Y28.365 E0.09656
G1 X7.387 Y24.652 E0.48455
G1 X7.881 Y24.099 E0.06839
G1 X12.146 Y28.365 E0.55672
G1 X13.193 Y28.365 E0.09656
G1 X8.277 Y23.450 E0.64148
G1 X8.696 Y22.822 E0.06964
G1 X14.239 Y28.365 E0.72348
G1 X14.365 Y27.445 E0.08572
G1 X9.305 Y22.385 E0.66039
G1 X10.351 Y22.385 E0.09656
G1 X14.365 Y26.399 E0.52383
G1 X14.365 Y25.352 E0.09656
G1 X11.398 Y22.385 E0.38727
G1 X12.444 Y22.385 E0.09656
G1 X14.365 Y24.306 E0.25070
G1 X14.365 Y23.259 E0.09656
G1 X13.491 Y22.385 E0.11414
G1 E-3.20000 F3000.00000
G1 Z0.700 F9000.000
G1 X9.767 Y17.615 F9000.000
G1 Z0.300 F9000.000
G1 E3.20000 F3000.00000
G1 X0.635 Y8.483 E1.19188 F900.000
G1 X0.635 Y7.436 E0.09656
G1 X10.814 Y17.615 E1.32844
G1 X11.860 Y17.615 E0.09656
G1 X0.635 Y6.390 E1.46501
G1 X0.635 Y5.344 E0.09656
G1 X12.906 Y17.615 E1.60157
G1 X13.953 Y17.615 E0.09656
G1 X0.635 Y4.297 E1.73813
G1 X0.635 Y3.251 E0.09656
G1 X14.365 Y16.981 E1.79195
G1 X14.365 Y15.935 E0.09656
G1 X0.635 Y2.204 E1.79195
G1 X0.635 Y1.158 E0.09656
G1 X11.365 Y11.888 E1.40042
G1 X11.365 Y10.842 E0.09656
G1 X0.635 Y0.112 E1.40042
G1 X0.635 Y-0.935 E0.09656
G1 X11.365 Y9.796 E1.40042
G1 X11.365 Y8.749 E0.09656
G1 X0.635 Y-1.981 E1.40042
G1 X0.635 Y-3.027 E0.09656
G1 X11.365 Y7.703 E1.40042
G1 X11.365 Y6.657 E0.09656
G1 X0.635 Y-4.074 E1.40042
G1 X0.635 Y-5.120 E0.09656
G1 X11.365 Y5.610 E1.40042
G1 X11.365 Y4.564 E0.09656
G1 X0.635 Y-6.167 E1.40042
G1 X0.635 Y-7.213 E0.09656
G1 X11.365 Y3.517 E1.40042
G1 X11.365 Y-3.807 F9000.000
G1 X-13.193 Y-28.365 E3.20505 F900.000
G1 X-14.239 Y-28.365 E0.09656
G1 X11.365 Y-2.761 E3.34161
G1 X11.365 Y-1.715 E0.09656
G1 X-14.365 Y-27.445 E3.35807
G1 X-14.365 Y-26.398 E0.09656
G1 X11.365 Y-0.668 E3.35807
G1 X11.365 Y0.378 E0.09656
G1 X-14.365 Y-25.352 E3.35807
G1 X-14.365 Y-24.306 E0.09656
G1 X11.365 Y1.425 E3.35807
G1 X11.365 Y2.471 E0.09656
G1 X-14.365 Y-23.259 E3.35807
G1 X-14.365 Y-22.213 E0.09656
G1 X-0.787 Y-8.635 E1.77208
G1 X-1.833 Y-8.635 E0.09656
G1 X-14.365 Y-21.167 E1.63552
G1 X-14.365 Y-20.120 E0.09656
G1 X-2.880 Y-8.635 E1.49896
G1 X-3.926 Y-8.635 E0.09656
G1 X-14.365 Y-19.074 E1.36239
G1 X-14.365 Y-18.027 E0.09656
G1 X-4.973 Y-8.635 E1.22583
G1 X-6.019 Y-8.635 E0.09656
G1 X-14.365 Y-16.981 E1.08927
G1 X-14.365 Y-15.935 E0.09656
G1 X-7.065 Y-8.635 E0.95271
G1 X-8.112 Y-8.635 E0.09656
G1 X-14.365 Y-14.888 E0.81614
G1 X-14.365 Y-13.842 E0.09656
G1 X-9.158 Y-8.635 E0.67958
G1 X-10.204 Y-8.635 E0.09656
G1 X-14.365 Y-12.796 E0.54302
G1 X-14.365 Y-11.749 E0.09656
G1 X-10.635 Y-8.019 E0.48685
G1 X-10.635 Y-6.972 E0.09656
G1 X-14.365 Y-10.703 E0.48685
G1 X-14.365 Y-9.656 E0.09656
G1 X-10.635 Y-5.926 E0.48685
G1 X-10.635 Y-4.880 E0.09656
G1 X-14.365 Y-8.610 E0.48685
G1 X-14.365 Y-7.564 E0.09656
G1 X-10.635 Y-3.833 E0.48685
G1 X-10.635 Y-2.787 E0.09656
G1 X-14.365 Y-6.517 E0.48685
G1 X-14.365 Y-5.471 E0.09656
G1 X-10.635 Y-1.741 E0.48685
G1 X-10.635 Y-0.694 E0.09656
G1 X-14.365 Y-4.425 E0.48685
G1 X-14.365 Y-3.378 E0.09656
G1 X-10.635 Y0.352 E0.48685
G1 X-10.635 Y1.399 E0.09656
G1 X-14.365 Y-2.332 E0.48685
G1 X-14.365 Y-1.285 E0.09656
G1 X-10.635 Y2.445 E0.48685
G1 X-10.635 Y3.491 E0.09656
G1 X-14.365 Y-0.239 E0.48685
G1 X-14.365 Y0.807 E0.09656
G1 X-10.635 Y4.538 E0.48685
G1 X-10.635 Y5.584 E0.09656
G1 X-14.365 Y1.854 E0.48685
G1 X-14.365 Y2.900 E0.09656
G1 X-10.635 Y6.630 E0.48685
G1 X-10.635 Y7.677 E0.09656
G1 X-14.365 Y3.946 E0.48685
G1 X-14.365 Y4.993 E0.09656
G1 X-1.181 Y18.177 E1.72064
G1 X-0.831 Y17.481 E0.07191
G1 X-9.677 Y8.635 E1.15450
G1 X-8.630 Y8.635 E0.09656
G1 X-0.459 Y16.806 E1.06642
G1 X0.048 Y16.267 E0.06831
G1 X-7.584 Y8.635 E0.99610
G1 X-6.538 Y8.635 E0.09656
G1 X0.557 Y15.729 E0.92586
G1 X1.203 Y15.329 E0.07015
G1 X-5.491 Y8.635 E0.87367
G1 X-4.445 Y8.635 E0.09656
G1 X1.860 Y14.940 E0.82288
G1 X2.662 Y14.696 E0.07738
G1 X-3.399 Y8.635 E0.79100
G1 X-2.352 Y8.635 E0.09656
G1 X3.534 Y14.521 E0.76816
G1 X4.538 Y14.478 E0.09275
G1 X-1.306 Y8.635 E0.76265
G1 X-0.259 Y8.635 E0.09656
G1 X5.840 Y14.734 E0.79597
G1 X12.112 Y12.635 F9000.000
G1 X14.365 Y14.888 E0.29411 F900.000
G1 X14.365 Y13.842 E0.09656
G1 X13.158 Y12.635 E0.15755
G1 X-14.365 Y11.271 F9000.000
G1 X2.729 Y28.365 E2.23095 F900.000
G1 X1.683 Y28.365 E0.09656
G1 X-14.365 Y12.317 E2.09438
G1 X-14.365 Y13.364 E0.09656
G1 X0.636 Y28.365 E1.95782
G1 X-0.410 Y28.365 E0.09656
G1 X-14.365 Y14.410 E1.82126
G1 X-14.365 Y15.457 E0.09656
G1 X-1.457 Y28.365 E1.68470
G1 X-2.503 Y28.365 E0.09656
G1 X-14.365 Y16.503 E1.54813
G1 X-14.365 Y17.549 E0.09656
G1 X-3.549 Y28.365 E1.41157
G1 X-4.596 Y28.365 E0.09656
G1 X-14.365 Y18.596 E1.27501
G1 X-14.365 Y19.642 E0.09656
G1 X-5.642 Y28.365 E1.13845
G1 X-6.688 Y28.365 E0.09656
G1 X-14.365 Y20.688 E1.00188
G1 X-14.365 Y21.735 E0.09656
G1 X-7.735 Y28.365 E0.86532
G1 X-8.781 Y28.365 E0.09656
G1 X-14.365 Y22.781 E0.72876
G1 X-14.365 Y23.828 E0.09656
G1 X-9.828 Y28.365 E0.59220
G1 X-10.874 Y28.365 E0.09656
G1 X-14.365 Y24.874 E0.45563
G1 X-14.365 Y25.920 E0.09656
G1 X-11.920 Y28.365 E0.31907
G1 X-12.967 Y28.365 E0.09656
G1 X-14.365 Y26.967 E0.18251
G1 X-14.365 Y28.013 E0.09656
G1 X-14.013 Y28.365 E0.04594
G1 E-3.20000 F3000.00000
G1 Z0.700 F9000.000
G1 X0.888 Y-15.331 F9000.000
G1 Z0.300 F9000.000
G1 E3.20000 F3000.00000
G1 X11.365 Y-4.854 E1.36739 F900.000
G1 X11.365 Y-5.900 E0.09656
G1 X2.665 Y-14.600 E1.13540
G1 X3.816 Y-14.496 E0.10660
G1 X11.365 Y-6.946 E0.98525
G1 X11.365 Y-7.993 E0.09656
G1 X4.789 Y-14.569 E0.85829
G1 X5.644 Y-14.760 E0.08090
G1 X11.365 Y-9.039 E0.74661
G1 X11.365 Y-10.086 E0.09656
G1 X6.363 Y-15.088 E0.65289
G1 X7.053 Y-15.444 E0.07167
G1 X11.365 Y-11.132 E0.56282
G1 X11.365 Y-12.178 E0.09656
G1 X7.610 Y-15.933 E0.49002
G1 X8.161 Y-16.429 E0.06837
G1 X11.955 Y-12.635 E0.49521
G1 X13.001 Y-12.635 E0.09656
G1 X8.579 Y-17.057 E0.57719
G1 X9.067 Y-17.615 E0.06843
G1 X14.048 Y-12.635 E0.64998
G1 X14.365 Y-13.364 E0.07337
G1 X10.114 Y-17.615 E0.55485
G1 X11.160 Y-17.615 E0.09656
G1 X14.365 Y-14.410 E0.41828
G1 X14.365 Y-15.457 E0.09656
G1 X12.207 Y-17.615 E0.28172
G1 X13.253 Y-17.615 E0.09656
G1 X14.365 Y-16.503 E0.14516
G1 E-3.20000 F3000.00000
G1 Z0.700 F9000.000
G1 X8.472 Y-23.442 F9000.000
G1 Z0.300 F9000.000
G1 E3.20000 F3000.00000
G1 X9.530 Y-22.385 E0.13801 F900.000
G1 X10.576 Y-22.385 E0.09656
G1 X4.596 Y-28.365 E0.78049
G1 X5.642 Y-28.365 E0.09656
G1 X11.622 Y-22.385 E0.78049
G1 X12.669 Y-22.385 E0.09656
G1 X6.688 Y-28.365 E0.78049
G1 X7.735 Y-28.365 E0.09656
G1 X13.715 Y-22.385 E0.78049
G1 X14.365 Y-22.781 E0.07026
G1 X8.781 Y-28.365 E0.72877
G1 X9.828 Y-28.365 E0.09656
G1 X14.365 Y-23.828 E0.59220
G1 X14.365 Y-24.874 E0.09656
G1 X10.874 Y-28.365 E0.45564
G1 X11.920 Y-28.365 E0.09656
G1 X14.365 Y-25.920 E0.31908
G1 X14.365 Y-26.967 E0.09656
G1 X12.967 Y-28.365 E0.18251
G1 X14.013 Y-28.365 E0.09656
G1 X14.365 Y-28.013 E0.04595
G1 X6.610 Y-25.304 F9000.000
G1 X3.549 Y-28.365 E0.39947 F900.000
G1 X2.503 Y-28.365 E0.09656
G1 X5.277 Y-25.592 E0.36199
G1 X4.315 Y-25.506 E0.08906
G1 X1.457 Y-28.365 E0.37309
G1 X0.410 Y-28.365 E0.09656
G1 X3.301 Y-25.474 E0.37727
G1 X2.480 Y-25.249 E0.07857
G1 X-0.636 Y-28.365 E0.40668
G1 X-1.683 Y-28.365 E0.09656
G1 X1.712 Y-24.970 E0.44305
G1 X1.052 Y-24.584 E0.07057
G1 X-2.729 Y-28.365 E0.49351
G1 X-3.775 Y-28.365 E0.09656
G1 X0.449 Y-24.141 E0.55133
G1 X-0.073 Y-23.616 E0.06828
G1 X-4.822 Y-28.365 E0.61976
G1 X-5.868 Y-28.365 E0.09656
G1 X-0.536 Y-23.033 E0.69593
G1 X-0.920 Y-22.371 E0.07064
G1 X-6.914 Y-28.365 E0.78233
G1 X-7.961 Y-28.365 E0.09656
G1 X-1.222 Y-21.627 E0.87945
G1 X-1.448 Y-20.806 E0.07854
G1 X-9.007 Y-28.365 E0.98653
G1 X-10.054 Y-28.365 E0.09656
G1 X-1.503 Y-19.815 E1.11589
G1 X-1.373 Y-18.638 E0.10930
G1 X-11.100 Y-28.365 E1.26951
G1 X-12.146 Y-28.365 E0.09656
G1 X-0.684 Y-16.903 E1.49590
G1 E-3.20000 F3000.00000
G1 Z0.700 F9000.000
G1 X-0.684 Y-7.736 F9000.000
G1 Z0.600 F9000.000
G1 E3.20000 F3000.00000
G1 X-0.264 Y-7.736 E0.02282 F1800.000
G1 X-0.264 Y7.736 E0.84060
G1 X-9.736 Y7.736 E0.51460
G1 X-9.736 Y-7.736 E0.84060
G1 X-0.744 Y-7.736 E0.48852 F1800.000
G1 X-0.744 Y-7.300 F9000.000
G1 X-0.700 Y-7.300 E0.00241 F1800.000
G1 X-0.700 Y7.300 E0.79326
G1 X-9.300 Y7.300 E0.46726
G1 X-9.300 Y-7.300 E0.79326
G1 X-0.804 Y-7.300 E0.46159 F1800.000
G1 X-0.722 Y-7.338 F9000.000
G1 X12.264 Y0.610 F9000.000
G1 X12.264 Y11.736 E0.60450 F1800.000
G1 X15.264 Y11.736 E0.16300
G1 X15.264 Y18.514 E0.36831
G1 X8.357 Y18.514 E0.37529
G1 X8.178 Y17.978 E0.03075
G1 X7.526 Y16.981 E0.06472
G1 X6.641 Y16.183 E0.06472
G1 X5.583 Y15.637 E0.06472
G1 X4.417 Y15.377 E0.06488
G1 X3.192 Y15.434 E0.06664
G1 X2.091 Y15.769 E0.06258
G1 X1.074 Y16.396 E0.06487
G1 X0.236 Y17.291 E0.06664
G1 X-0.319 Y18.300 E0.06258
G1 X-0.610 Y19.458 E0.06487
G1 X-0.586 Y20.685 E0.06664
G1 X-0.281 Y21.795 E0.06258
G1 X0.317 Y22.825 E0.06471
G1 X1.157 Y23.669 E0.06472
G1 X2.188 Y24.274 E0.06494
G1 X3.403 Y24.599 E0.06833
G1 X4.375 Y24.610 E0.05280
G1 X4.918 Y24.703 E0.02995
G1 X5.573 Y24.649 E0.03568
G1 X6.274 Y24.410 E0.04027
G1 X6.855 Y24.012 E0.03827
G1 X7.359 Y23.419 E0.04228
G1 X7.583 Y22.931 E0.02915
G1 X7.981 Y22.379 E0.03700
G1 X8.324 Y21.676 E0.04246
G1 X8.380 Y21.486 E0.01080
G1 X15.264 Y21.486 E0.37407
G1 X15.264 Y29.264 E0.42264
G1 X-14.695 Y29.264 E1.62779
G1 X-15.264 Y28.695 E0.04373
G1 X-15.264 Y-28.695 E3.11819
