; generated by Slic3r 1.2.9 on 2016-12-20 at 15:52:55

; external perimeters extrusion width = 0.50mm
; perimeters extrusion width = 0.50mm
; infill extrusion width = 0.50mm
; solid infill extrusion width = 0.50mm
; top infill extrusion width = 0.50mm

M107
;Basic settings: Layer height: {layer_height} Walls: {wall_thickness} Fill: {fill_density}
;Print time: {print_time}
;Filament used: {filament_amount}m {filament_weight}g
;Filament cost: {filament_cost}
;M190 S{print_bed_temperature} ;Uncomment to add your own bed temperature line
;M109 S{print_temperature} ;Uncomment to add your own temperature line
G21        ;metric values
G90        ;absolute positioning
M83
G10 P0 S200
T0
M116


G21 ; set units to millimeters
G90 ; use absolute coordinates
M83 ; use relative distances for extrusion
G1 E-3.20000 F3000.00000
G1 Z0.400 F9000.000
G1 X19.686 Y0.000 F9000.000
G1 Z0.300 F9000.000
G1 E3.20000 F3000.00000
G1 X19.686 Y29.950 E2.74793 F1200.000
G1 X19.291 Y31.621 E0.15755
G1 X18.190 Y32.939 E0.15755
G1 X15.950 Y33.686 E0.21667
G1 X-15.950 Y33.686 E2.92684
G1 X-17.621 Y33.291 E0.15755
G1 X-18.939 Y32.190 E0.15755
G1 X-19.686 Y29.950 E0.21667
G1 X-19.686 Y-29.950 E5.49586
G1 X-19.291 Y-31.621 E0.15755
G1 X-18.190 Y-32.939 E0.15755
G1 X-15.950 Y-33.686 E0.21667
G1 X15.950 Y-33.686 E2.92684
G1 X17.621 Y-33.291 E0.15755
G1 X18.939 Y-32.190 E0.15755 F1200.000
G1 X19.686 Y-29.950 E0.21667
G1 X19.686 Y-0.060 E2.74242
G1 E-3.20000 F3000.00000
G1 Z0.700 F9000.000
G1 X0.186 Y-0.060 F9000.000
G1 Z0.300 F9000.000
G1 E3.20000 F3000.00000
G1 X0.186 Y8.186 E0.75654 F900.000
G1 X-10.186 Y8.186 E0.95157
G1 X-10.186 Y-8.186 E1.50207
G1 X0.186 Y-8.186 E0.95157 F900.000
G1 X0.186 Y-0.120 E0.74002
G1 X-0.550 Y-0.120 F9000.000
G1 X-0.550 Y7.450 E0.69455 F900.000
G1 X-9.450 Y7.450 E0.81658
G1 X-9.450 Y-7.450 E1.36708
G1 X-0.550 Y-7.450 E0.81658 F900.000
G1 X-0.550 Y-0.180 E0.66703
G1 X-0.204 Y0.080 F9000.000
G1 E-3.20000 F3000.00000
G1 Z0.700 F9000.000
G1 X-14.814 Y2.121 F9000.000
G1 Z0.300 F9000.000
G1 E3.20000 F3000.00000
G1 X-14.814 Y-28.814 E2.83832 F900.000
G1 X14.814 Y-28.814 E2.71845
G1 X14.814 Y-21.936 E0.63113
G1 X8.682 Y-21.936 E0.56267 F900.000
G1 X8.588 Y-22.216 E0.02709
G1 X7.877 Y-23.307 E0.11952
G1 X6.910 Y-24.183 E0.11975
G1 X5.747 Y-24.786 E0.12019
G1 X4.478 Y-25.072 E0.11936
G1 X3.188 Y-25.030 E0.11843
G1 X1.936 Y-24.659 E0.11977
G1 X0.822 Y-23.983 E0.11961
G1 X-0.084 Y-23.047 E0.11952
G1 X-0.714 Y-21.928 E0.11780
G1 X-1.054 Y-20.651 E0.12119
G1 X-1.049 Y-19.331 E0.12119
G1 X-0.723 Y-18.089 E0.11780
G1 X-0.084 Y-16.953 E0.11952
G1 X0.822 Y-16.017 E0.11952
G1 X1.935 Y-15.342 E0.11952
G1 X3.184 Y-14.970 E0.11952
G1 X4.486 Y-14.928 E0.11952
G1 X5.738 Y-15.213 E0.11780
G1 X6.910 Y-15.817 E0.12098
G1 X7.877 Y-16.693 E0.11974
G1 X8.588 Y-17.784 E0.11952
G1 X8.682 Y-18.064 E0.02709
G1 X14.814 Y-18.064 E0.56267
G1 X14.814 Y-12.186 E0.53938
G1 X11.814 Y-12.186 E0.27525
G1 X11.814 Y12.186 E2.23607
G1 X14.814 Y12.186 E0.27525
G1 X14.814 Y18.064 E0.53938
G1 X8.682 Y18.064 E0.56267
G1 X8.588 Y17.784 E0.02709
G1 X7.877 Y16.693 E0.11952
G1 X6.912 Y15.818 E0.11952
G1 X5.756 Y15.217 E0.11952
G1 X4.486 Y14.928 E0.11952
G1 X3.184 Y14.970 E0.11952
G1 X1.935 Y15.342 E0.11952
G1 X0.822 Y16.017 E0.11952
G1 X-0.084 Y16.953 E0.11952
G1 X-0.723 Y18.089 E0.11952
G1 X-1.054 Y19.349 E0.11952
G1 X-1.054 Y20.651 E0.11952
G1 X-0.728 Y21.893 E0.11780
G1 X-0.086 Y23.045 E0.12098
G1 X0.822 Y23.983 E0.11974
G1 X1.936 Y24.659 E0.11961
G1 X3.187 Y25.030 E0.11971
G1 X4.485 Y25.072 E0.11912
G1 X5.747 Y24.786 E0.11878
G1 X6.910 Y24.183 E0.12014
G1 X7.877 Y23.307 E0.11975
G1 X8.588 Y22.216 E0.11952
G1 X8.682 Y21.936 E0.02709
G1 X14.814 Y21.936 E0.56267
G1 X14.814 Y28.814 E0.63113
G1 X-14.814 Y28.814 E2.71845
G1 X-14.814 Y2.181 E2.44364
G1 X-15.550 Y2.181 F9000.000
G1 X-15.550 Y-29.550 E2.91132 F900.000
G1 X15.550 Y-29.550 E2.85344
G1 X15.550 Y-21.200 E0.76612
G1 X8.152 Y-21.200 E0.67881 F900.000
G1 X7.921 Y-21.893 E0.06704
G1 X7.312 Y-22.825 E0.10212
G1 X6.486 Y-23.574 E0.10229
G1 X5.492 Y-24.089 E0.10273
G1 X4.408 Y-24.334 E0.10202
G1 X3.306 Y-24.298 E0.10112
G1 X2.236 Y-23.981 E0.10237
G1 X1.284 Y-23.403 E0.10219
G1 X0.510 Y-22.603 E0.10212
G1 X-0.027 Y-21.648 E0.10054
G1 X-0.318 Y-20.557 E0.10366
G1 X-0.314 Y-19.427 E0.10366
G1 X-0.036 Y-18.367 E0.10054
G1 X0.510 Y-17.397 E0.10212
G1 X1.284 Y-16.597 E0.10212
G1 X2.236 Y-16.020 E0.10212
G1 X3.303 Y-15.702 E0.10212
G1 X4.415 Y-15.666 E0.10212
G1 X5.484 Y-15.909 E0.10054
G1 X6.487 Y-16.426 E0.10358
G1 X7.312 Y-17.175 E0.10220
G1 X7.921 Y-18.107 E0.10212
G1 X8.152 Y-18.800 E0.06704
G1 X15.550 Y-18.800 E0.67881
G1 X15.550 Y-11.450 E0.67437
G1 X12.550 Y-11.450 E0.27525
G1 X12.550 Y11.450 E2.10109
G1 X15.550 Y11.450 E0.27525
G1 X15.550 Y18.800 E0.67437
G1 X8.152 Y18.800 E0.67881
G1 X7.921 Y18.107 E0.06704
G1 X7.312 Y17.175 E0.10212
G1 X6.488 Y16.427 E0.10212
G1 X5.501 Y15.913 E0.10212
G1 X4.415 Y15.666 E0.10212
G1 X3.303 Y15.702 E0.10212
G1 X2.236 Y16.020 E0.10212
G1 X1.284 Y16.597 E0.10212
G1 X0.510 Y17.397 E0.10212
G1 X-0.036 Y18.367 E0.10212
G1 X-0.318 Y19.443 E0.10212
G1 X-0.318 Y20.557 E0.10212
G1 X-0.040 Y21.617 E0.10054
G1 X0.510 Y22.603 E0.10358
G1 X1.284 Y23.403 E0.10220
G1 X2.236 Y23.981 E0.10219
G1 X3.305 Y24.298 E0.10230
G1 X4.414 Y24.334 E0.10177
G1 X5.493 Y24.089 E0.10146
G1 X6.486 Y23.574 E0.10271
G1 X7.312 Y22.825 E0.10229
G1 X7.921 Y21.893 E0.10212
G1 X8.152 Y21.200 E0.06704
G1 X15.550 Y21.200 E0.67881
G1 X15.550 Y29.550 E0.76612
G1 X-15.550 Y29.550 E2.85344
G1 X-15.550 Y2.241 E2.50563
G1 X-15.204 Y1.981 F9000.000
G1 X-14.365 Y6.039 F9000.000
G1 X-1.394 Y19.011 E1.69290 F900.000
G1 X-1.503 Y19.948 E0.08708
G1 X-14.365 Y7.086 E1.67866
G1 X-14.365 Y8.132 E0.09656
G1 X-1.464 Y21.033 E1.68371
G1 X-0.976 Y22.567 E0.14858
G1 X-14.365 Y9.178 E1.74739
G1 X-14.365 Y10.225 E0.09656
G1 X3.775 Y28.365 E2.36751
G1 X4.822 Y28.365 E0.09656
G1 X1.493 Y25.037 E0.43440
G1 X2.981 Y25.478 E0.14319
G1 X5.868 Y28.365 E0.37683
G1 X6.914 Y28.365 E0.09656
G1 X4.062 Y25.513 E0.37226
G1 X4.984 Y25.388 E0.08583
G1 X7.961 Y28.365 E0.38854
G1 X9.007 Y28.365 E0.09656
G1 X5.830 Y25.188 E0.41466
G1 X6.519 Y24.831 E0.07163
G1 X10.054 Y28.365 E0.46129
G1 X11.100 Y28.365 E0.09656
G1 X7.187 Y24.452 E0.51073
G1 X7.735 Y23.954 E0.06836
G1 X12.146 Y28.365 E0.57567
G1 X13.193 Y28.365 E0.09656
G1 X8.260 Y23.432 E0.64380
G1 X8.673 Y22.799 E0.06978
G1 X14.239 Y28.365 E0.72645
G1 X14.365 Y27.445 E0.08572
G1 X9.305 Y22.385 E0.66039
G1 X10.351 Y22.385 E0.09656
G1 X14.365 Y26.399 E0.52383
G1 X14.365 Y25.352 E0.09656
G1 X11.398 Y22.385 E0.38727
G1 X12.444 Y22.385 E0.09656
G1 X14.365 Y24.306 E0.25070
G1 X14.365 Y23.259 E0.09656
G1 X13.491 Y22.385 E0.11414
G1 E-3.20000 F3000.00000
G1 Z0.700 F9000.000
G1 X9.767 Y17.615 F9000.000
G1 Z0.300 F9000.000
G1 E3.20000 F3000.00000
G1 X0.635 Y8.483 E1.19188 F900.000
G1 X0.635 Y7.436 E0.09656
G1 X10.814 Y17.615 E1.32844
G1 X11.860 Y17.615 E0.09656
G1 X0.635 Y6.390 E1.46501
G1 X0.635 Y5.344 E0.09656
G1 X12.906 Y17.615 E1.60157
G1 X13.953 Y17.615 E0.09656
G1 X0.635 Y4.297 E1.73813
G1 X0.635 Y3.251 E0.09656
G1 X14.365 Y16.981 E1.79195
G1 X14.365 Y15.935 E0.09656
G1 X0.635 Y2.204 E1.79195
G1 X0.635 Y1.158 E0.09656
G1 X11.365 Y11.888 E1.40042
G1 X11.365 Y10.842 E0.09656
G1 X0.635 Y0.112 E1.40042
G1 X0.635 Y-0.935 E0.09656
G1 X11.365 Y9.796 E1.40042
G1 X11.365 Y8.749 E0.09656
G1 X0.635 Y-1.981 E1.40042
G1 X0.635 Y-3.027 E0.09656
G1 X11.365 Y7.703 E1.40042
G1 X11.365 Y6.657 E0.09656
G1 X0.635 Y-4.074 E1.40042
G1 X0.635 Y-5.120 E0.09656
G1 X11.365 Y5.610 E1.40042
G1 X11.365 Y4.564 E0.09656
G1 X0.635 Y-6.167 E1.40042
G1 X0.635 Y-7.213 E0.09656
G1 X11.365 Y3.517 E1.40042
G1 X11.365 Y-3.807 F9000.000
G1 X-13.193 Y-28.365 E3.20505 F900.000
G1 X-14.239 Y-28.365 E0.09656
G1 X11.365 Y-2.761 E3.34161
G1 X11.365 Y-1.715 E0.09656
G1 X-14.365 Y-27.445 E3.35807
G1 X-14.365 Y-26.398 E0.09656
G1 X11.365 Y-0.668 E3.35807
G1 X11.365 Y0.378 E0.09656
G1 X-14.365 Y-25.352 E3.35807
G1 X-14.365 Y-24.306 E0.09656
G1 X11.365 Y1.425 E3.35807
G1 X11.365 Y2.471 E0.09656
G1 X-14.365 Y-23.259 E3.35807
G1 X-14.365 Y-22.213 E0.09656
G1 X-0.787 Y-8.635 E1.77208
G1 X-1.833 Y-8.635 E0.09656
G1 X-14.365 Y-21.167 E1.63552
G1 X-14.365 Y-20.120 E0.09656
G1 X-2.880 Y-8.635 E1.49896
G1 X-3.926 Y-8.635 E0.09656
G1 X-14.365 Y-19.074 E1.36239
G1 X-14.365 Y-18.027 E0.09656
G1 X-4.973 Y-8.635 E1.22583
G1 X-6.019 Y-8.635 E0.09656
G1 X-14.365 Y-16.981 E1.08927
G1 X-14.365 Y-15.935 E0.09656
G1 X-7.065 Y-8.635 E0.95271
G1 X-8.112 Y-8.635 E0.09656
G1 X-14.365 Y-14.888 E0.81614
G1 X-14.365 Y-13.842 E0.09656
G1 X-9.158 Y-8.635 E0.67958
G1 X-10.204 Y-8.635 E0.09656
G1 X-14.365 Y-12.796 E0.54302
G1 X-14.365 Y-11.749 E0.09656
G1 X-10.635 Y-8.019 E0.48685
G1 X-10.635 Y-6.972 E0.09656
G1 X-14.365 Y-10.703 E0.48685
G1 X-14.365 Y-9.656 E0.09656
G1 X-10.635 Y-5.926 E0.48685
G1 X-10.635 Y-4.880 E0.09656
G1 X-14.365 Y-8.610 E0.48685
G1 X-14.365 Y-7.564 E0.09656
G1 X-10.635 Y-3.833 E0.48685
G1 X-10.635 Y-2.787 E0.09656
G1 X-14.365 Y-6.517 E0.48685
G1 X-14.365 Y-5.471 E0.09656
G1 X-10.635 Y-1.741 E0.48685
G1 X-10.635 Y-0.694 E0.09656
G1 X-14.365 Y-4.425 E0.48685
G1 X-14.365 Y-3.378 E0.09656
G1 X-10.635 Y0.352 E0.48685
G1 X-10.635 Y1.399 E0.09656
G1 X-14.365 Y-2.332 E0.48685
G1 X-14.365 Y-1.285 E0.09656
G1 X-10.635 Y2.445 E0.48685
G1 X-10.635 Y3.491 E0.09656
G1 X-14.365 Y-0.239 E0.48685
G1 X-14.365 Y0.807 E0.09656
G1 X-10.635 Y4.538 E0.48685
G1 X-10.635 Y5.584 E0.09656
G1 X-14.365 Y1.854 E0.48685
G1 X-14.365 Y2.900 E0.09656
G1 X-10.635 Y6.630 E0.48685
G1 X-10.635 Y7.677 E0.09656
G1 X-14.365 Y3.946 E0.48685
G1 X-14.365 Y4.993 E0.09656
G1 X-1.176 Y18.182 E1.72126
G1 X-0.831 Y17.480 E0.07213
G1 X-9.677 Y8.635 E1.15440
G1 X-8.630 Y8.635 E0.09656
G1 X-0.455 Y16.811 E1.06702
G1 X0.046 Y16.265 E0.06834
G1 X-7.584 Y8.635 E0.99585
G1 X-6.538 Y8.635 E0.09656
G1 X0.561 Y15.734 E0.92646
G1 X1.203 Y15.329 E0.07001
G1 X-5.491 Y8.635 E0.87364
G1 X-4.445 Y8.635 E0.09656
G1 X1.856 Y14.936 E0.82238
G1 X2.663 Y14.696 E0.07765
G1 X-3.399 Y8.635 E0.79108
G1 X-2.352 Y8.635 E0.09656
G1 X3.528 Y14.515 E0.76738
G1 X4.541 Y14.482 E0.09356
G1 X-1.306 Y8.635 E0.76306
G1 X-0.259 Y8.635 E0.09656
G1 X5.842 Y14.736 E0.79628
G1 X12.112 Y12.635 F9000.000
G1 X14.365 Y14.888 E0.29411 F900.000
G1 X14.365 Y13.842 E0.09656
G1 X13.158 Y12.635 E0.15755
G1 X-14.365 Y11.271 F9000.000
G1 X2.729 Y28.365 E2.23095 F900.000
G1 X1.683 Y28.365 E0.09656
G1 X-14.365 Y12.317 E2.09438
G1 X-14.365 Y13.364 E0.09656
G1 X0.636 Y28.365 E1.95782
G1 X-0.410 Y28.365 E0.09656
G1 X-14.365 Y14.410 E1.82126
G1 X-14.365 Y15.457 E0.09656
G1 X-1.457 Y28.365 E1.68470
G1 X-2.503 Y28.365 E0.09656
G1 X-14.365 Y16.503 E1.54813
G1 X-14.365 Y17.549 E0.09656
G1 X-3.549 Y28.365 E1.41157
G1 X-4.596 Y28.365 E0.09656
G1 X-14.365 Y18.596 E1.27501
G1 X-14.365 Y19.642 E0.09656
G1 X-5.642 Y28.365 E1.13845
G1 X-6.688 Y28.365 E0.09656
G1 X-14.365 Y20.688 E1.00188
G1 X-14.365 Y21.735 E0.09656
G1 X-7.735 Y28.365 E0.86532
G1 X-8.781 Y28.365 E0.09656
G1 X-14.365 Y22.781 E0.72876
G1 X-14.365 Y23.828 E0.09656
G1 X-9.828 Y28.365 E0.59220
G1 X-10.874 Y28.365 E0.09656
G1 X-14.365 Y24.874 E0.45563
G1 X-14.365 Y25.920 E0.09656
G1 X-11.920 Y28.365 E0.31907
G1 X-12.967 Y28.365 E0.09656
G1 X-14.365 Y26.967 E0.18251
G1 X-14.365 Y28.013 E0.09656
G1 X-14.013 Y28.365 E0.04594
G1 E-3.20000 F3000.00000
G1 Z0.700 F9000.000
G1 X0.889 Y-15.330 F9000.000
G1 Z0.300 F9000.000
G1 E3.20000 F3000.00000
G1 X11.365 Y-4.854 E1.36727 F900.000
G1 X11.365 Y-5.900 E0.09656
G1 X2.661 Y-14.604 E1.13595
G1 X3.817 Y-14.495 E0.10709
G1 X11.365 Y-6.946 E0.98517
G1 X11.365 Y-7.993 E0.09656
G1 X4.790 Y-14.568 E0.85811
G1 X5.643 Y-14.762 E0.08068
G1 X11.365 Y-9.039 E0.74686
G1 X11.365 Y-10.086 E0.09656
G1 X6.361 Y-15.090 E0.65307
G1 X7.052 Y-15.445 E0.07169
G1 X11.365 Y-11.132 E0.56296
G1 X11.365 Y-12.178 E0.09656
G1 X7.611 Y-15.933 E0.48999
G1 X8.160 Y-16.430 E0.06836
G1 X11.955 Y-12.635 E0.49534
G1 X13.001 Y-12.635 E0.09656
G1 X8.579 Y-17.057 E0.57717
G1 X9.067 Y-17.615 E0.06843
G1 X14.048 Y-12.635 E0.64998
G1 X14.365 Y-13.364 E0.07337
G1 X10.114 Y-17.615 E0.55485
G1 X11.160 Y-17.615 E0.09656
G1 X14.365 Y-14.410 E0.41828
G1 X14.365 Y-15.457 E0.09656
G1 X12.207 Y-17.615 E0.28172
G1 X13.253 Y-17.615 E0.09656
G1 X14.365 Y-16.503 E0.14516
G1 E-3.20000 F3000.00000
G1 Z0.700 F9000.000
G1 X8.428 Y-23.487 F9000.000
G1 Z0.300 F9000.000
G1 E3.20000 F3000.00000
G1 X9.530 Y-22.385 E0.14383 F900.000
G1 X10.576 Y-22.385 E0.09656
G1 X4.596 Y-28.365 E0.78049
G1 X5.642 Y-28.365 E0.09656
G1 X11.622 Y-22.385 E0.78049
G1 X12.669 Y-22.385 E0.09656
G1 X6.688 Y-28.365 E0.78049
G1 X7.735 Y-28.365 E0.09656
G1 X13.715 Y-22.385 E0.78049
G1 X14.365 Y-22.781 E0.07026
G1 X8.781 Y-28.365 E0.72877
G1 X9.828 Y-28.365 E0.09656
G1 X14.365 Y-23.828 E0.59220
G1 X14.365 Y-24.874 E0.09656
G1 X10.874 Y-28.365 E0.45564
G1 X11.920 Y-28.365 E0.09656
G1 X14.365 Y-25.920 E0.31908
G1 X14.365 Y-26.967 E0.09656
G1 X12.967 Y-28.365 E0.18251
G1 X14.013 Y-28.365 E0.09656
G1 X14.365 Y-28.013 E0.04595
G1 X7.356 Y-24.559 F9000.000
G1 X3.549 Y-28.365 E0.49679 F900.000
G1 X2.503 Y-28.365 E0.09656
G1 X5.534 Y-25.334 E0.39564
G1 X4.310 Y-25.511 E0.11414
G1 X1.457 Y-28.365 E0.37246
G1 X0.410 Y-28.365 E0.09656
G1 X3.297 Y-25.478 E0.37679
G1 X2.480 Y-25.249 E0.07834
G1 X-0.636 Y-28.365 E0.40667
G1 X-1.683 Y-28.365 E0.09656
G1 X1.706 Y-24.977 E0.44225
G1 X1.055 Y-24.581 E0.07030
G1 X-2.729 Y-28.365 E0.49382
G1 X-3.775 Y-28.365 E0.09656
G1 X0.444 Y-24.146 E0.55069
G1 X-0.070 Y-23.614 E0.06829
G1 X-4.822 Y-28.365 E0.62009
G1 X-5.868 Y-28.365 E0.09656
G1 X-0.540 Y-23.037 E0.69534
G1 X-0.917 Y-22.368 E0.07090
G1 X-6.914 Y-28.365 E0.78272
G1 X-7.961 Y-28.365 E0.09656
G1 X-1.223 Y-21.627 E0.87936
G1 X-1.443 Y-20.801 E0.07891
G1 X-9.007 Y-28.365 E0.98719
G1 X-10.054 Y-28.365 E0.09656
G1 X-1.501 Y-19.812 E1.11624
G1 X-1.380 Y-18.645 E0.10830
G1 X-11.100 Y-28.365 E1.26859
G1 X-12.146 Y-28.365 E0.09656
G1 X-0.680 Y-16.899 E1.49649
G1 E-3.20000 F3000.00000
G1 Z0.700 F9000.000
G1 X-0.680 Y-7.736 F9000.000
G1 Z0.600 F9000.000
G1 E3.20000 F3000.00000
G1 X-0.264 Y-7.736 E0.02258 F1800.000
G1 X-0.264 Y7.736 E0.84060
G1 X-9.736 Y7.736 E0.51460
G1 X-9.736 Y-7.736 E0.84060
G1 X-0.740 Y-7.736 E0.48876 F1800.000
G1 X-0.740 Y-7.300 F9000.000
G1 X-0.700 Y-7.300 E0.00217 F1800.000
G1 X-0.700 Y7.300 E0.79326
G1 X-9.300 Y7.300 E0.46726
G1 X-9.300 Y-7.300 E0.79326
G1 X-0.800 Y-7.300 E0.46184 F1800.000
G1 X-0.720 Y-7.335 F9000.000
G1 X1.163 Y-16.336 F9000.000
G1 X2.119 Y-15.756 E0.06074 F1800.000
G1 X3.257 Y-15.418 E0.06447
G1 X4.443 Y-15.379 E0.06448
G1 X5.561 Y-15.634 E0.06233
G1 X6.650 Y-16.189 E0.06639
G1 X7.531 Y-16.988 E0.06464
G1 X8.180 Y-17.982 E0.06447
G1 X8.357 Y-18.514 E0.03051
G1 X15.264 Y-18.514 E0.37527
G1 X15.264 Y-11.736 E0.36831
G1 X12.264 Y-11.736 E0.16300
G1 X12.264 Y11.736 E1.27526
G1 X15.264 Y11.736 E0.16300
G1 X15.264 Y18.514 E0.36831
G1 X8.357 Y18.514 E0.37527
G1 X8.180 Y17.982 E0.03051
G1 X7.531 Y16.988 E0.06447
G1 X6.652 Y16.191 E0.06448
G1 X5.600 Y15.643 E0.06448
G1 X4.443 Y15.379 E0.06447
G1 X3.257 Y15.418 E0.06448
G1 X2.119 Y15.756 E0.06447
G1 X1.105 Y16.372 E0.06448
G1 X0.279 Y17.225 E0.06448
G1 X-0.303 Y18.259 E0.06447
G1 X-0.604 Y19.407 E0.06447
G1 X-0.604 Y20.593 E0.06448
G1 X-0.303 Y21.741 E0.06448
G1 X0.279 Y22.775 E0.06447
G1 X1.105 Y23.628 E0.06448
G1 X2.120 Y24.244 E0.06454
G1 X3.267 Y24.583 E0.06495
G1 X4.439 Y24.620 E0.06375
G1 X5.575 Y24.365 E0.06327
G1 X6.650 Y23.811 E0.06568
G1 X7.531 Y23.012 E0.06464
G1 X8.180 Y22.018 E0.06447
G1 X8.357 Y21.486 E0.03051
G1 X15.264 Y21.486 E0.37527
G1 X15.264 Y29.264 E0.42264
G1 X-15.264 Y29.264 E1.65871
G1 X-15.264 Y-29.264 E3.18003
G1 X15.264 Y-29.264 E1.65871
G1 X15.264 Y-21.486 E0.42264
G1 X8.357 Y-21.486 E0.37527 F1800.000
G1 X8.180 Y-22.018 E0.03051
G1 X7.531 Y-23.012 E0.06448
G1 X6.650 Y-23.811 E0.06464
G1 X5.575 Y-24.365 E0.06572
G1 X4.427 Y-24.621 E0.06391
G1 X3.267 Y-24.583 E0.06304
G1 X2.120 Y-24.244 E0.06498
G1 X1.105 Y-23.628 E0.06454
G1 X0.279 Y-22.775 E0.06447
G1 X-0.283 Y-21.776 E0.06233
G1 X-0.604 Y-20.593 E0.06656
G1 X-0.594 Y-19.369 E0.06656
G1 X-0.303 Y-18.259 E0.06233
