; generated by Slic3r 1.2.9 on 2017-01-05 at 15:58:47

; external perimeters extrusion width = 0.50mm
; perimeters extrusion width = 0.50mm
; infill extrusion width = 0.50mm
; solid infill extrusion width = 0.50mm
; top infill extrusion width = 0.50mm

M107
;Basic settings: Layer height: {layer_height} Walls: {wall_thickness} Fill: {fill_density}
;Print time: {print_time}
;Filament used: {filament_amount}m {filament_weight}g
;Filament cost: {filament_cost}
;M190 S{print_bed_temperature} ;Uncomment to add your own bed temperature line
;M109 S{print_temperature} ;Uncomment to add your own temperature line
G21        ;metric values
G90        ;absolute positioning
M83
G10 P0 S200
T0
M116


G21 ; set units to millimeters
G90 ; use absolute coordinates
M83 ; use relative distances for extrusion
G1 E-3.20000 F3000.00000
G1 Z0.400 F9000.000
G1 X17.186 Y0.000 F9000.000
G1 Z0.300 F9000.000
G1 E3.20000 F3000.00000
G1 X17.186 Y29.950 E2.74793 F1200.000
G1 X16.791 Y31.621 E0.15755
G1 X15.690 Y32.939 E0.15755
G1 X13.450 Y33.686 E0.21667
G1 X-13.450 Y33.686 E2.46809
G1 X-15.121 Y33.291 E0.15755
G1 X-16.439 Y32.190 E0.15755
G1 X-17.186 Y29.950 E0.21667
G1 X-17.186 Y-29.950 E5.49586
G1 X-16.791 Y-31.621 E0.15755
G1 X-15.690 Y-32.939 E0.15755
G1 X-13.450 Y-33.686 E0.21667
G1 X13.450 Y-33.686 E2.46809
G1 X15.121 Y-33.291 E0.15755
G1 X16.439 Y-32.190 E0.15755 F1200.000
G1 X17.186 Y-29.950 E0.21667
G1 X17.186 Y-0.060 E2.74242
G1 E-3.20000 F3000.00000
G1 Z0.700 F9000.000
G1 X0.804 Y28.814 F9000.000
G1 Z0.300 F9000.000
G1 E3.20000 F3000.00000
G1 X0.591 Y28.814 E0.01956 F900.000
G1 X0.553 Y28.415 E0.03685
G1 X0.771 Y28.373 E0.02038
G1 X1.314 Y28.117 E0.05510
G1 X1.314 Y28.814 E0.06396
G1 X0.864 Y28.814 E0.04134 F900.000
G1 X-1.274 Y28.814 F9000.000
G1 X-1.314 Y28.814 E0.00367 F900.000
G1 X-1.314 Y28.176 E0.05860
G1 X-0.495 Y28.442 E0.07909
G1 X-0.554 Y28.814 E0.03459 F900.000
G1 X-1.214 Y28.814 E0.06063
G1 X-1.214 Y29.550 F9000.000
G1 X-2.050 Y29.550 E0.07667 F900.000
G1 X-2.050 Y26.571 E0.27335
G1 X-1.718 Y26.486 E0.03141
G1 X-1.419 Y27.031 E0.05708
G1 X-1.118 Y27.351 E0.04033
G1 X-0.747 Y27.587 E0.04033
G1 X-0.329 Y27.723 E0.04033
G1 X0.110 Y27.750 E0.04033
G1 X0.542 Y27.668 E0.04033
G1 X0.940 Y27.481 E0.04033
G1 X1.278 Y27.200 E0.04033
G1 X1.537 Y26.845 E0.04033
G1 X1.691 Y26.454 E0.03855
G1 X2.050 Y26.523 E0.03350
G1 X2.050 Y29.550 E0.27777 F900.000
G1 X-1.154 Y29.550 E0.29401
G1 X-1.414 Y29.204 F9000.000
G1 E-3.20000 F3000.00000
G1 Z0.700 F9000.000
G1 X1.314 Y21.167 F9000.000
G1 Z0.300 F9000.000
G1 E3.20000 F3000.00000
G1 X1.314 Y23.883 E0.24914 F900.000
G1 X0.764 Y23.624 E0.05578 F900.000
G1 X0.131 Y23.512 E0.05903
G1 X-0.468 Y23.549 E0.05500
G1 X-1.314 Y23.824 E0.08170
G1 X-1.314 Y16.176 E0.70176
G1 X-0.468 Y16.451 E0.08170
G1 X0.157 Y16.490 E0.05738
G1 X0.771 Y16.373 E0.05738
G1 X1.314 Y16.117 E0.05510
G1 X1.314 Y21.107 E0.45785
G1 X2.050 Y21.107 F9000.000
G1 X2.050 Y25.477 E0.40095 F900.000
G1 X1.691 Y25.546 E0.03350
G1 X1.537 Y25.155 E0.03855
G1 X1.278 Y24.800 E0.04033
G1 X0.940 Y24.519 E0.04033
G1 X0.540 Y24.331 E0.04057
G1 X0.089 Y24.251 E0.04198
G1 X-0.329 Y24.277 E0.03839
G1 X-0.747 Y24.413 E0.04033
G1 X-1.118 Y24.649 E0.04033
G1 X-1.419 Y24.969 E0.04033
G1 X-1.718 Y25.514 E0.05708
G1 X-2.050 Y25.429 E0.03141
G1 X-2.050 Y14.571 E0.99629
G1 X-1.718 Y14.486 E0.03141
G1 X-1.419 Y15.031 E0.05708
G1 X-1.118 Y15.351 E0.04033
G1 X-0.747 Y15.587 E0.04033
G1 X-0.329 Y15.723 E0.04033
G1 X0.110 Y15.750 E0.04033
G1 X0.542 Y15.668 E0.04033
G1 X0.940 Y15.481 E0.04033
G1 X1.280 Y15.199 E0.04057
G1 X1.544 Y14.825 E0.04198
G1 X1.691 Y14.454 E0.03661
G1 X2.050 Y14.523 E0.03350
G1 X2.050 Y21.047 E0.59865 F900.000
G1 X1.704 Y21.307 F9000.000
G1 E-3.20000 F3000.00000
G1 Z0.700 F9000.000
G1 X-1.314 Y-1.034 F9000.000
G1 Z0.300 F9000.000
G1 E3.20000 F3000.00000
G1 X-1.314 Y-11.824 E0.99004 F900.000
G1 X-0.468 Y-11.549 E0.08170
G1 X0.157 Y-11.510 E0.05738
G1 X0.771 Y-11.627 E0.05738
G1 X1.314 Y-11.883 E0.05510
G1 X1.314 Y11.883 E2.18050
G1 X0.764 Y11.624 E0.05578 F900.000
G1 X0.131 Y11.512 E0.05903
G1 X-0.468 Y11.549 E0.05500
G1 X-1.314 Y11.824 E0.08170
G1 X-1.314 Y-0.974 E1.17422
G1 X-2.050 Y-0.974 F9000.000
G1 X-2.050 Y-13.429 E1.14281 F900.000
G1 X-1.718 Y-13.514 E0.03141
G1 X-1.419 Y-12.969 E0.05708
G1 X-1.118 Y-12.649 E0.04033
G1 X-0.747 Y-12.413 E0.04033
G1 X-0.329 Y-12.277 E0.04033
G1 X0.110 Y-12.250 E0.04033
G1 X0.542 Y-12.332 E0.04033
G1 X0.920 Y-12.510 E0.03839
G1 X1.277 Y-12.797 E0.04198
G1 X1.537 Y-13.155 E0.04057
G1 X1.691 Y-13.546 E0.03855
G1 X2.050 Y-13.477 E0.03350
G1 X2.050 Y13.477 E2.47312 F900.000
G1 X1.691 Y13.546 E0.03350
G1 X1.537 Y13.155 E0.03855
G1 X1.278 Y12.800 E0.04033
G1 X0.940 Y12.519 E0.04033
G1 X0.540 Y12.331 E0.04057
G1 X0.089 Y12.251 E0.04198
G1 X-0.329 Y12.277 E0.03839
G1 X-0.747 Y12.413 E0.04033
G1 X-1.118 Y12.649 E0.04033
G1 X-1.419 Y12.969 E0.04033
G1 X-1.718 Y13.514 E0.05708
G1 X-2.050 Y13.429 E0.03141
G1 X-2.050 Y-0.914 E1.31598
G1 X-1.704 Y-1.174 F9000.000
G1 X-1.314 Y-18.695 F9000.000
G1 X-1.314 Y-23.824 E0.47063 F900.000
G1 X-0.468 Y-23.549 E0.08170
G1 X0.157 Y-23.510 E0.05738
G1 X0.771 Y-23.627 E0.05738
G1 X1.314 Y-23.883 E0.05510
G1 X1.314 Y-16.117 E0.71249
G1 X0.764 Y-16.376 E0.05578 F900.000
G1 X0.131 Y-16.488 E0.05903
G1 X-0.468 Y-16.451 E0.05500
G1 X-1.314 Y-16.176 E0.08170
G1 X-1.314 Y-18.635 E0.22563
G1 X-2.050 Y-18.635 F9000.000
G1 X-2.050 Y-25.429 E0.62339 F900.000
G1 X-1.718 Y-25.514 E0.03141
G1 X-1.429 Y-24.988 E0.05514
G1 X-1.120 Y-24.650 E0.04198
G1 X-0.747 Y-24.413 E0.04057
G1 X-0.329 Y-24.277 E0.04033
G1 X0.110 Y-24.250 E0.04033
G1 X0.542 Y-24.332 E0.04033
G1 X0.940 Y-24.519 E0.04033
G1 X1.278 Y-24.800 E0.04033
G1 X1.537 Y-25.155 E0.04033
G1 X1.691 Y-25.546 E0.03855
G1 X2.050 Y-25.477 E0.03350
G1 X2.050 Y-14.523 E1.00511 F900.000
G1 X1.691 Y-14.454 E0.03350
G1 X1.537 Y-14.845 E0.03855
G1 X1.278 Y-15.200 E0.04033
G1 X0.940 Y-15.481 E0.04033
G1 X0.540 Y-15.669 E0.04057
G1 X0.089 Y-15.749 E0.04198
G1 X-0.329 Y-15.723 E0.03839
G1 X-1.026 Y-15.496 E0.06732
G1 X-1.026 Y-15.409 E0.00795
G1 X-1.118 Y-15.351 E0.00993
G1 X-1.419 Y-15.031 E0.04033
G1 X-1.718 Y-14.486 E0.05708
G1 X-2.050 Y-14.571 E0.03141
G1 X-2.050 Y-18.575 E0.36739
G1 X-1.704 Y-18.835 F9000.000
G1 E-3.20000 F3000.00000
G1 Z0.700 F9000.000
G1 X0.820 Y-28.814 F9000.000
G1 Z0.300 F9000.000
G1 E3.20000 F3000.00000
G1 X1.314 Y-28.814 E0.04533 F900.000
G1 X1.314 Y-28.117 E0.06396
G1 X0.764 Y-28.376 E0.05578 F900.000
G1 X0.564 Y-28.412 E0.01870
G1 X0.599 Y-28.814 E0.03709
G1 X0.760 Y-28.814 E0.01480
G1 X-1.125 Y-28.814 F9000.000
G1 X-0.554 Y-28.814 E0.05244 F900.000
G1 X-0.495 Y-28.442 E0.03459
G1 X-1.314 Y-28.176 E0.07909 F900.000
G1 X-1.314 Y-28.814 E0.05860
G1 X-1.185 Y-28.814 E0.01186
G1 X-1.185 Y-29.550 F9000.000
G1 X2.050 Y-29.550 E0.29682 F900.000
G1 X2.050 Y-26.523 E0.27777
G1 X1.691 Y-26.454 E0.03350 F900.000
G1 X1.537 Y-26.845 E0.03855
G1 X1.278 Y-27.200 E0.04033
G1 X0.940 Y-27.481 E0.04033
G1 X0.540 Y-27.669 E0.04057
G1 X0.089 Y-27.749 E0.04198
G1 X-0.329 Y-27.723 E0.03839
G1 X-0.747 Y-27.587 E0.04033
G1 X-1.118 Y-27.351 E0.04033
G1 X-1.419 Y-27.031 E0.04033
G1 X-1.718 Y-26.486 E0.05708
G1 X-2.050 Y-26.571 E0.03141
G1 X-2.050 Y-29.550 E0.27335
G1 X-1.245 Y-29.550 E0.07385
G1 X-0.985 Y-29.204 F9000.000
G1 E-3.20000 F3000.00000
G1 Z0.700 F9000.000
G1 X0.865 Y-22.799 F9000.000
G1 Z0.300 F9000.000
G1 E3.20000 F3000.00000
G1 X0.516 Y-23.148 E0.04553 F900.000
G1 X-0.470 Y-23.089 E0.09109
G1 X0.865 Y-21.754 E0.17411
G1 X0.865 Y-20.708 E0.09636
G1 X-0.865 Y-22.439 E0.22559
G1 X-0.865 Y-21.393 E0.09636
G1 X0.865 Y-19.663 E0.22559
G1 X0.865 Y-18.618 E0.09636
G1 X-0.865 Y-20.348 E0.22559
G1 X-0.865 Y-19.303 E0.09636
G1 X0.865 Y-17.573 E0.22559
G1 X0.479 Y-16.913 E0.07044
G1 X-0.865 Y-18.258 E0.17530
G1 X-0.865 Y-17.212 E0.09636
G1 X-0.517 Y-16.864 E0.04536
G1 E-3.20000 F3000.00000
G1 Z0.700 F9000.000
G1 X0.865 Y-10.799 F9000.000
G1 Z0.300 F9000.000
G1 E3.20000 F3000.00000
G1 X0.516 Y-11.148 E0.04616 F900.000
G1 X-0.486 Y-11.090 E0.09381
G1 X0.865 Y-9.739 E0.17860
G1 X0.865 Y-8.679 E0.09907
G1 X-0.865 Y-10.410 E0.22874
G1 X-0.865 Y-9.350 E0.09907
G1 X0.865 Y-7.619 E0.22874
G1 X0.865 Y-6.559 E0.09907
G1 X-0.865 Y-8.290 E0.22874
G1 X-0.865 Y-7.230 E0.09907
G1 X0.865 Y-5.500 E0.22874
G1 X0.865 Y-4.440 E0.09907
G1 X-0.865 Y-6.170 E0.22874
G1 X-0.865 Y-5.110 E0.09907
G1 X0.865 Y-3.380 E0.22874
G1 X0.865 Y-2.320 E0.09907
G1 X-0.865 Y-4.050 E0.22874
G1 X-0.865 Y-2.990 E0.09907
G1 X0.865 Y-1.260 E0.22874
G1 X0.865 Y-0.200 E0.09907
G1 X-0.865 Y-1.931 E0.22874
G1 X-0.865 Y-0.871 E0.09907
G1 X0.865 Y0.860 E0.22874
G1 X0.865 Y1.919 E0.09907
G1 X-0.865 Y0.189 E0.22874
G1 X-0.865 Y1.249 E0.09907
G1 X0.865 Y2.979 E0.22874
G1 X0.865 Y4.039 E0.09907
G1 X-0.865 Y2.309 E0.22874
G1 X-0.865 Y3.369 E0.09907
G1 X0.865 Y5.099 E0.22874
G1 X0.865 Y6.159 E0.09907
G1 X-0.865 Y4.429 E0.22874
G1 X-0.865 Y5.488 E0.09907
G1 X0.865 Y7.219 E0.22874
G1 X0.865 Y8.279 E0.09907
G1 X-0.865 Y6.548 E0.22874
G1 X-0.865 Y7.608 E0.09907
G1 X0.865 Y9.338 E0.22874
G1 X0.865 Y10.398 E0.09907
G1 X-0.865 Y8.668 E0.22874
G1 X-0.865 Y9.728 E0.09907
G1 X0.497 Y11.090 E0.18009
G1 X-0.517 Y11.136 E0.09491
G1 X-0.865 Y10.788 E0.04600
G1 E-3.20000 F3000.00000
G1 Z0.700 F9000.000
G1 X0.865 Y17.201 F9000.000
G1 Z0.300 F9000.000
G1 E3.20000 F3000.00000
G1 X0.516 Y16.852 E0.04553 F900.000
G1 X-0.470 Y16.911 E0.09109
G1 X0.865 Y18.246 E0.17411
G1 X0.865 Y19.292 E0.09636
G1 X-0.865 Y17.561 E0.22559
G1 X-0.865 Y18.607 E0.09636
G1 X0.865 Y20.337 E0.22559
G1 X0.865 Y21.382 E0.09636
G1 X-0.865 Y19.652 E0.22559
G1 X-0.865 Y20.697 E0.09636
G1 X0.865 Y22.427 E0.22559
G1 X0.479 Y23.087 E0.07044
G1 X-0.865 Y21.742 E0.17530
G1 X-0.865 Y22.788 E0.09636
G1 X-0.517 Y23.136 E0.04536
G1 E-3.20000 F3000.00000
G1 Z0.700 F9000.000
G1 X-10.432 Y28.580 F9000.000
G1 Z0.300 F9000.000
G1 E3.20000 F3000.00000
G1 X-10.447 Y28.415 E0.01521 F900.000
G1 X-10.229 Y28.373 E0.02038
G1 X-9.686 Y28.117 E0.05510
G1 X-9.686 Y28.814 E0.06396
G1 X-10.409 Y28.814 E0.06641 F900.000
G1 X-10.426 Y28.639 E0.01614
G1 X-11.856 Y28.325 F9000.000
G1 X-11.495 Y28.442 E0.03489 F900.000
G1 X-11.554 Y28.814 E0.03459 F900.000
G1 X-12.314 Y28.814 E0.06981
G1 X-12.314 Y28.176 E0.05860
G1 X-11.913 Y28.306 E0.03869
G1 X-11.686 Y27.606 F9000.000
G1 X-11.329 Y27.723 E0.03448 F900.000
G1 X-10.890 Y27.750 E0.04033
G1 X-10.458 Y27.668 E0.04033
G1 X-10.060 Y27.481 E0.04033
G1 X-9.722 Y27.200 E0.04033
G1 X-9.463 Y26.845 E0.04033
G1 X-9.309 Y26.454 E0.03855
G1 X-8.950 Y26.523 E0.03350
G1 X-8.950 Y29.550 E0.27777 F900.000
G1 X-13.050 Y29.550 E0.37618
G1 X-13.050 Y26.571 E0.27335
G1 X-12.718 Y26.486 E0.03141
G1 X-12.419 Y27.031 E0.05708
G1 X-12.118 Y27.351 E0.04033
G1 X-11.743 Y27.588 E0.04066
G1 X-11.635 Y27.979 F9000.000
G1 E-3.20000 F3000.00000
G1 Z0.700 F9000.000
G1 X-9.686 Y21.104 F9000.000
G1 Z0.300 F9000.000
G1 E3.20000 F3000.00000
G1 X-9.686 Y23.883 E0.25492 F900.000
G1 X-10.236 Y23.624 E0.05578 F900.000
G1 X-10.869 Y23.512 E0.05903
G1 X-11.468 Y23.549 E0.05500
G1 X-12.314 Y23.824 E0.08170
G1 X-12.314 Y16.176 E0.70176
G1 X-11.468 Y16.451 E0.08170
G1 X-10.843 Y16.490 E0.05738
G1 X-10.229 Y16.373 E0.05738
G1 X-9.686 Y16.117 E0.05510
G1 X-9.686 Y21.044 E0.45207
G1 X-8.950 Y21.044 F9000.000
G1 X-8.950 Y25.477 E0.40674 F900.000
G1 X-9.309 Y25.546 E0.03350
G1 X-9.463 Y25.155 E0.03855
G1 X-9.722 Y24.800 E0.04033
G1 X-10.060 Y24.519 E0.04033
G1 X-10.460 Y24.331 E0.04057
G1 X-10.911 Y24.251 E0.04198
G1 X-11.329 Y24.277 E0.03839
G1 X-11.747 Y24.413 E0.04033
G1 X-12.118 Y24.649 E0.04033
G1 X-12.419 Y24.969 E0.04033
G1 X-12.718 Y25.514 E0.05708
G1 X-13.050 Y25.429 E0.03141
G1 X-13.050 Y14.571 E0.99629
G1 X-12.718 Y14.486 E0.03141
G1 X-12.419 Y15.031 E0.05708
G1 X-12.118 Y15.351 E0.04033
G1 X-11.747 Y15.587 E0.04033
G1 X-11.329 Y15.723 E0.04033
G1 X-10.890 Y15.750 E0.04033
G1 X-10.458 Y15.668 E0.04033
G1 X-10.060 Y15.481 E0.04033
G1 X-9.720 Y15.199 E0.04057
G1 X-9.456 Y14.825 E0.04198
G1 X-9.309 Y14.454 E0.03661
G1 X-8.950 Y14.523 E0.03350
G1 X-8.950 Y20.984 E0.59287 F900.000
G1 X-9.296 Y21.244 F9000.000
G1 E-3.20000 F3000.00000
G1 Z0.700 F9000.000
G1 X-12.314 Y-1.295 F9000.000
G1 Z0.300 F9000.000
G1 E3.20000 F3000.00000
G1 X-12.314 Y-11.824 E0.96603 F900.000
G1 X-11.468 Y-11.549 E0.08170
G1 X-10.843 Y-11.510 E0.05738
G1 X-10.229 Y-11.627 E0.05738
G1 X-9.686 Y-11.883 E0.05510
G1 X-9.686 Y11.883 E2.18050
G1 X-10.236 Y11.624 E0.05578 F900.000
G1 X-10.869 Y11.512 E0.05903
G1 X-11.468 Y11.549 E0.05500
G1 X-12.314 Y11.824 E0.08170
G1 X-12.314 Y-1.235 E1.19824
G1 X-13.050 Y-1.235 F9000.000
G1 X-13.050 Y-13.429 E1.11879 F900.000
G1 X-12.718 Y-13.514 E0.03141
G1 X-12.419 Y-12.969 E0.05708
G1 X-12.118 Y-12.649 E0.04033
G1 X-11.747 Y-12.413 E0.04033
G1 X-11.329 Y-12.277 E0.04033
G1 X-10.890 Y-12.250 E0.04033
G1 X-10.458 Y-12.332 E0.04033
G1 X-10.080 Y-12.510 E0.03839
G1 X-9.723 Y-12.797 E0.04198
G1 X-9.463 Y-13.155 E0.04057
G1 X-9.309 Y-13.546 E0.03855
G1 X-8.950 Y-13.477 E0.03350
G1 X-8.950 Y13.477 E2.47312 F900.000
G1 X-9.309 Y13.546 E0.03350
G1 X-9.463 Y13.155 E0.03855
G1 X-9.722 Y12.800 E0.04033
G1 X-10.060 Y12.519 E0.04033
G1 X-10.460 Y12.331 E0.04057
G1 X-10.911 Y12.251 E0.04198
G1 X-11.329 Y12.277 E0.03839
G1 X-11.747 Y12.413 E0.04033
G1 X-12.118 Y12.649 E0.04033
G1 X-12.419 Y12.969 E0.04033
G1 X-12.718 Y13.514 E0.05708
G1 X-13.050 Y13.429 E0.03141
G1 X-13.050 Y-1.175 E1.34000
G1 X-12.704 Y-1.435 F9000.000
G1 X-12.314 Y-19.649 F9000.000
G1 X-12.314 Y-23.824 E0.38310 F900.000
G1 X-11.468 Y-23.549 E0.08170
G1 X-10.843 Y-23.510 E0.05738
G1 X-10.229 Y-23.627 E0.05738
G1 X-9.686 Y-23.883 E0.05510
G1 X-9.686 Y-16.117 E0.71249
G1 X-10.236 Y-16.376 E0.05578 F900.000
G1 X-10.869 Y-16.488 E0.05903
G1 X-11.468 Y-16.451 E0.05500
G1 X-12.314 Y-16.176 E0.08170
G1 X-12.314 Y-19.589 E0.31316
G1 X-13.050 Y-19.589 F9000.000
G1 X-13.050 Y-25.429 E0.53587 F900.000
G1 X-12.718 Y-25.514 E0.03141
G1 X-12.429 Y-24.988 E0.05514
G1 X-12.120 Y-24.650 E0.04198
G1 X-11.747 Y-24.413 E0.04057
G1 X-11.329 Y-24.277 E0.04033
G1 X-10.890 Y-24.250 E0.04033
G1 X-10.458 Y-24.332 E0.04033
G1 X-10.060 Y-24.519 E0.04033
G1 X-9.722 Y-24.800 E0.04033
G1 X-9.463 Y-25.155 E0.04033
G1 X-9.309 Y-25.546 E0.03855
G1 X-8.950 Y-25.477 E0.03350
G1 X-8.950 Y-14.523 E1.00511 F900.000
G1 X-9.309 Y-14.454 E0.03350
G1 X-9.463 Y-14.845 E0.03855
G1 X-9.722 Y-15.200 E0.04033
G1 X-10.060 Y-15.481 E0.04033
G1 X-10.460 Y-15.669 E0.04057
G1 X-10.911 Y-15.749 E0.04198
G1 X-11.329 Y-15.723 E0.03839
G1 X-12.026 Y-15.496 E0.06732
G1 X-12.026 Y-15.409 E0.00795
G1 X-12.118 Y-15.351 E0.00993
G1 X-12.419 Y-15.031 E0.04033
G1 X-12.718 Y-14.486 E0.05708
G1 X-13.050 Y-14.571 E0.03141
G1 X-13.050 Y-19.529 E0.45491
G1 X-12.704 Y-19.789 F9000.000
G1 E-3.20000 F3000.00000
G1 Z0.700 F9000.000
G1 X-9.912 Y-28.814 F9000.000
G1 Z0.300 F9000.000
G1 E3.20000 F3000.00000
G1 X-9.686 Y-28.814 E0.02074 F900.000
G1 X-9.686 Y-28.117 E0.06396
G1 X-10.236 Y-28.376 E0.05578 F900.000
G1 X-10.436 Y-28.412 E0.01870
G1 X-10.401 Y-28.814 E0.03709
G1 X-9.972 Y-28.814 E0.03939
G1 X-11.721 Y-28.369 F9000.000
G1 X-12.314 Y-28.176 E0.05726 F900.000
G1 X-12.314 Y-28.814 E0.05860
G1 X-11.554 Y-28.814 E0.06981
G1 X-11.495 Y-28.442 E0.03459
G1 X-11.664 Y-28.387 E0.01632 F900.000
G1 X-11.436 Y-27.687 F9000.000
G1 X-11.747 Y-27.587 E0.02993 F900.000
G1 X-12.118 Y-27.351 E0.04033
G1 X-12.419 Y-27.031 E0.04033
G1 X-12.718 Y-26.486 E0.05708
G1 X-13.050 Y-26.571 E0.03141
G1 X-13.050 Y-29.550 E0.27335
G1 X-8.950 Y-29.550 E0.37618
G1 X-8.950 Y-26.523 E0.27777
G1 X-9.309 Y-26.454 E0.03350 F900.000
G1 X-9.463 Y-26.845 E0.03855
G1 X-9.722 Y-27.200 E0.04033
G1 X-10.060 Y-27.481 E0.04033
G1 X-10.460 Y-27.669 E0.04057
G1 X-10.911 Y-27.749 E0.04198
G1 X-11.379 Y-27.706 E0.04315
G1 X-11.664 Y-27.921 F9000.000
G1 E-3.20000 F3000.00000
G1 Z0.700 F9000.000
G1 X-10.135 Y-22.799 F9000.000
G1 Z0.300 F9000.000
G1 E3.20000 F3000.00000
G1 X-10.484 Y-23.148 E0.04553 F900.000
G1 X-11.470 Y-23.089 E0.09109
G1 X-10.135 Y-21.754 E0.17411
G1 X-10.135 Y-20.708 E0.09636
G1 X-11.865 Y-22.439 E0.22559
G1 X-11.865 Y-21.393 E0.09636
G1 X-10.135 Y-19.663 E0.22559
G1 X-10.135 Y-18.618 E0.09636
