; generated by Slic3r 1.2.9 on 2017-02-02 at 11:54:33

; external perimeters extrusion width = 0.40mm
; perimeters extrusion width = 0.40mm
; infill extrusion width = 0.40mm
; solid infill extrusion width = 0.40mm
; top infill extrusion width = 0.40mm

M107
M83
T0
M116
G21 ; set units to millimeters
G90 ; use absolute coordinates
M83 ; use relative distances for extrusion
G1 E-3.20000 F3000.00000
G1 Z0.400 F15000.000
G1 X16.086 Y0.000 F15000.000
G1 Z0.300 F15000.000
G1 E3.20000 F3000.00000
G1 X16.086 Y29.950 E2.30811 F960.000
G1 X15.691 Y31.597 E0.13052
G1 X14.593 Y32.887 E0.13052
G1 X12.450 Y33.586 E0.17373
G1 X-12.450 Y33.586 E1.91893
G1 X-14.097 Y33.191 E0.13052
G1 X-15.387 Y32.093 E0.13052
G1 X-16.086 Y29.950 E0.17373
G1 X-16.086 Y-29.950 E4.61622
G1 X-15.691 Y-31.597 E0.13052
G1 X-14.593 Y-32.887 E0.13052
G1 X-12.450 Y-33.586 E0.17373
G1 X12.450 Y-33.586 E1.91893
G1 X14.097 Y-33.191 E0.13052
G1 X15.387 Y-32.093 E0.13052 F960.000
G1 X16.086 Y-29.950 E0.17373
G1 X16.086 Y-0.060 E2.30349
G1 E-3.20000 F3000.00000
G1 Z0.700 F15000.000
G1 X14.039 Y-0.060 F15000.000
G1 Z0.300 F15000.000
G1 E3.20000 F3000.00000
G1 X14.039 Y30.608 E2.36346 F960.000
G1 X13.108 Y31.539 E0.10145
G1 X-13.108 Y31.539 E2.02038
G1 X-14.039 Y30.608 E0.10145
G1 X-14.039 Y-30.608 E4.71767
G1 X-13.108 Y-31.539 E0.10145
G1 X13.108 Y-31.539 E2.02038
G1 X14.039 Y-30.608 E0.10145
G1 X14.039 Y-0.120 E2.34959 F960.000
G1 X13.403 Y-0.120 F15000.000
G1 X13.403 Y30.345 E2.34779 F960.000
G1 X12.845 Y30.903 E0.06087
G1 X-12.845 Y30.903 E1.97980
G1 X-13.403 Y30.345 E0.06087
G1 X-13.403 Y-30.345 E4.67709
G1 X-12.845 Y-30.903 E0.06087
G1 X12.845 Y-30.903 E1.97980
G1 X13.403 Y-30.345 E0.06087 F960.000
G1 X13.403 Y-0.180 E2.32467
G1 X12.768 Y-0.180 F15000.000
G1 X12.768 Y30.082 E2.33213 F960.000
G1 X12.582 Y30.268 E0.02029
G1 X-12.582 Y30.268 E1.93922
G1 X-12.768 Y30.082 E0.02029
G1 X-12.768 Y-30.082 E4.63651
G1 X-12.582 Y-30.268 E0.02029
G1 X12.582 Y-30.268 E1.93922
G1 X12.768 Y-30.082 E0.02029
G1 X12.768 Y-0.240 E2.29976 F960.000
G1 X12.100 Y-0.240 F15000.000
G1 X12.100 Y29.600 E2.29963 F720.000
G1 X-12.100 Y29.600 E1.86499 F720.000
G1 X-12.100 Y-29.600 E4.56228
G1 X12.100 Y-29.600 E1.86499
G1 X12.100 Y-0.300 E2.25802
G1 X11.754 Y-0.040 F15000.000
G1 E-3.20000 F3000.00000
G1 Z0.700 F15000.000
G1 X-11.464 Y2.195 F15000.000
G1 Z0.300 F15000.000
G1 E3.20000 F3000.00000
G1 X-11.464 Y-28.964 E2.40134 F720.000
G1 X-8.438 Y-28.964 E0.23323
G1 X-8.903 Y-28.325 E0.06095
G1 X-9.157 Y-27.684 E0.05309 F720.000
G1 X-9.244 Y-27.000 E0.05314
G1 X-9.163 Y-26.357 E0.04996
G1 X-8.908 Y-25.681 E0.05565
G1 X-8.496 Y-25.117 E0.05382
G1 X-7.963 Y-24.679 E0.05316
G1 X-7.338 Y-24.387 E0.05316
G1 X-6.662 Y-24.262 E0.05296
G1 X-6.013 Y-24.302 E0.05012
G1 X-5.322 Y-24.521 E0.05585
G1 X-4.737 Y-24.898 E0.05366
G1 X-4.269 Y-25.405 E0.05315
G1 X-3.941 Y-26.012 E0.05315
G1 X-3.777 Y-26.676 E0.05277
G1 X-3.777 Y-27.329 E0.05028
G1 X-3.957 Y-28.027 E0.05560
G1 X-4.271 Y-28.598 E0.05022
G1 X-4.610 Y-28.964 E0.03843
G1 X11.464 Y-28.964 E1.23878
G1 X11.464 Y-27.472 E0.11499
G1 X10.870 Y-27.849 E0.05423
G1 X10.383 Y-28.008 E0.03948
G1 X9.872 Y-28.040 E0.03948
G1 X9.368 Y-27.944 E0.03948
G1 X8.905 Y-27.726 E0.03948
G1 X8.510 Y-27.399 E0.03948
G1 X8.209 Y-26.985 E0.03948
G1 X8.020 Y-26.508 E0.03948
G1 X7.956 Y-26.000 E0.03948
G1 X8.020 Y-25.492 E0.03948
G1 X8.209 Y-25.015 E0.03948
G1 X8.510 Y-24.601 E0.03948
G1 X8.905 Y-24.274 E0.03948
G1 X9.368 Y-24.056 E0.03948
G1 X9.872 Y-23.960 E0.03948
G1 X10.383 Y-23.992 E0.03948
G1 X10.870 Y-24.151 E0.03948
G1 X11.464 Y-24.528 E0.05423
G1 X11.464 Y-15.472 E0.69786
G1 X10.870 Y-15.849 E0.05423
G1 X10.383 Y-16.008 E0.03948
G1 X9.872 Y-16.040 E0.03948
G1 X9.368 Y-15.944 E0.03948
G1 X8.905 Y-15.726 E0.03948
G1 X8.510 Y-15.399 E0.03948
G1 X8.209 Y-14.985 E0.03948
G1 X8.020 Y-14.508 E0.03948
G1 X7.956 Y-14.000 E0.03948
G1 X8.020 Y-13.492 E0.03948
G1 X8.209 Y-13.015 E0.03948
G1 X8.510 Y-12.601 E0.03948
G1 X8.905 Y-12.274 E0.03948
G1 X9.368 Y-12.056 E0.03948
G1 X9.872 Y-11.960 E0.03948
G1 X10.383 Y-11.992 E0.03948
G1 X10.870 Y-12.151 E0.03948
G1 X11.464 Y-12.528 E0.05423
G1 X11.464 Y-6.976 E0.42783
G1 X10.766 Y-7.724 E0.07890
G1 X10.016 Y-8.203 E0.06849
G1 X9.170 Y-8.480 E0.06864
G1 X8.267 Y-8.535 E0.06975
G1 X7.411 Y-8.372 E0.06715
G1 X6.607 Y-7.995 E0.06842
G1 X5.921 Y-7.430 E0.06848
G1 X5.397 Y-6.712 E0.06851
G1 X5.066 Y-5.868 E0.06985
G1 X4.956 Y-5.003 E0.06721
G1 X5.066 Y-4.125 E0.06823
G1 X5.402 Y-3.282 E0.06988
G1 X5.821 Y-2.705 E0.05497
G1 X5.299 Y-2.733 E0.04032
G1 X4.660 Y-2.612 E0.05010
G1 X4.030 Y-2.318 E0.05360
G1 X3.479 Y-1.850 E0.05572
G1 X3.097 Y-1.325 E0.05002
G1 X2.843 Y-0.684 E0.05309
G1 X2.756 Y-0.000 E0.05314
G1 X2.837 Y0.643 E0.04996
G1 X3.092 Y1.319 E0.05565
G1 X3.504 Y1.883 E0.05382
G1 X4.037 Y2.321 E0.05316
G1 X4.662 Y2.613 E0.05316
G1 X5.338 Y2.738 E0.05296
G1 X5.987 Y2.698 E0.05012
G1 X6.678 Y2.479 E0.05585
G1 X7.263 Y2.102 E0.05366
G1 X7.731 Y1.595 E0.05315
G1 X8.059 Y0.988 E0.05315
G1 X8.223 Y0.324 E0.05277
G1 X8.223 Y-0.329 E0.05028
G1 X8.043 Y-1.027 E0.05560
G1 X7.747 Y-1.564 E0.04724
G1 X8.284 Y-1.463 E0.04208
G1 X9.154 Y-1.518 E0.06716
G1 X10.015 Y-1.796 E0.06975
G1 X10.766 Y-2.276 E0.06864
G1 X11.464 Y-3.024 E0.07890
G1 X11.464 Y12.528 E1.19848
G1 X10.870 Y12.151 E0.05423
G1 X10.383 Y11.992 E0.03948
G1 X9.872 Y11.960 E0.03948
G1 X9.368 Y12.056 E0.03948
G1 X8.905 Y12.274 E0.03948
G1 X8.510 Y12.601 E0.03948
G1 X8.209 Y13.015 E0.03948
G1 X8.020 Y13.492 E0.03948
G1 X7.956 Y14.000 E0.03948
G1 X8.020 Y14.508 E0.03948
G1 X8.209 Y14.985 E0.03948
G1 X8.510 Y15.399 E0.03948
G1 X8.905 Y15.726 E0.03948
G1 X9.368 Y15.944 E0.03948
G1 X9.872 Y16.040 E0.03948
G1 X10.383 Y16.008 E0.03948
G1 X10.870 Y15.849 E0.03948
G1 X11.464 Y15.472 E0.05423
G1 X11.464 Y24.528 E0.69786
G1 X10.870 Y24.151 E0.05423
G1 X10.383 Y23.992 E0.03948
G1 X9.872 Y23.960 E0.03948
G1 X9.368 Y24.056 E0.03948
G1 X8.905 Y24.274 E0.03948
G1 X8.510 Y24.601 E0.03948
G1 X8.209 Y25.015 E0.03948
G1 X8.020 Y25.492 E0.03948
G1 X7.956 Y26.000 E0.03948
G1 X8.020 Y26.508 E0.03948
G1 X8.209 Y26.985 E0.03948
G1 X8.510 Y27.399 E0.03948
G1 X8.905 Y27.726 E0.03948
G1 X9.368 Y27.944 E0.03948
G1 X9.872 Y28.040 E0.03948
G1 X10.383 Y28.008 E0.03948
G1 X10.870 Y27.849 E0.03948
G1 X11.464 Y27.472 E0.05423
G1 X11.464 Y28.964 E0.11499
G1 X-4.610 Y28.964 E1.23878
G1 X-4.269 Y28.595 E0.03874
G1 X-3.941 Y27.988 E0.05315
G1 X-3.777 Y27.324 E0.05277
G1 X-3.777 Y26.671 E0.05028
G1 X-3.957 Y25.973 E0.05560
G1 X-4.271 Y25.402 E0.05022
G1 X-4.737 Y24.898 E0.05283
G1 X-5.317 Y24.525 E0.05315
G1 X-5.978 Y24.306 E0.05369
G1 X-6.701 Y24.267 E0.05582
G1 X-7.340 Y24.388 E0.05010
G1 X-7.970 Y24.682 E0.05360
G1 X-8.521 Y25.150 E0.05572
G1 X-8.903 Y25.675 E0.05002
G1 X-9.157 Y26.316 E0.05309
G1 X-9.244 Y27.000 E0.05314
G1 X-9.163 Y27.643 E0.04996
G1 X-8.908 Y28.319 E0.05565
G1 X-8.436 Y28.964 E0.06161
G1 X-11.464 Y28.964 E0.23336
G1 X-11.464 Y2.255 E2.05834
G1 X-2.043 Y-3.600 F15000.000
G1 X-2.315 Y-4.304 E0.05818 F600.000
G1 X-2.403 Y-5.000 E0.05405
G1 X-2.312 Y-5.723 E0.05619
G1 X-2.043 Y-6.401 E0.05619
G1 X-1.630 Y-6.969 E0.05408
G1 X-1.051 Y-7.454 E0.05820
G1 X-0.390 Y-7.763 E0.05628
G1 X0.300 Y-7.895 E0.05410 F600.000
G1 X1.054 Y-7.849 E0.05824
G1 X1.747 Y-7.621 E0.05625
G1 X2.353 Y-7.234 E0.05539
G1 X2.854 Y-6.698 E0.05652
G1 X3.199 Y-6.068 E0.05541
G1 X3.379 Y-5.371 E0.05541
G1 X3.380 Y-4.635 E0.05678
G1 X3.201 Y-3.937 E0.05548
G1 X2.842 Y-3.285 E0.05738
G1 X2.339 Y-2.755 E0.05628
G1 X1.746 Y-2.379 E0.05414
G1 X1.028 Y-2.147 E0.05818
G1 X0.327 Y-2.103 E0.05411
G1 X-0.389 Y-2.237 E0.05615
G1 X-1.050 Y-2.545 E0.05621
G1 X-1.613 Y-3.009 E0.05621
G1 X-2.008 Y-3.551 E0.05172
G1 X-2.443 Y-3.627 F15000.000
G1 X-2.522 Y-3.177 F15000.000
G1 X-2.606 Y-3.293 E0.01106 F600.000
G1 X-2.936 Y-4.148 E0.07059
G1 X-3.044 Y-5.000 E0.06622
G1 X-2.932 Y-5.883 E0.06859
G1 X-2.604 Y-6.710 E0.06856
G1 X-2.098 Y-7.406 E0.06627
G1 X-1.396 Y-7.995 E0.07065
G1 X-0.587 Y-8.373 E0.06881
G1 X0.259 Y-8.534 E0.06634 F600.000
G1 X1.175 Y-8.479 E0.07073
G1 X2.022 Y-8.199 E0.06874
G1 X2.763 Y-7.727 E0.06773
G1 X3.373 Y-7.074 E0.06888
G1 X3.795 Y-6.303 E0.06769
G1 X4.014 Y-5.452 E0.06772
G1 X4.016 Y-4.555 E0.06916
G1 X3.797 Y-3.701 E0.06793
G1 X3.359 Y-2.907 E0.06989
G1 X2.746 Y-2.261 E0.06863
G1 X2.018 Y-1.799 E0.06643
G1 X1.147 Y-1.517 E0.07055
G1 X0.288 Y-1.463 E0.06636
G1 X-0.585 Y-1.627 E0.06846
G1 X-1.392 Y-2.004 E0.06861
G1 X-2.079 Y-2.570 E0.06862
G1 X-2.486 Y-3.129 E0.05330
G1 X-6.131 Y-24.932 F15000.000
G1 X-6.623 Y-24.901 E0.03803 F600.000
G1 X-7.142 Y-24.998 E0.04068
G1 X-7.622 Y-25.221 E0.04075
G1 X-8.030 Y-25.557 E0.04075
G1 X-8.343 Y-25.987 E0.04098
G1 X-8.541 Y-26.511 E0.04322
G1 X-8.603 Y-27.000 E0.03797
G1 X-8.537 Y-27.524 E0.04074
G1 X-8.342 Y-28.016 E0.04072
G1 X-8.052 Y-28.414 E0.03800
G1 X-7.624 Y-28.778 E0.04325
G1 X-7.143 Y-29.002 E0.04090
G1 X-6.658 Y-29.095 E0.03802 F600.000
G1 X-6.097 Y-29.064 E0.04329
G1 X-5.593 Y-28.897 E0.04093
G1 X-5.149 Y-28.611 E0.04074
G1 X-4.791 Y-28.224 E0.04062
G1 X-4.553 Y-27.791 E0.03807
G1 X-4.413 Y-27.248 E0.04322
G1 X-4.413 Y-26.754 E0.03809
G1 X-4.539 Y-26.242 E0.04060
G1 X-4.790 Y-25.777 E0.04073
G1 X-5.149 Y-25.389 E0.04074
G1 X-5.595 Y-25.102 E0.04092
G1 X-6.074 Y-24.950 E0.03868
G1 X-6.279 Y-24.560 F15000.000
G1 X8.597 Y-26.000 F15000.000
G1 X8.641 Y-26.349 E0.02711 F600.000
G1 X8.770 Y-26.676 E0.02711
G1 X8.977 Y-26.961 E0.02711
G1 X9.248 Y-27.185 E0.02711
G1 X9.566 Y-27.335 E0.02711
G1 X9.912 Y-27.400 E0.02711 F600.000
G1 X10.263 Y-27.378 E0.02711
G1 X10.597 Y-27.270 E0.02711
G1 X10.894 Y-27.081 E0.02711
G1 X11.135 Y-26.825 E0.02711
G1 X11.305 Y-26.517 E0.02711
G1 X11.392 Y-26.176 E0.02711
G1 X11.392 Y-25.824 E0.02711
G1 X11.305 Y-25.483 E0.02711
G1 X11.135 Y-25.175 E0.02711
G1 X10.894 Y-24.919 E0.02711
G1 X10.597 Y-24.730 E0.02711
G1 X10.263 Y-24.622 E0.02711
G1 X9.912 Y-24.600 E0.02711
G1 X9.566 Y-24.665 E0.02711
G1 X9.248 Y-24.815 E0.02711
G1 X8.977 Y-25.039 E0.02711
G1 X8.770 Y-25.324 E0.02711
G1 X8.641 Y-25.651 E0.02711
G1 X8.604 Y-25.940 E0.02248
G1 X8.300 Y-26.188 F15000.000
G1 X9.912 Y-15.400 F15000.000
G1 X10.263 Y-15.378 E0.02711 F600.000
G1 X10.597 Y-15.270 E0.02711
G1 X10.894 Y-15.081 E0.02711
G1 X11.135 Y-14.825 E0.02711
G1 X11.305 Y-14.517 E0.02711
G1 X11.392 Y-14.176 E0.02711
G1 X11.392 Y-13.824 E0.02711
G1 X11.305 Y-13.483 E0.02711
G1 X11.135 Y-13.175 E0.02711
G1 X10.894 Y-12.919 E0.02711
G1 X10.597 Y-12.730 E0.02711
G1 X10.263 Y-12.622 E0.02711
G1 X9.912 Y-12.600 E0.02711
G1 X9.566 Y-12.666 E0.02711
G1 X9.248 Y-12.815 E0.02711
G1 X8.977 Y-13.039 E0.02711
G1 X8.770 Y-13.324 E0.02711
G1 X8.641 Y-13.651 E0.02711
G1 X8.597 Y-14.000 E0.02711
G1 X8.641 Y-14.349 E0.02711
G1 X8.770 Y-14.676 E0.02711
G1 X8.977 Y-14.961 E0.02711
G1 X9.248 Y-15.185 E0.02711
G1 X9.566 Y-15.335 E0.02711
G1 X9.853 Y-15.389 E0.02248 F600.000
G1 X10.081 Y-15.709 F15000.000
G1 E-3.20000 F3000.00000
G1 Z0.700 F15000.000
G1 X9.050 Y-7.850 F15000.000
G1 Z0.300 F15000.000
G1 E3.20000 F3000.00000
G1 X9.742 Y-7.623 E0.05616 F600.000
G1 X10.356 Y-7.232 E0.05611
G1 X10.852 Y-6.700 E0.05607
G1 X11.196 Y-6.076 E0.05488
G1 X11.381 Y-5.356 E0.05728
G1 X11.381 Y-4.644 E0.05488
G1 X11.202 Y-3.939 E0.05606
G1 X10.853 Y-3.300 E0.05610
G1 X10.356 Y-2.768 E0.05610
G1 X9.742 Y-2.376 E0.05616
G1 X9.034 Y-2.147 E0.05731
G1 X8.323 Y-2.103 E0.05487
G1 X7.608 Y-2.238 E0.05608
G1 X6.945 Y-2.548 E0.05644
G1 X6.380 Y-3.018 E0.05666
G1 X5.963 Y-3.591 E0.05463
G1 X5.687 Y-4.284 E0.05748
G1 X5.597 Y-5.003 E0.05580
G1 X5.686 Y-5.710 E0.05492
G1 X5.959 Y-6.403 E0.05743
G1 X6.387 Y-6.991 E0.05603
G1 X6.949 Y-7.454 E0.05610
G1 X7.608 Y-7.762 E0.05609
G1 X8.307 Y-7.896 E0.05487 F600.000
G1 X8.990 Y-7.854 E0.05269
G1 X9.324 Y-8.142 F15000.000
G1 E-3.20000 F3000.00000
G1 Z0.700 F15000.000
G1 X6.407 Y-1.897 F15000.000
G1 Z0.300 F15000.000
G1 E3.20000 F3000.00000
G1 X6.851 Y-1.611 E0.04074 F600.000
G1 X7.209 Y-1.224 E0.04062
G1 X7.447 Y-0.791 E0.03807
G1 X7.587 Y-0.248 E0.04322
G1 X7.587 Y0.246 E0.03809
G1 X7.461 Y0.758 E0.04060
G1 X7.210 Y1.223 E0.04073
G1 X6.851 Y1.611 E0.04074
G1 X6.405 Y1.898 E0.04092
G1 X5.869 Y2.068 E0.04331
G1 X5.377 Y2.099 E0.03803
G1 X4.858 Y2.002 E0.04068
G1 X4.378 Y1.779 E0.04075
G1 X3.970 Y1.443 E0.04075
G1 X3.657 Y1.013 E0.04098
G1 X3.459 Y0.489 E0.04322
G1 X3.397 Y-0.000 E0.03797
G1 X3.463 Y-0.524 E0.04074
G1 X3.658 Y-1.016 E0.04072
G1 X3.948 Y-1.414 E0.03800
G1 X4.376 Y-1.778 E0.04325
G1 X4.857 Y-2.002 E0.04090
G1 X5.342 Y-2.095 E0.03802 F600.000
G1 X5.903 Y-2.064 E0.04329
G1 X6.350 Y-1.916 E0.03631
G1 X6.746 Y-2.109 F15000.000
G1 E-3.20000 F3000.00000
G1 Z0.700 F15000.000
G1 X9.566 Y12.665 F15000.000
G1 Z0.300 F15000.000
G1 E3.20000 F3000.00000
G1 X9.912 Y12.600 E0.02711 F600.000
G1 X10.263 Y12.622 E0.02711
G1 X10.597 Y12.730 E0.02711
G1 X10.894 Y12.919 E0.02711
G1 X11.135 Y13.175 E0.02711
G1 X11.305 Y13.483 E0.02711
G1 X11.392 Y13.824 E0.02711
G1 X11.392 Y14.176 E0.02711
G1 X11.305 Y14.517 E0.02711
G1 X11.135 Y14.825 E0.02711
G1 X10.894 Y15.081 E0.02711
G1 X10.597 Y15.270 E0.02711
G1 X10.263 Y15.378 E0.02711
G1 X9.912 Y15.400 E0.02711
G1 X9.566 Y15.334 E0.02711
G1 X9.248 Y15.185 E0.02711
G1 X8.977 Y14.961 E0.02711
G1 X8.770 Y14.676 E0.02711
G1 X8.641 Y14.349 E0.02711
G1 X8.597 Y14.000 E0.02711
G1 X8.641 Y13.651 E0.02711
G1 X8.770 Y13.324 E0.02711
G1 X8.977 Y13.039 E0.02711
G1 X9.248 Y12.815 E0.02711
G1 X9.512 Y12.691 E0.02248
G1 X9.654 Y12.325 F15000.000
G1 E-3.20000 F3000.00000
G1 Z0.700 F15000.000
G1 X9.912 Y24.600 F15000.000
G1 Z0.300 F15000.000
G1 E3.20000 F3000.00000
G1 X10.263 Y24.622 E0.02711 F600.000
G1 X10.597 Y24.730 E0.02711
G1 X10.894 Y24.919 E0.02711
G1 X11.135 Y25.175 E0.02711
G1 X11.305 Y25.483 E0.02711
G1 X11.392 Y25.824 E0.02711
G1 X11.392 Y26.176 E0.02711
G1 X11.305 Y26.517 E0.02711
G1 X11.135 Y26.825 E0.02711
G1 X10.894 Y27.081 E0.02711
G1 X10.597 Y27.270 E0.02711
G1 X10.263 Y27.378 E0.02711
G1 X9.912 Y27.400 E0.02711
G1 X9.566 Y27.334 E0.02711
G1 X9.248 Y27.185 E0.02711
G1 X8.977 Y26.961 E0.02711
G1 X8.770 Y26.676 E0.02711
G1 X8.641 Y26.349 E0.02711
G1 X8.597 Y26.000 E0.02711
G1 X8.641 Y25.651 E0.02711
G1 X8.770 Y25.324 E0.02711
G1 X8.977 Y25.039 E0.02711
G1 X9.248 Y24.815 E0.02711
G1 X9.566 Y24.665 E0.02711
G1 X9.853 Y24.611 E0.02248 F600.000
G1 X10.081 Y24.291 F15000.000
G1 X-4.413 Y26.752 F15000.000
G1 X-4.413 Y27.246 E0.03809 F600.000
G1 X-4.539 Y27.758 E0.04060
G1 X-4.790 Y28.223 E0.04073
G1 X-5.149 Y28.611 E0.04074
G1 X-5.595 Y28.898 E0.04092
G1 X-6.131 Y29.068 E0.04331
G1 X-6.623 Y29.099 E0.03803
G1 X-7.142 Y29.002 E0.04068
G1 X-7.622 Y28.779 E0.04075
G1 X-8.030 Y28.443 E0.04075
G1 X-8.343 Y28.013 E0.04098
G1 X-8.541 Y27.489 E0.04322
G1 X-8.603 Y27.000 E0.03797
G1 X-8.537 Y26.476 E0.04074
G1 X-8.342 Y25.984 E0.04072
G1 X-8.052 Y25.586 E0.03800
G1 X-7.624 Y25.222 E0.04325
G1 X-7.143 Y24.998 E0.04090
G1 X-6.658 Y24.905 E0.03802 F600.000
G1 X-6.097 Y24.936 E0.04329
G1 X-5.593 Y25.103 E0.04093
G1 X-5.149 Y25.389 E0.04074
G1 X-4.791 Y25.776 E0.04062
G1 X-4.553 Y26.209 E0.03807
G1 X-4.428 Y26.694 E0.03860
G1 X-4.051 Y26.922 F15000.000
G1 X-3.508 Y27.722 F15000.000
G1 X-2.651 Y28.579 E0.09367 F960.000
G1 X-1.749 Y28.579 E0.06975
G1 X-3.392 Y26.937 E0.17959
G1 X-3.543 Y25.883 E0.08232
G1 X-0.847 Y28.579 E0.29482
G1 X0.055 Y28.579 E0.06975
G1 X-11.079 Y17.445 E1.21760
G1 X-11.079 Y16.543 E0.06975
G1 X0.957 Y28.579 E1.31624
G1 X1.859 Y28.579 E0.06975
G1 X-11.079 Y15.641 E1.41488
G1 X-11.079 Y14.739 E0.06975
G1 X2.761 Y28.579 E1.51353
G1 X3.663 Y28.579 E0.06975
G1 X-11.079 Y13.837 E1.61217
G1 X-11.079 Y12.935 E0.06975
G1 X4.565 Y28.579 E1.71082
G1 X5.467 Y28.579 E0.06975
G1 X-11.079 Y12.033 E1.80946
G1 X-11.079 Y11.131 E0.06975
G1 X6.369 Y28.579 E1.90811
G1 X7.271 Y28.579 E0.06975
G1 X-11.079 Y10.229 E2.00675
G1 X-11.079 Y9.327 E0.06975
G1 X8.141 Y28.548 E2.10198
G1 X7.928 Y27.433 E0.08780
G1 X-11.079 Y8.425 E2.07867
G1 X-11.079 Y7.523 E0.06975
G1 X7.572 Y26.174 E2.03966
G1 X7.689 Y25.390 E0.06132
G1 X-11.079 Y6.621 E2.05255
G1 X-11.079 Y5.719 E0.06975
G1 X7.975 Y24.773 E2.08375
G1 X8.382 Y24.278 E0.04956
G1 X-11.079 Y4.817 E2.12828
G1 X-11.079 Y3.915 E0.06975
