; generated by Slic3r 1.2.9 on 2017-01-05 at 16:55:03

; external perimeters extrusion width = 0.50mm
; perimeters extrusion width = 0.50mm
; infill extrusion width = 0.50mm
; solid infill extrusion width = 0.50mm
; top infill extrusion width = 0.50mm

M107
;Basic settings: Layer height: {layer_height} Walls: {wall_thickness} Fill: {fill_density}
;Print time: {print_time}
;Filament used: {filament_amount}m {filament_weight}g
;Filament cost: {filament_cost}
;M190 S{print_bed_temperature} ;Uncomment to add your own bed temperature line
;M109 S{print_temperature} ;Uncomment to add your own temperature line
G21        ;metric values
G90        ;absolute positioning
M83
G10 P0 S200
T0
M116


G21 ; set units to millimeters
G90 ; use absolute coordinates
M83 ; use relative distances for extrusion
G1 E-3.20000 F3000.00000
G1 Z0.400 F9000.000
G1 X16.186 Y0.000 F9000.000
G1 Z0.300 F9000.000
G1 E3.20000 F3000.00000
G1 X16.186 Y29.950 E2.74793 F1200.000
G1 X15.791 Y31.621 E0.15755
G1 X14.690 Y32.939 E0.15755
G1 X12.450 Y33.686 E0.21667
G1 X-12.450 Y33.686 E2.28459
G1 X-14.121 Y33.291 E0.15755
G1 X-15.439 Y32.190 E0.15755
G1 X-16.186 Y29.950 E0.21667
G1 X-16.186 Y-29.950 E5.49586
G1 X-15.791 Y-31.621 E0.15755
G1 X-14.690 Y-32.939 E0.15755
G1 X-12.450 Y-33.686 E0.21667
G1 X12.450 Y-33.686 E2.28459
G1 X14.121 Y-33.291 E0.15755
G1 X15.439 Y-32.190 E0.15755 F1200.000
G1 X16.186 Y-29.950 E0.21667
G1 X16.186 Y-0.060 E2.74242
G1 E-3.20000 F3000.00000
G1 Z0.700 F9000.000
G1 X10.272 Y24.572 F9000.000
G1 Z0.300 F9000.000
G1 E3.20000 F3000.00000
G1 X10.619 Y24.685 E0.03343 F900.000
G1 X10.927 Y24.880 E0.03343
G1 X11.176 Y25.146 E0.03343
G1 X11.352 Y25.465 E0.03343
G1 X11.442 Y25.818 E0.03343
G1 X11.442 Y26.182 E0.03343
G1 X11.352 Y26.535 E0.03343
G1 X11.176 Y26.854 E0.03343
G1 X10.927 Y27.120 E0.03343
G1 X10.619 Y27.315 E0.03343
G1 X10.272 Y27.428 E0.03343
G1 X9.909 Y27.451 E0.03343
G1 X9.551 Y27.382 E0.03343
G1 X9.221 Y27.227 E0.03343
G1 X8.940 Y26.995 E0.03343
G1 X8.726 Y26.700 E0.03343
G1 X8.592 Y26.361 E0.03343
G1 X8.546 Y26.000 E0.03343
G1 X8.592 Y25.639 E0.03343
G1 X8.726 Y25.300 E0.03343
G1 X8.940 Y25.005 E0.03343
G1 X9.221 Y24.773 E0.03343
G1 X9.551 Y24.618 E0.03343
G1 X9.909 Y24.549 E0.03343 F900.000
G1 X10.212 Y24.568 E0.02792
G1 X10.522 Y24.307 F9000.000
G1 X9.909 Y15.451 F9000.000
G1 X9.551 Y15.382 E0.03343 F900.000
G1 X9.221 Y15.227 E0.03343
G1 X8.940 Y14.995 E0.03343
G1 X8.726 Y14.700 E0.03343
G1 X8.592 Y14.361 E0.03343
G1 X8.546 Y14.000 E0.03343
G1 X8.592 Y13.639 E0.03343
G1 X8.726 Y13.300 E0.03343
G1 X8.940 Y13.005 E0.03343
G1 X9.221 Y12.773 E0.03343
G1 X9.551 Y12.618 E0.03343
G1 X9.909 Y12.549 E0.03343 F900.000
G1 X10.272 Y12.572 E0.03343
G1 X10.619 Y12.685 E0.03343
G1 X10.927 Y12.880 E0.03343
G1 X11.176 Y13.146 E0.03343
G1 X11.351 Y13.465 E0.03343
G1 X11.442 Y13.818 E0.03343
G1 X11.442 Y14.182 E0.03343
G1 X11.351 Y14.535 E0.03343
G1 X11.176 Y14.854 E0.03343
G1 X10.927 Y15.120 E0.03343
G1 X10.619 Y15.315 E0.03343
G1 X10.272 Y15.428 E0.03343
G1 X9.969 Y15.447 E0.02792
G1 X9.695 Y15.745 F9000.000
G1 E-3.20000 F3000.00000
G1 Z0.700 F9000.000
G1 X9.909 Y-12.549 F9000.000
G1 Z0.300 F9000.000
G1 E3.20000 F3000.00000
G1 X9.551 Y-12.618 E0.03343 F900.000
G1 X9.221 Y-12.773 E0.03343
G1 X8.940 Y-13.005 E0.03343
G1 X8.726 Y-13.300 E0.03343
G1 X8.592 Y-13.639 E0.03343
G1 X8.546 Y-14.000 E0.03343
G1 X8.592 Y-14.361 E0.03343
G1 X8.726 Y-14.700 E0.03343
G1 X8.940 Y-14.995 E0.03343
G1 X9.221 Y-15.227 E0.03343
G1 X9.551 Y-15.382 E0.03343
G1 X9.909 Y-15.451 E0.03343 F900.000
G1 X10.272 Y-15.428 E0.03343
G1 X10.619 Y-15.315 E0.03343
G1 X10.927 Y-15.120 E0.03343
G1 X11.176 Y-14.854 E0.03343
G1 X11.351 Y-14.535 E0.03343
G1 X11.442 Y-14.182 E0.03343
G1 X11.442 Y-13.818 E0.03343
G1 X11.352 Y-13.465 E0.03343
G1 X11.176 Y-13.146 E0.03343
G1 X10.927 Y-12.880 E0.03343
G1 X10.619 Y-12.685 E0.03343
G1 X10.272 Y-12.572 E0.03343
G1 X9.969 Y-12.553 E0.02793
G1 X9.695 Y-12.255 F9000.000
G1 E-3.20000 F3000.00000
G1 Z0.700 F9000.000
G1 X9.909 Y-24.549 F9000.000
G1 Z0.300 F9000.000
G1 E3.20000 F3000.00000
G1 X9.551 Y-24.618 E0.03343 F900.000
G1 X9.221 Y-24.773 E0.03343
G1 X8.940 Y-25.005 E0.03343
G1 X8.726 Y-25.300 E0.03343
G1 X8.592 Y-25.639 E0.03343
G1 X8.546 Y-26.000 E0.03343
G1 X8.592 Y-26.361 E0.03343
G1 X8.726 Y-26.700 E0.03343
G1 X8.940 Y-26.995 E0.03343
G1 X9.221 Y-27.227 E0.03343
G1 X9.551 Y-27.382 E0.03343
G1 X9.909 Y-27.451 E0.03343 F900.000
G1 X10.272 Y-27.428 E0.03343
G1 X10.619 Y-27.315 E0.03343
G1 X10.927 Y-27.120 E0.03343
G1 X11.176 Y-26.854 E0.03343
G1 X11.351 Y-26.535 E0.03343
G1 X11.442 Y-26.182 E0.03343
G1 X11.442 Y-25.818 E0.03343
G1 X11.352 Y-25.465 E0.03343
G1 X11.176 Y-25.146 E0.03343
G1 X10.927 Y-24.880 E0.03343
G1 X10.619 Y-24.685 E0.03343
G1 X10.272 Y-24.572 E0.03343
G1 X9.969 Y-24.553 E0.02793
G1 X9.695 Y-24.255 F9000.000
G1 X6.050 Y-2.843 F9000.000
G1 X6.748 Y-2.611 E0.06750 F900.000
G1 X7.360 Y-2.217 E0.06677
G1 X7.851 Y-1.687 E0.06633
G1 X8.183 Y-1.083 E0.06321
G1 X8.373 Y-0.348 E0.06967
G1 X8.373 Y0.342 E0.06328
G1 X8.200 Y1.043 E0.06624
G1 X7.854 Y1.683 E0.06677
G1 X7.360 Y2.217 E0.06677
G1 X6.742 Y2.616 E0.06747
G1 X6.015 Y2.846 E0.07001
G1 X5.329 Y2.889 E0.06307
G1 X4.616 Y2.757 E0.06651
G1 X3.956 Y2.449 E0.06678
G1 X3.394 Y1.987 E0.06678
G1 X2.959 Y1.391 E0.06769
G1 X2.691 Y0.679 E0.06974
G1 X2.605 Y-0.000 E0.06285
G1 X2.696 Y-0.722 E0.06675
G1 X2.965 Y-1.397 E0.06668
G1 X3.368 Y-1.952 E0.06293
G1 X3.948 Y-2.445 E0.06984
G1 X4.614 Y-2.755 E0.06739
G1 X5.289 Y-2.884 E0.06303 F900.000
G1 X5.990 Y-2.846 E0.06447
G1 X5.912 Y-2.114 F9000.000
G1 X6.428 Y-1.943 E0.04992 F900.000
G1 X6.884 Y-1.649 E0.04966
G1 X7.250 Y-1.253 E0.04951
G1 X7.494 Y-0.810 E0.04646
G1 X7.637 Y-0.254 E0.05261
G1 X7.637 Y0.252 E0.04649
G1 X7.508 Y0.776 E0.04947
G1 X7.251 Y1.252 E0.04966
G1 X6.884 Y1.649 E0.04966
G1 X6.426 Y1.944 E0.04991
G1 X5.878 Y2.118 E0.05273
G1 X5.374 Y2.149 E0.04641
G1 X4.842 Y2.050 E0.04958
G1 X4.352 Y1.822 E0.04967
G1 X3.933 Y1.478 E0.04968
G1 X3.612 Y1.037 E0.05000
G1 X3.410 Y0.501 E0.05262
G1 X3.346 Y-0.000 E0.04633
G1 X3.414 Y-0.537 E0.04966
G1 X3.614 Y-1.040 E0.04964
G1 X3.911 Y-1.449 E0.04636
G1 X4.349 Y-1.820 E0.05266
G1 X4.842 Y-2.050 E0.04989
G1 X5.338 Y-2.145 E0.04640 F900.000
G1 X5.852 Y-2.117 E0.04721
G1 X6.186 Y-2.405 F9000.000
G1 X7.874 Y-13.454 F9000.000
G1 X8.076 Y-12.943 E0.05048 F900.000
G1 X8.400 Y-12.497 E0.05048
G1 X8.824 Y-12.147 E0.05048
G1 X9.322 Y-11.912 E0.05048
G1 X9.862 Y-11.809 E0.05048
G1 X10.411 Y-11.844 E0.05048
G1 X10.935 Y-12.014 E0.05048
G1 X11.314 Y-12.255 E0.04127
G1 X11.314 Y12.255 E2.24878
G1 X10.935 Y12.014 E0.04127
G1 X10.411 Y11.844 E0.05048
G1 X9.862 Y11.809 E0.05048
G1 X9.322 Y11.912 E0.05048
G1 X8.824 Y12.147 E0.05048
G1 X8.400 Y12.497 E0.05048
G1 X8.076 Y12.943 E0.05048
G1 X7.874 Y13.454 E0.05048
G1 X7.805 Y14.000 E0.05048
G1 X7.874 Y14.546 E0.05048
G1 X8.076 Y15.057 E0.05048
G1 X8.400 Y15.503 E0.05048
G1 X8.824 Y15.853 E0.05048
G1 X9.322 Y16.088 E0.05048
G1 X9.862 Y16.191 E0.05048
G1 X10.411 Y16.156 E0.05048
G1 X10.935 Y15.986 E0.05048
G1 X11.314 Y15.745 E0.04127
G1 X11.314 Y24.255 E0.78077
G1 X10.935 Y24.014 E0.04127
G1 X10.411 Y23.844 E0.05048
G1 X9.862 Y23.809 E0.05048
G1 X9.322 Y23.912 E0.05048
G1 X8.824 Y24.147 E0.05048
G1 X8.400 Y24.497 E0.05048
G1 X8.076 Y24.943 E0.05048
G1 X7.874 Y25.454 E0.05048
G1 X7.805 Y26.000 E0.05048
G1 X7.874 Y26.546 E0.05048
G1 X8.076 Y27.057 E0.05048
G1 X8.400 Y27.503 E0.05048
G1 X8.824 Y27.853 E0.05048
G1 X9.322 Y28.088 E0.05048
G1 X9.862 Y28.191 E0.05048
G1 X10.411 Y28.156 E0.05048
G1 X10.935 Y27.986 E0.05048
G1 X11.314 Y27.745 E0.04127
G1 X11.314 Y28.814 E0.09810
G1 X-4.216 Y28.814 E1.42494
G1 X-3.800 Y28.043 E0.08043
G1 X-3.627 Y27.342 E0.06624
G1 X-3.627 Y26.652 E0.06328
G1 X-3.817 Y25.917 E0.06967
G1 X-4.149 Y25.313 E0.06321
G1 X-4.640 Y24.783 E0.06633
G1 X-5.252 Y24.389 E0.06677
G1 X-5.950 Y24.157 E0.06750
G1 X-6.711 Y24.116 E0.06997
G1 X-7.386 Y24.245 E0.06303
G1 X-8.052 Y24.555 E0.06739
G1 X-8.632 Y25.048 E0.06984
G1 X-9.035 Y25.603 E0.06293
G1 X-9.304 Y26.278 E0.06668
G1 X-9.395 Y27.000 E0.06675
G1 X-9.309 Y27.679 E0.06285
G1 X-9.041 Y28.391 E0.06974
G1 X-8.731 Y28.814 E0.04814
G1 X-11.314 Y28.814 E0.23699
G1 X-11.314 Y-28.814 E5.28747
G1 X-8.732 Y-28.814 E0.23690
G1 X-9.035 Y-28.397 E0.04729
G1 X-9.304 Y-27.722 E0.06668 F900.000
G1 X-9.395 Y-27.000 E0.06675
G1 X-9.309 Y-26.321 E0.06285
G1 X-9.041 Y-25.609 E0.06974
G1 X-8.606 Y-25.013 E0.06769
G1 X-8.044 Y-24.551 E0.06678
G1 X-7.384 Y-24.243 E0.06678
G1 X-6.671 Y-24.111 E0.06651
G1 X-5.985 Y-24.154 E0.06307
G1 X-5.258 Y-24.384 E0.07001
G1 X-4.640 Y-24.783 E0.06747
G1 X-4.146 Y-25.317 E0.06677
G1 X-3.800 Y-25.957 E0.06676
G1 X-3.627 Y-26.658 E0.06624
G1 X-3.627 Y-27.348 E0.06328
G1 X-3.817 Y-28.083 E0.06967
G1 X-4.219 Y-28.814 E0.07657
G1 X11.314 Y-28.814 E1.42519
G1 X11.314 Y-27.745 E0.09811
G1 X10.935 Y-27.986 E0.04127
G1 X10.411 Y-28.156 E0.05048
G1 X9.862 Y-28.191 E0.05048
G1 X9.322 Y-28.088 E0.05048
G1 X8.824 Y-27.853 E0.05048
G1 X8.400 Y-27.503 E0.05048
G1 X8.076 Y-27.057 E0.05048
G1 X7.874 Y-26.546 E0.05048
G1 X7.805 Y-26.000 E0.05048
G1 X7.874 Y-25.454 E0.05048
G1 X8.076 Y-24.943 E0.05048
G1 X8.400 Y-24.497 E0.05048
G1 X8.824 Y-24.147 E0.05048
G1 X9.322 Y-23.912 E0.05048
G1 X9.862 Y-23.809 E0.05048
G1 X10.411 Y-23.844 E0.05048
G1 X10.935 Y-24.014 E0.05048
G1 X11.314 Y-24.255 E0.04127
G1 X11.314 Y-15.745 E0.78077
G1 X10.935 Y-15.986 E0.04127
G1 X10.411 Y-16.156 E0.05048
G1 X9.862 Y-16.191 E0.05048
G1 X9.322 Y-16.088 E0.05048
G1 X8.824 Y-15.853 E0.05048
G1 X8.400 Y-15.503 E0.05048
G1 X8.076 Y-15.057 E0.05048
G1 X7.874 Y-14.546 E0.05048
G1 X7.805 Y-14.000 E0.05048
G1 X7.866 Y-13.514 E0.04498
G1 E-3.20000 F3000.00000
G1 Z0.700 F9000.000
G1 X12.050 Y-13.514 F9000.000
G1 Z0.300 F9000.000
G1 E3.20000 F3000.00000
G1 X12.050 Y29.550 E3.95111 F900.000
G1 X-6.248 Y29.550 E1.67888
G1 X-6.306 Y29.176 E0.03471
G1 X-5.574 Y28.944 E0.07049
G1 X-5.116 Y28.649 E0.04991
G1 X-4.749 Y28.252 E0.04966
G1 X-4.492 Y27.776 E0.04966
G1 X-4.363 Y27.252 E0.04947
G1 X-4.363 Y26.746 E0.04649
G1 X-4.506 Y26.190 E0.05261
G1 X-4.750 Y25.747 E0.04646
G1 X-5.116 Y25.351 E0.04951
G1 X-5.572 Y25.057 E0.04967
G1 X-6.088 Y24.886 E0.04992
G1 X-6.662 Y24.855 E0.05272
G1 X-7.158 Y24.950 E0.04640
G1 X-7.651 Y25.180 E0.04989
G1 X-8.089 Y25.551 E0.05266
G1 X-8.386 Y25.960 E0.04636
G1 X-8.586 Y26.463 E0.04964
G1 X-8.654 Y27.000 E0.04966
G1 X-8.590 Y27.501 E0.04633
G1 X-8.388 Y28.037 E0.05262
G1 X-8.067 Y28.478 E0.05000
G1 X-7.648 Y28.822 E0.04968
G1 X-7.158 Y29.050 E0.04967
G1 X-6.627 Y29.149 E0.04950
G1 X-6.664 Y29.550 E0.03693
G1 X-12.050 Y29.550 E0.49413
G1 X-12.050 Y-29.550 E5.42246
G1 X-6.671 Y-29.550 E0.49348
G1 X-6.634 Y-29.150 E0.03685
G1 X-7.158 Y-29.050 E0.04902 F900.000
G1 X-7.651 Y-28.820 E0.04989
G1 X-8.089 Y-28.449 E0.05266
G1 X-8.386 Y-28.040 E0.04636
G1 X-8.586 Y-27.537 E0.04964
G1 X-8.654 Y-27.000 E0.04966
G1 X-8.590 Y-26.499 E0.04633
G1 X-8.388 Y-25.963 E0.05262
G1 X-8.067 Y-25.522 E0.05000
G1 X-7.648 Y-25.178 E0.04968
G1 X-7.158 Y-24.950 E0.04967
G1 X-6.626 Y-24.851 E0.04958
G1 X-6.122 Y-24.882 E0.04641
G1 X-5.574 Y-25.056 E0.05273
G1 X-5.116 Y-25.351 E0.04991
G1 X-4.749 Y-25.748 E0.04966
G1 X-4.492 Y-26.224 E0.04966
G1 X-4.363 Y-26.748 E0.04947
G1 X-4.363 Y-27.254 E0.04649
G1 X-4.506 Y-27.810 E0.05262
G1 X-4.750 Y-28.253 E0.04646
G1 X-5.116 Y-28.649 E0.04951
G1 X-5.572 Y-28.943 E0.04966
G1 X-6.285 Y-29.179 E0.06895
G1 X-6.225 Y-29.550 E0.03448
G1 X12.050 Y-29.550 E1.67674
G1 X12.050 Y-13.574 E1.46584
G1 X11.704 Y-13.314 F9000.000
G1 X10.865 Y-10.928 F9000.000
G1 X10.387 Y-11.406 E0.06240 F900.000
G1 X9.325 Y-11.422 E0.09795
G1 X10.865 Y-9.882 E0.20092
G1 X10.865 Y-8.836 E0.09651
G1 X-4.627 Y-24.328 E2.02122
G1 X-4.077 Y-24.824 E0.06833
G1 X7.416 Y-13.331 E1.49947
G1 X7.418 Y-14.375 E0.09629
G1 X-3.637 Y-25.430 E1.44235
G1 X-3.321 Y-26.160 E0.07340
G1 X7.683 Y-15.157 E1.43566
G1 X8.117 Y-15.769 E0.06922
G1 X-3.178 Y-27.063 E1.47358
G1 X-3.362 Y-28.293 E0.11474
G1 X8.698 Y-16.233 E1.57341
G1 X9.437 Y-16.540 E0.07385
G1 X-2.388 Y-28.365 E1.54283
G1 X-1.342 Y-28.365 E0.09651
G1 X10.407 Y-16.617 E1.53283
G1 X10.865 Y-17.204 E0.06876
G1 X-0.296 Y-28.365 E1.45616
G1 X0.750 Y-28.365 E0.09651
G1 X10.865 Y-18.250 E1.31968
G1 X10.865 Y-19.296 E0.09651
G1 X1.796 Y-28.365 E1.18320
G1 X2.842 Y-28.365 E0.09651
G1 X10.865 Y-20.342 E1.04672
G1 X9.927 Y-23.373 F9000.000
G1 X10.865 Y-22.435 E0.12241 F900.000
G1 X10.865 Y-21.389 E0.09651
G1 X3.889 Y-28.365 E0.91024
G1 X4.935 Y-28.365 E0.09651
G1 X7.363 Y-25.937 E0.31680
G1 X7.543 Y-26.803 E0.08161
G1 X5.981 Y-28.365 E0.20379
G1 X7.027 Y-28.365 E0.09651
G1 X7.908 Y-27.484 E0.11495
G1 X8.073 Y-28.365 E0.08269
G1 X8.419 Y-28.019 E0.04518
G1 X-7.148 Y-23.711 F9000.000
G1 X10.865 Y-5.698 E2.35018 F900.000
G1 X10.865 Y-6.744 E0.09651
G1 X-6.097 Y-23.706 E2.21311
G1 X-5.290 Y-23.945 E0.07768
G1 X10.865 Y-7.790 E2.10776
G1 X10.865 Y1.625 F9000.000
G1 X8.822 Y-0.418 E0.26654 F900.000
G1 X8.749 Y0.555 E0.09002
G1 X10.865 Y2.671 E0.27607
G1 X10.865 Y3.717 E0.09651
G1 X8.487 Y1.339 E0.31023
G1 X8.094 Y1.991 E0.07029
G1 X10.865 Y4.763 E0.36161
G1 X10.865 Y5.809 E0.09651
G1 X7.589 Y2.533 E0.42739
G1 X6.953 Y2.943 E0.06982
G1 X10.865 Y6.855 E0.51041
G1 X10.865 Y7.901 E0.09651
G1 X6.185 Y3.221 E0.61056
G1 X5.253 Y3.335 E0.08669
G1 X10.865 Y8.947 E0.73227
G1 X10.865 Y9.993 E0.09651
G1 X3.861 Y2.989 E0.91384
G1 X2.499 Y1.627 F9000.000
G1 X-10.865 Y-11.737 E1.74359 F900.000
G1 X-10.865 Y-12.783 E0.09651
G1 X2.162 Y0.244 E1.69967
G1 X2.260 Y-0.704 E0.08795
G1 X-10.865 Y-13.829 E1.71243
G1 X-10.865 Y-14.875 E0.09651
G1 X2.555 Y-1.456 E1.75088
G1 X2.980 Y-2.077 E0.06943
G1 X-10.865 Y-15.921 E1.80632
G1 X-10.865 Y-16.967 E0.09651
G1 X3.517 Y-2.585 E1.87650
G1 X4.164 Y-2.985 E0.07011
G1 X-10.865 Y-18.013 E1.96081
G1 X-10.865 Y-19.060 E0.09651
G1 X4.945 Y-3.249 E2.06279
G1 X5.933 Y-3.308 E0.09125
G1 X-10.865 Y-20.106 E2.19160
G1 X-10.865 Y-21.152 E0.09651
G1 X10.865 Y0.579 E2.83516
G1 X10.865 Y-0.467 E0.09651
G1 X-10.865 Y-22.198 E2.83516
G1 X-10.865 Y-23.244 E0.09651
G1 X10.865 Y-1.513 E2.83516
G1 X10.865 Y-2.559 E0.09651
G1 X-10.865 Y-24.290 E2.83516
G1 X-10.865 Y-25.336 E0.09651
G1 X10.865 Y-3.606 E2.83516
G1 X10.865 Y-4.652 E0.09651
G1 X-10.865 Y-26.382 E2.83516
G1 X-9.787 Y-26.349 F9000.000
G1 X-10.865 Y-27.428 E0.14072 F900.000
G1 X-10.756 Y-28.365 E0.08704
G1 X-9.780 Y-27.389 E0.12737
G1 E-3.20000 F3000.00000
G1 Z0.700 F9000.000
G1 X10.865 Y11.039 F9000.000
G1 Z0.300 F9000.000
G1 E3.20000 F3000.00000
G1 X-10.865 Y-10.691 E2.83516 F900.000
G1 X-10.865 Y-9.645 E0.09651
G1 X10.147 Y11.367 E2.74144
G1 X9.243 Y11.510 E0.08437
G1 X-10.865 Y-8.599 E2.62358
G1 X-10.865 Y-7.553 E0.09651
G1 X8.556 Y11.868 E2.53385
G1 X8.013 Y12.371 E0.06829
G1 X-10.865 Y-6.507 E2.46302
G1 X-10.865 Y-5.461 E0.09651
G1 X7.613 Y13.018 E2.41091
G1 X7.391 Y13.841 E0.07868
G1 X-10.865 Y-4.415 E2.38185
G1 X-10.865 Y-3.369 E0.09651
G1 X7.493 Y14.989 E2.39517
G1 X9.024 Y16.521 F9000.000
G1 X10.865 Y18.362 E0.24019 F900.000
G1 X10.865 Y17.316 E0.09651
G1 X10.162 Y16.612 E0.09175
G1 X10.865 Y19.408 F9000.000
G1 X-10.865 Y-2.323 E2.83516 F900.000
G1 X-10.865 Y-1.277 E0.09651
G1 X10.865 Y20.454 E2.83516
G1 X10.865 Y21.500 E0.09651
G1 X-10.865 Y-0.230 E2.83516
G1 X-10.865 Y0.816 E0.09651
G1 X10.865 Y22.546 E2.83516
G1 X10.673 Y23.400 E0.08077
G1 X-10.865 Y1.862 E2.81013
G1 X-10.865 Y2.908 E0.09651
G1 X9.647 Y23.420 E2.67624
G1 X8.868 Y23.687 E0.07600
G1 X-10.865 Y3.954 E2.57455
G1 X-10.865 Y5.000 E0.09651
G1 X8.253 Y24.118 E2.49439
G1 X7.780 Y24.691 E0.06855
G1 X-10.865 Y6.046 E2.43267
G1 X-10.865 Y7.092 E0.09651
G1 X7.457 Y25.414 E2.39046
G1 X7.380 Y26.383 E0.08967
G1 X-10.865 Y8.138 E2.38040
G1 X-10.865 Y9.184 E0.09651
G1 X8.316 Y28.365 E2.50256
G1 X7.270 Y28.365 E0.09651
G1 X-10.865 Y10.230 E2.36608
G1 X-10.865 Y11.276 E0.09651
G1 X6.224 Y28.365 E2.22960
G1 X5.178 Y28.365 E0.09651
G1 X-10.865 Y12.322 E2.09312
G1 X-10.865 Y13.368 E0.09651
G1 X4.132 Y28.365 E1.95665
G1 X3.086 Y28.365 E0.09651
G1 X-10.865 Y14.414 E1.82017
G1 X-10.865 Y15.460 E0.09651
G1 X2.040 Y28.365 E1.68369
G1 X0.994 Y28.365 E0.09651
