; generated by Slic3r 1.2.9 on 2017-03-14 at 18:44:48

; external perimeters extrusion width = 0.40mm
; perimeters extrusion width = 0.40mm
; infill extrusion width = 0.40mm
; solid infill extrusion width = 0.40mm
; top infill extrusion width = 0.40mm

M107
M83
T0
M116
G21 ; set units to millimeters
G90 ; use absolute coordinates
M83 ; use relative distances for extrusion
G1 E-3.20000 F3000.00000
G1 Z0.400 F15000.000
G1 X16.086 Y0.000 F15000.000
G1 Z0.300 F15000.000
G1 E3.20000 F3000.00000
G1 X16.086 Y29.950 E2.30811 F960.000
G1 X15.691 Y31.597 E0.13052
G1 X14.593 Y32.887 E0.13052
G1 X12.450 Y33.586 E0.17373
G1 X-12.450 Y33.586 E1.91893
G1 X-14.097 Y33.191 E0.13052
G1 X-15.387 Y32.093 E0.13052
G1 X-16.086 Y29.950 E0.17373
G1 X-16.086 Y-29.950 E4.61622
G1 X-15.691 Y-31.597 E0.13052
G1 X-14.593 Y-32.887 E0.13052
G1 X-12.450 Y-33.586 E0.17373
G1 X12.450 Y-33.586 E1.91893
G1 X14.097 Y-33.191 E0.13052
G1 X15.387 Y-32.093 E0.13052 F960.000
G1 X16.086 Y-29.950 E0.17373
G1 X16.086 Y-0.060 E2.30349
G1 E-3.20000 F3000.00000
G1 Z0.700 F15000.000
G1 X-5.149 Y25.389 F15000.000
G1 Z0.300 F15000.000
G1 E3.20000 F3000.00000
G1 X-4.791 Y25.776 E0.04062 F600.000
G1 X-4.553 Y26.209 E0.03807
G1 X-4.413 Y26.752 E0.04322
G1 X-4.413 Y27.246 E0.03809
G1 X-4.539 Y27.758 E0.04060
G1 X-4.790 Y28.223 E0.04073
G1 X-5.149 Y28.611 E0.04074
G1 X-5.595 Y28.898 E0.04092
G1 X-6.131 Y29.068 E0.04331
G1 X-6.623 Y29.099 E0.03803
G1 X-7.142 Y29.002 E0.04068
G1 X-7.622 Y28.779 E0.04075
G1 X-8.030 Y28.443 E0.04075
G1 X-8.343 Y28.013 E0.04098
G1 X-8.541 Y27.489 E0.04322
G1 X-8.603 Y27.000 E0.03797
G1 X-8.537 Y26.476 E0.04074
G1 X-8.342 Y25.984 E0.04072
G1 X-8.052 Y25.586 E0.03800
G1 X-7.624 Y25.222 E0.04325
G1 X-7.143 Y24.998 E0.04090
G1 X-6.658 Y24.905 E0.03802 F600.000
G1 X-6.097 Y24.936 E0.04329
G1 X-5.593 Y25.103 E0.04093
G1 X-5.199 Y25.357 E0.03612
G1 X-4.768 Y25.268 F15000.000
G1 X8.597 Y26.000 F15000.000
G1 X8.641 Y25.651 E0.02711 F600.000
G1 X8.770 Y25.324 E0.02711
G1 X8.977 Y25.039 E0.02711
G1 X9.248 Y24.815 E0.02711
G1 X9.566 Y24.665 E0.02711
G1 X9.912 Y24.600 E0.02711 F600.000
G1 X10.263 Y24.622 E0.02711
G1 X10.597 Y24.730 E0.02711
G1 X10.894 Y24.919 E0.02711
G1 X11.135 Y25.175 E0.02711
G1 X11.305 Y25.483 E0.02711
G1 X11.392 Y25.824 E0.02711
G1 X11.392 Y26.176 E0.02711
G1 X11.305 Y26.517 E0.02711
G1 X11.135 Y26.825 E0.02711
G1 X10.894 Y27.081 E0.02711
G1 X10.597 Y27.270 E0.02711
G1 X10.263 Y27.378 E0.02711
G1 X9.912 Y27.400 E0.02711
G1 X9.566 Y27.335 E0.02711
G1 X9.248 Y27.185 E0.02711
G1 X8.977 Y26.961 E0.02711
G1 X8.770 Y26.676 E0.02711
G1 X8.641 Y26.349 E0.02711
G1 X8.604 Y26.060 E0.02248
G1 X8.300 Y25.812 F15000.000
G1 X9.912 Y15.400 F15000.000
G1 X9.566 Y15.335 E0.02711 F600.000
G1 X9.248 Y15.185 E0.02711
G1 X8.977 Y14.961 E0.02711
G1 X8.770 Y14.676 E0.02711
G1 X8.641 Y14.349 E0.02711
G1 X8.597 Y14.000 E0.02711
G1 X8.641 Y13.651 E0.02711
G1 X8.770 Y13.324 E0.02711
G1 X8.977 Y13.039 E0.02711
G1 X9.248 Y12.815 E0.02711
G1 X9.566 Y12.665 E0.02711
G1 X9.912 Y12.600 E0.02711 F600.000
G1 X10.263 Y12.622 E0.02711
G1 X10.597 Y12.730 E0.02711
G1 X10.894 Y12.919 E0.02711
G1 X11.135 Y13.175 E0.02711
G1 X11.305 Y13.483 E0.02711
G1 X11.392 Y13.824 E0.02711
G1 X11.392 Y14.176 E0.02711
G1 X11.305 Y14.517 E0.02711
G1 X11.135 Y14.825 E0.02711
G1 X10.894 Y15.081 E0.02711
G1 X10.597 Y15.270 E0.02711
G1 X10.263 Y15.378 E0.02711
G1 X9.972 Y15.397 E0.02248
G1 X9.705 Y15.685 F15000.000
G1 E-3.20000 F3000.00000
G1 Z0.700 F15000.000
G1 X5.869 Y2.068 F15000.000
G1 Z0.300 F15000.000
G1 E3.20000 F3000.00000
G1 X5.377 Y2.099 E0.03803 F600.000
G1 X4.858 Y2.002 E0.04068
G1 X4.378 Y1.779 E0.04075
G1 X3.970 Y1.443 E0.04075
G1 X3.657 Y1.013 E0.04098
G1 X3.459 Y0.489 E0.04322
G1 X3.397 Y-0.000 E0.03797
G1 X3.463 Y-0.524 E0.04074
G1 X3.658 Y-1.016 E0.04072
G1 X3.948 Y-1.414 E0.03800
G1 X4.376 Y-1.778 E0.04325
G1 X4.857 Y-2.002 E0.04090
G1 X5.342 Y-2.095 E0.03802 F600.000
G1 X5.903 Y-2.064 E0.04329
G1 X6.407 Y-1.897 E0.04093
G1 X6.851 Y-1.611 E0.04074
G1 X7.209 Y-1.224 E0.04062
G1 X7.447 Y-0.791 E0.03807
G1 X7.587 Y-0.248 E0.04322
G1 X7.587 Y0.246 E0.03809
G1 X7.461 Y0.758 E0.04060
G1 X7.210 Y1.223 E0.04073
G1 X6.851 Y1.611 E0.04074
G1 X6.405 Y1.898 E0.04092
G1 X5.926 Y2.050 E0.03868
G1 X5.721 Y2.440 F15000.000
G1 E-3.20000 F3000.00000
G1 Z0.700 F15000.000
G1 X7.603 Y-2.239 F15000.000
G1 Z0.300 F15000.000
G1 E3.20000 F3000.00000
G1 X6.944 Y-2.549 E0.05609 F600.000
G1 X6.384 Y-3.013 E0.05608
G1 X5.956 Y-3.601 E0.05609
G1 X5.688 Y-4.278 E0.05608
G1 X5.597 Y-5.000 E0.05609
G1 X5.688 Y-5.722 E0.05608
G1 X5.956 Y-6.399 E0.05608
G1 X6.383 Y-6.987 E0.05609
G1 X6.944 Y-7.451 E0.05610
G1 X7.603 Y-7.761 E0.05608
G1 X8.318 Y-7.898 E0.05609 F600.000
G1 X9.044 Y-7.852 E0.05609
G1 X9.736 Y-7.627 E0.05609
G1 X10.351 Y-7.237 E0.05609
G1 X10.849 Y-6.707 E0.05609
G1 X11.199 Y-6.069 E0.05609
G1 X11.380 Y-5.364 E0.05609
G1 X11.380 Y-4.636 E0.05609
G1 X11.199 Y-3.931 E0.05609
G1 X10.849 Y-3.293 E0.05609
G1 X10.351 Y-2.763 E0.05609
G1 X9.736 Y-2.373 E0.05609
G1 X9.044 Y-2.148 E0.05609
G1 X8.318 Y-2.102 E0.05609
G1 X7.662 Y-2.228 E0.05146
G1 X7.295 Y-1.984 F15000.000
G1 E-3.20000 F3000.00000
G1 Z0.700 F15000.000
G1 X9.650 Y-12.650 F15000.000
G1 Z0.300 F15000.000
G1 E3.20000 F3000.00000
G1 X9.566 Y-12.665 E0.00654 F600.000
G1 X9.248 Y-12.815 E0.02711
G1 X8.977 Y-13.039 E0.02711
G1 X8.770 Y-13.324 E0.02711
G1 X8.641 Y-13.651 E0.02711
G1 X8.597 Y-14.000 E0.02711
G1 X8.641 Y-14.349 E0.02711
G1 X8.770 Y-14.676 E0.02711
G1 X8.977 Y-14.961 E0.02711
G1 X9.248 Y-15.185 E0.02711
G1 X9.566 Y-15.335 E0.02711
G1 X9.912 Y-15.400 E0.02711 F600.000
G1 X10.263 Y-15.378 E0.02711
G1 X10.597 Y-15.270 E0.02711
G1 X10.894 Y-15.081 E0.02711
G1 X11.135 Y-14.825 E0.02711
G1 X11.305 Y-14.517 E0.02711
G1 X11.392 Y-14.176 E0.02711
G1 X11.392 Y-13.824 E0.02711
G1 X11.305 Y-13.483 E0.02711
G1 X11.135 Y-13.175 E0.02711
G1 X10.894 Y-12.919 E0.02711
G1 X10.597 Y-12.730 E0.02711
G1 X10.263 Y-12.622 E0.02711
G1 X9.912 Y-12.600 E0.02711
G1 X9.709 Y-12.638 E0.01594
G1 X9.594 Y-12.585 F15000.000
G1 E-3.20000 F3000.00000
G1 Z0.700 F15000.000
G1 X9.912 Y-24.600 F15000.000
G1 Z0.300 F15000.000
G1 E3.20000 F3000.00000
G1 X9.566 Y-24.665 E0.02711 F600.000
G1 X9.248 Y-24.815 E0.02711
G1 X8.977 Y-25.039 E0.02711
G1 X8.770 Y-25.324 E0.02711
G1 X8.641 Y-25.651 E0.02711
G1 X8.597 Y-26.000 E0.02711
G1 X8.641 Y-26.349 E0.02711
G1 X8.770 Y-26.676 E0.02711
G1 X8.977 Y-26.961 E0.02711
G1 X9.248 Y-27.185 E0.02711
G1 X9.566 Y-27.335 E0.02711
G1 X9.912 Y-27.400 E0.02711 F600.000
G1 X10.263 Y-27.378 E0.02711
G1 X10.597 Y-27.270 E0.02711
G1 X10.894 Y-27.081 E0.02711
G1 X11.135 Y-26.825 E0.02711
G1 X11.305 Y-26.517 E0.02711
G1 X11.392 Y-26.176 E0.02711
G1 X11.392 Y-25.824 E0.02711
G1 X11.305 Y-25.483 E0.02711
G1 X11.135 Y-25.175 E0.02711
G1 X10.894 Y-24.919 E0.02711
G1 X10.597 Y-24.730 E0.02711
G1 X10.263 Y-24.622 E0.02711
G1 X9.972 Y-24.603 E0.02248
G1 X9.705 Y-24.315 F15000.000
G1 X-4.413 Y-26.754 F15000.000
G1 X-4.539 Y-26.242 E0.04060 F600.000
G1 X-4.790 Y-25.777 E0.04073
G1 X-5.149 Y-25.389 E0.04074
G1 X-5.595 Y-25.102 E0.04092
G1 X-6.131 Y-24.932 E0.04331
G1 X-6.623 Y-24.901 E0.03803
G1 X-7.142 Y-24.998 E0.04068
G1 X-7.622 Y-25.221 E0.04075
G1 X-8.030 Y-25.557 E0.04075
G1 X-8.343 Y-25.987 E0.04098
G1 X-8.541 Y-26.511 E0.04322
G1 X-8.603 Y-27.000 E0.03797
G1 X-8.537 Y-27.524 E0.04074
G1 X-8.342 Y-28.016 E0.04072
G1 X-8.052 Y-28.414 E0.03800
G1 X-7.624 Y-28.778 E0.04325
G1 X-7.143 Y-29.002 E0.04090
G1 X-6.658 Y-29.095 E0.03802 F600.000
G1 X-6.097 Y-29.064 E0.04329
G1 X-5.593 Y-28.897 E0.04093
G1 X-5.149 Y-28.611 E0.04074
G1 X-4.791 Y-28.224 E0.04062
G1 X-4.553 Y-27.791 E0.03807
G1 X-4.413 Y-27.248 E0.04322
G1 X-4.413 Y-26.814 E0.03346
G1 X-4.103 Y-26.501 F15000.000
G1 X-0.589 Y-8.372 F15000.000
G1 X0.255 Y-8.533 E0.06620 F600.000
G1 X1.163 Y-8.482 E0.07008
G1 X2.014 Y-8.204 E0.06901
G1 X2.761 Y-7.729 E0.06822
G1 X3.367 Y-7.084 E0.06823
G1 X3.795 Y-6.305 E0.06850
G1 X4.016 Y-5.444 E0.06848
G1 X4.016 Y-4.554 E0.06858
G1 X3.795 Y-3.694 E0.06840
G1 X3.363 Y-2.912 E0.06884
G1 X2.755 Y-2.266 E0.06840
G1 X2.016 Y-1.798 E0.06742
G1 X1.144 Y-1.517 E0.07059
G1 X0.285 Y-1.463 E0.06635
G1 X-0.588 Y-1.628 E0.06846
G1 X-1.394 Y-2.005 E0.06857
G1 X-2.080 Y-2.571 E0.06857
G1 X-2.607 Y-3.294 E0.06894
G1 X-2.936 Y-4.148 E0.07052
G1 X-3.044 Y-5.000 E0.06620
G1 X-2.932 Y-5.883 E0.06855
G1 X-2.604 Y-6.709 E0.06853
G1 X-2.099 Y-7.405 E0.06624
G1 X-1.398 Y-7.993 E0.07056
G1 X-0.644 Y-8.346 E0.06419
G1 X-0.392 Y-7.762 F15000.000
G1 X0.297 Y-7.894 E0.05405 F600.000
G1 X1.044 Y-7.852 E0.05766
G1 X1.740 Y-7.625 E0.05644
G1 X2.352 Y-7.235 E0.05590
G1 X2.849 Y-6.707 E0.05588
G1 X3.199 Y-6.069 E0.05611
G1 X3.381 Y-5.364 E0.05609
G1 X3.380 Y-4.635 E0.05620
G1 X3.199 Y-3.931 E0.05599
G1 X2.846 Y-3.290 E0.05642
G1 X2.347 Y-2.760 E0.05606
G1 X1.744 Y-2.378 E0.05501
G1 X1.025 Y-2.147 E0.05822
G1 X0.324 Y-2.103 E0.05410
G1 X-0.391 Y-2.237 E0.05613
G1 X-1.052 Y-2.546 E0.05617
G1 X-1.614 Y-3.010 E0.05617
G1 X-2.044 Y-3.601 E0.05630
G1 X-2.315 Y-4.304 E0.05811
G1 X-2.403 Y-5.000 E0.05404
G1 X-2.312 Y-5.723 E0.05616
G1 X-2.043 Y-6.400 E0.05616
G1 X-1.631 Y-6.968 E0.05406
G1 X-1.053 Y-7.453 E0.05813
G1 X-0.446 Y-7.737 E0.05163
G1 X-0.292 Y-8.150 F15000.000
G1 E-3.20000 F3000.00000
G1 Z0.700 F15000.000
G1 X11.464 Y-3.020 F15000.000
G1 Z0.300 F15000.000
G1 E3.20000 F3000.00000
G1 X11.464 Y12.528 E1.19822 F720.000
G1 X10.870 Y12.151 E0.05423
G1 X10.383 Y11.992 E0.03948
G1 X9.872 Y11.960 E0.03948
G1 X9.368 Y12.056 E0.03948
G1 X8.905 Y12.274 E0.03948
G1 X8.510 Y12.601 E0.03948
G1 X8.209 Y13.015 E0.03948
G1 X8.020 Y13.492 E0.03948
G1 X7.956 Y14.000 E0.03948
G1 X8.020 Y14.508 E0.03948
G1 X8.209 Y14.985 E0.03948
G1 X8.510 Y15.399 E0.03948
G1 X8.905 Y15.726 E0.03948
G1 X9.368 Y15.944 E0.03948
G1 X9.872 Y16.040 E0.03948
G1 X10.383 Y16.008 E0.03948
G1 X10.870 Y15.849 E0.03948
G1 X11.464 Y15.472 E0.05423
G1 X11.464 Y24.528 E0.69786
G1 X10.870 Y24.151 E0.05423
G1 X10.383 Y23.992 E0.03948
G1 X9.872 Y23.960 E0.03948
G1 X9.368 Y24.056 E0.03948
G1 X8.905 Y24.274 E0.03948
G1 X8.510 Y24.601 E0.03948
G1 X8.209 Y25.015 E0.03948
G1 X8.020 Y25.492 E0.03948
G1 X7.956 Y26.000 E0.03948
G1 X8.020 Y26.508 E0.03948
G1 X8.209 Y26.985 E0.03948
G1 X8.510 Y27.399 E0.03948
G1 X8.905 Y27.726 E0.03948
G1 X9.368 Y27.944 E0.03948
G1 X9.872 Y28.040 E0.03948
G1 X10.383 Y28.008 E0.03948
G1 X10.870 Y27.849 E0.03948
G1 X11.464 Y27.472 E0.05423
G1 X11.464 Y28.964 E0.11499
G1 X-4.610 Y28.964 E1.23878
G1 X-4.269 Y28.595 E0.03874
G1 X-3.941 Y27.988 E0.05315
G1 X-3.777 Y27.324 E0.05277
G1 X-3.777 Y26.671 E0.05028
G1 X-3.957 Y25.973 E0.05560
G1 X-4.271 Y25.402 E0.05022
G1 X-4.737 Y24.898 E0.05283
G1 X-5.317 Y24.525 E0.05315
G1 X-5.978 Y24.306 E0.05369
G1 X-6.701 Y24.267 E0.05582
G1 X-7.340 Y24.388 E0.05010
G1 X-7.970 Y24.682 E0.05360
G1 X-8.521 Y25.150 E0.05572
G1 X-8.903 Y25.675 E0.05002
G1 X-9.157 Y26.316 E0.05309
G1 X-9.244 Y27.000 E0.05314
G1 X-9.163 Y27.643 E0.04996
G1 X-8.908 Y28.319 E0.05565
G1 X-8.436 Y28.964 E0.06161
G1 X-11.464 Y28.964 E0.23336
G1 X-11.464 Y-28.964 E4.46431
G1 X-8.438 Y-28.964 E0.23323
G1 X-8.903 Y-28.325 E0.06095
G1 X-9.157 Y-27.684 E0.05309 F720.000
G1 X-9.244 Y-27.000 E0.05314
G1 X-9.163 Y-26.357 E0.04996
G1 X-8.908 Y-25.681 E0.05565
G1 X-8.496 Y-25.117 E0.05382
G1 X-7.963 Y-24.679 E0.05316
G1 X-7.338 Y-24.387 E0.05316
G1 X-6.662 Y-24.262 E0.05296
G1 X-6.013 Y-24.302 E0.05012
G1 X-5.322 Y-24.521 E0.05585
G1 X-4.737 Y-24.898 E0.05366
G1 X-4.269 Y-25.405 E0.05315
G1 X-3.941 Y-26.012 E0.05315
G1 X-3.777 Y-26.676 E0.05277
G1 X-3.777 Y-27.329 E0.05028
G1 X-3.957 Y-28.027 E0.05560
G1 X-4.271 Y-28.598 E0.05022
G1 X-4.610 Y-28.964 E0.03843
G1 X11.464 Y-28.964 E1.23878
G1 X11.464 Y-27.472 E0.11499
G1 X10.870 Y-27.849 E0.05423
G1 X10.383 Y-28.008 E0.03948
G1 X9.872 Y-28.040 E0.03948
G1 X9.368 Y-27.944 E0.03948
G1 X8.905 Y-27.726 E0.03948
G1 X8.510 Y-27.399 E0.03948
G1 X8.209 Y-26.985 E0.03948
G1 X8.020 Y-26.508 E0.03948
G1 X7.956 Y-26.000 E0.03948
G1 X8.020 Y-25.492 E0.03948
G1 X8.209 Y-25.015 E0.03948
G1 X8.510 Y-24.601 E0.03948
G1 X8.905 Y-24.274 E0.03948
G1 X9.368 Y-24.056 E0.03948
G1 X9.872 Y-23.960 E0.03948
G1 X10.383 Y-23.992 E0.03948
G1 X10.870 Y-24.151 E0.03948
G1 X11.464 Y-24.528 E0.05423
G1 X11.464 Y-15.472 E0.69786
G1 X10.870 Y-15.849 E0.05423
G1 X10.383 Y-16.008 E0.03948
G1 X9.872 Y-16.040 E0.03948
G1 X9.368 Y-15.944 E0.03948
G1 X8.905 Y-15.726 E0.03948
G1 X8.510 Y-15.399 E0.03948
G1 X8.209 Y-14.985 E0.03948
G1 X8.020 Y-14.508 E0.03948
G1 X7.956 Y-14.000 E0.03948
G1 X8.020 Y-13.492 E0.03948
G1 X8.209 Y-13.015 E0.03948
G1 X8.510 Y-12.601 E0.03948
G1 X8.905 Y-12.274 E0.03948
G1 X9.368 Y-12.056 E0.03948
G1 X9.872 Y-11.960 E0.03948
G1 X10.383 Y-11.992 E0.03948
G1 X10.870 Y-12.151 E0.03948
G1 X11.464 Y-12.528 E0.05423
G1 X11.464 Y-6.980 E0.42757
G1 X10.759 Y-7.731 E0.07940
G1 X10.009 Y-8.207 E0.06846
G1 X9.164 Y-8.481 E0.06846
G1 X8.277 Y-8.537 E0.06846
G1 X7.405 Y-8.371 E0.06846
G1 X6.601 Y-7.992 E0.06846
G1 X5.916 Y-7.426 E0.06847
G1 X5.394 Y-6.707 E0.06846
G1 X5.067 Y-5.881 E0.06845
G1 X4.956 Y-5.000 E0.06846
G1 X5.067 Y-4.119 E0.06847
G1 X5.394 Y-3.293 E0.06846
G1 X5.821 Y-2.705 E0.05597
G1 X5.299 Y-2.733 E0.04033
G1 X4.660 Y-2.612 E0.05010
G1 X4.030 Y-2.318 E0.05361
G1 X3.479 Y-1.850 E0.05572
G1 X3.097 Y-1.325 E0.05002
G1 X2.843 Y-0.684 E0.05309
G1 X2.756 Y-0.000 E0.05314
G1 X2.837 Y0.643 E0.04996
G1 X3.092 Y1.319 E0.05565
G1 X3.504 Y1.883 E0.05382
G1 X4.037 Y2.321 E0.05316
G1 X4.662 Y2.613 E0.05316
G1 X5.338 Y2.738 E0.05296
G1 X5.987 Y2.698 E0.05012
G1 X6.678 Y2.479 E0.05585
G1 X7.263 Y2.102 E0.05366
G1 X7.731 Y1.595 E0.05315
G1 X8.059 Y0.988 E0.05315
G1 X8.223 Y0.324 E0.05277
G1 X8.223 Y-0.329 E0.05028
G1 X8.043 Y-1.027 E0.05560
G1 X7.747 Y-1.564 E0.04721
G1 X8.277 Y-1.463 E0.04158
G1 X9.164 Y-1.519 E0.06846
G1 X10.009 Y-1.793 E0.06846
G1 X10.759 Y-2.269 E0.06846
G1 X11.423 Y-2.977 E0.07478
G1 X12.100 Y-2.977 F15000.000
G1 X12.100 Y29.600 E2.51054 F720.000
G1 X-12.100 Y29.600 E1.86499 F720.000
G1 X-12.100 Y-29.600 E4.56228
G1 X12.100 Y-29.600 E1.86499
G1 X12.100 Y-3.037 E2.04712
G1 X11.754 Y-2.777 F15000.000
G1 X11.194 Y-3.224 F15000.000
G1 X11.650 Y-3.875 E0.06128 F960.000
G1 X11.740 Y-4.596 E0.05596
G1 X11.740 Y-5.404 E0.06227
G1 X11.650 Y-6.125 E0.05596
G1 X11.194 Y-6.776 E0.06128
G1 E-3.20000 F3000.00000
G1 Z0.700 F15000.000
G1 X4.721 Y-5.819 F15000.000
G1 Z0.300 F15000.000
G1 E3.20000 F3000.00000
G1 X4.640 Y-5.506 E0.02495 F960.000
G1 X4.508 Y-5.372 E0.01450
G1 X4.485 Y-4.981 E0.03017
G1 X4.512 Y-4.555 E0.03294
G1 X4.520 Y-4.554 F15000.000
G1 X4.413 Y-2.847 E0.27700 F960.000
G1 X4.350 Y-2.835 F15000.000
G1 X3.802 Y-2.731 E0.04297 F960.000
G1 X3.187 Y-2.134 E0.06606
G1 X2.955 Y-1.874 E0.02687
G1 X2.962 Y-1.743 E0.01013
G1 X2.888 Y-1.608 E0.01187
G1 X3.146 Y-1.933 F15000.000
G1 X2.895 Y-1.856 E0.02026 F960.000
G1 X2.283 Y-1.569 E0.05210
G1 X4.643 Y-5.061 F15000.000
G1 X4.147 Y-6.286 E0.10187 F960.000
G1 X8.857 Y-28.075 F15000.000
G1 X9.238 Y-28.316 E0.03474 F960.000
G1 X9.580 Y-28.479 E0.02920
G1 X9.861 Y-28.503 E0.02171
G1 X10.453 Y-28.484 E0.04569
G1 X11.147 Y-28.377 E0.05407
G1 X8.195 Y-28.224 F15000.000
G1 X7.841 Y-28.579 E0.03877 F960.000
G1 X6.939 Y-28.579 E0.06975
G1 X8.108 Y-27.410 E0.12786
G1 X7.779 Y-26.837 E0.05111
G1 X6.037 Y-28.579 E0.19056
G1 X5.135 Y-28.579 E0.06975
G1 X7.598 Y-26.115 E0.26943
G1 X7.688 Y-25.123 E0.07702
G1 X4.233 Y-28.579 E0.37791
G1 X3.331 Y-28.579 E0.06975
G1 X11.079 Y-20.831 E0.84739
G1 X11.079 Y-21.733 E0.06975
G1 X9.130 Y-23.681 E0.21310
G1 X10.116 Y-23.598 E0.07648
G1 X11.079 Y-22.635 E0.10532
G1 X11.079 Y-19.929 F15000.000
G1 X2.429 Y-28.579 E0.94603 F960.000
G1 X1.527 Y-28.579 E0.06975
G1 X11.079 Y-19.027 E1.04468
G1 X11.079 Y-18.125 E0.06975
G1 X0.625 Y-28.579 E1.14332
G1 X-0.277 Y-28.579 E0.06975
G1 X11.079 Y-17.223 E1.24197
G1 X11.079 Y-16.321 E0.06975
G1 X-1.179 Y-28.579 E1.34061
G1 X-2.081 Y-28.579 E0.06975
G1 X10.076 Y-16.422 E1.32952
G1 X9.305 Y-16.291 E0.06046
G1 X-2.983 Y-28.579 E1.34388
G1 X-3.585 Y-28.278 E0.05200
G1 X8.705 Y-15.989 E1.34402
G1 X8.223 Y-15.569 E0.04944
G1 X-3.392 Y-27.183 E1.27019
G1 X-3.484 Y-26.374 E0.06300
