; generated by Slic3r 1.2.9 on 2017-02-02 at 12:02:50

; external perimeters extrusion width = 0.40mm
; perimeters extrusion width = 0.40mm
; infill extrusion width = 0.40mm
; solid infill extrusion width = 0.40mm
; top infill extrusion width = 0.40mm

M107
M83
T0
M116
G21 ; set units to millimeters
G90 ; use absolute coordinates
M83 ; use relative distances for extrusion
G1 E-3.20000 F3000.00000
G1 Z0.400 F15000.000
G1 X-6.017 Y-0.708 F15000.000
G1 Z0.300 F15000.000
G1 E3.20000 F3000.00000
G1 X-6.017 Y-9.053 E0.64311 F600.000
G1 X-4.088 Y-9.053 E0.14864
G1 X-4.088 Y8.876 E1.38169
G1 X-6.017 Y8.876 E0.14864 F600.000
G1 X-6.017 Y-0.648 E0.73395
G1 X-6.653 Y-0.648 F15000.000
G1 X-6.653 Y-9.688 E0.69672 F720.000
G1 X-3.453 Y-9.688 E0.24661
G1 X-3.453 Y9.512 E1.47966
G1 X-6.653 Y9.512 E0.24661 F720.000
G1 X-6.653 Y-0.588 E0.77831
G1 X-6.306 Y-0.848 F15000.000
G1 X-4.474 Y-8.358 F15000.000
G1 X-4.783 Y-8.667 E0.03497 F960.000
G1 X-5.631 Y-8.584 E0.06806
G1 X-4.474 Y-7.426 E0.13076
G1 X-4.474 Y-6.495 E0.07437
G1 X-5.631 Y-7.653 E0.13076
G1 X-5.631 Y-6.721 E0.07437
G1 X-4.474 Y-5.564 E0.13076
G1 X-4.474 Y-4.632 E0.07437
G1 X-5.631 Y-5.790 E0.13076
G1 X-5.631 Y-4.859 E0.07437
G1 X-4.474 Y-3.701 E0.13076
G1 X-4.474 Y-2.769 E0.07437
G1 X-5.631 Y-3.927 E0.13076
G1 X-5.631 Y-2.996 E0.07437
G1 X-4.474 Y-1.838 E0.13076
G1 X-4.474 Y-0.907 E0.07437
G1 X-5.631 Y-2.065 E0.13076
G1 X-5.631 Y-1.133 E0.07437
G1 X-4.474 Y0.025 E0.13076
G1 X-4.474 Y0.956 E0.07437
G1 X-5.631 Y-0.202 E0.13076
G1 X-5.631 Y0.730 E0.07437
G1 X-4.474 Y1.888 E0.13076
G1 X-4.474 Y2.819 E0.07437
G1 X-5.631 Y1.661 E0.13076
G1 X-5.631 Y2.592 E0.07437
G1 X-4.474 Y3.750 E0.13076
G1 X-4.474 Y4.682 E0.07437
G1 X-5.631 Y3.524 E0.13076
G1 X-5.631 Y4.455 E0.07437
G1 X-4.474 Y5.613 E0.13076
G1 X-4.474 Y6.545 E0.07437
G1 X-5.631 Y5.387 E0.13076
G1 X-5.631 Y6.318 E0.07437
G1 X-4.474 Y7.476 E0.13076
G1 X-4.474 Y8.407 E0.07437
G1 X-5.631 Y7.249 E0.13076
G1 X-5.631 Y8.181 E0.07437
G1 X-5.322 Y8.490 E0.03497
G1 E-3.20000 F3000.00000
G1 Z0.700 F15000.000
G1 X-16.017 Y-0.193 F15000.000
G1 Z0.300 F15000.000
G1 E3.20000 F3000.00000
G1 X-16.017 Y-9.053 E0.68282 F600.000
G1 X-14.088 Y-9.053 E0.14864
G1 X-14.088 Y8.876 E1.38169
G1 X-16.017 Y8.876 E0.14864 F600.000
G1 X-16.017 Y-0.133 E0.69425
G1 X-16.653 Y-0.133 F15000.000
G1 X-16.653 Y-9.688 E0.73643 F720.000
G1 X-13.453 Y-9.688 E0.24661
G1 X-13.453 Y9.512 E1.47966
G1 X-16.653 Y9.512 E0.24661 F720.000
G1 X-16.653 Y-0.073 E0.73861
G1 X-16.306 Y-0.333 F15000.000
G1 X-14.474 Y-8.358 F15000.000
G1 X-14.783 Y-8.667 E0.03497 F960.000
G1 X-15.631 Y-8.584 E0.06806
G1 X-14.474 Y-7.426 E0.13076
G1 X-14.474 Y-6.495 E0.07437
G1 X-15.631 Y-7.653 E0.13076
G1 X-15.631 Y-6.721 E0.07437
G1 X-14.474 Y-5.564 E0.13076
G1 X-14.474 Y-4.632 E0.07437
G1 X-15.631 Y-5.790 E0.13076
G1 X-15.631 Y-4.859 E0.07437
G1 X-14.474 Y-3.701 E0.13076
G1 X-14.474 Y-2.769 E0.07437
G1 X-15.631 Y-3.927 E0.13076
G1 X-15.631 Y-2.996 E0.07437
G1 X-14.474 Y-1.838 E0.13076
G1 X-14.474 Y-0.907 E0.07437
G1 X-15.631 Y-2.065 E0.13076
G1 X-15.631 Y-1.133 E0.07437
G1 X-14.474 Y0.025 E0.13076
G1 X-14.474 Y0.956 E0.07437
G1 X-15.631 Y-0.202 E0.13076
G1 X-15.631 Y0.730 E0.07437
G1 X-14.474 Y1.888 E0.13076
G1 X-14.474 Y2.819 E0.07437
G1 X-15.631 Y1.661 E0.13076
G1 X-15.631 Y2.592 E0.07437
G1 X-14.474 Y3.750 E0.13076
G1 X-14.474 Y4.682 E0.07437
G1 X-15.631 Y3.524 E0.13076
G1 X-15.631 Y4.455 E0.07437
G1 X-14.474 Y5.613 E0.13076
G1 X-14.474 Y6.545 E0.07437
G1 X-15.631 Y5.387 E0.13076
G1 X-15.631 Y6.318 E0.07437
G1 X-14.474 Y7.476 E0.13076
G1 X-14.474 Y8.407 E0.07437
G1 X-15.631 Y7.249 E0.13076
G1 X-15.631 Y8.181 E0.07437
G1 X-15.322 Y8.490 E0.03497
G1 E-3.20000 F3000.00000
G1 Z0.700 F15000.000
G1 X3.983 Y-0.336 F15000.000
G1 Z0.300 F15000.000
G1 E3.20000 F3000.00000
G1 X3.983 Y-9.053 E0.67177 F600.000
G1 X5.912 Y-9.053 E0.14864
G1 X5.912 Y8.876 E1.38169
G1 X3.983 Y8.876 E0.14864 F600.000
G1 X3.983 Y-0.276 E0.70530
G1 X3.347 Y-0.276 F15000.000
G1 X3.347 Y-9.688 E0.72538 F720.000
G1 X6.547 Y-9.688 E0.24661
G1 X6.547 Y9.512 E1.47966
G1 X3.347 Y9.512 E0.24661 F720.000
G1 X3.347 Y-0.216 E0.74966
G1 X3.694 Y-0.476 F15000.000
G1 X5.526 Y-8.358 F15000.000
G1 X5.217 Y-8.667 E0.03497 F960.000
G1 X4.369 Y-8.584 E0.06806
G1 X5.526 Y-7.426 E0.13076
G1 X5.526 Y-6.495 E0.07437
G1 X4.369 Y-7.653 E0.13076
G1 X4.369 Y-6.721 E0.07437
G1 X5.526 Y-5.564 E0.13076
G1 X5.526 Y-4.632 E0.07437
G1 X4.369 Y-5.790 E0.13076
G1 X4.369 Y-4.859 E0.07437
G1 X5.526 Y-3.701 E0.13076
G1 X5.526 Y-2.769 E0.07437
G1 X4.369 Y-3.927 E0.13076
G1 X4.369 Y-2.996 E0.07437
G1 X5.526 Y-1.838 E0.13076
G1 X5.526 Y-0.907 E0.07437
G1 X4.369 Y-2.065 E0.13076
G1 X4.369 Y-1.133 E0.07437
G1 X5.526 Y0.025 E0.13076
G1 X5.526 Y0.956 E0.07437
G1 X4.369 Y-0.202 E0.13076
G1 X4.369 Y0.730 E0.07437
G1 X5.526 Y1.888 E0.13076
G1 X5.526 Y2.819 E0.07437
G1 X4.369 Y1.661 E0.13076
G1 X4.369 Y2.592 E0.07437
G1 X5.526 Y3.750 E0.13076
G1 X5.526 Y4.682 E0.07437
G1 X4.369 Y3.524 E0.13076
G1 X4.369 Y4.455 E0.07437
G1 X5.526 Y5.613 E0.13076
G1 X5.526 Y6.545 E0.07437
G1 X4.369 Y5.387 E0.13076
G1 X4.369 Y6.318 E0.07437
G1 X5.526 Y7.476 E0.13076
G1 X5.526 Y8.407 E0.07437
G1 X4.369 Y7.249 E0.13076
G1 X4.369 Y8.181 E0.07437
G1 X4.678 Y8.490 E0.03497
G1 E-3.20000 F3000.00000
G1 Z0.700 F15000.000
G1 X13.983 Y0.433 F15000.000
G1 Z0.300 F15000.000
G1 E3.20000 F3000.00000
G1 X13.983 Y-9.053 E0.73101 F600.000
G1 X15.912 Y-9.053 E0.14864
G1 X15.912 Y8.876 E1.38169
G1 X13.983 Y8.876 E0.14864 F600.000
G1 X13.983 Y0.493 E0.64606
G1 X13.347 Y0.493 F15000.000
G1 X13.347 Y-9.688 E0.78461 F720.000
G1 X16.547 Y-9.688 E0.24661
G1 X16.547 Y9.512 E1.47966
G1 X13.347 Y9.512 E0.24661 F720.000
G1 X13.347 Y0.553 E0.69042
G1 X13.694 Y0.293 F15000.000
G1 X14.678 Y8.490 F15000.000
G1 X14.369 Y8.181 E0.03497 F960.000
G1 X14.369 Y7.249 E0.07437
G1 X15.526 Y8.407 E0.13076
G1 X15.526 Y7.476 E0.07437
G1 X14.369 Y6.318 E0.13076
G1 X14.369 Y5.387 E0.07437
G1 X15.526 Y6.545 E0.13076
G1 X15.526 Y5.613 E0.07437
G1 X14.369 Y4.455 E0.13076
G1 X14.369 Y3.524 E0.07437
G1 X15.526 Y4.682 E0.13076
G1 X15.526 Y3.750 E0.07437
G1 X14.369 Y2.592 E0.13076
G1 X14.369 Y1.661 E0.07437
G1 X15.526 Y2.819 E0.13076
G1 X15.526 Y1.888 E0.07437
G1 X14.369 Y0.730 E0.13076
G1 X14.369 Y-0.202 E0.07437
G1 X15.526 Y0.956 E0.13076
G1 X15.526 Y0.025 E0.07437
G1 X14.369 Y-1.133 E0.13076
G1 X14.369 Y-2.065 E0.07437
G1 X15.526 Y-0.907 E0.13076
G1 X15.526 Y-1.838 E0.07437
G1 X14.369 Y-2.996 E0.13076
G1 X14.369 Y-3.927 E0.07437
G1 X15.526 Y-2.769 E0.13076
G1 X15.526 Y-3.701 E0.07437
G1 X14.369 Y-4.859 E0.13076
G1 X14.369 Y-5.790 E0.07437
G1 X15.526 Y-4.632 E0.13076
G1 X15.526 Y-5.564 E0.07437
G1 X14.369 Y-6.721 E0.13076
G1 X14.369 Y-7.653 E0.07437
G1 X15.526 Y-6.495 E0.13076
G1 X15.526 Y-7.426 E0.07437
G1 X14.369 Y-8.584 E0.13076
G1 X15.217 Y-8.667 E0.06806
G1 X15.526 Y-8.358 E0.03497
G1 E-3.20000 F3000.00000
G1 Z0.700 F15000.000
G1 X16.017 Y21.425 F15000.000
G1 Z0.300 F15000.000
G1 E3.20000 F3000.00000
G1 X16.017 Y31.066 E0.74300 F600.000
G1 X14.088 Y31.066 E0.14864 F600.000
G1 X14.088 Y13.137 E1.38169
G1 X16.017 Y13.137 E0.14864
G1 X16.017 Y21.365 E0.63407
G1 X16.653 Y21.365 F15000.000
G1 X16.653 Y31.702 E0.79660 F720.000
G1 X13.453 Y31.702 E0.24661 F720.000
G1 X13.453 Y12.502 E1.47966
G1 X16.653 Y12.502 E0.24661
G1 X16.653 Y21.305 E0.67843
G1 X16.306 Y21.565 F15000.000
G1 X15.631 Y13.832 F15000.000
G1 X15.322 Y13.523 E0.03497 F960.000
G1 X14.474 Y13.606 E0.06806
G1 X15.631 Y14.764 E0.13076
G1 X15.631 Y15.695 E0.07437
G1 X14.474 Y14.537 E0.13076
G1 X14.474 Y15.469 E0.07437
G1 X15.631 Y16.627 E0.13076
G1 X15.631 Y17.558 E0.07437
G1 X14.474 Y16.400 E0.13076
G1 X14.474 Y17.331 E0.07437
G1 X15.631 Y18.489 E0.13076
G1 X15.631 Y19.421 E0.07437
G1 X14.474 Y18.263 E0.13076
G1 X14.474 Y19.194 E0.07437
G1 X15.631 Y20.352 E0.13076
G1 X15.631 Y21.283 E0.07437
G1 X14.474 Y20.126 E0.13076
G1 X14.474 Y21.057 E0.07437
G1 X15.631 Y22.215 E0.13076
G1 X15.631 Y23.146 E0.07437
G1 X14.474 Y21.988 E0.13076
G1 X14.474 Y22.920 E0.07437
G1 X15.631 Y24.078 E0.13076
G1 X15.631 Y25.009 E0.07437
G1 X14.474 Y23.851 E0.13076
G1 X14.474 Y24.783 E0.07437
G1 X15.631 Y25.940 E0.13076
G1 X15.631 Y26.872 E0.07437
G1 X14.474 Y25.714 E0.13076
G1 X14.474 Y26.645 E0.07437
G1 X15.631 Y27.803 E0.13076
G1 X15.631 Y28.735 E0.07437
G1 X14.474 Y27.577 E0.13076
G1 X14.474 Y28.508 E0.07437
G1 X15.631 Y29.666 E0.13076
G1 X15.631 Y30.597 E0.07437
G1 X14.474 Y29.440 E0.13076
G1 X14.474 Y30.371 E0.07437
G1 X14.783 Y30.681 E0.03497
G1 E-3.20000 F3000.00000
G1 Z0.700 F15000.000
G1 X5.673 Y22.330 F15000.000
G1 Z0.300 F15000.000
G1 E3.20000 F3000.00000
G1 X5.673 Y31.969 E0.74281 F600.000
G1 X3.744 Y31.969 E0.14864 F600.000
G1 X3.744 Y14.040 E1.38169
G1 X5.673 Y14.040 E0.14864
G1 X5.673 Y22.270 E0.63425
G1 X6.309 Y22.270 F15000.000
G1 X6.309 Y32.604 E0.79642 F720.000
G1 X3.109 Y32.604 E0.24661 F720.000
G1 X3.109 Y13.404 E1.47966
G1 X6.309 Y13.404 E0.24661
G1 X6.309 Y22.210 E0.67861
G1 X5.962 Y22.470 F15000.000
G1 X5.288 Y14.735 F15000.000
G1 X4.978 Y14.425 E0.03497 F960.000
G1 X4.130 Y14.508 E0.06806
G1 X5.288 Y15.666 E0.13076
G1 X5.288 Y16.598 E0.07437
G1 X4.130 Y15.440 E0.13076
G1 X4.130 Y16.371 E0.07437
G1 X5.288 Y17.529 E0.13076
G1 X5.288 Y18.461 E0.07437
G1 X4.130 Y17.303 E0.13076
G1 X4.130 Y18.234 E0.07437
G1 X5.288 Y19.392 E0.13076
G1 X5.288 Y20.323 E0.07437
G1 X4.130 Y19.165 E0.13076
G1 X4.130 Y20.097 E0.07437
G1 X5.288 Y21.255 E0.13076
G1 X5.288 Y22.186 E0.07437
G1 X4.130 Y21.028 E0.13076
G1 X4.130 Y21.960 E0.07437
G1 X5.288 Y23.117 E0.13076
G1 X5.288 Y24.049 E0.07437
G1 X4.130 Y22.891 E0.13076
G1 X4.130 Y23.822 E0.07437
G1 X5.288 Y24.980 E0.13076
G1 X5.288 Y25.912 E0.07437
G1 X4.130 Y24.754 E0.13076
G1 X4.130 Y25.685 E0.07437
G1 X5.288 Y26.843 E0.13076
G1 X5.288 Y27.774 E0.07437
G1 X4.130 Y26.617 E0.13076
G1 X4.130 Y27.548 E0.07437
G1 X5.288 Y28.706 E0.13076
G1 X5.288 Y29.637 E0.07437
G1 X4.130 Y28.479 E0.13076
G1 X4.130 Y29.411 E0.07437
G1 X5.288 Y30.569 E0.13076
G1 X5.288 Y31.500 E0.07437
G1 X4.130 Y30.342 E0.13076
G1 X4.130 Y31.274 E0.07437
G1 X4.439 Y31.583 E0.03497
G1 E-3.20000 F3000.00000
G1 Z0.700 F15000.000
G1 X-4.752 Y23.704 F15000.000
G1 Z0.300 F15000.000
G1 E3.20000 F3000.00000
G1 X-4.752 Y31.846 E0.62744 F600.000
G1 X-6.681 Y31.846 E0.14864 F600.000
G1 X-6.681 Y13.917 E1.38169
G1 X-4.752 Y13.917 E0.14864
G1 X-4.752 Y23.644 E0.74963
G1 X-4.117 Y23.644 F15000.000
G1 X-4.117 Y32.482 E0.68105 F720.000
G1 X-7.317 Y32.482 E0.24661 F720.000
G1 X-7.317 Y13.282 E1.47966
G1 X-4.117 Y13.282 E0.24661
G1 X-4.117 Y23.584 E0.79399
G1 X-4.463 Y23.844 F15000.000
G1 X-5.986 Y31.461 F15000.000
G1 X-6.296 Y31.151 E0.03497 F960.000
G1 X-6.296 Y30.220 E0.07437
G1 X-5.138 Y31.378 E0.13076
G1 X-5.138 Y30.446 E0.07437
G1 X-6.296 Y29.288 E0.13076
G1 X-6.296 Y28.357 E0.07437
G1 X-5.138 Y29.515 E0.13076
G1 X-5.138 Y28.583 E0.07437
G1 X-6.296 Y27.425 E0.13076
G1 X-6.296 Y26.494 E0.07437
G1 X-5.138 Y27.652 E0.13076
G1 X-5.138 Y26.721 E0.07437
G1 X-6.296 Y25.563 E0.13076
G1 X-6.296 Y24.631 E0.07437
G1 X-5.138 Y25.789 E0.13076
G1 X-5.138 Y24.858 E0.07437
G1 X-6.296 Y23.700 E0.13076
G1 X-6.296 Y22.768 E0.07437
G1 X-5.138 Y23.926 E0.13076
G1 X-5.138 Y22.995 E0.07437
G1 X-6.296 Y21.837 E0.13076
G1 X-6.296 Y20.906 E0.07437
G1 X-5.138 Y22.064 E0.13076
G1 X-5.138 Y21.132 E0.07437
G1 X-6.296 Y19.974 E0.13076
G1 X-6.296 Y19.043 E0.07437
G1 X-5.138 Y20.201 E0.13076
G1 X-5.138 Y19.269 E0.07437
G1 X-6.296 Y18.111 E0.13076
G1 X-6.296 Y17.180 E0.07437
G1 X-5.138 Y18.338 E0.13076
G1 X-5.138 Y17.407 E0.07437
G1 X-6.296 Y16.249 E0.13076
G1 X-6.296 Y15.317 E0.07437
G1 X-5.138 Y16.475 E0.13076
G1 X-5.138 Y15.544 E0.07437
G1 X-6.296 Y14.386 E0.13076
G1 X-5.448 Y14.303 E0.06806
G1 X-5.138 Y14.612 E0.03497
G1 E-3.20000 F3000.00000
G1 Z0.700 F15000.000
G1 X-13.537 Y22.966 F15000.000
G1 Z0.300 F15000.000
G1 E3.20000 F3000.00000
G1 X-13.537 Y31.540 E0.66070 F600.000
G1 X-15.466 Y31.540 E0.14864 F600.000
G1 X-15.466 Y13.611 E1.38169
G1 X-13.537 Y13.611 E0.14864
G1 X-13.537 Y22.906 E0.71636
G1 X-12.902 Y22.906 F15000.000
G1 X-12.902 Y32.175 E0.71431 F720.000
G1 X-16.102 Y32.175 E0.24661 F720.000
G1 X-16.102 Y12.975 E1.47966
G1 X-12.902 Y12.975 E0.24661
G1 X-12.902 Y22.846 E0.76072
G1 X-13.248 Y23.106 F15000.000
G1 X-14.771 Y31.154 F15000.000
G1 X-15.081 Y30.844 E0.03497 F960.000
G1 X-15.081 Y29.913 E0.07437
G1 X-13.923 Y31.071 E0.13076
G1 X-13.923 Y30.140 E0.07437
G1 X-15.081 Y28.982 E0.13076
G1 X-15.081 Y28.050 E0.07437
G1 X-13.923 Y29.208 E0.13076
G1 X-13.923 Y28.277 E0.07437
G1 X-15.081 Y27.119 E0.13076
G1 X-15.081 Y26.188 E0.07437
G1 X-13.923 Y27.345 E0.13076
G1 X-13.923 Y26.414 E0.07437
G1 X-15.081 Y25.256 E0.13076
G1 X-15.081 Y24.325 E0.07437
G1 X-13.923 Y25.483 E0.13076
G1 X-13.923 Y24.551 E0.07437
G1 X-15.081 Y23.393 E0.13076
G1 X-15.081 Y22.462 E0.07437
G1 X-13.923 Y23.620 E0.13076
G1 X-13.923 Y22.688 E0.07437
G1 X-15.081 Y21.531 E0.13076
G1 X-15.081 Y20.599 E0.07437
G1 X-13.923 Y21.757 E0.13076
G1 X-13.923 Y20.826 E0.07437
G1 X-15.081 Y19.668 E0.13076
G1 X-15.081 Y18.736 E0.07437
G1 X-13.923 Y19.894 E0.13076
G1 X-13.923 Y18.963 E0.07437
G1 X-15.081 Y17.805 E0.13076
G1 X-15.081 Y16.874 E0.07437
G1 X-13.923 Y18.031 E0.13076
G1 X-13.923 Y17.100 E0.07437
G1 X-15.081 Y15.942 E0.13076
G1 X-15.081 Y15.011 E0.07437
G1 X-13.923 Y16.169 E0.13076
G1 X-13.923 Y15.237 E0.07437
G1 X-15.081 Y14.079 E0.13076
G1 X-14.232 Y13.996 E0.06806
G1 X-13.923 Y14.306 E0.03497
G1 E-3.20000 F3000.00000
G1 Z0.700 F15000.000
G1 X-12.532 Y-23.664 F15000.000
G1 Z0.300 F15000.000
G1 E3.20000 F3000.00000
G1 X-12.532 Y-14.040 E0.74171 F600.000
G1 X-14.461 Y-14.040 E0.14864 F600.000
G1 X-14.461 Y-31.969 E1.38169
G1 X-12.532 Y-31.969 E0.14864
G1 X-12.532 Y-23.724 E0.63535
G1 X-11.897 Y-23.724 F15000.000
G1 X-11.897 Y-13.404 E0.79532 F720.000
G1 X-15.097 Y-13.404 E0.24661 F720.000
G1 X-15.097 Y-32.604 E1.47966
G1 X-11.897 Y-32.604 E0.24661
G1 X-11.897 Y-23.784 E0.67971
G1 X-12.243 Y-23.524 F15000.000
G1 X-12.918 Y-31.274 F15000.000
G1 X-13.227 Y-31.583 E0.03497 F960.000
G1 X-14.076 Y-31.500 E0.06806
G1 X-12.918 Y-30.342 E0.13076
G1 X-12.918 Y-29.411 E0.07437
G1 X-14.076 Y-30.569 E0.13076
G1 X-14.076 Y-29.637 E0.07437
G1 X-12.918 Y-28.479 E0.13076
G1 X-12.918 Y-27.548 E0.07437
G1 X-14.076 Y-28.706 E0.13076
G1 X-14.076 Y-27.774 E0.07437
G1 X-12.918 Y-26.617 E0.13076
G1 X-12.918 Y-25.685 E0.07437
G1 X-14.076 Y-26.843 E0.13076
G1 X-14.076 Y-25.912 E0.07437
G1 X-12.918 Y-24.754 E0.13076
G1 X-12.918 Y-23.822 E0.07437
G1 X-14.076 Y-24.980 E0.13076
G1 X-14.076 Y-24.049 E0.07437
G1 X-12.918 Y-22.891 E0.13076
G1 X-12.918 Y-21.960 E0.07437
G1 X-14.076 Y-23.117 E0.13076
G1 X-14.076 Y-22.186 E0.07437
G1 X-12.918 Y-21.028 E0.13076
G1 X-12.918 Y-20.097 E0.07437
G1 X-14.076 Y-21.255 E0.13076
G1 X-14.076 Y-20.323 E0.07437
G1 X-12.918 Y-19.165 E0.13076
G1 X-12.918 Y-18.234 E0.07437
G1 X-14.076 Y-19.392 E0.13076
G1 X-14.076 Y-18.461 E0.07437
G1 X-12.918 Y-17.303 E0.13076
G1 X-12.918 Y-16.371 E0.07437
G1 X-14.076 Y-17.529 E0.13076
G1 X-14.076 Y-16.598 E0.07437
G1 X-12.918 Y-15.440 E0.13076
G1 X-12.918 Y-14.508 E0.07437
G1 X-14.076 Y-15.666 E0.13076
G1 X-14.076 Y-14.735 E0.07437
G1 X-13.766 Y-14.425 E0.03497
G1 E-3.20000 F3000.00000
G1 Z0.700 F15000.000
G1 X-5.776 Y-23.291 F15000.000
G1 Z0.300 F15000.000
G1 E3.20000 F3000.00000
G1 X-5.776 Y-31.303 E0.61751 F600.000
G1 X-3.847 Y-31.303 E0.14864
G1 X-3.847 Y-13.375 E1.38169
G1 X-5.776 Y-13.375 E0.14864 F600.000
G1 X-5.776 Y-23.231 E0.75956
G1 X-6.412 Y-23.231 F15000.000
G1 X-6.412 Y-31.939 E0.67112 F720.000
G1 X-3.212 Y-31.939 E0.24661
G1 X-3.212 Y-12.739 E1.47966
G1 X-6.412 Y-12.739 E0.24661 F720.000
G1 X-6.412 Y-23.171 E0.80392
G1 X-6.065 Y-23.431 F15000.000
G1 X-4.233 Y-30.608 F15000.000
G1 X-4.542 Y-30.918 E0.03497 F960.000
G1 X-5.391 Y-30.835 E0.06806
G1 X-4.233 Y-29.677 E0.13076
G1 X-4.233 Y-28.745 E0.07437
G1 X-5.391 Y-29.903 E0.13076
G1 X-5.391 Y-28.972 E0.07437
G1 X-4.233 Y-27.814 E0.13076
G1 X-4.233 Y-26.883 E0.07437
G1 X-5.391 Y-28.041 E0.13076
G1 X-5.391 Y-27.109 E0.07437
G1 X-4.233 Y-25.951 E0.13076
G1 X-4.233 Y-25.020 E0.07437
G1 X-5.391 Y-26.178 E0.13076
G1 X-5.391 Y-25.246 E0.07437
