; generated by Slic3r 1.2.9 on 2017-01-05 at 18:03:29

; external perimeters extrusion width = 0.50mm
; perimeters extrusion width = 0.50mm
; infill extrusion width = 0.50mm
; solid infill extrusion width = 0.50mm
; top infill extrusion width = 0.50mm

M107
;Basic settings: Layer height: {layer_height} Walls: {wall_thickness} Fill: {fill_density}
;Print time: {print_time}
;Filament used: {filament_amount}m {filament_weight}g
;Filament cost: {filament_cost}
;M190 S{print_bed_temperature} ;Uncomment to add your own bed temperature line
;M109 S{print_temperature} ;Uncomment to add your own temperature line
G21        ;metric values
G90        ;absolute positioning
M83
G10 P0 S200
T0
M116


G21 ; set units to millimeters
G90 ; use absolute coordinates
M83 ; use relative distances for extrusion
G1 E-3.20000 F3000.00000
G1 Z0.400 F9000.000
G1 X7.434 Y-20.429 F9000.000
G1 Z0.300 F9000.000
G1 E3.20000 F3000.00000
G1 X14.054 Y-18.020 E0.64630 F1200.000
G1 X14.644 Y-17.744 E0.05976
G1 X28.804 Y-9.569 E1.50012
G1 X30.054 Y-8.392 E0.15755
G1 X30.645 Y-6.780 E0.15755
G1 X30.171 Y-4.467 E0.21664
G1 X15.221 Y21.428 E2.74340
G1 X14.043 Y22.678 E0.15755
G1 X12.545 Y23.254 E0.14731
G1 X-23.088 Y28.644 E3.30647
G1 X-23.646 Y28.686 E0.05141
G1 X-26.954 Y28.686 E0.30348
G1 X-28.625 Y28.291 E0.15755
G1 X-29.943 Y27.190 E0.15755
G1 X-30.690 Y24.950 E0.21667
G1 X-30.690 Y-24.950 E4.57835
G1 X-30.295 Y-26.621 E0.15755
G1 X-29.195 Y-27.939 E0.15755
G1 X-26.954 Y-28.686 E0.21667
G1 X-23.646 Y-28.686 E0.30348
G1 X-22.870 Y-28.604 E0.07165
G1 X-4.277 Y-24.652 E1.74397 F1200.000
G1 X-3.777 Y-24.508 E0.04780
G1 X7.378 Y-20.449 E1.08911
G1 E-3.20000 F3000.00000
G1 Z0.700 F9000.000
G1 X8.213 Y8.724 F9000.000
G1 Z0.300 F9000.000
G1 E3.20000 F3000.00000
G1 X8.617 Y8.758 E0.03721 F900.000
G1 X9.124 Y8.921 E0.04891
G1 X9.506 Y9.127 E0.03978
G1 X10.145 Y9.652 E0.07583
G1 X10.612 Y10.229 E0.06816
G1 X10.900 Y10.721 E0.05231
G1 X11.149 Y11.371 E0.06382
G1 X11.238 Y11.857 E0.04533
G1 X11.245 Y12.259 E0.03689
G1 X11.187 Y12.630 E0.03451
G1 X11.074 Y12.966 E0.03254
G1 X10.822 Y13.388 E0.04508
G1 X10.385 Y13.772 E0.05335
G1 X9.854 Y13.986 E0.05255
G1 X9.371 Y14.032 E0.04456
G1 X8.920 Y13.974 E0.04172
G1 X8.441 Y13.811 E0.04645
G1 X7.938 Y13.522 E0.05319
G1 X7.513 Y13.164 E0.05096
G1 X7.090 Y12.651 E0.06102
G1 X6.846 Y12.247 E0.04330
G1 X6.643 Y11.792 E0.04570
G1 X6.480 Y11.186 E0.05757
G1 X6.439 Y10.669 E0.04757
G1 X6.491 Y10.187 E0.04449
G1 X6.664 Y9.682 E0.04900
G1 X7.018 Y9.201 E0.05482
G1 X7.412 Y8.923 E0.04426
G1 X7.803 Y8.775 E0.03835
G1 X8.153 Y8.731 E0.03233 F900.000
G1 X8.227 Y9.464 F9000.000
G1 X8.471 Y9.484 E0.02253 F900.000
G1 X8.835 Y9.601 E0.03506
G1 X9.094 Y9.741 E0.02701
G1 X9.620 Y10.172 E0.06237
G1 X10.005 Y10.649 E0.05622
G1 X10.235 Y11.041 E0.04173
G1 X10.438 Y11.570 E0.05201
G1 X10.503 Y11.929 E0.03346
G1 X10.508 Y12.208 E0.02560
G1 X10.470 Y12.456 E0.02300
G1 X10.402 Y12.657 E0.01945
G1 X10.250 Y12.912 E0.02726
G1 X9.994 Y13.137 E0.03130
G1 X9.678 Y13.264 E0.03119
G1 X9.383 Y13.292 E0.02722
G1 X9.087 Y13.254 E0.02737
G1 X8.746 Y13.138 E0.03312
G1 X8.362 Y12.917 E0.04063
G1 X8.038 Y12.644 E0.03883
G1 X7.691 Y12.225 E0.04989
G1 X7.500 Y11.906 E0.03415
G1 X7.339 Y11.545 E0.03626
G1 X7.208 Y11.061 E0.04604
G1 X7.178 Y10.680 E0.03509
G1 X7.214 Y10.347 E0.03065
G1 X7.323 Y10.027 E0.03105
G1 X7.540 Y9.733 E0.03350
G1 X7.760 Y9.578 E0.02478
G1 X7.981 Y9.494 E0.02166
G1 X8.167 Y9.471 E0.01719 F900.000
G1 X8.353 Y9.253 F9000.000
G1 X16.563 Y-3.325 F9000.000
G1 X16.196 Y-3.566 E0.04024 F900.000
G1 X15.886 Y-3.867 E0.03973
G1 X15.665 Y-4.184 E0.03541
G1 X15.504 Y-4.564 E0.03784
G1 X15.440 Y-4.960 E0.03682
G1 X15.466 Y-5.376 E0.03824
G1 X15.673 Y-5.932 E0.05448
G1 X16.050 Y-6.386 E0.05419
G1 X16.353 Y-6.620 E0.03508
G1 X16.675 Y-6.804 E0.03400
G1 X17.139 Y-6.983 E0.04565
G1 X17.564 Y-7.081 E0.04002
G1 X18.122 Y-7.132 E0.05138 F900.000
G1 X18.713 Y-7.092 E0.05435
G1 X19.074 Y-7.029 E0.03370
G1 X19.472 Y-6.906 E0.03816
G1 X19.730 Y-6.794 E0.02583
G1 X20.185 Y-6.529 E0.04835
G1 X20.566 Y-6.197 E0.04632
G1 X20.831 Y-5.849 E0.04012
G1 X21.023 Y-5.459 E0.03990
G1 X21.120 Y-4.874 E0.05440
G1 X21.060 Y-4.442 E0.04000
G1 X20.912 Y-4.048 E0.03866
G1 X20.554 Y-3.566 E0.05505
G1 X20.050 Y-3.204 E0.05700
G1 X19.442 Y-2.967 E0.05989
G1 X18.738 Y-2.855 E0.06532
G1 X18.168 Y-2.859 E0.05232
G1 X17.434 Y-2.975 E0.06817
G1 X16.613 Y-3.292 E0.08078
G1 X16.981 Y-3.930 F9000.000
G1 X16.658 Y-4.142 E0.03543 F900.000
G1 X16.449 Y-4.346 E0.02679
G1 X16.313 Y-4.541 E0.02189
G1 X16.216 Y-4.769 E0.02270
G1 X16.179 Y-4.996 E0.02112
G1 X16.193 Y-5.221 E0.02068
G1 X16.318 Y-5.558 E0.03298
G1 X16.564 Y-5.854 E0.03525
G1 X16.762 Y-6.007 E0.02298
G1 X16.991 Y-6.138 E0.02419
G1 X17.355 Y-6.278 E0.03578
G1 X17.681 Y-6.353 E0.03067
G1 X18.130 Y-6.394 E0.04141 F900.000
G1 X18.625 Y-6.360 E0.04551
G1 X18.902 Y-6.312 E0.02580
G1 X19.216 Y-6.215 E0.03020
G1 X19.398 Y-6.136 E0.01817
G1 X19.754 Y-5.929 E0.03780
G1 X20.026 Y-5.692 E0.03307
G1 X20.203 Y-5.459 E0.02681
G1 X20.316 Y-5.231 E0.02337
G1 X20.376 Y-4.865 E0.03405
G1 X20.343 Y-4.624 E0.02228
G1 X20.260 Y-4.403 E0.02168
G1 X20.032 Y-4.097 E0.03501
G1 X19.696 Y-3.855 E0.03800
G1 X19.248 Y-3.681 E0.04406
G1 X18.683 Y-3.591 E0.05253
G1 X18.228 Y-3.594 E0.04174
G1 X17.623 Y-3.690 E0.05622
G1 X17.037 Y-3.909 E0.05736
G1 X16.650 Y-3.732 F9000.000
G1 X13.079 Y15.396 F9000.000
G1 X11.570 Y18.009 E0.27681 F900.000
G1 X-0.622 Y10.969 E1.29173
G1 X13.192 Y-12.958 E2.53495
G1 X25.385 Y-5.919 E1.29173
G1 X13.109 Y15.344 E2.25263 F900.000
G1 X13.746 Y15.712 F9000.000
G1 X11.839 Y19.014 E0.34981 F900.000
G1 X-1.627 Y11.239 E1.42672
G1 X12.923 Y-13.963 E2.66994
G1 X26.389 Y-6.188 E1.42672
G1 X13.776 Y15.660 E2.31462 F900.000
G1 X13.346 Y15.712 F9000.000
G1 X11.297 Y10.318 F9000.000
G1 X13.998 Y13.019 E0.35182 F900.000
G1 X13.616 Y13.681 E0.07041
G1 X11.688 Y11.754 E0.25109
G1 X11.593 Y12.703 E0.08785
G1 X13.234 Y14.343 E0.21371
G1 X12.851 Y15.005 E0.07041
G1 X11.261 Y13.415 E0.20711
G1 X10.758 Y13.957 E0.06806
G1 X12.469 Y15.668 E0.22283
G1 X12.087 Y16.330 E0.07041
G1 X10.084 Y14.327 E0.26082
G1 X9.197 Y14.484 E0.08299
G1 X11.705 Y16.992 E0.32660
G1 X10.326 Y16.657 E0.13065
G1 X7.666 Y13.997 E0.34651
G1 X7.855 Y15.231 E0.11496
G1 X1.208 Y8.584 E0.86584
G1 X1.590 Y7.921 E0.07041
G1 X6.634 Y12.966 E0.65707
G1 X5.384 Y13.804 F9000.000
G1 X0.825 Y9.246 E0.59378 F900.000
G1 X0.443 Y9.908 E0.07041
G1 X2.913 Y12.378 E0.32173
G1 X0.442 Y10.951 F9000.000
G1 X0.061 Y10.570 E0.04967 F900.000
G1 X6.027 Y11.314 F9000.000
G1 X1.972 Y7.259 E0.52815 F900.000
G1 X2.354 Y6.597 E0.07041
G1 X6.044 Y10.287 E0.48061
G1 X6.311 Y9.509 E0.07574
G1 X2.737 Y5.935 E0.46550
G1 X3.119 Y5.273 E0.07041
G1 X6.757 Y8.911 E0.47383
G1 X7.390 Y8.499 E0.06952
G1 X3.501 Y4.611 E0.50647
G1 X3.883 Y3.949 E0.07041
G1 X8.223 Y8.288 E0.56522
G1 X9.487 Y8.508 E0.11816
G1 X4.266 Y3.287 E0.68007
G1 X4.648 Y2.625 E0.07041
G1 X14.380 Y12.357 E1.26768
G1 X14.763 Y11.695 E0.07041
G1 X5.030 Y1.963 E1.26768
G1 X5.413 Y1.301 E0.07041
G1 X15.145 Y11.033 E1.26768
G1 X15.527 Y10.371 E0.07041
G1 X5.795 Y0.639 E1.26768
G1 X6.177 Y-0.023 E0.07041
G1 X15.909 Y9.709 E1.26768
G1 X16.292 Y9.047 E0.07041
G1 X6.559 Y-0.686 E1.26768
G1 X6.942 Y-1.348 E0.07041
G1 X16.674 Y8.385 E1.26768
G1 X17.056 Y7.723 E0.07041
G1 X7.324 Y-2.010 E1.26768
G1 X7.706 Y-2.672 E0.07041
G1 X17.438 Y7.061 E1.26768
G1 X17.821 Y6.398 E0.07041
G1 X8.088 Y-3.334 E1.26768
G1 X8.471 Y-3.996 E0.07041
G1 X18.203 Y5.736 E1.26768
G1 X18.585 Y5.074 E0.07041
G1 X8.853 Y-4.658 E1.26768
G1 X9.235 Y-5.320 E0.07041
G1 X18.967 Y4.412 E1.26768
G1 X19.350 Y3.750 E0.07041
G1 X9.617 Y-5.982 E1.26768
G1 X10.000 Y-6.644 E0.07041
G1 X19.732 Y3.088 E1.26768
G1 X20.114 Y2.426 E0.07041
G1 X10.382 Y-7.306 E1.26768
G1 X10.764 Y-7.968 E0.07041
G1 X20.496 Y1.764 E1.26768
G1 X23.172 Y-2.871 F9000.000
G1 X21.506 Y-4.536 E0.21697 F900.000
G1 X21.205 Y-3.793 E0.07386
G1 X22.790 Y-2.209 E0.20640
G1 X22.408 Y-1.546 E0.07041
G1 X20.735 Y-3.219 E0.21787
G1 X20.114 Y-2.796 E0.06922
G1 X22.025 Y-0.884 E0.24897
G1 X21.643 Y-0.222 E0.07041
G1 X19.346 Y-2.519 E0.29920
G1 X18.414 Y-2.407 E0.08648
G1 X21.261 Y0.440 E0.37084
G1 X20.879 Y1.102 E0.07041
G1 X17.255 Y-2.521 E0.47195
G1 X14.988 Y-4.788 F9000.000
G1 X11.146 Y-8.630 E0.50045 F900.000
G1 X11.529 Y-9.293 E0.07041
G1 X15.145 Y-5.676 E0.47112
G1 X15.517 Y-6.348 E0.07078
G1 X11.911 Y-9.955 E0.46975
G1 X12.293 Y-10.617 E0.07041
G1 X16.042 Y-6.868 E0.48829
G1 X16.706 Y-7.248 E0.07048
G1 X12.675 Y-11.279 E0.52498
G1 X13.058 Y-11.941 E0.07041
G1 X17.503 Y-7.496 E0.57899
G1 X18.474 Y-7.569 F9000.000
G1 X14.436 Y-11.607 E0.52594 F900.000
G1 X16.907 Y-10.180 F9000.000
G1 X19.738 Y-7.349 E0.36873 F900.000
G1 X19.378 Y-8.753 E0.13352
G1 X23.937 Y-4.195 E0.59379
G1 X23.554 Y-3.533 E0.07041
G1 X21.483 Y-5.604 E0.26984
G1 X21.849 Y-7.327 F9000.000
G1 X24.319 Y-4.857 E0.32173 F900.000
G1 X24.320 Y-5.900 E0.09611
G1 X24.701 Y-5.519 E0.04968
G1 E-3.20000 F3000.00000
G1 Z0.700 F9000.000
G1 X-21.002 Y19.207 F9000.000
G1 Z0.300 F9000.000
G1 E3.20000 F3000.00000
G1 X-20.868 Y19.730 E0.04953 F900.000
G1 X-20.868 Y20.270 E0.04953
G1 X-21.002 Y20.793 E0.04953
G1 X-21.262 Y21.266 E0.04953
G1 X-21.631 Y21.659 E0.04953
G1 X-22.087 Y21.949 E0.04953
G1 X-22.601 Y22.115 E0.04953
G1 X-23.139 Y22.149 E0.04953
G1 X-23.670 Y22.048 E0.04953
G1 X-24.158 Y21.818 E0.04953
G1 X-24.574 Y21.474 E0.04953
G1 X-24.891 Y21.037 E0.04953
G1 X-25.090 Y20.536 E0.04953
G1 X-25.158 Y20.000 E0.04953
G1 X-25.090 Y19.464 E0.04953
G1 X-24.891 Y18.963 E0.04953
G1 X-24.574 Y18.526 E0.04953
G1 X-24.158 Y18.182 E0.04953
G1 X-23.670 Y17.952 E0.04953
G1 X-23.139 Y17.851 E0.04953 F900.000
G1 X-22.601 Y17.885 E0.04953
G1 X-22.087 Y18.051 E0.04953
G1 X-21.631 Y18.341 E0.04953
G1 X-21.262 Y18.734 E0.04953
G1 X-21.031 Y19.155 E0.04402
G1 X-20.609 Y19.282 F9000.000
G1 E-3.20000 F3000.00000
G1 Z0.700 F9000.000
G1 X-23.139 Y-17.851 F9000.000
G1 Z0.300 F9000.000
G1 E3.20000 F3000.00000
G1 X-23.670 Y-17.952 E0.04953 F900.000
G1 X-24.158 Y-18.182 E0.04953
G1 X-24.574 Y-18.526 E0.04953
G1 X-24.891 Y-18.963 E0.04953
G1 X-25.090 Y-19.464 E0.04953
G1 X-25.158 Y-20.000 E0.04953
G1 X-25.090 Y-20.536 E0.04953
G1 X-24.891 Y-21.037 E0.04953
G1 X-24.574 Y-21.474 E0.04953
G1 X-24.158 Y-21.818 E0.04953
G1 X-23.670 Y-22.048 E0.04953
G1 X-23.139 Y-22.149 E0.04953 F900.000
G1 X-22.601 Y-22.115 E0.04953
G1 X-22.087 Y-21.949 E0.04953
G1 X-21.631 Y-21.659 E0.04953
G1 X-21.262 Y-21.266 E0.04953
G1 X-21.002 Y-20.793 E0.04953
G1 X-20.868 Y-20.270 E0.04953
G1 X-20.868 Y-19.730 E0.04953
G1 X-21.002 Y-19.207 E0.04953
G1 X-21.262 Y-18.734 E0.04953
G1 X-21.631 Y-18.341 E0.04953
G1 X-22.087 Y-18.051 E0.04953
G1 X-22.601 Y-17.885 E0.04953
G1 X-23.079 Y-17.854 E0.04402
G1 X-23.374 Y-17.527 F9000.000
G1 X-22.001 Y-11.186 F9000.000
G1 X-25.818 Y-11.186 E0.35025 F900.000
G1 X-25.818 Y-18.468 E0.66819
G1 X-25.514 Y-18.567 E0.02942
G1 X-25.115 Y-18.018 E0.06228
G1 X-24.555 Y-17.556 E0.06658
G1 X-23.899 Y-17.247 E0.06658
G1 X-23.186 Y-17.111 E0.06658
G1 X-22.462 Y-17.156 E0.06658
G1 X-21.771 Y-17.380 E0.06658
G1 X-21.159 Y-17.769 E0.06658
G1 X-20.662 Y-18.298 E0.06658
G1 X-20.312 Y-18.934 E0.06658
G1 X-20.132 Y-19.637 E0.06658
G1 X-20.132 Y-20.363 E0.06658
G1 X-20.312 Y-21.066 E0.06658
G1 X-20.662 Y-21.702 E0.06658
G1 X-21.159 Y-22.231 E0.06658
G1 X-21.771 Y-22.620 E0.06658
G1 X-22.462 Y-22.844 E0.06658
G1 X-23.186 Y-22.889 E0.06658
G1 X-23.899 Y-22.753 E0.06658
G1 X-24.555 Y-22.444 E0.06658
G1 X-25.115 Y-21.982 E0.06658
G1 X-25.514 Y-21.433 E0.06228
G1 X-25.818 Y-21.532 E0.02942
G1 X-25.818 Y-23.814 E0.20944
G1 X-23.766 Y-23.814 E0.18834
G1 X-6.190 Y-20.078 E1.64864
G1 X-6.190 Y20.078 E3.68442 F900.000
G1 X-23.766 Y23.814 E1.64864
G1 X-25.818 Y23.814 E0.18834
G1 X-25.818 Y21.532 E0.20944
G1 X-25.514 Y21.433 E0.02942
G1 X-25.115 Y21.982 E0.06228
G1 X-24.555 Y22.444 E0.06658
G1 X-23.899 Y22.753 E0.06658
G1 X-23.186 Y22.889 E0.06658
G1 X-22.462 Y22.844 E0.06658
G1 X-21.771 Y22.620 E0.06658
G1 X-21.159 Y22.231 E0.06658
G1 X-20.662 Y21.702 E0.06658
G1 X-20.312 Y21.066 E0.06658
G1 X-20.132 Y20.363 E0.06658
G1 X-20.132 Y19.637 E0.06658
G1 X-20.312 Y18.934 E0.06658
G1 X-20.662 Y18.298 E0.06658
G1 X-21.159 Y17.769 E0.06658
G1 X-21.771 Y17.380 E0.06658
G1 X-22.462 Y17.156 E0.06658
G1 X-23.186 Y17.111 E0.06658
G1 X-23.899 Y17.247 E0.06658
G1 X-24.555 Y17.556 E0.06658
G1 X-25.115 Y18.018 E0.06658
G1 X-25.514 Y18.567 E0.06228
G1 X-25.818 Y18.468 E0.02942
G1 X-25.818 Y11.186 E0.66819
G1 X-7.818 Y11.186 E1.65151
G1 X-7.818 Y-11.186 E2.05257
G1 X-21.941 Y-11.186 E1.29576
G1 X-21.941 Y-10.450 F9000.000
G1 X-26.554 Y-10.450 E0.42324 F900.000
G1 X-26.554 Y-24.550 E1.29368
G1 X-23.688 Y-24.550 E0.26293
G1 X-23.621 Y-24.536 E0.00635
G1 X-5.454 Y-20.674 E1.70403 F900.000
G1 X-5.454 Y20.674 E3.79373
G1 X-23.688 Y24.550 E1.71039
G1 X-26.554 Y24.550 E0.26293
G1 X-26.554 Y10.450 E1.29368
G1 X-8.554 Y10.450 E1.65151
G1 X-8.554 Y-10.450 E1.91759
G1 X-21.881 Y-10.450 E1.22276
G1 X-22.141 Y-10.796 F9000.000
G1 X-25.017 Y-11.635 F9000.000
G1 X-25.369 Y-11.987 E0.04591 F900.000
G1 X-25.369 Y-13.032 E0.09642
G1 X-23.972 Y-11.635 E0.18227
G1 X-22.926 Y-11.635 E0.09642
G1 X-25.369 Y-14.078 E0.31863
G1 X-25.369 Y-15.124 E0.09642
G1 X-21.880 Y-11.635 E0.45498
G1 X-20.835 Y-11.635 E0.09642
G1 X-25.369 Y-16.169 E0.59134
G1 X-25.369 Y-17.215 E0.09642
G1 X-19.789 Y-11.635 E0.72769
G1 X-18.744 Y-11.635 E0.09642
G1 X-23.858 Y-16.749 E0.66694
G1 X-22.760 Y-16.697 E0.10134
G1 X-17.698 Y-11.635 E0.66014
G1 X-16.653 Y-11.635 E0.09642
G1 X-21.920 Y-16.903 E0.68696
G1 X-21.233 Y-17.261 E0.07148
G1 X-15.607 Y-11.635 E0.73366
G1 X-14.561 Y-11.635 E0.09642
G1 X-20.662 Y-17.736 E0.79564
G1 X-20.201 Y-18.320 E0.06865
G1 X-13.516 Y-11.635 E0.87184
G1 X-12.470 Y-11.635 E0.09642
G1 X-19.860 Y-19.025 E0.96375
G1 X-19.683 Y-19.893 E0.08170
G1 X-11.425 Y-11.635 E1.07694
G1 X-10.379 Y-11.635 E0.09642
G1 X-19.801 Y-21.057 E1.22875
G1 X-20.275 Y-22.577 E0.14678
G1 X-9.333 Y-11.635 E1.42692
G1 X-8.288 Y-11.635 E0.09642
G1 X-18.947 Y-22.294 E1.39011
G1 X-17.620 Y-22.012 E0.12518
G1 X-7.610 Y-12.003 E1.30534
G1 X-6.639 Y-12.077 E0.08982
G1 X-16.292 Y-21.730 E1.25883
G1 X-14.964 Y-21.448 E0.12518
G1 X-6.639 Y-13.123 E1.08567
G1 X-6.639 Y-14.168 E0.09642
G1 X-13.636 Y-21.165 E0.91250
G1 X-12.308 Y-20.883 E0.12518
G1 X-6.639 Y-15.214 E0.73934
G1 X-6.639 Y-16.259 E0.09642
G1 X-10.980 Y-20.601 E0.56618
G1 X-9.653 Y-20.319 E0.12518
G1 X-6.639 Y-17.305 E0.39302
G1 X-6.639 Y-18.351 E0.09642
G1 X-8.325 Y-20.036 E0.21986
G1 X-6.997 Y-19.754 E0.12518
G1 X-6.639 Y-19.396 E0.04670
G1 X-7.004 Y-11.553 F9000.000
G1 X-7.004 Y11.553 E4.42567 F600.000
G1 X-6.639 Y12.355 F9000.000
G1 X-6.991 Y12.003 E0.04591 F900.000
G1 X-8.036 Y12.003 E0.09637
G1 X-6.639 Y13.400 E0.18219
G1 X-6.639 Y14.445 E0.09637
G1 X-9.449 Y11.635 E0.36642
G1 X-10.495 Y11.635 E0.09637
G1 X-6.639 Y15.491 E0.50271
G1 X-6.639 Y16.536 E0.09637
G1 X-11.540 Y11.635 E0.63899
G1 X-12.585 Y11.635 E0.09637
G1 X-6.639 Y17.581 E0.77527
G1 X-6.639 Y18.627 E0.09637
G1 X-13.631 Y11.635 E0.91155
G1 X-14.676 Y11.635 E0.09637
G1 X-6.639 Y19.672 E1.04784
G1 X-7.441 Y19.915 E0.07728
G1 X-15.721 Y11.635 E1.07953
G1 X-16.767 Y11.635 E0.09637
G1 X-8.303 Y20.098 E1.10342
G1 X-9.165 Y20.281 E0.08125
G1 X-17.812 Y11.635 E1.12731
G1 X-18.857 Y11.635 E0.09637
G1 X-10.027 Y20.465 E1.15120
G1 X-10.889 Y20.648 E0.08125
G1 X-19.902 Y11.635 E1.17509
G1 X-20.948 Y11.635 E0.09637
G1 X-11.752 Y20.831 E1.19898
G1 X-12.614 Y21.014 E0.08125
G1 X-21.993 Y11.635 E1.22287
G1 X-23.038 Y11.635 E0.09637
G1 X-13.476 Y21.198 E1.24676
G1 X-14.338 Y21.381 E0.08125
G1 X-24.084 Y11.635 E1.27065
G1 X-25.129 Y11.635 E0.09637
G1 X-15.200 Y21.564 E1.29454
G1 X-16.062 Y21.747 E0.08125
G1 X-25.369 Y12.440 E1.21347
G1 X-25.369 Y13.485 E0.09637
G1 X-22.117 Y16.737 E0.42396
G1 X-23.214 Y16.686 E0.10121
G1 X-25.369 Y14.530 E0.28099
G1 X-25.369 Y15.576 E0.09637
G1 X-24.061 Y16.884 E0.17052
G1 X-24.763 Y17.227 E0.07203
G1 X-25.369 Y16.621 E0.07902
G1 X-19.763 Y19.091 F9000.000
G1 X-16.924 Y21.931 E0.37017 F900.000
G1 X-17.786 Y22.114 E0.08125
G1 X-19.683 Y20.217 E0.24728
