; generated by Slic3r 1.2.9 on 2017-01-09 at 12:39:41

; external perimeters extrusion width = 0.50mm
; perimeters extrusion width = 0.50mm
; infill extrusion width = 0.50mm
; solid infill extrusion width = 0.50mm
; top infill extrusion width = 0.50mm

M107
;Basic settings: Layer height: {layer_height} Walls: {wall_thickness} Fill: {fill_density}
;Print time: {print_time}
;Filament used: {filament_amount}m {filament_weight}g
;Filament cost: {filament_cost}
;M190 S{print_bed_temperature} ;Uncomment to add your own bed temperature line
;M109 S{print_temperature} ;Uncomment to add your own temperature line
G21        ;metric values
G90        ;absolute positioning
M83
G10 P0 S200
T0
M116


G21 ; set units to millimeters
G90 ; use absolute coordinates
M83 ; use relative distances for extrusion
G1 E-3.20000 F3000.00000
G1 Z0.400 F9000.000
G1 X-0.000 Y16.186 F9000.000
G1 Z0.300 F9000.000
G1 E3.20000 F3000.00000
G1 X-47.516 Y16.186 E4.35959 F1200.000
G1 X-49.187 Y15.791 E0.15755
G1 X-50.505 Y14.690 E0.15755
G1 X-51.251 Y12.450 E0.21667
G1 X-51.251 Y-12.450 E2.28459
G1 X-50.857 Y-14.121 E0.15755
G1 X-49.756 Y-15.439 E0.15755
G1 X-47.516 Y-16.186 E0.21667
G1 X32.414 Y-16.186 E7.33355
G1 X34.085 Y-15.791 E0.15755 F1200.000
G1 X35.055 Y-15.091 E0.10975
G1 X50.126 Y-0.021 E1.95549
G1 X51.028 Y1.440 E0.15755
G1 X51.182 Y3.150 E0.15755
G1 X50.555 Y4.748 E0.15755
G1 X49.798 Y5.553 E0.10133
G1 X37.341 Y15.383 E1.45590
G1 X35.027 Y16.186 E0.22473
G1 X0.060 Y16.186 E3.20826
G1 E-3.20000 F3000.00000
G1 Z0.700 F9000.000
G1 X23.782 Y9.408 F9000.000
G1 Z0.300 F9000.000
G1 E3.20000 F3000.00000
G1 X23.726 Y8.973 E0.04027 F900.000
G1 X23.780 Y8.543 E0.03977
G1 X23.945 Y8.123 E0.04134
G1 X24.200 Y7.773 E0.03972
G1 X24.545 Y7.488 E0.04111
G1 X24.935 Y7.305 E0.03953
G1 X25.361 Y7.222 E0.03976 F900.000
G1 X25.823 Y7.253 E0.04248
G1 X26.220 Y7.382 E0.03834
G1 X26.604 Y7.625 E0.04169
G1 X26.903 Y7.947 E0.04033
G1 X27.105 Y8.316 E0.03861
G1 X27.220 Y8.760 E0.04200
G1 X27.219 Y9.195 E0.03993
G1 X27.112 Y9.612 E0.03956
G1 X26.902 Y9.997 E0.04019
G1 X26.584 Y10.331 E0.04228
G1 X26.232 Y10.554 E0.03826
G1 X25.807 Y10.694 E0.04105
G1 X25.373 Y10.721 E0.03996
G1 X24.950 Y10.642 E0.03943
G1 X24.540 Y10.452 E0.04144
G1 X24.191 Y10.157 E0.04196
G1 X23.944 Y9.817 E0.03858
G1 X23.804 Y9.464 E0.03483
G1 X23.401 Y9.285 F9000.000
G1 E-3.20000 F3000.00000
G1 Z0.700 F9000.000
G1 X31.797 Y11.314 F9000.000
G1 Z0.300 F9000.000
G1 E3.20000 F3000.00000
G1 X27.002 Y11.314 E0.44001 F900.000
G1 X26.909 Y10.996 E0.03041
G1 X27.055 Y10.903 E0.01586
G1 X27.501 Y10.434 E0.05945
G1 X27.801 Y9.884 E0.05745
G1 X27.954 Y9.289 E0.05640
G1 X27.956 Y8.667 E0.05702
G1 X27.795 Y8.043 E0.05916
G1 X27.504 Y7.513 E0.05543
G1 X27.078 Y7.055 E0.05738
G1 X26.536 Y6.711 E0.05893
G1 X25.963 Y6.525 E0.05528
G1 X25.314 Y6.482 E0.05963
G1 X24.705 Y6.600 E0.05691
G1 X24.148 Y6.862 E0.05645
G1 X23.659 Y7.265 E0.05818
G1 X23.295 Y7.767 E0.05688
G1 X23.061 Y8.360 E0.05846
G1 X22.985 Y8.974 E0.05676
G1 X23.063 Y9.593 E0.05730
G1 X23.294 Y10.174 E0.05738
G1 X23.648 Y10.662 E0.05525
G1 X24.421 Y11.314 E0.09283
G1 X2.002 Y11.314 E2.05699
G1 X1.909 Y10.996 E0.03041
G1 X2.055 Y10.903 E0.01587
G1 X2.501 Y10.434 E0.05944
G1 X2.801 Y9.884 E0.05746
G1 X2.954 Y9.289 E0.05640
G1 X2.956 Y8.667 E0.05702
G1 X2.795 Y8.043 E0.05916
G1 X2.504 Y7.513 E0.05543
G1 X2.078 Y7.055 E0.05738
G1 X1.536 Y6.711 E0.05893
G1 X0.963 Y6.525 E0.05528
G1 X0.314 Y6.482 E0.05964
G1 X-0.295 Y6.600 E0.05691
G1 X-0.852 Y6.862 E0.05645
G1 X-1.341 Y7.265 E0.05818
G1 X-1.705 Y7.767 E0.05688
G1 X-1.939 Y8.360 E0.05846
G1 X-2.015 Y8.974 E0.05676
G1 X-1.937 Y9.593 E0.05729
G1 X-1.706 Y10.174 E0.05738
G1 X-1.352 Y10.662 E0.05525
G1 X-0.579 Y11.314 E0.09283
G1 X-22.998 Y11.314 E2.05699
G1 X-23.091 Y10.996 E0.03041
G1 X-22.945 Y10.903 E0.01586
G1 X-22.499 Y10.434 E0.05944
G1 X-22.199 Y9.884 E0.05746
G1 X-22.046 Y9.289 E0.05640
G1 X-22.044 Y8.667 E0.05702
G1 X-22.205 Y8.043 E0.05916
G1 X-22.496 Y7.513 E0.05543
G1 X-22.922 Y7.055 E0.05738
G1 X-23.464 Y6.711 E0.05893
G1 X-24.037 Y6.525 E0.05528
G1 X-24.686 Y6.482 E0.05964
G1 X-25.295 Y6.600 E0.05691
G1 X-25.852 Y6.862 E0.05645
G1 X-26.341 Y7.265 E0.05818
G1 X-26.705 Y7.767 E0.05688
G1 X-26.939 Y8.360 E0.05846
G1 X-27.015 Y8.974 E0.05676
G1 X-26.937 Y9.593 E0.05730
G1 X-26.706 Y10.174 E0.05738
G1 X-26.352 Y10.662 E0.05525
G1 X-25.579 Y11.314 E0.09283
G1 X-46.380 Y11.314 E1.90852
G1 X-46.380 Y-11.314 E2.07620
G1 X31.943 Y-11.314 E7.18620
G1 X45.635 Y2.377 E1.77655 F900.000
G1 X32.334 Y10.056 E1.40915
G1 X33.060 Y11.314 E0.13327
G1 X31.857 Y11.314 E0.11036
G1 X2.219 Y9.195 F9000.000
G1 X2.112 Y9.612 E0.03956 F900.000
G1 X1.902 Y9.997 E0.04020
G1 X1.584 Y10.331 E0.04228
G1 X1.232 Y10.554 E0.03826
G1 X0.807 Y10.694 E0.04105
G1 X0.373 Y10.721 E0.03996
G1 X-0.050 Y10.642 E0.03943
G1 X-0.460 Y10.452 E0.04144
G1 X-0.809 Y10.157 E0.04196
G1 X-1.056 Y9.817 E0.03858
G1 X-1.218 Y9.408 E0.04034
G1 X-1.274 Y8.973 E0.04027
G1 X-1.220 Y8.543 E0.03977
G1 X-1.055 Y8.123 E0.04134
G1 X-0.800 Y7.773 E0.03972
G1 X-0.455 Y7.488 E0.04111
G1 X-0.065 Y7.305 E0.03953
G1 X0.361 Y7.222 E0.03976 F900.000
G1 X0.823 Y7.253 E0.04248
G1 X1.220 Y7.382 E0.03834
G1 X1.604 Y7.625 E0.04169
G1 X1.903 Y7.947 E0.04033
G1 X2.106 Y8.316 E0.03861
G1 X2.220 Y8.760 E0.04201
G1 X2.219 Y9.135 E0.03442
G1 X2.527 Y9.450 F9000.000
G1 E-3.20000 F3000.00000
G1 Z0.700 F9000.000
G1 X-22.781 Y9.059 F9000.000
G1 Z0.300 F9000.000
G1 E3.20000 F3000.00000
G1 X-22.781 Y9.195 E0.01248 F900.000
G1 X-22.888 Y9.612 E0.03956
G1 X-23.098 Y9.997 E0.04020
G1 X-23.416 Y10.331 E0.04228
G1 X-23.768 Y10.554 E0.03826
G1 X-24.193 Y10.694 E0.04105
G1 X-24.627 Y10.721 E0.03996
G1 X-25.050 Y10.642 E0.03943
G1 X-25.460 Y10.452 E0.04144
G1 X-25.809 Y10.157 E0.04197
G1 X-26.056 Y9.817 E0.03858
G1 X-26.218 Y9.408 E0.04034
G1 X-26.274 Y8.973 E0.04027
G1 X-26.220 Y8.543 E0.03977
G1 X-26.055 Y8.123 E0.04134
G1 X-25.800 Y7.773 E0.03972
G1 X-25.455 Y7.488 E0.04111
G1 X-25.065 Y7.305 E0.03953
G1 X-24.639 Y7.222 E0.03976 F900.000
G1 X-24.177 Y7.253 E0.04248
G1 X-23.780 Y7.382 E0.03834
G1 X-23.396 Y7.625 E0.04169
G1 X-23.097 Y7.947 E0.04033
G1 X-22.895 Y8.316 E0.03861
G1 X-22.780 Y8.760 E0.04201
G1 X-22.781 Y8.999 E0.02194
G1 X-22.663 Y9.127 F9000.000
G1 X-22.781 Y12.050 F9000.000
G1 X-47.116 Y12.050 E2.23275 F900.000
G1 X-47.116 Y-12.050 E2.21119
G1 X32.035 Y-12.050 E7.26216
G1 X32.248 Y-12.050 E0.01949 F900.000
G1 X46.833 Y2.535 E1.89246
G1 X33.339 Y10.326 E1.42961
G1 X34.334 Y12.050 E0.18268
G1 X-22.721 Y12.050 E5.23483
G1 X-22.981 Y11.704 F9000.000
G1 X-23.397 Y11.262 F9000.000
G1 X-24.103 Y11.370 E0.13685 F600.000
G1 X-24.913 Y11.395 E0.15520
G1 X0.087 Y11.395 F9000.000
G1 X0.897 Y11.370 E0.15520 F600.000
G1 X1.603 Y11.262 E0.13685
G1 X25.087 Y11.395 F9000.000
G1 X25.897 Y11.370 E0.15520 F600.000
G1 X26.603 Y11.262 E0.13685
G1 X28.189 Y9.995 F9000.000
G1 X29.060 Y10.865 E0.11414 F900.000
G1 X30.111 Y10.865 E0.09747
G1 X28.403 Y9.157 E0.22393
G1 X28.292 Y7.994 E0.10831
G1 X31.162 Y10.865 E0.37641
G1 X32.106 Y10.757 F9000.000
G1 X10.483 Y-10.865 E2.83508 F900.000
G1 X9.432 Y-10.865 E0.09747
G1 X26.449 Y6.152 E2.23123
G1 X25.300 Y6.054 E0.10689
G1 X8.381 Y-10.865 E2.21845
G1 X7.329 Y-10.865 E0.09747
G1 X24.467 Y6.272 E2.24704
G1 X23.796 Y6.653 E0.07151
G1 X6.278 Y-10.865 E2.29688
G1 X5.227 Y-10.865 E0.09747
G1 X23.255 Y7.163 E2.36379
G1 X22.847 Y7.806 E0.07061
G1 X4.176 Y-10.865 E2.44807
G1 X3.124 Y-10.865 E0.09747
G1 X22.596 Y8.607 E2.55309
G1 X22.598 Y9.660 E0.09763
G1 X2.073 Y-10.865 E2.69117
G1 X1.022 Y-10.865 E0.09747
G1 X22.752 Y10.865 E2.84923
G1 X21.701 Y10.865 E0.09747
G1 X-0.029 Y-10.865 E2.84923
G1 X-1.081 Y-10.865 E0.09747
G1 X20.650 Y10.865 E2.84923
G1 X19.599 Y10.865 E0.09747
G1 X-2.132 Y-10.865 E2.84923
G1 X-3.183 Y-10.865 E0.09747
G1 X18.547 Y10.865 E2.84923
G1 X17.496 Y10.865 E0.09747
G1 X-4.234 Y-10.865 E2.84923
G1 X-5.286 Y-10.865 E0.09747
G1 X16.445 Y10.865 E2.84923
G1 X15.394 Y10.865 E0.09747
G1 X-6.337 Y-10.865 E2.84923
G1 X-7.388 Y-10.865 E0.09747
G1 X14.342 Y10.865 E2.84923
G1 X13.291 Y10.865 E0.09747
G1 X-8.439 Y-10.865 E2.84923
G1 X-9.491 Y-10.865 E0.09747
G1 X12.240 Y10.865 E2.84923
G1 X11.189 Y10.865 E0.09747
G1 X-10.542 Y-10.865 E2.84923
G1 X-11.593 Y-10.865 E0.09747
G1 X10.137 Y10.865 E2.84923
G1 X9.086 Y10.865 E0.09747
G1 X-12.644 Y-10.865 E2.84923
G1 X-13.696 Y-10.865 E0.09747
G1 X8.035 Y10.865 E2.84923
G1 X6.984 Y10.865 E0.09747
G1 X-14.747 Y-10.865 E2.84923
G1 X-15.798 Y-10.865 E0.09747
G1 X1.143 Y6.076 E2.22128
G1 X0.108 Y6.092 E0.09602
G1 X-16.849 Y-10.865 E2.22334
G1 X-17.901 Y-10.865 E0.09747
G1 X-0.689 Y6.346 E2.25668
G1 X-1.330 Y6.757 E0.07055
G1 X-18.952 Y-10.865 E2.31051
G1 X-20.003 Y-10.865 E0.09747
G1 X-1.842 Y7.296 E2.38125
G1 X-2.218 Y7.971 E0.07163
G1 X-21.054 Y-10.865 E2.46971
G1 X-22.106 Y-10.865 E0.09747
G1 X-2.429 Y8.811 E2.57991
G1 X-2.359 Y9.933 E0.10420
G1 X-23.157 Y-10.865 E2.72698
G1 X-24.208 Y-10.865 E0.09747
G1 X-2.478 Y10.865 E2.84923
G1 X-3.529 Y10.865 E0.09747
G1 X-25.259 Y-10.865 E2.84923
G1 X-26.311 Y-10.865 E0.09747
G1 X-4.580 Y10.865 E2.84923
G1 X-5.631 Y10.865 E0.09747
G1 X-27.362 Y-10.865 E2.84923
G1 X-28.413 Y-10.865 E0.09747
G1 X-6.683 Y10.865 E2.84923
G1 X-7.734 Y10.865 E0.09747
G1 X-29.464 Y-10.865 E2.84923
G1 X-30.515 Y-10.865 E0.09747
G1 X-8.785 Y10.865 E2.84923
G1 X-9.836 Y10.865 E0.09747
G1 X-31.567 Y-10.865 E2.84923
G1 X-32.618 Y-10.865 E0.09747
G1 X-10.888 Y10.865 E2.84923
G1 X-11.939 Y10.865 E0.09747
G1 X-33.669 Y-10.865 E2.84923
G1 X-34.720 Y-10.865 E0.09747
G1 X-12.990 Y10.865 E2.84923
G1 X-14.041 Y10.865 E0.09747
G1 X-35.772 Y-10.865 E2.84923
G1 X-36.823 Y-10.865 E0.09747
G1 X-15.093 Y10.865 E2.84923
G1 X-16.144 Y10.865 E0.09747
G1 X-37.874 Y-10.865 E2.84923
G1 X-38.925 Y-10.865 E0.09747
G1 X-17.195 Y10.865 E2.84923
G1 X-18.246 Y10.865 E0.09747
G1 X-39.977 Y-10.865 E2.84923
G1 X-41.028 Y-10.865 E0.09747
G1 X-24.103 Y6.060 E2.21914
G1 X-25.085 Y6.129 E0.09126
G1 X-42.079 Y-10.865 E2.22824
G1 X-43.130 Y-10.865 E0.09747
G1 X-25.846 Y6.419 E2.26632
G1 X-26.456 Y6.861 E0.06980
G1 X-44.182 Y-10.865 E2.32415
G1 X-45.233 Y-10.865 E0.09747
G1 X-26.939 Y7.429 E2.39871
G1 X-27.283 Y8.136 E0.07289
G1 X-45.931 Y-10.512 E2.44501
G1 X-45.931 Y-9.461 E0.09747
G1 X-27.455 Y9.016 E2.42255
G1 X-27.207 Y10.314 E0.12255
G1 X-45.931 Y-8.409 E2.45496
G1 X-45.931 Y-7.358 E0.09747
G1 X-27.708 Y10.865 E2.38939
G1 X-28.759 Y10.865 E0.09747
G1 X-45.931 Y-6.307 E2.25155
G1 X-45.931 Y-5.256 E0.09747
G1 X-29.810 Y10.865 E2.11371
G1 X-30.861 Y10.865 E0.09747
G1 X-45.931 Y-4.204 E1.97588
G1 X-45.931 Y-3.153 E0.09747
G1 X-31.913 Y10.865 E1.83804
G1 X-32.964 Y10.865 E0.09747
G1 X-45.931 Y-2.102 E1.70020
G1 X-45.931 Y-1.051 E0.09747
G1 X-34.015 Y10.865 E1.56236
G1 X-35.066 Y10.865 E0.09747
G1 X-45.931 Y0.001 E1.42453
G1 X-45.931 Y1.052 E0.09747
G1 X-36.118 Y10.865 E1.28669
G1 X-37.169 Y10.865 E0.09747
G1 X-45.931 Y2.103 E1.14885
G1 X-45.931 Y3.154 E0.09747
G1 X-38.220 Y10.865 E1.01102
G1 X-39.271 Y10.865 E0.09747
G1 X-45.931 Y4.206 E0.87318
G1 X-45.931 Y5.257 E0.09747
G1 X-40.323 Y10.865 E0.73534
G1 X-41.374 Y10.865 E0.09747
G1 X-45.931 Y6.308 E0.59751
G1 X-45.931 Y7.359 E0.09747
G1 X-42.425 Y10.865 E0.45967
G1 X-43.476 Y10.865 E0.09747
G1 X-45.931 Y8.411 E0.32183
G1 X-45.931 Y9.462 E0.09747
G1 X-44.528 Y10.865 E0.18399
G1 X-45.579 Y10.865 E0.09747
G1 X-45.931 Y10.513 E0.04616
G1 E-3.20000 F3000.00000
G1 Z0.700 F9000.000
G1 X-21.973 Y10.292 F9000.000
G1 Z0.300 F9000.000
G1 E3.20000 F3000.00000
G1 X-21.400 Y10.865 E0.07512 F900.000
G1 X-20.349 Y10.865 E0.09747
G1 X-21.680 Y9.534 E0.17455
G1 X-21.595 Y8.568 E0.08993
G1 X-19.298 Y10.865 E0.30123
G1 E-3.20000 F3000.00000
G1 Z0.700 F9000.000
G1 X3.108 Y10.143 F9000.000
G1 Z0.300 F9000.000
G1 E3.20000 F3000.00000
G1 X3.830 Y10.865 E0.09463 F900.000
G1 X4.881 Y10.865 E0.09747
G1 X3.367 Y9.351 E0.19854
G1 X3.372 Y8.304 E0.09702
G1 X5.932 Y10.865 E0.33575
G1 E-3.20000 F3000.00000
G1 Z0.700 F9000.000
G1 X32.124 Y9.725 F9000.000
G1 Z0.300 F9000.000
G1 E3.20000 F3000.00000
G1 X11.534 Y-10.865 E2.69969 F900.000
G1 X12.586 Y-10.865 E0.09747
G1 X32.791 Y9.340 E2.64924
G1 X33.457 Y8.955 E0.07135
G1 X13.637 Y-10.865 E2.59879
G1 X14.688 Y-10.865 E0.09747
G1 X34.124 Y8.570 E2.54834
G1 X34.790 Y8.186 E0.07135
G1 X15.739 Y-10.865 E2.49788
G1 X16.791 Y-10.865 E0.09747
G1 X35.457 Y7.801 E2.44743
G1 X36.123 Y7.416 E0.07135
G1 X17.842 Y-10.865 E2.39698
G1 X18.893 Y-10.865 E0.09747
G1 X36.790 Y7.031 E2.34653
G1 X37.456 Y6.646 E0.07135
G1 X19.944 Y-10.865 E2.29608
G1 X20.996 Y-10.865 E0.09747
G1 X38.122 Y6.262 E2.24563
G1 X38.789 Y5.877 E0.07135
G1 X22.047 Y-10.865 E2.19517
G1 X23.098 Y-10.865 E0.09747
G1 X39.455 Y5.492 E2.14472
G1 X40.122 Y5.107 E0.07135
G1 X24.149 Y-10.865 E2.09427
G1 X25.201 Y-10.865 E0.09747
G1 X40.788 Y4.723 E2.04382
G1 X41.455 Y4.338 E0.07135
G1 X26.252 Y-10.865 E1.99337
G1 X27.303 Y-10.865 E0.09747
G1 X42.121 Y3.953 E1.94291
G1 X42.788 Y3.568 E0.07135
G1 X28.354 Y-10.865 E1.89246
G1 X29.406 Y-10.865 E0.09747
G1 X43.454 Y3.183 E1.84201
G1 X44.121 Y2.799 E0.07135
G1 X30.457 Y-10.865 E1.79156
G1 X31.508 Y-10.865 E0.09747
G1 X44.773 Y2.399 E1.73919
G1 E-3.20000 F3000.00000
G1 Z0.700 F9000.000
G1 X-22.493 Y8.734 F9000.000
G1 Z0.600 F9000.000
G1 E3.20000 F3000.00000
G1 X-22.496 Y9.235 E0.02723 F1800.000
G1 X-22.619 Y9.712 E0.02676
G1 X-22.862 Y10.162 E0.02777
G1 X-23.250 Y10.565 E0.03040
G1 X-23.638 Y10.811 E0.02496
G1 X-24.141 Y10.977 E0.02881
G1 X-24.655 Y11.007 E0.02797
G1 X-25.122 Y10.920 E0.02580
G1 X-25.615 Y10.696 E0.02942
G1 X-26.035 Y10.333 E0.03014
G1 X-26.307 Y9.958 E0.02521
G1 X-26.497 Y9.481 E0.02785
G1 X-26.561 Y8.974 E0.02779
G1 X-26.501 Y8.480 E0.02704
G1 X-26.306 Y7.981 E0.02908
G1 X-26.012 Y7.578 E0.02711
G1 X-25.604 Y7.242 E0.02875
G1 X-25.158 Y7.032 E0.02676
G1 X-24.669 Y6.936 E0.02709 F1800.000
G1 X-24.100 Y6.976 E0.03099
G1 X-23.625 Y7.138 E0.02725
G1 X-23.201 Y7.415 E0.02752
G1 X-22.858 Y7.789 E0.02758
G1 X-22.633 Y8.198 E0.02534
G1 X-22.508 Y8.676 E0.02684
G1 X-22.930 Y8.786 F9000.000
G1 X-22.932 Y9.179 E0.02137 F1800.000
G1 X-23.027 Y9.552 E0.02094
G1 X-23.217 Y9.902 E0.02163
G1 X-23.527 Y10.225 E0.02434
G1 X-23.826 Y10.414 E0.01919
G1 X-24.224 Y10.546 E0.02278
G1 X-24.627 Y10.569 E0.02197
G1 X-24.990 Y10.501 E0.02004
G1 X-25.378 Y10.325 E0.02314
G1 X-25.712 Y10.036 E0.02399
G1 X-25.923 Y9.746 E0.01952
G1 X-26.072 Y9.372 E0.02188
G1 X-26.122 Y8.973 E0.02184
G1 X-26.075 Y8.588 E0.02110
G1 X-25.920 Y8.192 E0.02305
G1 X-25.692 Y7.879 E0.02106
G1 X-25.369 Y7.613 E0.02276
G1 X-25.021 Y7.449 E0.02089
G1 X-24.641 Y7.374 E0.02104 F1800.000
G1 X-24.187 Y7.406 E0.02475
G1 X-23.817 Y7.533 E0.02121
G1 X-23.485 Y7.749 E0.02158
G1 X-23.214 Y8.045 E0.02175
G1 X-23.041 Y8.360 E0.01955
G1 X-22.945 Y8.727 E0.02063
G1 X-22.574 Y8.954 F9000.000
G1 X-1.561 Y8.974 F9000.000
G1 X-1.501 Y8.480 E0.02704 F1800.000
G1 X-1.306 Y7.981 E0.02908
G1 X-1.012 Y7.578 E0.02711
G1 X-0.604 Y7.242 E0.02875
G1 X-0.158 Y7.032 E0.02676
G1 X0.331 Y6.936 E0.02709 F1800.000
G1 X0.900 Y6.976 E0.03099
G1 X1.375 Y7.138 E0.02725
G1 X1.799 Y7.415 E0.02752
G1 X2.142 Y7.789 E0.02758
G1 X2.367 Y8.198 E0.02534
G1 X2.507 Y8.734 E0.03010
G1 X2.504 Y9.235 E0.02723
G1 X2.381 Y9.712 E0.02676
G1 X2.138 Y10.162 E0.02777
G1 X1.750 Y10.565 E0.03040
G1 X1.362 Y10.811 E0.02496
G1 X0.859 Y10.977 E0.02881
G1 X0.345 Y11.007 E0.02797
G1 X-0.122 Y10.920 E0.02580
G1 X-0.615 Y10.696 E0.02942
G1 X-1.035 Y10.333 E0.03014
G1 X-1.307 Y9.958 E0.02521
G1 X-1.497 Y9.481 E0.02785
G1 X-1.554 Y9.033 E0.02454
G1 X-1.122 Y8.979 F9000.000
G1 X-1.075 Y8.588 E0.02139 F1800.000
G1 X-0.920 Y8.192 E0.02305
G1 X-0.692 Y7.879 E0.02106
G1 X-0.369 Y7.613 E0.02276
G1 X-0.021 Y7.449 E0.02089
G1 X0.359 Y7.374 E0.02103 F1800.000
G1 X0.813 Y7.406 E0.02475
G1 X1.183 Y7.533 E0.02121
G1 X1.515 Y7.749 E0.02158
G1 X1.786 Y8.045 E0.02175
G1 X1.959 Y8.360 E0.01955
G1 X2.071 Y8.788 E0.02405
G1 X2.068 Y9.179 E0.02122
G1 X1.973 Y9.552 E0.02094
G1 X1.783 Y9.902 E0.02163
G1 X1.473 Y10.225 E0.02434
G1 X1.174 Y10.414 E0.01919
G1 X0.776 Y10.546 E0.02278
G1 X0.373 Y10.569 E0.02197
G1 X0.010 Y10.501 E0.02004
G1 X-0.378 Y10.325 E0.02314
G1 X-0.712 Y10.036 E0.02399
