; generated by Slic3r 1.2.9 on 2017-01-11 at 10:01:21

; external perimeters extrusion width = 0.50mm
; perimeters extrusion width = 0.50mm
; infill extrusion width = 0.50mm
; solid infill extrusion width = 0.50mm
; top infill extrusion width = 0.50mm

M107
;Basic settings: Layer height: {layer_height} Walls: {wall_thickness} Fill: {fill_density}
;Print time: {print_time}
;Filament used: {filament_amount}m {filament_weight}g
;Filament cost: {filament_cost}
;M190 S{print_bed_temperature} ;Uncomment to add your own bed temperature line
;M109 S{print_temperature} ;Uncomment to add your own temperature line
G21        ;metric values
G90        ;absolute positioning
M83
G10 P0 S200
T0
M116


G21 ; set units to millimeters
G90 ; use absolute coordinates
M83 ; use relative distances for extrusion
G1 E-3.20000 F3000.00000
G1 Z0.400 F9000.000
G1 X7.691 Y13.320 F9000.000
G1 Z0.300 F9000.000
G1 E3.20000 F3000.00000
G1 X-29.274 Y34.662 E3.91620 F1200.000
G1 X-30.919 Y35.156 E0.15755
G1 X-32.610 Y34.862 E0.15755
G1 X-34.377 Y33.295 E0.21666
G1 X-46.827 Y11.731 E2.28460
G1 X-47.321 Y10.086 E0.15755
G1 X-47.027 Y8.394 E0.15755
G1 X-45.460 Y6.628 E0.21667
G1 X26.025 Y-34.644 E7.57336
G1 X28.430 Y-35.105 E0.22472
G1 X44.133 Y-32.821 E1.45590
G1 X45.730 Y-32.190 E0.15755 F1200.000
G1 X46.876 Y-30.912 E0.15755
G1 X47.328 Y-29.255 E0.15755
G1 X47.203 Y-28.158 E0.10133
G1 X41.687 Y-7.571 E1.95549
G1 X40.873 Y-6.059 E0.15755
G1 X39.947 Y-5.303 E0.10975
G1 X7.743 Y13.290 E3.41185
G1 E-3.20000 F3000.00000
G1 Z0.700 F9000.000
G1 X-20.292 Y1.982 F9000.000
G1 Z0.300 F9000.000
G1 E3.20000 F3000.00000
G1 X-20.502 Y2.384 E0.04163 F900.000
G1 X-20.795 Y2.707 E0.03996
G1 X-21.145 Y2.940 E0.03859
G1 X-21.576 Y3.094 E0.04195
G1 X-22.023 Y3.129 E0.04113
G1 X-22.448 Y3.055 E0.03965
G1 X-22.843 Y2.879 E0.03964
G1 X-23.196 Y2.599 E0.04134
G1 X-23.457 Y2.253 E0.03977
G1 X-23.627 Y1.848 E0.04027
G1 X-23.691 Y1.413 E0.04034
G1 X-23.647 Y0.993 E0.03877
G1 X-23.483 Y0.552 E0.04323
G1 X-23.244 Y0.208 E0.03837
G1 X-22.907 Y-0.084 E0.04095
G1 X-22.517 Y-0.277 E0.03994
G1 X-22.093 Y-0.368 E0.03974 F900.000
G1 X-21.632 Y-0.348 E0.04237
G1 X-21.217 Y-0.220 E0.03977
G1 X-20.844 Y0.007 E0.04011
G1 X-20.536 Y0.327 E0.04074
G1 X-20.326 Y0.690 E0.03854
G1 X-20.205 Y1.114 E0.04040
G1 X-20.196 Y1.573 E0.04213
G1 X-20.279 Y1.924 E0.03309
G1 X-20.050 Y2.301 F9000.000
G1 X-1.807 Y-10.247 F9000.000
G1 X-1.977 Y-10.652 E0.04027 F900.000
G1 X-2.040 Y-11.087 E0.04034
G1 X-1.996 Y-11.507 E0.03877
G1 X-1.832 Y-11.948 E0.04323
G1 X-1.593 Y-12.292 E0.03837
G1 X-1.256 Y-12.584 E0.04095
G1 X-0.866 Y-12.777 E0.03993
G1 X-0.442 Y-12.868 E0.03974 F900.000
G1 X0.019 Y-12.848 E0.04237
G1 X0.433 Y-12.720 E0.03977
G1 X0.806 Y-12.493 E0.04011
G1 X1.115 Y-12.173 E0.04074
G1 X1.325 Y-11.810 E0.03854
G1 X1.446 Y-11.386 E0.04040
G1 X1.454 Y-10.927 E0.04213
G1 X1.358 Y-10.518 E0.03859
G1 X1.148 Y-10.116 E0.04163
G1 X0.856 Y-9.793 E0.03996
G1 X0.506 Y-9.560 E0.03859
G1 X0.075 Y-9.406 E0.04195
G1 X-0.372 Y-9.371 E0.04113
G1 X-0.798 Y-9.445 E0.03965
G1 X-1.193 Y-9.621 E0.03964
G1 X-1.545 Y-9.901 E0.04134
G1 X-1.770 Y-10.199 E0.03426
G1 X-2.206 Y-10.264 F9000.000
G1 E-3.20000 F3000.00000
G1 Z0.700 F9000.000
G1 X19.844 Y-22.747 F9000.000
G1 Z0.300 F9000.000
G1 E3.20000 F3000.00000
G1 X19.674 Y-23.152 E0.04027 F900.000
G1 X19.610 Y-23.587 E0.04034
G1 X19.654 Y-24.007 E0.03877
G1 X19.819 Y-24.448 E0.04323
G1 X20.057 Y-24.792 E0.03837
G1 X20.395 Y-25.084 E0.04095
G1 X20.785 Y-25.277 E0.03993
G1 X21.208 Y-25.368 E0.03974 F900.000
G1 X21.669 Y-25.348 E0.04237
G1 X22.084 Y-25.220 E0.03977
G1 X22.457 Y-24.993 E0.04011
G1 X22.766 Y-24.673 E0.04074
G1 X22.976 Y-24.310 E0.03854
G1 X23.097 Y-23.886 E0.04040
G1 X23.105 Y-23.427 E0.04213
G1 X23.009 Y-23.018 E0.03859
G1 X22.799 Y-22.616 E0.04163
G1 X22.507 Y-22.293 E0.03996
G1 X22.156 Y-22.060 E0.03859
G1 X21.726 Y-21.906 E0.04195
G1 X21.279 Y-21.871 E0.04113
G1 X20.853 Y-21.945 E0.03965
G1 X20.458 Y-22.121 E0.03964
G1 X20.106 Y-22.401 E0.04134
G1 X19.880 Y-22.699 E0.03426
G1 X19.444 Y-22.764 F9000.000
G1 X-18.866 Y23.028 F9000.000
G1 X-30.726 Y29.876 E1.25658 F900.000
G1 X-42.041 Y10.279 E2.07620
G1 X-24.014 Y-0.129 E1.90980
G1 X-24.369 Y0.824 E0.09329
G1 X-24.432 Y1.429 E0.05580
G1 X-24.341 Y2.047 E0.05738
G1 X-24.100 Y2.623 E0.05730
G1 X-23.726 Y3.117 E0.05676
G1 X-23.228 Y3.513 E0.05846
G1 X-22.664 Y3.764 E0.05666
G1 X-22.057 Y3.869 E0.05649
G1 X-21.421 Y3.820 E0.05854
G1 X-20.813 Y3.603 E0.05921
G1 X-20.311 Y3.269 E0.05533
G1 X-19.894 Y2.808 E0.05701
G1 X-19.597 Y2.241 E0.05875
G1 X-19.459 Y1.651 E0.05555
G1 X-19.471 Y1.004 E0.05939
G1 X-19.643 Y0.401 E0.05754
G1 X-19.944 Y-0.120 E0.05517
G1 X-20.381 Y-0.572 E0.05769
G1 X-20.913 Y-0.896 E0.05722
G1 X-21.505 Y-1.078 E0.05684
G1 X-21.718 Y-1.088 E0.01955
G1 X-21.797 Y-1.409 E0.03036
G1 X-2.364 Y-12.629 E2.05883
G1 X-2.718 Y-11.676 E0.09329
G1 X-2.782 Y-11.071 E0.05579
G1 X-2.691 Y-10.453 E0.05738
G1 X-2.449 Y-9.877 E0.05729
G1 X-2.076 Y-9.383 E0.05676
G1 X-1.577 Y-8.987 E0.05846
G1 X-1.013 Y-8.736 E0.05666
G1 X-0.406 Y-8.631 E0.05649
G1 X0.230 Y-8.680 E0.05854
G1 X0.838 Y-8.897 E0.05920
G1 X1.340 Y-9.231 E0.05533
G1 X1.757 Y-9.692 E0.05701
G1 X2.053 Y-10.259 E0.05876
G1 X2.192 Y-10.849 E0.05555
G1 X2.180 Y-11.496 E0.05939
G1 X2.008 Y-12.099 E0.05754
G1 X1.707 Y-12.620 E0.05517
G1 X1.270 Y-13.072 E0.05768
G1 X0.738 Y-13.396 E0.05721
G1 X0.145 Y-13.578 E0.05684
G1 X-0.068 Y-13.588 E0.01955
G1 X-0.146 Y-13.909 E0.03036
G1 X19.287 Y-25.129 E2.05883
G1 X18.933 Y-24.176 E0.09329
G1 X18.869 Y-23.571 E0.05580
G1 X18.960 Y-22.953 E0.05738
G1 X19.202 Y-22.377 E0.05729
G1 X19.575 Y-21.883 E0.05676
G1 X20.073 Y-21.487 E0.05846
G1 X20.638 Y-21.236 E0.05666
G1 X21.244 Y-21.131 E0.05649
G1 X21.880 Y-21.180 E0.05854
G1 X22.488 Y-21.397 E0.05921
G1 X22.991 Y-21.731 E0.05533
G1 X23.407 Y-22.192 E0.05701
G1 X23.704 Y-22.759 E0.05875
G1 X23.842 Y-23.349 E0.05555
G1 X23.830 Y-23.996 E0.05939
G1 X23.658 Y-24.599 E0.05754
G1 X23.358 Y-25.120 E0.05517
G1 X22.921 Y-25.572 E0.05768
G1 X22.388 Y-25.896 E0.05721
G1 X21.796 Y-26.078 E0.05684
G1 X21.583 Y-26.088 E0.01955
G1 X21.505 Y-26.409 E0.03036
G1 X26.757 Y-29.442 E0.55643
G1 X26.757 Y-27.989 E0.13327
G1 X42.115 Y-27.989 E1.40915 F900.000
G1 X37.104 Y-9.286 E1.77655
G1 X-18.814 Y22.998 E5.92412
G1 X-18.446 Y23.635 F9000.000
G1 X-30.996 Y30.880 E1.32957 F900.000
G1 X-43.046 Y10.009 E2.21119
G1 X27.492 Y-30.716 E7.47309
G1 X27.492 Y-28.725 E0.18268
G1 X43.074 Y-28.725 E1.42961 F900.000
G1 X37.735 Y-8.801 E1.89246
G1 X-18.394 Y23.605 E5.94657
G1 X-18.792 Y23.435 F9000.000
G1 E-3.20000 F3000.00000
G1 Z0.700 F9000.000
G1 X-23.470 Y-0.536 F9000.000
G1 Z0.300 F9000.000
G1 E3.20000 F3000.00000
G1 X-22.777 Y-0.907 E0.15058 F600.000
G1 X-22.116 Y-1.167 E0.13609
G1 X-20.551 Y-1.676 F9000.000
G1 X-4.560 Y14.316 E2.07858 F900.000
G1 X-3.899 Y13.934 E0.07012
G1 X-19.891 Y-2.057 E2.07858
G1 X-19.230 Y-2.439 E0.07012
G1 X-3.239 Y13.553 E2.07858
G1 X-2.578 Y13.171 E0.07012
G1 X-18.569 Y-2.820 E2.07858
G1 X-17.908 Y-3.201 E0.07012
G1 X-1.917 Y12.790 E2.07858
G1 X-1.256 Y12.408 E0.07012
G1 X-17.248 Y-3.583 E2.07858
G1 X-16.587 Y-3.964 E0.07012
G1 X-0.596 Y12.027 E2.07858
G1 X0.065 Y11.646 E0.07012
G1 X-15.926 Y-4.346 E2.07858
G1 X-15.266 Y-4.727 E0.07012
G1 X0.726 Y11.264 E2.07858
G1 X1.386 Y10.883 E0.07012
G1 X-14.605 Y-5.109 E2.07858
G1 X-13.944 Y-5.490 E0.07012
G1 X2.047 Y10.501 E2.07858
G1 X2.708 Y10.120 E0.07012
G1 X-13.284 Y-5.872 E2.07858
G1 X-12.623 Y-6.253 E0.07012
G1 X3.368 Y9.738 E2.07858
G1 X4.029 Y9.357 E0.07012
G1 X-11.962 Y-6.634 E2.07858
G1 X-11.302 Y-7.016 E0.07012
G1 X4.690 Y8.975 E2.07858
G1 X5.350 Y8.594 E0.07012
G1 X-10.641 Y-7.397 E2.07858
G1 X-9.980 Y-7.779 E0.07012
G1 X6.011 Y8.212 E2.07858
G1 X6.672 Y7.831 E0.07012
G1 X-9.320 Y-8.160 E2.07858
G1 X-8.659 Y-8.542 E0.07012
G1 X7.333 Y7.450 E2.07858
G1 X7.993 Y7.068 E0.07012
G1 X-7.998 Y-8.923 E2.07858
G1 X-7.337 Y-9.305 E0.07012
G1 X8.654 Y6.687 E2.07858
G1 X9.315 Y6.305 E0.07012
G1 X-6.677 Y-9.686 E2.07858
G1 X-6.016 Y-10.068 E0.07012
G1 X9.975 Y5.924 E2.07858
G1 X10.636 Y5.542 E0.07012
G1 X-5.355 Y-10.449 E2.07858
G1 X-4.695 Y-10.830 E0.07012
G1 X11.297 Y5.161 E2.07858
G1 X11.957 Y4.779 E0.07012
G1 X-1.085 Y-8.263 E1.69526
G1 X-0.003 Y-8.223 E0.09948
G1 X12.618 Y4.398 E1.64055
G1 X13.279 Y4.017 E0.07012
G1 X0.807 Y-8.455 E1.62110
G1 X1.460 Y-8.844 E0.06988
G1 X13.939 Y3.635 E1.62204
G1 X14.600 Y3.254 E0.07012
G1 X1.981 Y-9.366 E1.64028
G1 X2.372 Y-10.017 E0.06980
G1 X15.261 Y2.872 E1.67532
G1 X15.921 Y2.491 E0.07012
G1 X2.613 Y-10.817 E1.72982
G1 X2.586 Y-11.887 E0.09832
G1 X16.582 Y2.109 E1.81923
G1 X17.243 Y1.728 E0.07012
G1 X1.252 Y-14.263 E2.07858
G1 X1.912 Y-14.645 E0.07012
G1 X17.904 Y1.346 E2.07858
G1 X18.564 Y0.965 E0.07012
G1 X2.573 Y-15.026 E2.07858
G1 X3.234 Y-15.408 E0.07012
G1 X19.225 Y0.584 E2.07858
G1 X19.886 Y0.202 E0.07012
G1 X3.894 Y-15.789 E2.07858
G1 X4.555 Y-16.171 E0.07012
G1 X20.546 Y-0.179 E2.07858
G1 X21.207 Y-0.561 E0.07012
G1 X5.216 Y-16.552 E2.07858
G1 X5.876 Y-16.934 E0.07012
G1 X21.868 Y-0.942 E2.07858
G1 X22.528 Y-1.324 E0.07012
G1 X6.537 Y-17.315 E2.07858
G1 X7.198 Y-17.697 E0.07012
G1 X23.189 Y-1.705 E2.07858
G1 X23.850 Y-2.087 E0.07012
G1 X7.858 Y-18.078 E2.07858
G1 X8.519 Y-18.459 E0.07012
G1 X24.510 Y-2.468 E2.07858
G1 X25.171 Y-2.850 E0.07012
G1 X9.180 Y-18.841 E2.07858
G1 X9.840 Y-19.222 E0.07012
G1 X25.832 Y-3.231 E2.07858
G1 X26.493 Y-3.612 E0.07012
G1 X10.501 Y-19.604 E2.07858
G1 X11.162 Y-19.985 E0.07012
G1 X27.153 Y-3.994 E2.07858
G1 X27.814 Y-4.375 E0.07012
G1 X11.823 Y-20.367 E2.07858
G1 X12.483 Y-20.748 E0.07012
G1 X28.475 Y-4.757 E2.07858
G1 X29.135 Y-5.138 E0.07012
G1 X13.144 Y-21.130 E2.07858
G1 X13.805 Y-21.511 E0.07012
G1 X29.796 Y-5.520 E2.07858
G1 X30.457 Y-5.901 E0.07012
G1 X14.465 Y-21.892 E2.07858
G1 X15.126 Y-22.274 E0.07012
G1 X31.117 Y-6.283 E2.07858
G1 X31.778 Y-6.664 E0.07012
G1 X15.787 Y-22.655 E2.07858
G1 X16.447 Y-23.037 E0.07012
G1 X32.439 Y-7.045 E2.07858
G1 X33.099 Y-7.427 E0.07012
G1 X17.108 Y-23.418 E2.07858
G1 X17.769 Y-23.800 E0.07012
G1 X18.458 Y-23.110 E0.08960
G1 X20.856 Y-20.713 F9000.000
G1 X33.760 Y-7.808 E1.67735 F900.000
G1 X34.421 Y-8.190 E0.07012
G1 X21.866 Y-20.745 E1.63187
G1 X22.629 Y-21.024 E0.07467
G1 X35.081 Y-8.571 E1.61858
G1 X35.742 Y-8.953 E0.07012
G1 X23.250 Y-21.444 E1.62369
G1 X23.745 Y-21.992 E0.06781
G1 X36.403 Y-9.334 E1.64524
G1 X36.848 Y-9.931 E0.06845
G1 X24.105 Y-22.674 E1.65634
G1 X24.291 Y-23.530 E0.08051
G1 X37.068 Y-10.753 E1.66077
G1 X37.288 Y-11.575 E0.07821
G1 X24.141 Y-24.723 E1.70893
G1 X23.054 Y-26.851 F9000.000
G1 X37.509 Y-12.397 E1.87878 F900.000
G1 X37.729 Y-13.219 E0.07821
G1 X23.715 Y-27.233 E1.82153
G1 X24.376 Y-27.614 E0.07012
G1 X37.949 Y-14.041 E1.76428
G1 X38.169 Y-14.863 E0.07821
G1 X25.036 Y-27.996 E1.70703
G1 X25.697 Y-28.377 E0.07012
G1 X38.389 Y-15.685 E1.64978
G1 X38.610 Y-16.507 E0.07821
G1 X27.576 Y-27.540 E1.43412
G1 X28.619 Y-27.540 E0.09578
G1 X38.830 Y-17.329 E1.32728
G1 X39.050 Y-18.150 E0.07821
G1 X29.661 Y-27.540 E1.22045
G1 X30.703 Y-27.540 E0.09578
G1 X39.270 Y-18.972 E1.11362
G1 X39.491 Y-19.794 E0.07821
G1 X31.745 Y-27.540 E1.00678
G1 X32.787 Y-27.540 E0.09578
G1 X39.711 Y-20.616 E0.89995
G1 X39.931 Y-21.438 E0.07821
G1 X33.829 Y-27.540 E0.79312
G1 X34.871 Y-27.540 E0.09578
G1 X40.151 Y-22.260 E0.68629
G1 X40.372 Y-23.082 E0.07821
G1 X35.914 Y-27.540 E0.57945
G1 X36.956 Y-27.540 E0.09578
G1 X40.592 Y-23.904 E0.47262
G1 X40.812 Y-24.726 E0.07821
G1 X37.998 Y-27.540 E0.36579
G1 X39.040 Y-27.540 E0.09578
G1 X41.032 Y-25.548 E0.25895
G1 X41.252 Y-26.370 E0.07821
G1 X40.082 Y-27.540 E0.15212
G1 X41.124 Y-27.540 E0.09578
G1 X41.473 Y-27.191 E0.04529
G1 E-3.20000 F3000.00000
G1 Z0.700 F9000.000
G1 X-3.151 Y-10.329 F9000.000
G1 Z0.300 F9000.000
G1 E3.20000 F3000.00000
G1 X-4.034 Y-11.212 E0.11474 F900.000
G1 X-19.021 Y0.897 F9000.000
G1 X-5.221 Y14.697 E1.79376 F900.000
G1 X-5.881 Y15.079 E0.07012
G1 X-19.083 Y1.877 E1.71597
G1 X-19.361 Y2.641 E0.07473
G1 X-6.542 Y15.460 E1.66625
G1 X-7.203 Y15.841 E0.07012
G1 X-19.784 Y3.260 E1.63532
G1 X-20.334 Y3.752 E0.06784
G1 X-7.863 Y16.223 E1.62100
G1 X-8.524 Y16.604 E0.07012
G1 X-21.021 Y4.108 E1.62432
G1 X-21.877 Y4.294 E0.08051
G1 X-9.185 Y16.986 E1.64971
G1 X-9.845 Y17.367 E0.07012
G1 X-23.040 Y4.173 E1.71500
G1 X-24.721 Y2.492 F9000.000
G1 X-25.837 Y1.376 E0.14507 F900.000
G1 X-25.176 Y0.994 E0.07012
G1 X-24.856 Y1.314 E0.04155
G1 X-26.497 Y1.757 F9000.000
G1 X-10.506 Y17.749 E2.07858 F900.000
G1 X-11.167 Y18.130 E0.07012
G1 X-27.158 Y2.139 E2.07858
G1 X-27.819 Y2.520 E0.07012
G1 X-11.827 Y18.512 E2.07858
G1 X-12.488 Y18.893 E0.07012
G1 X-28.480 Y2.902 E2.07858
G1 X-29.140 Y3.283 E0.07012
G1 X-13.149 Y19.275 E2.07858
G1 X-13.810 Y19.656 E0.07012
G1 X-29.801 Y3.665 E2.07858
G1 X-30.462 Y4.046 E0.07012
G1 X-14.470 Y20.037 E2.07858
G1 X-15.131 Y20.419 E0.07012
G1 X-31.122 Y4.428 E2.07858
G1 X-31.783 Y4.809 E0.07012
G1 X-15.792 Y20.800 E2.07858
G1 X-16.452 Y21.182 E0.07012
G1 X-32.444 Y5.190 E2.07858
G1 X-33.104 Y5.572 E0.07012
G1 X-17.113 Y21.563 E2.07858
G1 X-17.774 Y21.945 E0.07012
G1 X-33.765 Y5.953 E2.07858
G1 X-34.426 Y6.335 E0.07012
G1 X-18.434 Y22.326 E2.07858
G1 X-19.095 Y22.708 E0.07012
G1 X-35.086 Y6.716 E2.07858
G1 X-35.747 Y7.098 E0.07012
G1 X-19.756 Y23.089 E2.07858
G1 X-20.416 Y23.470 E0.07012
G1 X-36.408 Y7.479 E2.07858
G1 X-37.068 Y7.861 E0.07012
G1 X-21.077 Y23.852 E2.07858
G1 X-21.738 Y24.233 E0.07012
G1 X-37.729 Y8.242 E2.07858
G1 X-38.390 Y8.623 E0.07012
G1 X-22.399 Y24.615 E2.07858
G1 X-23.059 Y24.996 E0.07012
G1 X-39.051 Y9.005 E2.07858
G1 X-39.711 Y9.386 E0.07012
G1 X-23.720 Y25.378 E2.07858
G1 X-24.381 Y25.759 E0.07012
G1 X-40.372 Y9.768 E2.07858
G1 X-41.033 Y10.149 E0.07012
G1 X-25.041 Y26.141 E2.07858
G1 X-25.702 Y26.522 E0.07012
G1 X-40.673 Y11.551 E1.94597
G1 X-39.250 Y14.017 F9000.000
G1 X-26.363 Y26.904 E1.67505 F900.000
G1 X-27.023 Y27.285 E0.07012
G1 X-37.826 Y16.482 E1.40414
G1 X-36.402 Y18.948 F9000.000
G1 X-27.684 Y27.666 E1.13322 F900.000
G1 X-28.345 Y28.048 E0.07012
G1 X-34.979 Y21.414 E0.86230
G1 X-33.555 Y23.880 F9000.000
G1 X-29.005 Y28.429 E0.59138 F900.000
G1 X-29.666 Y28.811 E0.07012
G1 X-32.132 Y26.345 E0.32047
G1 X-30.708 Y28.811 F9000.000
G1 X-30.327 Y29.192 E0.04955 F900.000
G1 X19.831 Y-25.536 F9000.000
G1 X20.524 Y-25.907 E0.15059 F600.000
G1 X21.185 Y-26.167 E0.13608
G1 X-0.466 Y-13.667 F9000.000
G1 X-1.127 Y-13.407 E0.13608 F600.000
G1 X-1.820 Y-13.036 E0.15059
G1 E-3.20000 F3000.00000
G1 Z0.700 F9000.000
G1 X-20.299 Y0.163 F9000.000
G1 Z0.600 F9000.000
G1 E3.20000 F3000.00000
G1 X-20.066 Y0.567 E0.02532 F1800.000
G1 X-19.921 Y1.060 E0.02793
G1 X-19.913 Y1.619 E0.03037
G1 X-20.020 Y2.074 E0.02538
G1 X-20.271 Y2.556 E0.02955
G1 X-20.604 Y2.922 E0.02685
G1 X-20.998 Y3.187 E0.02583
G1 X-21.518 Y3.377 E0.03005
G1 X-22.051 Y3.415 E0.02903
G1 X-22.536 Y3.329 E0.02679
G1 X-22.989 Y3.128 E0.02694
G1 X-23.407 Y2.794 E0.02908
G1 X-23.707 Y2.396 E0.02704
G1 X-23.905 Y1.924 E0.02780
G1 X-23.979 Y1.417 E0.02785
G1 X-23.929 Y0.948 E0.02563
G1 X-23.726 Y0.401 E0.03173
G1 X-23.462 Y0.020 E0.02516
G1 X-23.076 Y-0.317 E0.02786
G1 X-22.616 Y-0.547 E0.02793
G1 X-22.128 Y-0.654 E0.02717 F1800.000
G1 X-21.565 Y-0.627 E0.03059
G1 X-21.090 Y-0.478 E0.02706
G1 X-20.658 Y-0.212 E0.02756
G1 X-20.341 Y0.120 E0.02497
G1 X-20.656 Y0.421 F9000.000
G1 X-20.470 Y0.740 E0.02007 F1800.000
G1 X-20.356 Y1.126 E0.02188
G1 X-20.349 Y1.572 E0.02423
G1 X-20.431 Y1.921 E0.01948
G1 X-20.632 Y2.305 E0.02353
G1 X-20.890 Y2.590 E0.02092
G1 X-21.197 Y2.796 E0.02007
G1 X-21.610 Y2.946 E0.02386
G1 X-22.028 Y2.976 E0.02279
G1 X-22.408 Y2.909 E0.02096
G1 X-22.761 Y2.752 E0.02100
G1 X-23.093 Y2.488 E0.02305
G1 X-23.326 Y2.177 E0.02110
G1 X-23.482 Y1.807 E0.02184
G1 X-23.540 Y1.408 E0.02188
G1 X-23.502 Y1.048 E0.01967
G1 X-23.337 Y0.604 E0.02575
G1 X-23.135 Y0.313 E0.01924
G1 X-22.831 Y0.048 E0.02193
G1 X-22.470 Y-0.133 E0.02196
G1 X-22.091 Y-0.216 E0.02107 F1800.000
G1 X-21.642 Y-0.195 E0.02441
G1 X-21.272 Y-0.079 E0.02106
G1 X-20.934 Y0.129 E0.02156
G1 X-20.697 Y0.377 E0.01865
G1 X-20.288 Y0.390 F9000.000
