; generated by Slic3r 1.2.9 on 2017-01-11 at 11:37:58

; external perimeters extrusion width = 0.50mm
; perimeters extrusion width = 0.50mm
; infill extrusion width = 0.50mm
; solid infill extrusion width = 0.50mm
; top infill extrusion width = 0.50mm

M107
;Basic settings: Layer height: {layer_height} Walls: {wall_thickness} Fill: {fill_density}
;Print time: {print_time}
;Filament used: {filament_amount}m {filament_weight}g
;Filament cost: {filament_cost}
;M190 S{print_bed_temperature} ;Uncomment to add your own bed temperature line
;M109 S{print_temperature} ;Uncomment to add your own temperature line
G21        ;metric values
G90        ;absolute positioning
M83
G10 P0 S200
T0
M116


G21 ; set units to millimeters
G90 ; use absolute coordinates
M83 ; use relative distances for extrusion
G1 E-3.20000 F3000.00000
G1 Z0.400 F9000.000
G1 X-7.524 Y-7.524 F9000.000
G1 Z0.300 F9000.000
G1 E3.20000 F3000.00000
G1 X2.490 Y-17.538 E1.29937 F1200.000
G1 X3.090 Y-18.088 E0.07467
G1 X3.881 Y-18.696 E0.09155
G1 X4.316 Y-18.985 E0.04791
G1 X5.181 Y-19.483 E0.09160
G1 X6.090 Y-19.893 E0.09146
G1 X7.025 Y-20.209 E0.09058
G1 X7.799 Y-20.404 E0.07323
G1 X8.782 Y-20.568 E0.09146
G1 X9.777 Y-20.634 E0.09146
G1 X10.775 Y-20.603 E0.09161
G1 X11.295 Y-20.555 E0.04791 F1200.000
G1 X12.279 Y-20.390 E0.09154
G1 X13.241 Y-20.131 E0.09146
G1 X14.220 Y-19.759 E0.09606
G1 X14.888 Y-19.445 E0.06775
G1 X15.212 Y-19.272 E0.03364
G1 X16.057 Y-18.744 E0.09146
G1 X16.847 Y-18.136 E0.09146
G1 X17.452 Y-17.586 E0.07499
G1 X18.113 Y-16.879 E0.08883
G1 X18.721 Y-16.090 E0.09146
G1 X19.250 Y-15.243 E0.09158
G1 X19.497 Y-14.783 E0.04791
G1 X19.766 Y-14.214 E0.05777
G1 X19.930 Y-13.807 E0.04026
G1 X20.178 Y-13.068 E0.07146
G1 X20.402 Y-12.224 E0.08012
G1 X20.558 Y-11.292 E0.08673
G1 X20.592 Y-10.954 E0.03112
G1 X20.640 Y-10.000 E0.08767
G1 X20.640 Y10.000 E1.83501
G1 X20.592 Y10.954 E0.08767
G1 X20.473 Y11.865 E0.08423
G1 X20.261 Y12.786 E0.08673
G1 X19.930 Y13.807 E0.09846
G1 X19.766 Y14.214 E0.04026
G1 X19.405 Y14.964 E0.07636
G1 X18.925 Y15.785 E0.08729
G1 X18.346 Y16.596 E0.09146
G1 X17.690 Y17.347 E0.09148
G1 X16.847 Y18.136 E0.10594
G1 X16.057 Y18.744 E0.09146
G1 X15.212 Y19.272 E0.09146
G1 X14.888 Y19.445 E0.03364
G1 X14.220 Y19.759 E0.06775
G1 X13.836 Y19.918 E0.03817
G1 X13.241 Y20.131 E0.05792
G1 X12.279 Y20.390 E0.09146
G1 X11.919 Y20.462 E0.03364
G1 X10.900 Y20.595 E0.09430
G1 X9.960 Y20.639 E0.08633
G1 X-10.040 Y20.639 E1.83501
G1 X-10.853 Y20.603 E0.07467
G1 X-11.841 Y20.475 E0.09146
G1 X-12.975 Y20.209 E0.10683
G1 X-13.910 Y19.893 E0.09058
G1 X-14.819 Y19.483 E0.09146
G1 X-15.142 Y19.310 E0.03363
G1 X-15.807 Y18.908 E0.07127
G1 X-16.626 Y18.320 E0.09255
G1 X-17.377 Y17.664 E0.09146
G1 X-18.060 Y16.937 E0.09151
G1 X-18.765 Y16.023 E0.10590
G1 X-18.968 Y15.718 E0.03364
G1 X-19.465 Y14.854 E0.09146
G1 X-19.875 Y13.946 E0.09146
G1 X-20.155 Y13.157 E0.07675
G1 X-20.399 Y12.240 E0.08707
G1 X-20.470 Y11.881 E0.03364
G1 X-20.599 Y10.892 E0.09146
G1 X-20.630 Y10.261 E0.05796
G1 X-20.630 Y9.739 E0.04791
G1 X-20.563 Y8.743 E0.09157
G1 X-20.399 Y7.760 E0.09146
G1 X-20.245 Y7.148 E0.05788
G1 X-20.088 Y6.650 E0.04790
G1 X-19.735 Y5.716 E0.09166
G1 X-19.293 Y4.822 E0.09146
G1 X-18.765 Y3.977 E0.09146
G1 X-18.240 Y3.277 E0.08026
G1 X-17.636 Y2.595 E0.08356
G1 X-7.566 Y-7.481 E1.30704
G1 E-3.20000 F3000.00000
G1 Z0.700 F9000.000
G1 X8.155 Y7.769 F9000.000
G1 Z0.300 F9000.000
G1 E3.20000 F3000.00000
G1 X8.767 Y7.380 E0.06658 F900.000
G1 X9.458 Y7.156 E0.06658
G1 X10.157 Y7.112 E0.06428 F900.000
G1 X10.889 Y7.244 E0.06828
G1 X11.551 Y7.556 E0.06713
G1 X12.110 Y8.018 E0.06658
G1 X12.537 Y8.605 E0.06658
G1 X12.804 Y9.280 E0.06658
G1 X12.895 Y10.000 E0.06658
G1 X12.804 Y10.720 E0.06658
G1 X12.537 Y11.395 E0.06658
G1 X12.107 Y11.987 E0.06713
G1 X11.529 Y12.455 E0.06828
G1 X10.895 Y12.753 E0.06428
G1 X10.182 Y12.889 E0.06658
G1 X9.458 Y12.844 E0.06658
G1 X8.767 Y12.620 E0.06658
G1 X8.150 Y12.227 E0.06713
G1 X7.646 Y11.680 E0.06828
G1 X7.308 Y11.066 E0.06428
G1 X7.128 Y10.363 E0.06658
G1 X7.128 Y9.637 E0.06658
G1 X7.308 Y8.934 E0.06658
G1 X7.658 Y8.298 E0.06658
G1 X8.114 Y7.813 E0.06108
G1 X8.627 Y8.341 F9000.000
G1 X9.083 Y8.051 E0.04953 F900.000
G1 X9.596 Y7.885 E0.04953
G1 X10.114 Y7.852 E0.04758 F900.000
G1 X10.664 Y7.951 E0.05123
G1 X11.154 Y8.182 E0.04972
G1 X11.570 Y8.526 E0.04953
G1 X11.887 Y8.963 E0.04953
G1 X12.086 Y9.464 E0.04953
G1 X12.154 Y10.000 E0.04953
G1 X12.086 Y10.536 E0.04953
G1 X11.887 Y11.037 E0.04953
G1 X11.569 Y11.476 E0.04972
G1 X11.135 Y11.827 E0.05123
G1 X10.665 Y12.048 E0.04758
G1 X10.135 Y12.149 E0.04953
G1 X9.596 Y12.115 E0.04953
G1 X9.083 Y11.949 E0.04953
G1 X8.625 Y11.658 E0.04972
G1 X8.247 Y11.247 E0.05123
G1 X7.998 Y10.793 E0.04758
G1 X7.863 Y10.270 E0.04953
G1 X7.863 Y9.730 E0.04953
G1 X7.998 Y9.207 E0.04953
G1 X8.258 Y8.734 E0.04953
G1 X8.586 Y8.384 E0.04402
G1 X8.577 Y7.944 F9000.000
G1 X6.948 Y5.121 F9000.000
G1 X7.318 Y4.895 E0.03980 F900.000
G1 X7.784 Y4.675 E0.04721
G1 X8.273 Y4.500 E0.04765
G1 X8.929 Y4.335 E0.06210
G1 X9.442 Y4.259 E0.04759
G1 X9.960 Y4.234 E0.04761
G1 X10.488 Y4.260 E0.04843
G1 X11.157 Y4.350 E0.06194 F900.000
G1 X11.653 Y4.474 E0.04695
G1 X12.145 Y4.651 E0.04797
G1 X12.758 Y4.936 E0.06204
G1 X13.200 Y5.201 E0.04732
G1 X13.616 Y5.510 E0.04753
G1 X14.117 Y5.965 E0.06209
G1 X14.466 Y6.351 E0.04771
G1 X14.773 Y6.763 E0.04716
G1 X15.115 Y7.346 E0.06200
G1 X15.334 Y7.809 E0.04698
G1 X15.546 Y8.441 E0.06122
G1 X15.663 Y8.905 E0.04390
G1 X15.732 Y9.372 E0.04327
G1 X15.767 Y10.000 E0.05772
G1 X15.732 Y10.628 E0.05772
G1 X15.663 Y11.095 E0.04327
G1 X15.546 Y11.559 E0.04389
G1 X15.336 Y12.185 E0.06066
G1 X15.046 Y12.781 E0.06078
G1 X14.776 Y13.233 E0.04830
G1 X14.466 Y13.649 E0.04761
G1 X14.117 Y14.035 E0.04771
G1 X13.616 Y14.490 E0.06209
G1 X13.200 Y14.799 E0.04753
G1 X12.758 Y15.064 E0.04732
G1 X12.145 Y15.349 E0.06204
G1 X11.653 Y15.526 E0.04797
G1 X11.149 Y15.652 E0.04761
G1 X10.632 Y15.728 E0.04804
G1 X9.957 Y15.766 E0.06203
G1 X9.442 Y15.741 E0.04727
G1 X8.929 Y15.665 E0.04759
G1 X8.273 Y15.500 E0.06210
G1 X7.784 Y15.325 E0.04765
G1 X7.318 Y15.105 E0.04721
G1 X6.741 Y14.753 E0.06201
G1 X6.320 Y14.441 E0.04810
G1 X5.936 Y14.092 E0.04761
G1 X5.585 Y13.705 E0.04791
G1 X5.180 Y13.164 E0.06205
G1 X4.914 Y12.721 E0.04737
G1 X4.693 Y12.253 E0.04748
G1 X4.467 Y11.616 E0.06208
G1 X4.340 Y11.111 E0.04778
G1 X4.265 Y10.603 E0.04711
G1 X4.238 Y9.928 E0.06198
G1 X4.264 Y9.403 E0.04823
G1 X4.340 Y8.889 E0.04761
G1 X4.467 Y8.384 E0.04778
G1 X4.693 Y7.747 E0.06208
G1 X4.914 Y7.279 E0.04748
G1 X5.180 Y6.836 E0.04737
G1 X5.585 Y6.295 E0.06205
G1 X5.936 Y5.908 E0.04791
G1 X6.320 Y5.559 E0.04761
G1 X6.897 Y5.152 E0.06476
G1 X6.514 Y4.524 F9000.000
G1 X6.969 Y4.247 E0.04888 F900.000
G1 X7.502 Y3.995 E0.05410
G1 X8.059 Y3.795 E0.05426
G1 X8.785 Y3.613 E0.06874
G1 X9.370 Y3.526 E0.05423
G1 X9.960 Y3.497 E0.05424
G1 X10.555 Y3.526 E0.05463
G1 X11.296 Y3.627 E0.06857 F900.000
G1 X11.867 Y3.770 E0.05401
G1 X12.425 Y3.969 E0.05441
G1 X13.103 Y4.286 E0.06867
G1 X13.610 Y4.589 E0.05414
G1 X14.084 Y4.941 E0.05422
G1 X14.638 Y5.445 E0.06872
G1 X15.036 Y5.883 E0.05429
G1 X15.387 Y6.357 E0.05408
G1 X15.766 Y7.002 E0.06863
G1 X16.017 Y7.533 E0.05397
G1 X16.253 Y8.234 E0.06785
G1 X16.385 Y8.762 E0.04987
G1 X16.464 Y9.297 E0.04965
G1 X16.504 Y10.000 E0.06460
G1 X16.464 Y10.703 E0.06460
G1 X16.385 Y11.238 E0.04965
G1 X16.253 Y11.766 E0.04987
G1 X16.018 Y12.465 E0.06765
G1 X15.694 Y13.132 E0.06807
G1 X15.388 Y13.642 E0.05457
G1 X15.036 Y14.117 E0.05424
G1 X14.638 Y14.555 E0.05429
G1 X14.084 Y15.059 E0.06872
G1 X13.610 Y15.411 E0.05422
G1 X13.103 Y15.714 E0.05414
G1 X12.425 Y16.031 E0.06867
G1 X11.867 Y16.230 E0.05441
G1 X11.293 Y16.374 E0.05424
G1 X10.706 Y16.461 E0.05444
G1 X9.959 Y16.503 E0.06866
G1 X9.370 Y16.474 E0.05412
G1 X8.785 Y16.387 E0.05423
G1 X8.059 Y16.205 E0.06874
G1 X7.502 Y16.005 E0.05426
G1 X6.969 Y15.753 E0.05410
G1 X6.330 Y15.364 E0.06864
G1 X5.853 Y15.010 E0.05447
G1 X5.415 Y14.613 E0.05424
G1 X5.017 Y14.174 E0.05438
G1 X4.568 Y13.575 E0.06869
G1 X4.265 Y13.068 E0.05416
G1 X4.012 Y12.534 E0.05420
G1 X3.762 Y11.829 E0.06871
G1 X3.618 Y11.254 E0.05432
G1 X3.531 Y10.671 E0.05407
G1 X3.502 Y9.924 E0.06862
G1 X3.531 Y9.330 E0.05454
G1 X3.618 Y8.746 E0.05424
G1 X3.762 Y8.171 E0.05432
G1 X4.012 Y7.466 E0.06871
G1 X4.265 Y6.932 E0.05420
G1 X4.568 Y6.425 E0.05416
G1 X5.017 Y5.826 E0.06869
G1 X5.415 Y5.387 E0.05438
G1 X5.853 Y4.990 E0.05424
G1 X6.463 Y4.555 E0.06869
G1 X6.869 Y4.708 F9000.000
G1 X10.955 Y4.807 F9000.000
G1 X15.190 Y9.041 E0.59067 F900.000
G1 X15.310 Y10.280 E0.12275
G1 X9.718 Y4.688 E0.78001
G1 X8.727 Y4.815 E0.09857
G1 X10.620 Y6.709 E0.26415
G1 X9.506 Y6.713 E0.10991
G1 X7.869 Y5.075 E0.22835
G1 X7.138 Y5.463 E0.08159
G1 X8.661 Y6.986 E0.21247
G1 X7.977 Y7.420 E0.07992
G1 X6.487 Y5.930 E0.20787
G1 X5.928 Y6.489 E0.07799
G1 X7.424 Y7.985 E0.20867
G1 X7.000 Y8.679 E0.08022
G1 X5.456 Y7.136 E0.21529
G1 X5.078 Y7.876 E0.08198
G1 X6.728 Y9.526 E0.23010
G1 X6.679 Y10.595 E0.10557
G1 X4.810 Y8.726 E0.26065
G1 X4.690 Y9.725 E0.09922
G1 X10.272 Y15.307 E0.77857
G1 X11.275 Y15.191 E0.09954
G1 X9.383 Y13.299 E0.26391
G1 X10.467 Y13.265 E0.10699
G1 X12.123 Y14.921 E0.23092
G1 X12.864 Y14.544 E0.08203
G1 X11.315 Y12.995 E0.21607
G1 X12.005 Y12.566 E0.08008
G1 X13.508 Y14.069 E0.20964
G1 X14.068 Y13.511 E0.07799
G1 X12.568 Y12.011 E0.20921
G1 X12.998 Y11.323 E0.08003
G1 X14.540 Y12.865 E0.21502
G1 X14.922 Y12.129 E0.08180
G1 X13.269 Y10.476 E0.23056
G1 X13.290 Y9.378 E0.10824
G1 X15.188 Y11.277 E0.26475
G1 X14.118 Y6.852 F9000.000
G1 X13.221 Y5.954 E0.12522 F900.000
G1 X4.810 Y10.963 F9000.000
G1 X9.030 Y15.183 E0.58857 F900.000
G1 X6.823 Y14.094 F9000.000
G1 X5.934 Y13.206 E0.12390 F900.000
G1 E-3.20000 F3000.00000
G1 Z0.700 F9000.000
G1 X-7.196 Y10.720 F9000.000
G1 Z0.300 F9000.000
G1 E3.20000 F3000.00000
G1 X-7.463 Y11.395 E0.06658 F900.000
G1 X-7.893 Y11.987 E0.06713
G1 X-8.471 Y12.455 E0.06828
G1 X-9.105 Y12.753 E0.06428
G1 X-9.818 Y12.889 E0.06658
G1 X-10.542 Y12.844 E0.06658
G1 X-11.233 Y12.620 E0.06658
G1 X-11.850 Y12.227 E0.06713
G1 X-12.354 Y11.680 E0.06828
G1 X-12.692 Y11.066 E0.06428
G1 X-12.872 Y10.363 E0.06658
G1 X-12.872 Y9.637 E0.06658
G1 X-12.692 Y8.934 E0.06658
G1 X-12.342 Y8.298 E0.06658
G1 X-11.845 Y7.769 E0.06658
G1 X-11.233 Y7.380 E0.06658
G1 X-10.542 Y7.156 E0.06658
G1 X-9.843 Y7.112 E0.06428 F900.000
G1 X-9.111 Y7.244 E0.06828
G1 X-8.449 Y7.556 E0.06713
G1 X-7.890 Y8.018 E0.06658
G1 X-7.463 Y8.605 E0.06658
G1 X-7.196 Y9.280 E0.06658
G1 X-7.105 Y10.000 E0.06658
G1 X-7.188 Y10.660 E0.06108
G1 X-7.914 Y10.536 F9000.000
G1 X-8.113 Y11.037 E0.04953 F900.000
G1 X-8.431 Y11.476 E0.04972
G1 X-8.865 Y11.827 E0.05123
G1 X-9.335 Y12.048 E0.04758
G1 X-9.865 Y12.149 E0.04953
G1 X-10.404 Y12.115 E0.04953
G1 X-10.917 Y11.949 E0.04953
G1 X-11.375 Y11.658 E0.04972
G1 X-11.753 Y11.247 E0.05123
G1 X-12.002 Y10.793 E0.04758
G1 X-12.137 Y10.270 E0.04953
G1 X-12.137 Y9.730 E0.04953
G1 X-12.002 Y9.207 E0.04953
G1 X-11.742 Y8.734 E0.04953
G1 X-11.373 Y8.341 E0.04953
G1 X-10.917 Y8.051 E0.04953
G1 X-10.404 Y7.885 E0.04953
G1 X-9.886 Y7.852 E0.04758 F900.000
G1 X-9.336 Y7.951 E0.05123
G1 X-8.846 Y8.182 E0.04972
G1 X-8.430 Y8.526 E0.04953
G1 X-8.113 Y8.963 E0.04953
G1 X-7.914 Y9.464 E0.04953
G1 X-7.846 Y10.000 E0.04953
G1 X-7.907 Y10.476 E0.04402
G1 X-7.640 Y10.827 F9000.000
G1 E-3.20000 F3000.00000
G1 Z0.700 F9000.000
G1 X-15.108 Y12.674 F9000.000
G1 Z0.300 F9000.000
G1 E3.20000 F3000.00000
G1 X-15.307 Y12.253 E0.04273 F900.000
G1 X-15.533 Y11.616 E0.06208
G1 X-15.660 Y11.111 E0.04778
G1 X-15.735 Y10.603 E0.04711
G1 X-15.762 Y9.928 E0.06198
G1 X-15.736 Y9.403 E0.04823
G1 X-15.660 Y8.889 E0.04761
G1 X-15.533 Y8.384 E0.04778
G1 X-15.307 Y7.747 E0.06208
G1 X-15.086 Y7.279 E0.04748
G1 X-14.820 Y6.836 E0.04737
G1 X-14.415 Y6.295 E0.06205
G1 X-14.064 Y5.908 E0.04791
G1 X-13.680 Y5.559 E0.04761
G1 X-13.259 Y5.247 E0.04810
G1 X-12.682 Y4.895 E0.06201
G1 X-12.216 Y4.675 E0.04721
G1 X-11.727 Y4.500 E0.04765
G1 X-11.071 Y4.335 E0.06210
G1 X-10.558 Y4.259 E0.04759
G1 X-10.040 Y4.234 E0.04761
G1 X-9.512 Y4.260 E0.04843
G1 X-8.843 Y4.350 E0.06194 F900.000
G1 X-8.347 Y4.474 E0.04695
G1 X-7.855 Y4.651 E0.04797
G1 X-7.242 Y4.936 E0.06204
G1 X-6.800 Y5.201 E0.04732
G1 X-6.384 Y5.510 E0.04753
G1 X-5.883 Y5.965 E0.06209
G1 X-5.534 Y6.351 E0.04771
G1 X-5.227 Y6.763 E0.04716
G1 X-4.885 Y7.346 E0.06200
G1 X-4.666 Y7.809 E0.04698
G1 X-4.454 Y8.441 E0.06122
G1 X-4.337 Y8.905 E0.04390
G1 X-4.268 Y9.372 E0.04327
G1 X-4.233 Y10.000 E0.05772
G1 X-4.268 Y10.628 E0.05772
G1 X-4.337 Y11.095 E0.04327
G1 X-4.454 Y11.559 E0.04389
G1 X-4.664 Y12.185 E0.06066
G1 X-4.954 Y12.781 E0.06078
G1 X-5.224 Y13.233 E0.04830
G1 X-5.534 Y13.649 E0.04761
G1 X-5.883 Y14.035 E0.04771
G1 X-6.384 Y14.490 E0.06209
G1 X-6.800 Y14.799 E0.04753
G1 X-7.242 Y15.064 E0.04732
G1 X-7.855 Y15.349 E0.06204
G1 X-8.347 Y15.526 E0.04797
G1 X-8.851 Y15.652 E0.04761
G1 X-9.368 Y15.728 E0.04804
G1 X-10.043 Y15.766 E0.06203
G1 X-10.558 Y15.741 E0.04727
G1 X-11.071 Y15.665 E0.04759
G1 X-11.727 Y15.500 E0.06210
G1 X-12.216 Y15.325 E0.04765
G1 X-12.682 Y15.105 E0.04721
G1 X-13.259 Y14.753 E0.06201
G1 X-13.680 Y14.441 E0.04810
G1 X-14.064 Y14.092 E0.04761
G1 X-14.415 Y13.705 E0.04791
G1 X-14.820 Y13.164 E0.06205
G1 X-15.081 Y12.728 E0.04661
G1 X-15.712 Y13.106 F9000.000
G1 X-15.988 Y12.534 E0.05825 F900.000
G1 X-16.238 Y11.829 E0.06871
G1 X-16.382 Y11.254 E0.05432
G1 X-16.469 Y10.671 E0.05407
G1 X-16.498 Y9.924 E0.06862
G1 X-16.469 Y9.330 E0.05454
G1 X-16.382 Y8.746 E0.05424
G1 X-16.238 Y8.171 E0.05432
G1 X-15.988 Y7.466 E0.06871
G1 X-15.735 Y6.932 E0.05420
G1 X-15.432 Y6.425 E0.05416
G1 X-14.983 Y5.826 E0.06869
G1 X-14.585 Y5.387 E0.05438
G1 X-14.147 Y4.990 E0.05424
G1 X-13.670 Y4.636 E0.05447
G1 X-13.031 Y4.247 E0.06864
G1 X-12.498 Y3.995 E0.05410
G1 X-11.941 Y3.795 E0.05426
G1 X-11.215 Y3.613 E0.06874
G1 X-10.630 Y3.526 E0.05423
G1 X-10.040 Y3.497 E0.05424
G1 X-9.445 Y3.526 E0.05463
G1 X-8.704 Y3.627 E0.06857 F900.000
G1 X-8.133 Y3.770 E0.05401
G1 X-7.575 Y3.969 E0.05441
G1 X-6.897 Y4.286 E0.06867
G1 X-6.390 Y4.589 E0.05414
G1 X-5.916 Y4.941 E0.05422
G1 X-5.362 Y5.445 E0.06872
G1 X-4.964 Y5.883 E0.05429
G1 X-4.613 Y6.357 E0.05408
G1 X-4.234 Y7.002 E0.06863
G1 X-3.983 Y7.533 E0.05397
G1 X-3.747 Y8.234 E0.06785
G1 X-3.615 Y8.762 E0.04987
G1 X-3.536 Y9.297 E0.04965
G1 X-3.496 Y10.000 E0.06460
G1 X-3.536 Y10.703 E0.06460
G1 X-3.615 Y11.238 E0.04965
G1 X-3.747 Y11.766 E0.04987
G1 X-3.982 Y12.465 E0.06765
G1 X-4.306 Y13.132 E0.06807
G1 X-4.612 Y13.642 E0.05457
G1 X-4.964 Y14.117 E0.05424
G1 X-5.362 Y14.555 E0.05429
G1 X-5.916 Y15.059 E0.06872
G1 X-6.390 Y15.411 E0.05422
G1 X-6.897 Y15.714 E0.05414
G1 X-7.575 Y16.031 E0.06867
G1 X-8.133 Y16.230 E0.05441
G1 X-8.707 Y16.374 E0.05424
G1 X-9.294 Y16.461 E0.05444
G1 X-10.041 Y16.503 E0.06866
G1 X-10.630 Y16.474 E0.05412
G1 X-11.215 Y16.387 E0.05423
G1 X-11.941 Y16.205 E0.06874
G1 X-12.498 Y16.005 E0.05426
G1 X-13.031 Y15.753 E0.05410
G1 X-13.670 Y15.364 E0.06864
G1 X-14.147 Y15.010 E0.05447
G1 X-14.585 Y14.613 E0.05424
G1 X-14.983 Y14.174 E0.05438
G1 X-15.432 Y13.575 E0.06869
G1 X-15.682 Y13.158 E0.04458
G1 X-15.497 Y12.769 F9000.000
G1 X-14.066 Y13.206 F9000.000
G1 X-13.177 Y14.094 E0.12390 F900.000
G1 X-10.970 Y15.183 F9000.000
G1 X-15.190 Y10.963 E0.58857 F900.000
G1 X-9.045 Y4.807 F9000.000
G1 X-4.810 Y9.041 E0.59067 F900.000
G1 X-4.690 Y10.280 E0.12275
G1 X-10.282 Y4.688 E0.78001
G1 X-11.273 Y4.815 E0.09857
G1 X-9.380 Y6.709 E0.26415
G1 X-10.494 Y6.713 E0.10991
G1 X-12.131 Y5.075 E0.22835
G1 X-12.862 Y5.463 E0.08159
G1 X-11.339 Y6.986 E0.21247
G1 X-12.023 Y7.420 E0.07992
G1 X-13.513 Y5.930 E0.20787
G1 X-14.072 Y6.489 E0.07799
G1 X-12.576 Y7.985 E0.20867
G1 X-13.000 Y8.679 E0.08022
G1 X-14.544 Y7.136 E0.21529
G1 X-14.922 Y7.876 E0.08198
G1 X-13.272 Y9.526 E0.23010
G1 X-13.321 Y10.595 E0.10557
G1 X-15.190 Y8.726 E0.26065
G1 X-15.310 Y9.725 E0.09922
G1 X-9.728 Y15.307 E0.77857
G1 X-8.725 Y15.191 E0.09954
G1 X-10.617 Y13.299 E0.26391
G1 X-9.533 Y13.265 E0.10699
G1 X-7.877 Y14.921 E0.23092
G1 X-7.136 Y14.544 E0.08203
