; generated by Slic3r 1.2.9 on 2017-01-11 at 15:43:36

; external perimeters extrusion width = 0.50mm
; perimeters extrusion width = 0.50mm
; infill extrusion width = 0.50mm
; solid infill extrusion width = 0.50mm
; top infill extrusion width = 0.50mm

M107
;Basic settings: Layer height: {layer_height} Walls: {wall_thickness} Fill: {fill_density}
;Print time: {print_time}
;Filament used: {filament_amount}m {filament_weight}g
;Filament cost: {filament_cost}
;M190 S{print_bed_temperature} ;Uncomment to add your own bed temperature line
;M109 S{print_temperature} ;Uncomment to add your own temperature line
G21        ;metric values
G90        ;absolute positioning
M83
G10 P0 S200
T0
M116


G21 ; set units to millimeters
G90 ; use absolute coordinates
M83 ; use relative distances for extrusion
G1 E-3.20000 F3000.00000
G1 Z0.400 F9000.000
G1 X-13.783 Y23.872 F9000.000
G1 Z0.300 F9000.000
G1 E3.20000 F3000.00000
G1 X-35.040 Y11.600 E2.25208 F1200.000
G1 X-36.290 Y10.422 E0.15755
G1 X-36.908 Y8.364 E0.19713
G1 X-36.908 Y-8.364 E1.53487
G1 X-36.513 Y-10.036 E0.15755
G1 X-35.040 Y-11.600 E0.19713
G1 X16.835 Y-41.550 E5.49586
G1 X18.480 Y-42.043 E0.15755
G1 X20.571 Y-41.550 E0.19713
G1 X35.058 Y-33.185 E1.53487 F1200.000
G1 X36.308 Y-32.008 E0.15755
G1 X36.926 Y-29.950 E0.19713
G1 X36.926 Y29.950 E5.49586
G1 X36.531 Y31.621 E0.15755
G1 X35.058 Y33.185 E0.19713
G1 X20.571 Y41.550 E1.53487
G1 X18.926 Y42.043 E0.15755
G1 X16.835 Y41.550 E0.19713
G1 X-13.731 Y23.902 E3.23828
G1 E-3.20000 F3000.00000
G1 Z0.700 F9000.000
G1 X4.019 Y24.335 F9000.000
G1 Z0.300 F9000.000
G1 E3.20000 F3000.00000
G1 X6.412 Y22.954 E0.25356 F900.000
G1 X8.806 Y21.572 E0.25354 F900.000
G1 X11.841 Y26.830 E0.55704
G1 X10.090 Y27.841 E0.18549
G1 X4.071 Y24.365 E0.63771
G1 X5.490 Y24.335 F9000.000
G1 X6.780 Y23.591 E0.13666 F900.000
G1 X8.536 Y22.577 E0.18604 F900.000
G1 X10.836 Y26.560 E0.42205
G1 X10.090 Y26.991 E0.07903
G1 X5.542 Y24.365 E0.48184
G1 X5.233 Y24.029 F9000.000
G1 E-3.20000 F3000.00000
G1 Z0.700 F9000.000
G1 X14.953 Y20.694 F9000.000
G1 Z0.300 F9000.000
G1 E3.20000 F3000.00000
G1 X14.843 Y19.931 E0.07078 F900.000
G1 X14.962 Y19.125 E0.07471
G1 X15.233 Y18.470 E0.06502
G1 X15.696 Y17.867 E0.06977
G1 X16.301 Y17.406 E0.06984
G1 X17.002 Y17.119 E0.06949
G1 X17.705 Y17.027 E0.06506 F900.000
G1 X18.506 Y17.125 E0.07399
G1 X19.208 Y17.425 E0.07006
G1 X19.772 Y17.857 E0.06518
G1 X20.257 Y18.489 E0.07307
G1 X20.528 Y19.143 E0.06501
G1 X20.638 Y19.907 E0.07078
G1 X20.519 Y20.712 E0.07471
G1 X20.248 Y21.367 E0.06502
G1 X19.785 Y21.970 E0.06977
G1 X19.182 Y22.430 E0.06959
G1 X18.527 Y22.701 E0.06498
G1 X17.730 Y22.815 E0.07388
G1 X16.966 Y22.708 E0.07079
G1 X16.273 Y22.413 E0.06917
G1 X15.709 Y21.980 E0.06517
G1 X15.224 Y21.349 E0.07307
G1 X14.976 Y20.750 E0.05950
G1 X15.668 Y20.498 F9000.000
G1 X15.587 Y19.932 E0.05249 F900.000
G1 X15.676 Y19.322 E0.05654
G1 X15.875 Y18.841 E0.04773
G1 X16.220 Y18.393 E0.05190
G1 X16.670 Y18.050 E0.05194
G1 X17.193 Y17.836 E0.05181
G1 X17.708 Y17.768 E0.04773 F900.000
G1 X18.313 Y17.843 E0.05586
G1 X18.834 Y18.065 E0.05200
G1 X19.247 Y18.382 E0.04777
G1 X19.614 Y18.860 E0.05530
G1 X19.813 Y19.339 E0.04761
G1 X19.894 Y19.905 E0.05249
G1 X19.805 Y20.515 E0.05654
G1 X19.606 Y20.996 E0.04773
G1 X19.261 Y21.444 E0.05190
G1 X18.812 Y21.787 E0.05185
G1 X18.331 Y21.986 E0.04770
G1 X17.729 Y22.072 E0.05582
G1 X17.165 Y21.993 E0.05226
G1 X16.647 Y21.772 E0.05169
G1 X16.234 Y21.455 E0.04777
G1 X15.866 Y20.977 E0.05530
G1 X15.691 Y20.553 E0.04211
G1 X15.285 Y20.381 F9000.000
G1 E-3.20000 F3000.00000
G1 Z0.700 F9000.000
G1 X24.920 Y15.225 F9000.000
G1 Z0.300 F9000.000
G1 E3.20000 F3000.00000
G1 X23.640 Y13.007 E0.23494 F900.000
G1 X26.033 Y11.626 E0.25354
G1 X28.426 Y10.244 E0.25356 F900.000
G1 X28.426 Y17.254 E0.64322
G1 X26.675 Y18.265 E0.18549
G1 X24.950 Y15.277 E0.31659
G1 X25.587 Y14.909 F9000.000
G1 X24.644 Y13.277 E0.17295 F900.000
G1 X26.400 Y12.263 E0.18604
G1 X27.690 Y11.518 E0.13666 F900.000
G1 X27.690 Y16.830 E0.48734
G1 X26.944 Y17.260 E0.07903
G1 X25.617 Y14.961 E0.24359
G1 X25.187 Y14.909 F9000.000
G1 E-3.20000 F3000.00000
G1 Z0.700 F9000.000
G1 X28.426 Y-10.244 F9000.000
G1 Z0.300 F9000.000
G1 E3.20000 F3000.00000
G1 X23.640 Y-13.007 E0.50710 F900.000
G1 X24.789 Y-14.999 E0.21095
G1 X26.675 Y-18.265 E0.34608 F900.000
G1 X28.426 Y-17.254 E0.18549
G1 X28.426 Y-10.304 E0.63771
G1 X27.690 Y-11.518 F9000.000
G1 X24.644 Y-13.277 E0.32270 F900.000
G1 X26.944 Y-17.260 E0.42205
G1 X27.690 Y-16.830 E0.07903
G1 X27.690 Y-11.578 E0.48184
G1 X27.554 Y-11.142 F9000.000
G1 E-3.20000 F3000.00000
G1 Z0.700 F9000.000
G1 X19.804 Y-17.889 F9000.000
G1 Z0.300 F9000.000
G1 E3.20000 F3000.00000
G1 X19.167 Y-17.399 E0.07375 F900.000
G1 X18.465 Y-17.117 E0.06943
G1 X17.761 Y-17.024 E0.06510
G1 X16.972 Y-17.128 E0.07300
G1 X16.317 Y-17.399 E0.06512
G1 X15.712 Y-17.853 E0.06938
G1 X15.223 Y-18.490 E0.07360
G1 X14.952 Y-19.145 E0.06510
G1 X14.845 Y-19.894 E0.06943
G1 X14.951 Y-20.691 E0.07375
G1 X15.233 Y-21.366 E0.06713
G1 X15.677 Y-21.948 E0.06713
G1 X16.314 Y-22.438 E0.07375
G1 X17.016 Y-22.720 E0.06943
G1 X17.719 Y-22.813 E0.06510 F900.000
G1 X18.508 Y-22.709 E0.07300
G1 X19.164 Y-22.438 E0.06512
G1 X19.769 Y-21.984 E0.06938
G1 X20.257 Y-21.348 E0.07360
G1 X20.529 Y-20.692 E0.06510
G1 X20.636 Y-19.943 E0.06943
G1 X20.530 Y-19.146 E0.07375
G1 X20.248 Y-18.471 E0.06713
G1 X19.840 Y-17.937 E0.06163
G1 X19.278 Y-18.413 F9000.000
G1 X18.799 Y-18.044 E0.05549 F900.000
G1 X18.277 Y-17.834 E0.05161
G1 X17.761 Y-17.766 E0.04772
G1 X17.164 Y-17.845 E0.05522
G1 X16.684 Y-18.044 E0.04773
G1 X16.234 Y-18.381 E0.05159
G1 X15.866 Y-18.860 E0.05544
G1 X15.667 Y-19.341 E0.04772
G1 X15.588 Y-19.898 E0.05161
G1 X15.667 Y-20.497 E0.05549
G1 X15.876 Y-20.995 E0.04952
G1 X16.203 Y-21.425 E0.04952
G1 X16.682 Y-21.793 E0.05549
G1 X17.204 Y-22.003 E0.05161
G1 X17.720 Y-22.071 E0.04772 F900.000
G1 X18.316 Y-21.993 E0.05522
G1 X18.797 Y-21.793 E0.04773
G1 X19.247 Y-21.456 E0.05159
G1 X19.615 Y-20.977 E0.05544
G1 X19.814 Y-20.496 E0.04772
G1 X19.893 Y-19.939 E0.05161
G1 X19.813 Y-19.340 E0.05549
G1 X19.605 Y-18.842 E0.04952
G1 X19.314 Y-18.460 E0.04402
G1 X19.365 Y-18.022 F9000.000
G1 E-3.20000 F3000.00000
G1 Z0.700 F9000.000
G1 X10.085 Y-23.789 F9000.000
G1 Z0.300 F9000.000
G1 E3.20000 F3000.00000
G1 X8.806 Y-21.572 E0.23486 F900.000
G1 X4.019 Y-24.335 E0.50710
G1 X8.298 Y-26.805 E0.45327
G1 X10.090 Y-27.841 E0.18994 F900.000
G1 X11.841 Y-26.830 E0.18549
G1 X10.115 Y-23.841 E0.31667
G1 X9.478 Y-24.208 F9000.000
G1 X8.536 Y-22.577 E0.17287 F900.000
G1 X5.490 Y-24.335 E0.32270
G1 X8.665 Y-26.168 E0.33637
G1 X10.090 Y-26.991 E0.15097 F900.000
G1 X10.836 Y-26.560 E0.07903
G1 X9.508 Y-24.260 E0.24367
G1 X9.678 Y-23.862 F9000.000
G1 E-3.20000 F3000.00000
G1 Z0.700 F9000.000
G1 X4.885 Y-19.598 F9000.000
G1 Z0.300 F9000.000
G1 E3.20000 F3000.00000
G1 X5.168 Y-19.228 E0.04277 F900.000
G1 X6.600 Y-16.749 E0.26261
G1 X7.121 Y-15.565 E0.11868
G1 X11.897 Y-15.565 E0.43824
G1 X14.227 Y-11.530 E0.42755
G1 X12.624 Y-8.752 E0.29428
G1 X13.591 Y-8.686 E0.08898
G1 X23.428 Y-8.686 E0.90253
G1 X23.890 Y-8.625 E0.04277
G1 X24.393 Y-8.416 E0.04996
G1 X24.825 Y-8.085 E0.04996
G1 X25.157 Y-7.653 E0.04996
G1 X25.365 Y-7.150 E0.04996
G1 X25.425 Y-6.698 E0.04179
G1 X25.735 Y-6.637 E0.02902
G1 X26.595 Y-8.126 E0.15776
G1 X28.426 Y-7.635 E0.17397
G1 X28.426 Y7.635 E1.40101
G1 X26.595 Y8.126 E0.17397
G1 X25.738 Y6.641 E0.15724
G1 X25.422 Y6.711 E0.02969
G1 X25.399 Y6.971 E0.02393
G1 X25.305 Y7.321 E0.03327
G1 X25.141 Y7.674 E0.03566
G1 X24.825 Y8.085 E0.04755
G1 X24.393 Y8.416 E0.04996
G1 X23.890 Y8.625 E0.04996
G1 X23.428 Y8.686 E0.04277
G1 X20.565 Y8.686 E0.26269
G1 X18.782 Y8.488 E0.16460
G1 X17.857 Y11.941 E0.32796
G1 X13.356 Y13.147 E0.42755
G1 X10.978 Y10.770 E0.30848
G1 X5.623 Y20.046 E0.98275
G1 X3.492 Y18.614 E0.23558
G1 X2.460 Y17.695 E0.12670
G1 X1.553 Y16.631 E0.12832
G1 X0.808 Y15.468 E0.12669
G1 X0.229 Y14.215 E0.12667
G1 X-0.160 Y12.944 E0.12193
G1 X-0.863 Y10.162 E0.26328
G1 X-1.666 Y7.414 E0.26268
G1 X-2.548 Y4.762 E0.25644
G1 X-3.550 Y2.081 E0.26264
G1 X-4.652 Y-0.561 E0.26264
G1 X-5.821 Y-3.100 E0.25647
G1 X-7.113 Y-5.654 E0.26260
G1 X-8.482 Y-8.129 E0.25945
G1 X-9.875 Y-10.542 E0.25571
G1 X-10.054 Y-10.973 E0.04277
G1 X-10.125 Y-11.513 E0.04996
G1 X-10.054 Y-12.053 E0.04996
G1 X-9.845 Y-12.556 E0.04996
G1 X-9.514 Y-12.988 E0.04996
G1 X-9.153 Y-13.265 E0.04179
G1 X-9.254 Y-13.564 E0.02902
G1 X-10.974 Y-13.564 E0.15776
G1 X-11.464 Y-15.396 E0.17397
G1 X-6.665 Y-18.167 E0.50845
G1 X1.760 Y-23.031 E0.89255 F900.000
G1 X3.100 Y-21.690 E0.17397
G1 X2.241 Y-20.201 E0.15776
G1 X2.449 Y-19.963 E0.02902
G1 X2.870 Y-20.137 E0.04179
G1 X3.410 Y-20.209 E0.04996
G1 X3.950 Y-20.137 E0.04996
G1 X4.453 Y-19.929 E0.04996
G1 X4.837 Y-19.634 E0.04445
G1 X4.360 Y-19.073 F9000.000
G1 X4.556 Y-18.818 E0.02946 F900.000
G1 X5.943 Y-16.416 E0.25452
G1 X6.567 Y-14.999 E0.14208
G1 X6.873 Y-13.463 E0.14365
G1 X7.662 Y-14.830 E0.14474
G1 X11.473 Y-14.830 E0.34962
G1 X13.378 Y-11.530 E0.34962
G1 X11.427 Y-8.151 E0.35797
G1 X11.816 Y-8.070 E0.03646
G1 X13.566 Y-7.950 E0.16092
G1 X23.380 Y-7.950 E0.90042
G1 X23.698 Y-7.908 E0.02946
G1 X24.022 Y-7.774 E0.03219
G1 X24.301 Y-7.560 E0.03219
G1 X24.514 Y-7.282 E0.03219
G1 X24.648 Y-6.958 E0.03219
G1 X24.690 Y-6.639 E0.02946
G1 X24.690 Y6.630 E1.21745
G1 X24.672 Y6.843 E0.01965
G1 X24.611 Y7.069 E0.02146
G1 X24.508 Y7.290 E0.02237
G1 X24.301 Y7.560 E0.03128
G1 X24.022 Y7.774 E0.03219
G1 X23.698 Y7.908 E0.03219
G1 X23.380 Y7.950 E0.02946
G1 X20.606 Y7.950 E0.25454
G1 X19.076 Y7.781 E0.14119
G1 X18.283 Y7.509 E0.07694
G1 X17.256 Y11.341 E0.36396
G1 X13.575 Y12.327 E0.34962
G1 X10.820 Y9.572 E0.35747
G1 X5.379 Y18.996 E0.99846
G1 X3.943 Y18.031 E0.15873
G1 X2.987 Y17.180 E0.11748
G1 X2.145 Y16.192 E0.11907
G1 X1.455 Y15.114 E0.11747
G1 X0.918 Y13.952 E0.11747
G1 X0.549 Y12.747 E0.11565
G1 X-0.153 Y9.969 E0.26285
G1 X-0.963 Y7.195 E0.26517
G1 X-1.854 Y4.517 E0.25892
G1 X-2.866 Y1.810 E0.26514
G1 X-3.978 Y-0.857 E0.26513
G1 X-5.158 Y-3.420 E0.25894
G1 X-6.463 Y-5.998 E0.26509
G1 X-7.841 Y-8.491 E0.26131
G1 X-9.214 Y-10.868 E0.25190
G1 X-9.337 Y-11.165 E0.02946
G1 X-9.383 Y-11.513 E0.03219
G1 X-9.337 Y-11.861 E0.03219
G1 X-9.203 Y-12.185 E0.03219
G1 X-8.989 Y-12.463 E0.03219
G1 X-8.735 Y-12.658 E0.02946
G1 X2.765 Y-19.298 E1.21835
G1 X3.062 Y-19.421 E0.02946
G1 X3.410 Y-19.467 E0.03219 F900.000
G1 X3.758 Y-19.421 E0.03219
G1 X4.082 Y-19.287 E0.03219
G1 X4.312 Y-19.109 E0.02668
G1 X4.674 Y-19.142 F9000.000
G1 X1.649 Y-20.647 F9000.000
G1 X1.272 Y-19.995 E0.06915 F900.000
G1 X-8.591 Y-14.300 E1.04497
G1 X-10.409 Y-14.300 E0.16680
G1 X-10.608 Y-15.041 E0.07039
G1 X-6.297 Y-17.530 E0.45666
G1 X1.639 Y-22.111 E0.84077 F900.000
G1 X2.181 Y-21.569 E0.07039
G1 X1.679 Y-20.699 E0.09214
G1 X1.849 Y-20.301 F9000.000
G1 X26.447 Y-6.399 F9000.000
G1 X26.949 Y-7.269 E0.09214 F900.000
G1 X27.690 Y-7.070 E0.07039
G1 X27.690 Y7.070 E1.29743
G1 X26.949 Y7.269 E0.07039
G1 X26.040 Y5.695 E0.16680
G1 X26.040 Y-5.695 E1.04497
G1 X26.288 Y-6.124 E0.04547
G1 X26.417 Y-6.347 E0.02368 F900.000
G1 X26.247 Y-6.746 F9000.000
G1 E-3.20000 F3000.00000
G1 Z0.700 F9000.000
G1 X-13.724 Y-8.564 F9000.000
G1 Z0.300 F9000.000
G1 E3.20000 F3000.00000
G1 X-19.795 Y-8.564 E0.55704 F900.000
G1 X-19.795 Y-10.586 E0.18549
G1 X-18.002 Y-11.621 E0.18994
G1 X-13.724 Y-14.091 E0.45327 F900.000
G1 X-13.724 Y-8.624 E0.50159
G1 X-14.460 Y-9.300 F9000.000
G1 X-19.060 Y-9.300 E0.42205 F900.000
G1 X-19.060 Y-10.161 E0.07903
G1 X-17.635 Y-10.984 E0.15097
G1 X-14.460 Y-12.817 E0.33637 F900.000
G1 X-14.460 Y-9.360 E0.31720
G1 X-14.460 Y-8.900 F9000.000
G1 X-15.990 Y-2.790 F9000.000
G1 X-15.334 Y-2.518 E0.06518 F900.000
G1 X-14.723 Y-2.060 E0.07006
G1 X-14.238 Y-1.416 E0.07399
G1 X-13.966 Y-0.761 E0.06506
G1 X-13.864 Y-0.010 E0.06949
G1 X-13.961 Y0.745 E0.06984
G1 X-14.252 Y1.449 E0.06989
G1 X-14.720 Y2.056 E0.07038
G1 X-15.328 Y2.516 E0.06988
G1 X-15.981 Y2.786 E0.06487
G1 X-16.758 Y2.897 E0.07205
G1 X-17.534 Y2.788 E0.07182
G1 X-18.186 Y2.518 E0.06475
G1 X-18.796 Y2.059 E0.07006
G1 X-19.282 Y1.416 E0.07399
G1 X-19.553 Y0.761 E0.06506
G1 X-19.655 Y0.010 E0.06948
G1 X-19.558 Y-0.745 E0.06984
G1 X-19.267 Y-1.449 E0.06989
G1 X-18.799 Y-2.056 E0.07038
G1 X-18.186 Y-2.520 E0.07050
G1 X-17.482 Y-2.802 E0.06962
G1 X-16.779 Y-2.894 E0.06500 F900.000
G1 X-16.049 Y-2.798 E0.06756
G1 X-16.182 Y-2.073 F9000.000
G1 X-15.701 Y-1.874 E0.04777 F900.000
G1 X-15.248 Y-1.534 E0.05200
G1 X-14.881 Y-1.048 E0.05586
G1 X-14.682 Y-0.567 E0.04773
G1 X-14.606 Y-0.007 E0.05181
G1 X-14.678 Y0.554 E0.05194
G1 X-14.894 Y1.077 E0.05194
G1 X-15.243 Y1.529 E0.05234
G1 X-15.696 Y1.872 E0.05219
G1 X-16.177 Y2.071 E0.04771
G1 X-16.759 Y2.154 E0.05398
G1 X-17.339 Y2.073 E0.05369
G1 X-17.818 Y1.874 E0.04763
G1 X-18.271 Y1.534 E0.05200
G1 X-18.638 Y1.048 E0.05586
G1 X-18.837 Y0.567 E0.04773
G1 X-18.913 Y0.007 E0.05181
G1 X-18.841 Y-0.554 E0.05194
G1 X-18.625 Y-1.077 E0.05194
G1 X-18.277 Y-1.529 E0.05234
G1 X-17.821 Y-1.873 E0.05241
G1 X-17.294 Y-2.085 E0.05208
G1 X-16.780 Y-2.152 E0.04761 F900.000
G1 X-16.242 Y-2.081 E0.04979
G1 X-15.887 Y-2.344 F9000.000
G1 E-3.20000 F3000.00000
G1 Z0.700 F9000.000
G1 X-16.242 Y8.564 F9000.000
G1 Z0.300 F9000.000
G1 E3.20000 F3000.00000
G1 X-13.724 Y8.564 E0.23099 F900.000
G1 X-13.724 Y14.091 E0.50710
G1 X-19.795 Y10.586 E0.64321
G1 X-19.795 Y8.564 E0.18549
G1 X-16.302 Y8.564 E0.32054 F900.000
G1 X-16.302 Y9.300 F9000.000
G1 X-14.460 Y9.300 E0.16900 F900.000
G1 X-14.460 Y12.817 E0.32270
G1 X-19.060 Y10.161 E0.48734
G1 X-19.060 Y9.300 E0.07903
G1 X-16.362 Y9.300 E0.24755 F900.000
G1 X-16.102 Y8.954 F9000.000
G1 E-3.20000 F3000.00000
G1 Z0.700 F9000.000
G1 X-10.974 Y13.564 F9000.000
G1 Z0.300 F9000.000
G1 E3.20000 F3000.00000
G1 X-8.394 Y13.564 E0.23667 F900.000
G1 X1.811 Y19.456 E1.08114
G1 X3.100 Y21.690 E0.23667
G1 X1.760 Y23.031 E0.17397
G1 X-11.464 Y15.396 E1.40101
G1 X-10.989 Y13.622 E0.16846
G1 X-10.409 Y14.300 F9000.000
G1 X-9.087 Y14.300 E0.12133 F900.000
G1 X-8.591 Y14.300 E0.04547 F900.000
G1 X1.272 Y19.995 E1.04497
G1 X2.181 Y21.569 E0.16680
G1 X1.639 Y22.111 E0.07039
G1 X-10.608 Y15.041 E1.29743
G1 X-10.425 Y14.358 E0.06488
G1 X-10.374 Y13.902 F9000.000
G1 X-19.710 Y14.826 F9000.000
G1 X-31.621 Y7.949 E1.26191 F900.000
G1 X-29.806 Y4.806 E0.33294
G1 X-25.834 Y7.100 E0.42085
G1 X-24.495 Y5.625 E0.18276
G1 X-25.560 Y4.131 E0.16842
G1 X-25.943 Y3.668 E0.05508
G1 X-26.966 Y2.672 E0.13103
G1 X-26.362 Y2.421 E0.06002
G1 X-25.783 Y1.977 E0.06697
G1 X-25.338 Y1.397 E0.06704
G1 X-25.057 Y0.712 E0.06792
G1 X-24.964 Y-0.002 E0.06611
G1 X-25.059 Y-0.724 E0.06677
G1 X-25.338 Y-1.398 E0.06696
G1 X-25.783 Y-1.977 E0.06696
G1 X-26.362 Y-2.421 E0.06697
G1 X-26.966 Y-2.672 E0.06002
G1 X-25.943 Y-3.668 E0.13103
G1 X-25.560 Y-4.131 E0.05508
G1 X-24.495 Y-5.625 E0.16842
G1 X-25.834 Y-7.100 E0.18276
G1 X-29.806 Y-4.806 E0.42085
G1 X-31.621 Y-7.949 E0.33294
G1 X18.287 Y-36.763 E5.28747
G1 X20.102 Y-33.621 E0.33294
G1 X13.619 Y-29.878 E0.68677 F900.000
G1 X28.426 Y-21.329 E1.56870
G1 X28.426 Y-28.814 E0.68678
G1 X32.055 Y-28.814 E0.33294
G1 X32.055 Y28.814 E5.28747
G1 X28.426 Y28.814 E0.33294
G1 X28.426 Y23.958 E0.44560
G1 X26.599 Y23.465 E0.17364
G1 X25.815 Y24.810 E0.14288
G1 X25.618 Y25.195 E0.03969
G1 X25.133 Y26.355 E0.11531
G1 X24.816 Y27.442 E0.10389
G1 X24.472 Y28.342 E0.08841
G1 X23.968 Y29.024 E0.07783
G1 X23.298 Y29.544 E0.07783
G1 X22.512 Y29.864 E0.07783
G1 X21.669 Y29.961 E0.07783
G1 X20.718 Y29.808 E0.08841
G1 X19.618 Y29.539 E0.10389
G1 X18.371 Y29.379 E0.11531
G1 X17.939 Y29.358 E0.03969
G1 X16.382 Y29.363 E0.14288
G1 X15.896 Y31.192 E0.17364
G1 X20.102 Y33.620 E0.44560
G1 X18.287 Y36.763 E0.33294
G1 X-19.658 Y14.856 E4.02005
G1 X-20.026 Y15.493 F9000.000
G1 X-32.626 Y8.218 E1.33491 F900.000
G1 X-30.076 Y3.801 E0.46793
G1 X-25.980 Y6.166 E0.43394
G1 X-25.438 Y5.569 E0.07395
G1 X-26.144 Y4.579 E0.11157
G1 X-26.485 Y4.168 E0.04904
G1 X-27.244 Y3.428 E0.09728
G1 X-27.643 Y3.071 E0.04913
G1 X-29.153 Y2.046 E0.16744
G1 X-28.961 Y1.706 E0.03584
G1 X-28.291 Y1.984 E0.06654
G1 X-27.760 Y2.054 E0.04919
