; generated by Slic3r 1.2.9 on 2017-01-13 at 17:23:25

; external perimeters extrusion width = 0.50mm
; perimeters extrusion width = 0.50mm
; infill extrusion width = 0.50mm
; solid infill extrusion width = 0.50mm
; top infill extrusion width = 0.50mm

M107
;Basic settings: Layer height: {layer_height} Walls: {wall_thickness} Fill: {fill_density}
;Print time: {print_time}
;Filament used: {filament_amount}m {filament_weight}g
;Filament cost: {filament_cost}
;M190 S{print_bed_temperature} ;Uncomment to add your own bed temperature line
;M109 S{print_temperature} ;Uncomment to add your own temperature line
G21        ;metric values
G90        ;absolute positioning
M83
G10 P0 S200
T0
M116


G21 ; set units to millimeters
G90 ; use absolute coordinates
M83 ; use relative distances for extrusion
G1 E-3.20000 F3000.00000
G1 Z0.400 F9000.000
G1 X5.686 Y0.000 F9000.000
G1 Z0.300 F9000.000
G1 E3.20000 F3000.00000
G1 X5.686 Y29.950 E2.74793 F1200.000
G1 X5.291 Y31.621 E0.15755
G1 X4.190 Y32.939 E0.15755
G1 X1.950 Y33.686 E0.21667
G1 X-1.950 Y33.686 E0.35783
G1 X-3.621 Y33.291 E0.15755
G1 X-4.939 Y32.190 E0.15755
G1 X-5.686 Y29.950 E0.21667
G1 X-5.686 Y-29.950 E5.49586
G1 X-5.291 Y-31.621 E0.15755
G1 X-4.190 Y-32.939 E0.15755
G1 X-1.950 Y-33.686 E0.21667
G1 X1.950 Y-33.686 E0.35783
G1 X3.621 Y-33.291 E0.15755
G1 X4.939 Y-32.190 E0.15755 F1200.000
G1 X5.686 Y-29.950 E0.21667
G1 X5.686 Y-0.060 E2.74242
G1 E-3.20000 F3000.00000
G1 Z0.700 F9000.000
G1 X0.814 Y0.209 F9000.000
G1 Z0.300 F9000.000
G1 E3.20000 F3000.00000
G1 X0.814 Y28.814 E2.62460 F900.000
G1 X-0.814 Y28.814 E0.14944 F900.000
G1 X-0.814 Y-28.814 E5.28747
G1 X0.814 Y-28.814 E0.14944
G1 X0.814 Y0.149 E2.65736
G1 X1.550 Y0.149 F9000.000
G1 X1.550 Y29.550 E2.69760 F900.000
G1 X-1.550 Y29.550 E0.28443 F900.000
G1 X-1.550 Y-29.550 E5.42246
G1 X1.550 Y-29.550 E0.28443
G1 X1.550 Y0.089 E2.71935
G1 X1.204 Y0.349 F9000.000
G1 X-0.000 Y28.447 F9000.000
G1 X-0.000 Y-28.447 E10.89680 F600.000
G1 E-3.20000 F3000.00000
G1 Z0.700 F9000.000
G1 X-1.264 Y1.251 F9000.000
G1 Z0.600 F9000.000
G1 E3.20000 F3000.00000
G1 X-1.264 Y-29.264 E1.65801 F1720.240
G1 X1.264 Y-29.264 E0.13739
G1 X1.264 Y29.264 E3.18003
G1 X-1.264 Y29.264 E0.13739 F1720.240
G1 X-1.264 Y1.311 E1.51877
G1 X-1.700 Y1.311 F9000.000
G1 X-1.700 Y-29.700 E1.68493 F1720.240
G1 X1.700 Y-29.700 E0.18473
G1 X1.700 Y29.700 E3.22737
G1 X-1.700 Y29.700 E0.18473 F1720.240
G1 X-1.700 Y1.371 E1.53918
G1 X-1.354 Y1.111 F9000.000
G1 X0.782 Y29.007 F9000.000
G1 X1.007 Y28.782 E0.01740 F1720.240
G1 X1.007 Y28.161 E0.03397
G1 X0.161 Y29.007 E0.06544
G1 X-0.459 Y29.007 E0.03397
G1 X1.007 Y27.541 E0.11347
G1 X1.007 Y26.920 E0.03397
G1 X-1.007 Y28.933 E0.15582
G1 X-1.007 Y28.312 E0.03397
G1 X1.007 Y26.299 E0.15582
G1 X1.007 Y25.679 E0.03397
G1 X-1.007 Y27.692 E0.15582
G1 X-1.007 Y27.071 E0.03397
G1 X1.007 Y25.058 E0.15582
G1 X1.007 Y24.438 E0.03397
G1 X-1.007 Y26.451 E0.15582
G1 X-1.007 Y25.830 E0.03397
G1 X1.007 Y23.817 E0.15582
G1 X1.007 Y23.196 E0.03397
G1 X-1.007 Y25.209 E0.15582
G1 X-1.007 Y24.589 E0.03397
G1 X1.007 Y22.576 E0.15582
G1 X1.007 Y21.955 E0.03397
G1 X-1.007 Y23.968 E0.15582
G1 X-1.007 Y23.348 E0.03397
G1 X1.007 Y21.335 E0.15582
G1 X1.007 Y20.714 E0.03397
G1 X-1.007 Y22.727 E0.15582
G1 X-1.007 Y22.107 E0.03397
G1 X1.007 Y20.093 E0.15582
G1 X1.007 Y19.473 E0.03397
G1 X-1.007 Y21.486 E0.15582
G1 X-1.007 Y20.865 E0.03397
G1 X1.007 Y18.852 E0.15582
G1 X1.007 Y18.232 E0.03397
G1 X-1.007 Y20.245 E0.15582
G1 X-1.007 Y19.624 E0.03397
G1 X1.007 Y17.611 E0.15582
G1 X1.007 Y16.991 E0.03397
G1 X-1.007 Y19.004 E0.15582
G1 X-1.007 Y18.383 E0.03397
G1 X1.007 Y16.370 E0.15582
G1 X1.007 Y15.749 E0.03397
G1 X-1.007 Y17.762 E0.15582
G1 X-1.007 Y17.142 E0.03397
G1 X1.007 Y15.129 E0.15582
G1 X1.007 Y14.508 E0.03397
G1 X-1.007 Y16.521 E0.15582
G1 X-1.007 Y15.901 E0.03397
G1 X1.007 Y13.888 E0.15582
G1 X1.007 Y13.267 E0.03397
G1 X-1.007 Y15.280 E0.15582
G1 X-1.007 Y14.659 E0.03397
G1 X1.007 Y12.646 E0.15582
G1 X1.007 Y12.026 E0.03397
G1 X-1.007 Y14.039 E0.15582
G1 X-1.007 Y13.418 E0.03397
G1 X1.007 Y11.405 E0.15582
G1 X1.007 Y10.785 E0.03397
G1 X-1.007 Y12.798 E0.15582
G1 X-1.007 Y12.177 E0.03397
G1 X1.007 Y10.164 E0.15582
G1 X1.007 Y9.543 E0.03397
G1 X-1.007 Y11.557 E0.15582
G1 X-1.007 Y10.936 E0.03397
G1 X1.007 Y8.923 E0.15582
G1 X1.007 Y8.302 E0.03397
G1 X-1.007 Y10.315 E0.15582
G1 X-1.007 Y9.695 E0.03397
G1 X1.007 Y7.682 E0.15582
G1 X1.007 Y7.061 E0.03397
G1 X-1.007 Y9.074 E0.15582
G1 X-1.007 Y8.454 E0.03397
G1 X1.007 Y6.441 E0.15582
G1 X1.007 Y5.820 E0.03397
G1 X-1.007 Y7.833 E0.15582
G1 X-1.007 Y7.212 E0.03397
G1 X1.007 Y5.199 E0.15582
G1 X1.007 Y4.579 E0.03397
G1 X-1.007 Y6.592 E0.15582
G1 X-1.007 Y5.971 E0.03397
G1 X1.007 Y3.958 E0.15582
G1 X1.007 Y3.338 E0.03397
G1 X-1.007 Y5.351 E0.15582
G1 X-1.007 Y4.730 E0.03397
G1 X1.007 Y2.717 E0.15582
G1 X1.007 Y2.096 E0.03397
G1 X-1.007 Y4.109 E0.15582
G1 X-1.007 Y3.489 E0.03397
G1 X1.007 Y1.476 E0.15582
G1 X1.007 Y0.855 E0.03397
G1 X-1.007 Y2.868 E0.15582
G1 X-1.007 Y2.248 E0.03397
G1 X1.007 Y0.235 E0.15582
G1 X1.007 Y-0.386 E0.03397
G1 X-1.007 Y1.627 E0.15582
G1 X-1.007 Y1.007 E0.03397
G1 X1.007 Y-1.007 E0.15582
G1 X1.007 Y-1.627 E0.03397
G1 X-1.007 Y0.386 E0.15582
G1 X-1.007 Y-0.235 E0.03397
G1 X1.007 Y-2.248 E0.15582
G1 X1.007 Y-2.868 E0.03397
G1 X-1.007 Y-0.855 E0.15582
G1 X-1.007 Y-1.476 E0.03397
G1 X1.007 Y-3.489 E0.15582
G1 X1.007 Y-4.110 E0.03397
G1 X-1.007 Y-2.096 E0.15582
G1 X-1.007 Y-2.717 E0.03397
G1 X1.007 Y-4.730 E0.15582
G1 X1.007 Y-5.351 E0.03397
G1 X-1.007 Y-3.338 E0.15582
G1 X-1.007 Y-3.958 E0.03397
G1 X1.007 Y-5.971 E0.15582
G1 X1.007 Y-6.592 E0.03397
G1 X-1.007 Y-4.579 E0.15582
G1 X-1.007 Y-5.199 E0.03397
G1 X1.007 Y-7.212 E0.15582
G1 X1.007 Y-7.833 E0.03397
G1 X-1.007 Y-5.820 E0.15582
G1 X-1.007 Y-6.441 E0.03397
G1 X1.007 Y-8.454 E0.15582
G1 X1.007 Y-9.074 E0.03397
G1 X-1.007 Y-7.061 E0.15582
G1 X-1.007 Y-7.682 E0.03397
G1 X1.007 Y-9.695 E0.15582
G1 X1.007 Y-10.315 E0.03397
G1 X-1.007 Y-8.302 E0.15582
G1 X-1.007 Y-8.923 E0.03397
G1 X1.007 Y-10.936 E0.15582
G1 X1.007 Y-11.557 E0.03397
G1 X-1.007 Y-9.544 E0.15582
G1 X-1.007 Y-10.164 E0.03397
G1 X1.007 Y-12.177 E0.15582
G1 X1.007 Y-12.798 E0.03397
G1 X-1.007 Y-10.785 E0.15582
G1 X-1.007 Y-11.405 E0.03397
G1 X1.007 Y-13.418 E0.15582
G1 X1.007 Y-14.039 E0.03397
G1 X-1.007 Y-12.026 E0.15582
G1 X-1.007 Y-12.646 E0.03397
G1 X1.007 Y-14.660 E0.15582
G1 X1.007 Y-15.280 E0.03397
G1 X-1.007 Y-13.267 E0.15582
G1 X-1.007 Y-13.888 E0.03397
G1 X1.007 Y-15.901 E0.15582
G1 X1.007 Y-16.521 E0.03397
G1 X-1.007 Y-14.508 E0.15582
G1 X-1.007 Y-15.129 E0.03397
G1 X1.007 Y-17.142 E0.15582
G1 X1.007 Y-17.762 E0.03397
G1 X-1.007 Y-15.749 E0.15582
G1 X-1.007 Y-16.370 E0.03397
G1 X1.007 Y-18.383 E0.15582
G1 X1.007 Y-19.004 E0.03397
G1 X-1.007 Y-16.991 E0.15582
G1 X-1.007 Y-17.611 E0.03397
G1 X1.007 Y-19.624 E0.15582
G1 X1.007 Y-20.245 E0.03397
G1 X-1.007 Y-18.232 E0.15582
G1 X-1.007 Y-18.852 E0.03397
G1 X1.007 Y-20.865 E0.15582
G1 X1.007 Y-21.486 E0.03397
G1 X-1.007 Y-19.473 E0.15582
G1 X-1.007 Y-20.094 E0.03397
G1 X1.007 Y-22.107 E0.15582
G1 X1.007 Y-22.727 E0.03397
G1 X-1.007 Y-20.714 E0.15582
G1 X-1.007 Y-21.335 E0.03397
G1 X1.007 Y-23.348 E0.15582
G1 X1.007 Y-23.968 E0.03397
G1 X-1.007 Y-21.955 E0.15582
G1 X-1.007 Y-22.576 E0.03397
G1 X1.007 Y-24.589 E0.15582
G1 X1.007 Y-25.210 E0.03397
G1 X-1.007 Y-23.196 E0.15582
G1 X-1.007 Y-23.817 E0.03397
G1 X1.007 Y-25.830 E0.15582
G1 X1.007 Y-26.451 E0.03397
G1 X-1.007 Y-24.438 E0.15582
G1 X-1.007 Y-25.058 E0.03397
G1 X1.007 Y-27.071 E0.15582
G1 X1.007 Y-27.692 E0.03397
G1 X-1.007 Y-25.679 E0.15582
G1 X-1.007 Y-26.299 E0.03397
G1 X1.007 Y-28.312 E0.15582
G1 X1.007 Y-28.933 E0.03397
G1 X-1.007 Y-26.920 E0.15582
G1 X-1.007 Y-27.541 E0.03397
G1 X0.459 Y-29.007 E0.11347
G1 X-0.161 Y-29.007 E0.03397
G1 X-1.007 Y-28.161 E0.06543
G1 X-1.007 Y-28.782 E0.03397
G1 X-0.782 Y-29.007 E0.01740
G1 E-3.20000 F3000.00000
G1 Z1.000 F9000.000
G1 X1.264 Y-1.159 F9000.000
G1 Z0.900 F9000.000
G1 E3.20000 F3000.00000
G1 X1.264 Y29.264 E1.65297 F1719.828
G1 X-1.264 Y29.264 E0.13739 F1719.828
G1 X-1.264 Y-29.264 E3.18003
G1 X1.264 Y-29.264 E0.13739
G1 X1.264 Y-1.219 E1.52380
G1 X1.700 Y-1.219 F9000.000
G1 X1.700 Y29.700 E1.67990 F1719.828
G1 X-1.700 Y29.700 E0.18473 F1719.828
G1 X-1.700 Y-29.700 E3.22737
G1 X1.700 Y-29.700 E0.18473
G1 X1.700 Y-1.279 E1.54421
G1 X1.354 Y-1.019 F9000.000
G1 X1.007 Y-28.782 F9000.000
G1 X0.782 Y-29.007 E0.01740 F1719.828
G1 X0.161 Y-29.007 E0.03397
G1 X1.007 Y-28.161 E0.06544
G1 X1.007 Y-27.541 E0.03397
G1 X-0.459 Y-29.007 E0.11347
G1 X-1.007 Y-28.933 E0.03021
G1 X1.007 Y-26.920 E0.15582
G1 X1.007 Y-26.299 E0.03397
G1 X-1.007 Y-28.312 E0.15582
G1 X-1.007 Y-27.692 E0.03397
G1 X1.007 Y-25.679 E0.15582
G1 X1.007 Y-25.058 E0.03397
G1 X-1.007 Y-27.071 E0.15582
G1 X-1.007 Y-26.451 E0.03397
G1 X1.007 Y-24.438 E0.15582
G1 X1.007 Y-23.817 E0.03397
G1 X-1.007 Y-25.830 E0.15582
G1 X-1.007 Y-25.209 E0.03397
G1 X1.007 Y-23.196 E0.15582
G1 X1.007 Y-22.576 E0.03397
G1 X-1.007 Y-24.589 E0.15582
G1 X-1.007 Y-23.968 E0.03397
G1 X1.007 Y-21.955 E0.15582
G1 X1.007 Y-21.335 E0.03397
G1 X-1.007 Y-23.348 E0.15582
G1 X-1.007 Y-22.727 E0.03397
G1 X1.007 Y-20.714 E0.15582
G1 X1.007 Y-20.093 E0.03397
G1 X-1.007 Y-22.107 E0.15582
G1 X-1.007 Y-21.486 E0.03397
G1 X1.007 Y-19.473 E0.15582
G1 X1.007 Y-18.852 E0.03397
G1 X-1.007 Y-20.865 E0.15582
G1 X-1.007 Y-20.245 E0.03397
G1 X1.007 Y-18.232 E0.15582
G1 X1.007 Y-17.611 E0.03397
G1 X-1.007 Y-19.624 E0.15582
G1 X-1.007 Y-19.004 E0.03397
G1 X1.007 Y-16.991 E0.15582
G1 X1.007 Y-16.370 E0.03397
G1 X-1.007 Y-18.383 E0.15582
G1 X-1.007 Y-17.762 E0.03397
G1 X1.007 Y-15.749 E0.15582
G1 X1.007 Y-15.129 E0.03397
G1 X-1.007 Y-17.142 E0.15582
G1 X-1.007 Y-16.521 E0.03397
G1 X1.007 Y-14.508 E0.15582
G1 X1.007 Y-13.888 E0.03397
G1 X-1.007 Y-15.901 E0.15582
G1 X-1.007 Y-15.280 E0.03397
G1 X1.007 Y-13.267 E0.15582
G1 X1.007 Y-12.646 E0.03397
G1 X-1.007 Y-14.659 E0.15582
G1 X-1.007 Y-14.039 E0.03397
G1 X1.007 Y-12.026 E0.15582
G1 X1.007 Y-11.405 E0.03397
G1 X-1.007 Y-13.418 E0.15582
G1 X-1.007 Y-12.798 E0.03397
G1 X1.007 Y-10.785 E0.15582
G1 X1.007 Y-10.164 E0.03397
G1 X-1.007 Y-12.177 E0.15582
G1 X-1.007 Y-11.557 E0.03397
G1 X1.007 Y-9.543 E0.15582
G1 X1.007 Y-8.923 E0.03397
G1 X-1.007 Y-10.936 E0.15582
G1 X-1.007 Y-10.315 E0.03397
G1 X1.007 Y-8.302 E0.15582
G1 X1.007 Y-7.682 E0.03397
G1 X-1.007 Y-9.695 E0.15582
G1 X-1.007 Y-9.074 E0.03397
G1 X1.007 Y-7.061 E0.15582
G1 X1.007 Y-6.441 E0.03397
G1 X-1.007 Y-8.454 E0.15582
G1 X-1.007 Y-7.833 E0.03397
G1 X1.007 Y-5.820 E0.15582
G1 X1.007 Y-5.199 E0.03397
G1 X-1.007 Y-7.212 E0.15582
G1 X-1.007 Y-6.592 E0.03397
G1 X1.007 Y-4.579 E0.15582
G1 X1.007 Y-3.958 E0.03397
G1 X-1.007 Y-5.971 E0.15582
G1 X-1.007 Y-5.351 E0.03397
G1 X1.007 Y-3.338 E0.15582
G1 X1.007 Y-2.717 E0.03397
G1 X-1.007 Y-4.730 E0.15582
G1 X-1.007 Y-4.109 E0.03397
G1 X1.007 Y-2.096 E0.15582
G1 X1.007 Y-1.476 E0.03397
G1 X-1.007 Y-3.489 E0.15582
G1 X-1.007 Y-2.868 E0.03397
G1 X1.007 Y-0.855 E0.15582
G1 X1.007 Y-0.235 E0.03397
G1 X-1.007 Y-2.248 E0.15582
G1 X-1.007 Y-1.627 E0.03397
G1 X1.007 Y0.386 E0.15582
G1 X1.007 Y1.007 E0.03397
G1 X-1.007 Y-1.007 E0.15582
G1 X-1.007 Y-0.386 E0.03397
G1 X1.007 Y1.627 E0.15582
G1 X1.007 Y2.248 E0.03397
G1 X-1.007 Y0.235 E0.15582
G1 X-1.007 Y0.855 E0.03397
G1 X1.007 Y2.868 E0.15582
G1 X1.007 Y3.489 E0.03397
G1 X-1.007 Y1.476 E0.15582
G1 X-1.007 Y2.096 E0.03397
G1 X1.007 Y4.110 E0.15582
G1 X1.007 Y4.730 E0.03397
G1 X-1.007 Y2.717 E0.15582
G1 X-1.007 Y3.338 E0.03397
G1 X1.007 Y5.351 E0.15582
G1 X1.007 Y5.971 E0.03397
G1 X-1.007 Y3.958 E0.15582
G1 X-1.007 Y4.579 E0.03397
G1 X1.007 Y6.592 E0.15582
G1 X1.007 Y7.212 E0.03397
G1 X-1.007 Y5.199 E0.15582
G1 X-1.007 Y5.820 E0.03397
G1 X1.007 Y7.833 E0.15582
G1 X1.007 Y8.454 E0.03397
G1 X-1.007 Y6.441 E0.15582
G1 X-1.007 Y7.061 E0.03397
G1 X1.007 Y9.074 E0.15582
G1 X1.007 Y9.695 E0.03397
G1 X-1.007 Y7.682 E0.15582
G1 X-1.007 Y8.302 E0.03397
G1 X1.007 Y10.315 E0.15582
G1 X1.007 Y10.936 E0.03397
G1 X-1.007 Y8.923 E0.15582
G1 X-1.007 Y9.544 E0.03397
G1 X1.007 Y11.557 E0.15582
G1 X1.007 Y12.177 E0.03397
G1 X-1.007 Y10.164 E0.15582
G1 X-1.007 Y10.785 E0.03397
G1 X1.007 Y12.798 E0.15582
G1 X1.007 Y13.418 E0.03397
G1 X-1.007 Y11.405 E0.15582
G1 X-1.007 Y12.026 E0.03397
G1 X1.007 Y14.039 E0.15582
G1 X1.007 Y14.660 E0.03397
G1 X-1.007 Y12.646 E0.15582
G1 X-1.007 Y13.267 E0.03397
G1 X1.007 Y15.280 E0.15582
G1 X1.007 Y15.901 E0.03397
G1 X-1.007 Y13.888 E0.15582
G1 X-1.007 Y14.508 E0.03397
G1 X1.007 Y16.521 E0.15582
G1 X1.007 Y17.142 E0.03397
G1 X-1.007 Y15.129 E0.15582
G1 X-1.007 Y15.749 E0.03397
G1 X1.007 Y17.762 E0.15582
G1 X1.007 Y18.383 E0.03397
G1 X-1.007 Y16.370 E0.15582
G1 X-1.007 Y16.991 E0.03397
G1 X1.007 Y19.004 E0.15582
G1 X1.007 Y19.624 E0.03397
G1 X-1.007 Y17.611 E0.15582
G1 X-1.007 Y18.232 E0.03397
G1 X1.007 Y20.245 E0.15582
G1 X1.007 Y20.865 E0.03397
G1 X-1.007 Y18.852 E0.15582
G1 X-1.007 Y19.473 E0.03397
G1 X1.007 Y21.486 E0.15582
G1 X1.007 Y22.107 E0.03397
G1 X-1.007 Y20.094 E0.15582
G1 X-1.007 Y20.714 E0.03397
G1 X1.007 Y22.727 E0.15582
G1 X1.007 Y23.348 E0.03397
G1 X-1.007 Y21.335 E0.15582
G1 X-1.007 Y21.955 E0.03397
G1 X1.007 Y23.968 E0.15582
G1 X1.007 Y24.589 E0.03397
G1 X-1.007 Y22.576 E0.15582
G1 X-1.007 Y23.196 E0.03397
G1 X1.007 Y25.210 E0.15582
G1 X1.007 Y25.830 E0.03397
G1 X-1.007 Y23.817 E0.15582
G1 X-1.007 Y24.438 E0.03397
G1 X1.007 Y26.451 E0.15582
G1 X1.007 Y27.071 E0.03397
G1 X-1.007 Y25.058 E0.15582
G1 X-1.007 Y25.679 E0.03397
G1 X1.007 Y27.692 E0.15582
G1 X1.007 Y28.312 E0.03397
G1 X-1.007 Y26.299 E0.15582
G1 X-1.007 Y26.920 E0.03397
G1 X1.007 Y28.933 E0.15582
G1 X0.459 Y29.007 E0.03021
G1 X-1.007 Y27.541 E0.11347
G1 X-1.007 Y28.161 E0.03397
G1 X-0.161 Y29.007 E0.06543
G1 X-0.782 Y29.007 E0.03397
G1 X-1.007 Y28.782 E0.01740
M106 S255
G1 E-3.20000 F3000.00000
G1 Z1.300 F9000.000
G1 X1.264 Y0.555 F9000.000
G1 Z1.200 F9000.000
G1 E3.20000 F3000.00000
G1 X1.264 Y29.264 E1.55987 F1720.235
G1 X-1.264 Y29.264 E0.13739 F1720.235
G1 X-1.264 Y-29.264 E3.18003
G1 X1.264 Y-29.264 E0.13739
G1 X1.264 Y0.495 E1.61691
G1 X1.700 Y0.495 F9000.000
G1 X1.700 Y29.700 E1.58680 F1720.235
G1 X-1.700 Y29.700 E0.18473 F1720.235
G1 X-1.700 Y-29.700 E3.22737
G1 X1.700 Y-29.700 E0.18473
G1 X1.700 Y0.435 E1.63732
G1 X1.354 Y0.695 F9000.000
G1 E-3.20000 F3000.00000
G1 Z1.600 F9000.000
G1 X0.782 Y29.007 F9000.000
G1 Z1.200 F9000.000
G1 E3.20000 F3000.00000
G1 X1.007 Y28.782 E0.01740 F1720.235
G1 X1.007 Y28.161 E0.03397
G1 X0.161 Y29.007 E0.06544
G1 X-0.459 Y29.007 E0.03397
G1 X1.007 Y27.541 E0.11347
G1 X1.007 Y26.920 E0.03397
G1 X-1.007 Y28.933 E0.15582
G1 X-1.007 Y28.312 E0.03397
G1 X1.007 Y26.299 E0.15582
G1 X1.007 Y25.679 E0.03397
G1 X-1.007 Y27.692 E0.15582
G1 X-1.007 Y27.071 E0.03397
G1 X1.007 Y25.058 E0.15582
G1 X1.007 Y24.438 E0.03397
G1 X-1.007 Y26.451 E0.15582
G1 X-1.007 Y25.830 E0.03397
G1 X1.007 Y23.817 E0.15582
G1 X1.007 Y23.196 E0.03397
G1 X-1.007 Y25.209 E0.15582
G1 X-1.007 Y24.589 E0.03397
G1 X1.007 Y22.576 E0.15582
G1 X1.007 Y21.955 E0.03397
G1 X-1.007 Y23.968 E0.15582
G1 X-1.007 Y23.348 E0.03397
G1 X1.007 Y21.335 E0.15582
G1 X1.007 Y20.714 E0.03397
G1 X-1.007 Y22.727 E0.15582
G1 X-1.007 Y22.107 E0.03397
G1 X1.007 Y20.093 E0.15582
G1 X1.007 Y19.473 E0.03397
G1 X-1.007 Y21.486 E0.15582
G1 X-1.007 Y20.865 E0.03397
G1 X1.007 Y18.852 E0.15582
G1 X1.007 Y18.232 E0.03397
G1 X-1.007 Y20.245 E0.15582
G1 X-1.007 Y19.624 E0.03397
G1 X1.007 Y17.611 E0.15582
G1 X1.007 Y16.991 E0.03397
G1 X-1.007 Y19.004 E0.15582
G1 X-1.007 Y18.383 E0.03397
G1 X1.007 Y16.370 E0.15582
G1 X1.007 Y15.749 E0.03397
G1 X-1.007 Y17.762 E0.15582
G1 X-1.007 Y17.142 E0.03397
G1 X1.007 Y15.129 E0.15582
G1 X1.007 Y14.508 E0.03397
G1 X-1.007 Y16.521 E0.15582
G1 X-1.007 Y15.901 E0.03397
G1 X1.007 Y13.888 E0.15582
G1 X1.007 Y13.267 E0.03397
G1 X-1.007 Y15.280 E0.15582
G1 X-1.007 Y14.659 E0.03397
G1 X1.007 Y12.646 E0.15582
G1 X1.007 Y12.026 E0.03397
G1 X-1.007 Y14.039 E0.15582
G1 X-1.007 Y13.418 E0.03397
G1 X1.007 Y11.405 E0.15582
G1 X1.007 Y10.785 E0.03397
G1 X-1.007 Y12.798 E0.15582
G1 X-1.007 Y12.177 E0.03397
