; generated by Slic3r 1.2.9 on 2017-01-11 at 17:18:23

; external perimeters extrusion width = 0.50mm
; perimeters extrusion width = 0.50mm
; infill extrusion width = 0.50mm
; solid infill extrusion width = 0.50mm
; top infill extrusion width = 0.50mm

M107
;Basic settings: Layer height: {layer_height} Walls: {wall_thickness} Fill: {fill_density}
;Print time: {print_time}
;Filament used: {filament_amount}m {filament_weight}g
;Filament cost: {filament_cost}
;M190 S{print_bed_temperature} ;Uncomment to add your own bed temperature line
;M109 S{print_temperature} ;Uncomment to add your own temperature line
G21        ;metric values
G90        ;absolute positioning
M83
G10 P0 S200
T0
M116


G21 ; set units to millimeters
G90 ; use absolute coordinates
M83 ; use relative distances for extrusion
G1 E-3.20000 F3000.00000
G1 Z0.400 F9000.000
G1 X17.436 Y0.000 F9000.000
G1 Z0.300 F9000.000
G1 E3.20000 F3000.00000
G1 X17.436 Y27.950 E2.56443 F1200.000
G1 X17.041 Y29.621 E0.15755
G1 X15.553 Y31.193 E0.19859
G1 X8.553 Y35.193 E0.73972
G1 X6.700 Y35.686 E0.17594
G1 X-3.200 Y35.686 E0.90833
G1 X-5.534 Y34.867 E0.22690
G1 X-10.534 Y30.867 E0.58749
G1 X-11.814 Y28.896 E0.21560
G1 X-17.314 Y7.896 E1.99175
G1 X-17.436 Y6.950 E0.08755
G1 X-17.436 Y-10.950 E1.64233
G1 X-17.314 Y-11.896 E0.08755
G1 X-11.814 Y-32.896 E1.99175
G1 X-11.009 Y-34.413 E0.15755
G1 X-9.610 Y-35.409 E0.15755
G1 X-8.200 Y-35.686 E0.13183
G1 X13.700 Y-35.686 E2.00934
G1 X15.371 Y-35.291 E0.15755
G1 X16.689 Y-34.190 E0.15755 F1200.000
G1 X17.436 Y-31.950 E0.21667
G1 X17.436 Y-0.060 E2.92592
G1 E-3.20000 F3000.00000
G1 Z0.700 F9000.000
G1 X-2.800 Y-6.550 F9000.000
G1 Z0.300 F9000.000
G1 E3.20000 F3000.00000
G1 X-11.700 Y-6.550 E0.81658 F900.000
G1 X-11.700 Y-9.450 E0.26608
G1 X-2.800 Y-9.450 E0.81658 F900.000
G1 X-2.800 Y-6.610 E0.26057
G1 X-2.800 Y-6.150 F9000.000
G1 X0.433 Y11.991 F9000.000
G1 X1.472 Y11.811 E0.09667 F900.000
G1 X3.037 Y11.940 E0.14416
G1 X4.521 Y12.459 E0.14417
G1 X5.843 Y13.351 E0.14638
G1 X6.785 Y14.413 E0.13027
G1 X6.925 Y14.613 E0.02234
G1 X7.589 Y15.931 E0.13542
G1 X7.920 Y17.450 E0.14263
G1 X7.864 Y18.959 E0.13856
G1 X7.413 Y20.514 E0.14858
G1 X6.594 Y21.862 E0.14464
G1 X5.465 Y22.959 E0.14447
G1 X4.040 Y23.754 E0.14971
G1 X2.506 Y24.147 E0.14529
G1 X1.007 Y24.147 E0.13755
G1 X-0.595 Y23.734 E0.15178
G1 X-1.942 Y22.971 E0.14203
G1 X-2.681 Y22.321 E0.09036
G1 X-3.294 Y21.587 E0.08767
G1 X-3.786 Y20.768 E0.08767
G1 X-4.146 Y19.883 E0.08767
G1 X-4.366 Y18.951 E0.08781
G1 X-4.441 Y17.952 E0.09192
G1 X-4.244 Y16.435 E0.14042
G1 X-3.666 Y14.991 E0.14266
G1 X-2.689 Y13.687 E0.14950
G1 X-1.511 Y12.732 E0.13915
G1 X-0.077 Y12.080 E0.14451
G1 X0.374 Y12.002 E0.04205 F900.000
G1 X0.500 Y12.726 F9000.000
G1 X1.505 Y12.552 E0.09355 F900.000
G1 X2.883 Y12.665 E0.12691
G1 X4.188 Y13.122 E0.12681
G1 X5.355 Y13.909 E0.12912
G1 X6.207 Y14.870 E0.11783
G1 X6.292 Y14.991 E0.01358
G1 X6.890 Y16.179 E0.12205
G1 X7.182 Y17.516 E0.12554
G1 X7.133 Y18.841 E0.12168
G1 X6.734 Y20.216 E0.13132
G1 X6.015 Y21.399 E0.12707
G1 X5.022 Y22.363 E0.12697
G1 X3.765 Y23.065 E0.13207
G1 X2.413 Y23.411 E0.12803
G1 X1.100 Y23.412 E0.12047
G1 X-0.317 Y23.046 E0.13426
G1 X-1.513 Y22.368 E0.12614
G1 X-2.153 Y21.806 E0.07820
G1 X-2.692 Y21.159 E0.07722
G1 X-3.126 Y20.438 E0.07722
G1 X-3.443 Y19.658 E0.07722
G1 X-3.636 Y18.839 E0.07727
G1 X-3.701 Y17.972 E0.07971
G1 X-3.526 Y16.622 E0.12497
G1 X-3.019 Y15.355 E0.12524
G1 X-2.155 Y14.201 E0.13223
G1 X-1.121 Y13.363 E0.12213
G1 X0.142 Y12.789 E0.12725
G1 X0.441 Y12.737 E0.02791 F900.000
G1 X0.638 Y12.351 F9000.000
G1 X-5.564 Y5.186 F9000.000
G1 X-8.936 Y5.186 E0.30931 F900.000
G1 X-8.936 Y0.814 E0.40106
G1 X-5.564 Y0.814 E0.30931 F900.000
G1 X-5.564 Y5.126 E0.39556
G1 X-6.300 Y4.450 F9000.000
G1 X-8.200 Y4.450 E0.17433 F900.000
G1 X-8.200 Y1.550 E0.26608
G1 X-6.300 Y1.550 E0.17433 F900.000
G1 X-6.300 Y4.390 E0.26057
G1 X-6.300 Y4.850 F9000.000
G1 X12.564 Y12.587 F9000.000
G1 X12.564 Y26.814 E1.30534 F900.000
G1 X5.564 Y26.814 E0.64225
G1 X5.564 Y30.814 E0.36700
G1 X-2.064 Y30.814 E0.69994
G1 X-2.064 Y26.814 E0.36700
G1 X-7.064 Y26.814 E0.45875
G1 X-7.064 Y5.814 E1.92676
G1 X-12.564 Y5.814 E0.50463
G1 X-12.564 Y-5.814 E1.06694
G1 X-2.064 Y-5.814 E0.96338
G1 X-2.064 Y-10.186 E0.40106
G1 X-7.064 Y-10.186 E0.45875
G1 X-7.064 Y-30.814 E1.89270
G1 X-4.436 Y-30.814 E0.24119
G1 X-4.436 Y-12.814 E1.65151
G1 X7.936 Y-12.814 E1.13507 F900.000
G1 X7.936 Y-30.814 E1.65151
G1 X12.564 Y-30.814 E0.42469
G1 X12.564 Y12.527 E3.97662
G1 X7.200 Y-13.550 F9000.000
G1 X-3.700 Y-13.550 E1.00008 F900.000
G1 X-3.700 Y-30.450 E1.55058
G1 X7.200 Y-30.450 E1.00008 F900.000
G1 X7.200 Y-13.610 E1.54508
G1 X7.200 Y-13.150 F9000.000
G1 X13.300 Y-13.610 F9000.000
G1 X13.300 Y27.550 E3.77645 F900.000
G1 X6.300 Y27.550 E0.64225 F900.000
G1 X6.300 Y31.550 E0.36700
G1 X-2.800 Y31.550 E0.83493
G1 X-2.800 Y27.550 E0.36700
G1 X-7.800 Y27.550 E0.45875
G1 X-7.800 Y6.550 E1.92676
G1 X-13.300 Y6.550 E0.50463
G1 X-13.300 Y-10.550 E1.56893
G1 X-7.800 Y-10.550 E0.50463
G1 X-7.800 Y-31.550 E1.92676
G1 X13.300 Y-31.550 E1.93594
G1 X13.300 Y-13.670 E1.64050
G1 X12.954 Y-13.410 F9000.000
G1 X8.385 Y-12.685 F9000.000
G1 X12.115 Y-8.955 E0.48989 F900.000
G1 X12.115 Y-10.008 E0.09777
G1 X8.385 Y-13.738 E0.48989
G1 X8.385 Y-14.791 E0.09777
G1 X12.115 Y-11.061 E0.48989
G1 X12.115 Y-12.114 E0.09777
G1 X8.385 Y-15.844 E0.48989
G1 X8.385 Y-16.897 E0.09777
G1 X12.115 Y-13.167 E0.48989
G1 X12.115 Y-14.219 E0.09777
G1 X8.385 Y-17.950 E0.48989
G1 X8.385 Y-19.003 E0.09777
G1 X12.115 Y-15.272 E0.48989
G1 X12.115 Y-16.325 E0.09777
G1 X8.385 Y-20.056 E0.48989
G1 X8.385 Y-21.109 E0.09777
G1 X12.115 Y-17.378 E0.48989
G1 X12.115 Y-18.431 E0.09777
G1 X8.385 Y-22.161 E0.48989
G1 X8.385 Y-23.214 E0.09777
G1 X12.115 Y-19.484 E0.48989
G1 X12.115 Y-20.537 E0.09777
G1 X8.385 Y-24.267 E0.48989
G1 X8.385 Y-25.320 E0.09777
G1 X12.115 Y-21.590 E0.48989
G1 X12.115 Y-22.643 E0.09777
G1 X8.385 Y-26.373 E0.48989
G1 X8.385 Y-27.426 E0.09777
G1 X12.115 Y-23.696 E0.48989
G1 X12.115 Y-24.749 E0.09777
G1 X8.385 Y-28.479 E0.48989
G1 X8.385 Y-29.532 E0.09777
G1 X12.115 Y-25.801 E0.48989
G1 X12.115 Y-26.854 E0.09777
G1 X8.604 Y-30.365 E0.46106
G1 X9.657 Y-30.365 E0.09777
G1 X12.115 Y-27.907 E0.32278
G1 X12.115 Y-28.960 E0.09777
G1 X10.710 Y-30.365 E0.18451
G1 X11.763 Y-30.365 E0.09777
G1 X12.115 Y-30.013 E0.04624
G1 E-3.20000 F3000.00000
G1 Z0.700 F9000.000
G1 X-4.885 Y-29.114 F9000.000
G1 Z0.300 F9000.000
G1 E3.20000 F3000.00000
G1 X-6.136 Y-30.365 E0.16436 F900.000
G1 X-6.615 Y-29.791 E0.06942
G1 X-4.885 Y-28.061 E0.22724
G1 X-4.885 Y-27.008 E0.09777
G1 X-6.615 Y-28.738 E0.22724
G1 X-6.615 Y-27.685 E0.09777
G1 X-4.885 Y-25.955 E0.22724
G1 X-4.885 Y-24.902 E0.09777
G1 X-6.615 Y-26.632 E0.22724
G1 X-6.615 Y-25.579 E0.09777
G1 X-4.885 Y-23.849 E0.22724
G1 X-4.885 Y-22.796 E0.09777
G1 X-6.615 Y-24.527 E0.22724
G1 X-6.615 Y-23.474 E0.09777
G1 X-4.885 Y-21.743 E0.22724
G1 X-4.885 Y-20.690 E0.09777
G1 X-6.615 Y-22.421 E0.22724
G1 X-6.615 Y-21.368 E0.09777
G1 X-4.885 Y-19.637 E0.22724
G1 X-4.885 Y-18.585 E0.09777
G1 X-6.615 Y-20.315 E0.22724
G1 X-6.615 Y-19.262 E0.09777
G1 X-4.885 Y-17.532 E0.22724
G1 X-4.885 Y-16.479 E0.09777
G1 X-6.615 Y-18.209 E0.22724
G1 X-6.615 Y-17.156 E0.09777
G1 X-4.885 Y-15.426 E0.22724
G1 X-4.885 Y-14.373 E0.09777
G1 X-6.615 Y-16.103 E0.22724
G1 X-6.615 Y-15.050 E0.09777
G1 X-4.885 Y-13.320 E0.22724
G1 X-4.983 Y-12.365 E0.08913
G1 X-3.253 Y-10.635 E0.22724
G1 X-4.305 Y-10.635 E0.09777
G1 X-6.615 Y-12.945 E0.30332
G1 X-6.615 Y-13.997 E0.09777
G1 X-4.885 Y-12.267 E0.22724
G1 X-3.930 Y-12.365 E0.08913
G1 X-2.200 Y-10.635 E0.22724
G1 X-1.615 Y-10.050 F9000.000
G1 X12.115 Y3.680 E1.80313 F900.000
G1 X12.115 Y2.627 E0.09777
G1 X-2.877 Y-12.365 E1.96886
G1 X-1.824 Y-12.365 E0.09777
G1 X12.115 Y1.574 E1.83058
G1 X12.115 Y0.521 E0.09777
G1 X-0.771 Y-12.365 E1.69231
G1 X0.282 Y-12.365 E0.09777
G1 X12.115 Y-0.532 E1.55404
G1 X12.115 Y-1.585 E0.09777
G1 X1.335 Y-12.365 E1.41576
G1 X2.387 Y-12.365 E0.09777
G1 X12.115 Y-2.637 E1.27749
G1 X12.115 Y-3.690 E0.09777
G1 X3.440 Y-12.365 E1.13922
G1 X4.493 Y-12.365 E0.09777
G1 X12.115 Y-4.743 E1.00095
G1 X12.115 Y-5.796 E0.09777
G1 X5.546 Y-12.365 E0.86267
G1 X6.599 Y-12.365 E0.09777
G1 X12.115 Y-6.849 E0.72440
G1 X12.115 Y-7.902 E0.09777
G1 X7.652 Y-12.365 E0.58613
G1 X-1.615 Y-8.997 F9000.000
G1 X12.115 Y4.733 E1.80313 F900.000
G1 X12.115 Y5.786 E0.09777
G1 X-1.615 Y-7.945 E1.80313
G1 X-1.615 Y-6.892 E0.09777
G1 X12.115 Y6.839 E1.80313
G1 X12.115 Y7.892 E0.09777
G1 X-1.615 Y-5.839 E1.80313
G1 X-2.195 Y-5.365 F9000.000
G1 X12.115 Y8.945 E1.87922 F900.000
G1 X12.115 Y9.997 E0.09777
G1 X-3.247 Y-5.365 E2.01749
G1 X-4.300 Y-5.365 E0.09777
G1 X12.115 Y11.050 E2.15577
G1 X12.115 Y12.103 E0.09777
G1 X-5.353 Y-5.365 E2.29404
G1 X-6.406 Y-5.365 E0.09777
G1 X12.115 Y13.156 E2.43231
G1 X12.115 Y14.209 E0.09777
G1 X-7.459 Y-5.365 E2.57058
G1 X-8.512 Y-5.365 E0.09777
G1 X12.115 Y15.262 E2.70886
G1 X12.115 Y16.315 E0.09777
G1 X-9.565 Y-5.365 E2.84713
G1 X-10.618 Y-5.365 E0.09777
G1 X12.115 Y17.368 E2.98540
G1 X12.115 Y18.421 E0.09777
G1 X-5.115 Y1.190 E2.26277
G1 X-5.115 Y2.243 E0.09777
G1 X4.582 Y11.941 E1.27348
G1 X3.067 Y11.478 E0.14710
G1 X-5.115 Y3.296 E1.07451
G1 X-5.115 Y4.349 E0.09777
G1 X1.919 Y11.384 E0.92382
G1 X0.953 Y11.470 E0.09012
G1 X-5.115 Y5.402 E0.79687
G1 X-5.935 Y5.635 E0.07917
G1 X0.056 Y11.626 E0.78678
G1 X-0.698 Y11.925 E0.07532
G1 X-6.615 Y6.008 E0.77703
G1 X-6.615 Y7.061 E0.09777
G1 X-1.422 Y12.254 E0.68198
G1 X-2.054 Y12.675 E0.07050
G1 X-6.615 Y8.114 E0.59904
G1 X-6.615 Y9.167 E0.09777
G1 X-2.635 Y13.146 E0.52264
G1 X-3.162 Y13.673 E0.06914
G1 X-6.615 Y10.219 E0.45348
G1 X-6.615 Y11.272 E0.09777
G1 X-3.613 Y14.275 E0.39430
G1 X-4.056 Y14.884 E0.06999
G1 X-6.615 Y12.325 E0.33606
G1 X-6.615 Y13.378 E0.09777
G1 X-4.357 Y15.636 E0.29651
G1 X-4.659 Y16.388 E0.07520
G1 X-6.615 Y14.431 E0.25695
G1 X-6.615 Y15.484 E0.09777
G1 X-4.791 Y17.308 E0.23954
G1 X-4.879 Y18.273 E0.08997
G1 X-6.615 Y16.537 E0.22798
G1 X-6.615 Y17.590 E0.09777
G1 X-4.749 Y19.456 E0.24503
G1 X-4.248 Y21.010 E0.15162
G1 X-6.615 Y18.643 E0.31083
G1 X-6.615 Y19.696 E0.09777
G1 X4.054 Y30.365 E1.40117
G1 X3.001 Y30.365 E0.09777
G1 X-6.615 Y20.749 E1.26290
G1 X-6.615 Y21.801 E0.09777
G1 X-2.051 Y26.365 E0.59932
G1 X-1.615 Y26.801 F9000.000
G1 X1.949 Y30.365 E0.46800 F900.000
G1 X0.896 Y30.365 E0.09777
G1 X-1.615 Y27.854 E0.32973
G1 X-1.615 Y28.907 E0.09777
G1 X-0.157 Y30.365 E0.19145
G1 X-1.210 Y30.365 E0.09777
G1 X-1.615 Y29.960 E0.05318
G1 X-3.104 Y26.365 F9000.000
G1 X-6.615 Y22.854 E0.46105 F900.000
G1 X-6.615 Y23.907 E0.09777
G1 X-4.157 Y26.365 E0.32278
G1 X-5.210 Y26.365 E0.09777
G1 X-6.615 Y24.960 E0.18451
G1 X-6.615 Y26.013 E0.09777
G1 X-6.263 Y26.365 E0.04623
G1 X-1.289 Y23.969 F9000.000
G1 X5.107 Y30.365 E0.83998 F900.000
G1 X5.115 Y29.320 E0.09704
G1 X0.259 Y24.464 E0.63778
G1 X1.444 Y24.596 E0.11079
G1 X5.115 Y28.267 E0.48208
G1 X5.115 Y27.214 E0.09777
G1 X2.483 Y24.582 E0.34573
G1 X3.321 Y24.367 E0.08034
G1 X5.319 Y26.365 E0.26242
G1 X6.372 Y26.365 E0.09777
G1 X4.149 Y24.143 E0.29185
G1 X4.825 Y23.766 E0.07186
G1 X7.425 Y26.365 E0.34139
G1 X8.478 Y26.365 E0.09777
G1 X5.501 Y23.388 E0.39092
G1 X6.071 Y22.906 E0.06938
G1 X9.531 Y26.365 E0.45430
G1 X10.583 Y26.365 E0.09777
G1 X6.605 Y22.387 E0.52242
G1 X7.082 Y21.811 E0.06944
G1 X11.636 Y26.365 E0.59804
G1 X12.115 Y25.791 E0.06942
G1 X7.480 Y21.156 E0.60868
G1 X7.853 Y20.476 E0.07203
G1 X12.115 Y24.738 E0.55974
G1 X12.115 Y23.685 E0.09777
G1 X8.090 Y19.660 E0.52864
G1 X8.313 Y18.830 E0.07979
G1 X12.115 Y22.632 E0.49933
G1 X12.115 Y21.579 E0.09777
G1 X8.351 Y17.815 E0.49437
G1 X8.245 Y16.656 E0.10808
G1 X12.115 Y20.527 E0.50831
G1 X12.115 Y19.474 E0.09777
G1 X7.799 Y15.158 E0.56678
G1 X-9.385 Y5.344 F9000.000
G1 X-12.115 Y2.614 E0.35856 F900.000
G1 X-12.115 Y3.667 E0.09777
G1 X-10.417 Y5.365 E0.22307
G1 X-11.469 Y5.365 E0.09777
G1 X-12.115 Y4.719 E0.08479
G1 X-9.385 Y4.291 F9000.000
G1 X-12.115 Y1.561 E0.35856 F900.000
G1 X-12.115 Y0.508 E0.09777
G1 X-9.385 Y3.238 E0.35856
G1 X-9.385 Y2.185 E0.09777
G1 X-12.115 Y-0.545 E0.35856
G1 X-12.115 Y-1.598 E0.09777
G1 X-9.385 Y1.132 E0.35856
G1 X-9.099 Y0.365 F9000.000
G1 X-12.115 Y-2.651 E0.39608 F900.000
G1 X-12.115 Y-3.704 E0.09777
G1 X-8.046 Y0.365 E0.53435
G1 X-6.993 Y0.365 E0.09777
G1 X-12.115 Y-4.757 E0.67263
G1 X-11.671 Y-5.365 E0.06997
G1 X-5.940 Y0.365 E0.75254
G1 E-3.20000 F3000.00000
G1 Z0.700 F9000.000
G1 X-5.358 Y-10.635 F9000.000
G1 Z0.300 F9000.000
G1 E3.20000 F3000.00000
G1 X-6.615 Y-11.892 E0.16505 F900.000
G1 E-3.20000 F3000.00000
G1 Z0.700 F9000.000
G1 X-12.500 Y-10.182 F9000.000
G1 Z0.300 F9000.000
G1 E3.20000 F3000.00000
G1 X-12.500 Y-6.182 E0.76612 F600.000
G1 X-11.700 Y-10.000 F9000.000
G1 X-7.432 Y-10.000 E0.39157 F600.000
G1 X-4.068 Y-31.000 F9000.000
G1 X7.568 Y-31.000 E1.06757 F600.000
G1 E-3.20000 F3000.00000
G1 Z0.700 F9000.000
G1 X2.943 Y12.384 F9000.000
G1 Z0.600 F9000.000
G1 E3.20000 F3000.00000
G1 X4.315 Y12.864 E0.07895 F1800.000
G1 X5.426 Y13.602 E0.07248
G1 X5.599 Y13.748 E0.01230
G1 X6.377 Y14.626 E0.06372
G1 X6.581 Y14.916 E0.01927
G1 X7.063 Y15.862 E0.05771
G1 X7.178 Y16.143 E0.01646
G1 X7.469 Y17.500 E0.07541
G1 X7.413 Y18.943 E0.07851
G1 X6.996 Y20.334 E0.07890
G1 X6.240 Y21.579 E0.07912
G1 X5.196 Y22.592 E0.07904
G1 X3.977 Y23.287 E0.07620
G1 X3.754 Y23.367 E0.01291
G1 X2.622 Y23.665 E0.06361
G1 X2.342 Y23.703 E0.01531
G1 X1.197 Y23.704 E0.06223
G1 X0.880 Y23.666 E0.01734
G1 X-0.454 Y23.300 E0.07516
G1 X-1.680 Y22.602 E0.07665
G1 X-2.358 Y22.006 E0.04906
G1 X-2.926 Y21.325 E0.04813
G1 X-3.382 Y20.566 E0.04813
G1 X-3.716 Y19.745 E0.04813
G1 X-3.920 Y18.881 E0.04824
G1 X-3.987 Y17.937 E0.05144
G1 X-3.802 Y16.538 E0.07667
G1 X-3.281 Y15.236 E0.07621
G1 X-2.589 Y14.278 E0.06418
G1 X-2.390 Y14.025 E0.01752
G1 X-2.237 Y13.898 E0.01079
G1 X-1.270 Y13.117 E0.06754
G1 X0.074 Y12.511 E0.08010
G1 X1.492 Y12.264 E0.07821 F1800.000
G1 X2.883 Y12.379 E0.07586
G1 X2.848 Y12.813 F9000.000
G1 X4.119 Y13.257 E0.07318 F1800.000
G1 X5.164 Y13.951 E0.06813
G1 X5.293 Y14.061 E0.00924
G1 X6.035 Y14.896 E0.06068
G1 X6.206 Y15.141 E0.01626
G1 X6.667 Y16.044 E0.05506
G1 X6.760 Y16.272 E0.01338
G1 X7.032 Y17.538 E0.07035
G1 X6.980 Y18.869 E0.07239
G1 X6.594 Y20.156 E0.07298
G1 X5.896 Y21.305 E0.07307
G1 X4.932 Y22.241 E0.07301
G1 X3.794 Y22.889 E0.07114
G1 X3.624 Y22.951 E0.00982
G1 X2.537 Y23.237 E0.06110
G1 X2.313 Y23.267 E0.01227
G1 X1.222 Y23.268 E0.05926
G1 X0.964 Y23.237 E0.01416
G1 X-0.286 Y22.894 E0.07040
G1 X-1.426 Y22.245 E0.07127
G1 X-2.045 Y21.701 E0.04482
G1 X-2.570 Y21.072 E0.04447
G1 X-2.991 Y20.371 E0.04447
G1 X-3.300 Y19.613 E0.04447
G1 X-3.488 Y18.815 E0.04451
G1 X-3.550 Y17.950 E0.04713
G1 X-3.377 Y16.649 E0.07130
G1 X-2.897 Y15.447 E0.07033
G1 X-2.241 Y14.540 E0.06078
G1 X-2.076 Y14.330 E0.01454
G1 X-1.961 Y14.235 E0.00810
G1 X-1.040 Y13.491 E0.06433
G1 X0.203 Y12.930 E0.07407
G1 X1.512 Y12.703 E0.07219 F1800.000
G1 X2.788 Y12.808 E0.06957
G1 X3.127 Y12.527 F9000.000
G1 X-6.014 Y4.736 F9000.000
G1 X-8.486 Y4.736 E0.13427 F1800.000
G1 X-8.486 Y1.264 E0.18860
G1 X-6.014 Y1.264 E0.13427 F1800.000
G1 X-6.014 Y4.676 E0.18534
G1 X-6.450 Y4.300 F9000.000
G1 X-8.050 Y4.300 E0.08693 F1800.000
G1 X-8.050 Y1.700 E0.14127
G1 X-6.450 Y1.700 E0.08693 F1800.000
G1 X-6.450 Y4.240 E0.13801
G1 X-6.450 Y4.700 F9000.000
G1 X-6.450 Y-6.264 F9000.000
G1 X-11.986 Y-6.264 E0.30077 F1800.000
G1 X-11.986 Y-9.736 E0.18860
G1 X-2.514 Y-9.736 E0.51460 F1800.000
G1 X-2.514 Y-6.264 E0.18860
G1 X-6.390 Y-6.264 E0.21057
G1 X-6.390 Y-6.700 F9000.000
G1 X-11.550 Y-6.700 E0.28036 F1800.000
G1 X-11.550 Y-9.300 E0.14127
G1 X-2.950 Y-9.300 E0.46726 F1800.000
G1 X-2.950 Y-6.700 E0.14127
G1 X-6.330 Y-6.700 E0.18365
G1 X-6.590 Y-6.354 F9000.000
G1 E-3.20000 F3000.00000
G1 Z1.000 F9000.000
G1 X-3.986 Y-13.264 F9000.000
G1 Z0.600 F9000.000
G1 E3.20000 F3000.00000
G1 X-3.986 Y-30.736 E0.94926 F1800.000
G1 X7.486 Y-30.736 E0.62327 F1800.000
G1 X7.486 Y-13.264 E0.94926
G1 X-3.926 Y-13.264 E0.62001
G1 X-3.550 Y-13.700 F9000.000
G1 X-3.550 Y-30.300 E0.90193 F1800.000
