; generated by Slic3r 1.2.9 on 2017-01-13 at 16:15:57

; external perimeters extrusion width = 0.50mm
; perimeters extrusion width = 0.50mm
; infill extrusion width = 0.50mm
; solid infill extrusion width = 0.50mm
; top infill extrusion width = 0.50mm

M107
;Basic settings: Layer height: {layer_height} Walls: {wall_thickness} Fill: {fill_density}
;Print time: {print_time}
;Filament used: {filament_amount}m {filament_weight}g
;Filament cost: {filament_cost}
;M190 S{print_bed_temperature} ;Uncomment to add your own bed temperature line
;M109 S{print_temperature} ;Uncomment to add your own temperature line
G21        ;metric values
G90        ;absolute positioning
M83
G10 P0 S200
T0
M116


G21 ; set units to millimeters
G90 ; use absolute coordinates
M83 ; use relative distances for extrusion
G1 E-3.20000 F3000.00000
G1 Z0.400 F9000.000
G1 X15.984 Y-10.155 F9000.000
G1 Z0.300 F9000.000
G1 E3.20000 F3000.00000
G1 X20.671 Y-2.772 E0.80234 F1200.000
G1 X26.846 Y7.923 E1.13312
G1 X27.339 Y9.568 E0.15755
G1 X27.045 Y11.259 E0.15755
G1 X25.478 Y13.026 E0.21667
G1 X-0.416 Y27.976 E2.74336
G1 X-2.061 Y28.470 E0.15755
G1 X-3.752 Y28.176 E0.15755
G1 X-5.422 Y26.767 E0.20045
G1 X-12.975 Y15.065 E1.27788
G1 X-20.677 Y2.756 E1.33222
G1 X-26.921 Y-8.053 E1.14530
G1 X-27.414 Y-9.698 E0.15755
G1 X-27.120 Y-11.389 E0.15755
G1 X-25.553 Y-13.156 E0.21666
G1 X0.341 Y-28.106 E2.74334
G1 X1.985 Y-28.600 E0.15755
G1 X3.677 Y-28.306 E0.15755
G1 X5.362 Y-26.874 E0.20283 F1200.000
G1 X15.952 Y-10.206 E1.81188
G1 E-3.20000 F3000.00000
G1 Z0.700 F9000.000
G1 X-5.062 Y1.926 F9000.000
G1 Z0.300 F9000.000
G1 E3.20000 F3000.00000
G1 X-4.457 Y2.974 E0.11097 F900.000
G1 X-4.690 Y2.974 E0.02139
G1 X-4.830 Y3.571 E0.05631
G1 X-5.034 Y3.961 E0.04033
G1 X-5.328 Y4.287 E0.04033
G1 X-5.680 Y4.521 E0.03878
G1 X-6.107 Y4.675 E0.04164
G1 X-6.547 Y4.712 E0.04052
G1 X-6.981 Y4.639 E0.04033
G1 X-7.382 Y4.460 E0.04033
G1 X-7.727 Y4.187 E0.04033
G1 X-7.982 Y3.850 E0.03878
G1 X-8.162 Y3.434 E0.04164
G1 X-8.227 Y2.997 E0.04052
G1 X-8.183 Y2.576 E0.03878
G1 X-8.029 Y2.149 E0.04164
G1 X-7.777 Y1.787 E0.04052
G1 X-7.444 Y1.499 E0.04033
G1 X-7.050 Y1.304 E0.04033
G1 X-6.637 Y1.216 E0.03878 F900.000
G1 X-6.183 Y1.230 E0.04164
G1 X-5.761 Y1.358 E0.04052
G1 X-5.385 Y1.586 E0.04033
G1 X-5.098 Y1.879 E0.03764
G1 X-4.663 Y1.895 F9000.000
G1 X4.034 Y-3.361 F9000.000
G1 X3.915 Y-3.786 E0.04052 F900.000
G1 X3.910 Y-4.240 E0.04164
G1 X4.007 Y-4.651 E0.03878
G1 X4.211 Y-5.041 E0.04033
G1 X4.505 Y-5.368 E0.04033
G1 X4.873 Y-5.612 E0.04052
G1 X5.303 Y-5.757 E0.04164
G1 X5.724 Y-5.792 E0.03878 F900.000
G1 X6.157 Y-5.719 E0.04033
G1 X6.559 Y-5.540 E0.04033
G1 X6.903 Y-5.267 E0.04033
G1 X7.169 Y-4.917 E0.04033
G1 X7.340 Y-4.512 E0.04033
G1 X7.404 Y-4.077 E0.04033
G1 X7.358 Y-3.640 E0.04033
G1 X7.205 Y-3.228 E0.04033
G1 X6.953 Y-2.865 E0.04052
G1 X6.606 Y-2.572 E0.04164
G1 X6.227 Y-2.384 E0.03878
G1 X5.797 Y-2.293 E0.04033
G1 X5.358 Y-2.311 E0.04033
G1 X4.937 Y-2.438 E0.04033
G1 X4.561 Y-2.666 E0.04033
G1 X4.254 Y-2.980 E0.04033
G1 X4.064 Y-3.309 E0.03483
G1 X3.640 Y-3.427 F9000.000
G1 X10.197 Y0.222 F9000.000
G1 X-9.393 Y11.532 E2.07549 F900.000
G1 X-14.432 Y2.804 E0.92473
G1 X-13.550 Y2.295 E0.09347
G1 X-13.524 Y2.728 E0.03982
G1 X-13.454 Y3.084 E0.03329
G1 X-13.329 Y3.429 E0.03370
G1 X-13.174 Y3.724 E0.03057
G1 X-12.860 Y4.093 E0.04442
G1 X-12.619 Y4.275 E0.02768
G1 X-12.327 Y4.437 E0.03065
G1 X-11.956 Y4.557 E0.03583
G1 X-11.567 Y4.600 E0.03591
G1 X-11.054 Y4.550 E0.04730
G1 X-10.439 Y4.283 E0.06151
G1 X-9.769 Y3.749 E0.07859
G1 X-8.997 Y2.819 E0.11091
G1 X-8.876 Y3.637 E0.07583
G1 X-8.622 Y4.224 E0.05870
G1 X-8.256 Y4.706 E0.05548
G1 X-7.766 Y5.094 E0.05738
G1 X-7.195 Y5.348 E0.05738
G1 X-6.578 Y5.453 E0.05738
G1 X-5.949 Y5.400 E0.05793
G1 X-5.347 Y5.183 E0.05870
G1 X-4.843 Y4.849 E0.05548
G1 X-4.425 Y4.384 E0.05738
G1 X-4.072 Y3.709 E0.06984
G1 X-3.183 Y3.709 E0.08161
G1 X-4.486 Y1.451 E0.23921
G1 X-4.924 Y1.005 E0.05738
G1 X-5.459 Y0.681 E0.05738
G1 X-6.063 Y0.498 E0.05793
G1 X-6.703 Y0.478 E0.05870
G1 X-7.294 Y0.604 E0.05548
G1 X-8.241 Y1.073 E0.09693
G1 X-8.032 Y0.455 E0.05989
G1 X-8.615 Y-0.555 E0.10698
G1 X3.677 Y-7.652 E1.30227
G1 X4.260 Y-6.642 E0.10698
G1 X4.900 Y-6.513 E0.05989
G1 X4.020 Y-5.929 E0.09693
G1 X3.602 Y-5.464 E0.05738
G1 X3.312 Y-4.910 E0.05738
G1 X3.174 Y-4.321 E0.05548
G1 X3.181 Y-3.681 E0.05870
G1 X3.351 Y-3.073 E0.05793
G1 X3.663 Y-2.532 E0.05738
G1 X4.101 Y-2.085 E0.05738
G1 X4.636 Y-1.761 E0.05738
G1 X5.235 Y-1.580 E0.05738
G1 X5.859 Y-1.554 E0.05738
G1 X6.471 Y-1.684 E0.05738
G1 X7.013 Y-1.953 E0.05548
G1 X7.501 Y-2.366 E0.05870
G1 X7.862 Y-2.884 E0.05793
G1 X8.080 Y-3.470 E0.05738
G1 X8.145 Y-4.092 E0.05738
G1 X8.054 Y-4.711 E0.05738
G1 X7.811 Y-5.288 E0.05738
G1 X7.433 Y-5.786 E0.05738
G1 X6.790 Y-6.295 E0.07528
G1 X7.982 Y-6.499 E0.11090
G1 X8.779 Y-6.813 E0.07859
G1 X9.318 Y-7.211 E0.06151
G1 X9.617 Y-7.631 E0.04729
G1 X9.775 Y-7.989 E0.03591
G1 X9.857 Y-8.371 E0.03583
G1 X9.862 Y-8.705 E0.03065
G1 X9.825 Y-9.004 E0.02768
G1 X9.662 Y-9.460 E0.04442
G1 X9.484 Y-9.742 E0.03057
G1 X9.248 Y-10.023 E0.03370
G1 X8.974 Y-10.262 E0.03335
G1 X8.612 Y-10.501 E0.03979
G1 X9.495 Y-11.010 E0.09351
G1 X14.534 Y-2.282 E0.92473
G1 X10.249 Y0.192 E0.45396 F900.000
G1 X10.617 Y0.829 F9000.000
G1 X-9.662 Y12.537 E2.14849 F900.000
G1 X-15.437 Y2.535 E1.05972
G1 X-12.435 Y0.801 E0.31809
G1 X-12.699 Y1.606 E0.07774
G1 X-12.791 Y2.071 E0.04348
G1 X-12.809 Y2.368 E0.02725
G1 X-12.792 Y2.634 E0.02452
G1 X-12.743 Y2.887 E0.02357
G1 X-12.654 Y3.131 E0.02385
G1 X-12.560 Y3.309 E0.01850
G1 X-12.352 Y3.555 E0.02956
G1 X-12.216 Y3.657 E0.01560
G1 X-12.033 Y3.760 E0.01927
G1 X-11.801 Y3.834 E0.02232
G1 X-11.562 Y3.861 E0.02208
G1 X-11.241 Y3.829 E0.02962
G1 X-10.821 Y3.647 E0.04195
G1 X-10.286 Y3.221 E0.06274
G1 X-9.870 Y2.720 E0.05976
G1 X-9.744 Y2.535 E0.02056
G1 X-9.354 Y1.845 E0.07267
G1 X-9.245 Y1.616 E0.02331
G1 X-9.007 Y1.042 E0.05698
G1 X-8.835 Y0.535 E0.04917
G1 X-9.620 Y-0.824 E0.14396
G1 X3.946 Y-8.657 E1.43725
G1 X4.731 Y-7.298 E0.14396
G1 X5.256 Y-7.192 E0.04917
G1 X5.872 Y-7.112 E0.05698
G1 X6.125 Y-7.092 E0.02331
G1 X6.917 Y-7.085 E0.07267
G1 X7.141 Y-7.102 E0.02055
G1 X7.783 Y-7.211 E0.05976
G1 X8.419 Y-7.462 E0.06275
G1 X8.787 Y-7.733 E0.04195
G1 X8.975 Y-7.996 E0.02962
G1 X9.071 Y-8.217 E0.02208
G1 X9.123 Y-8.454 E0.02232
G1 X9.126 Y-8.664 E0.01927
G1 X9.105 Y-8.833 E0.01560
G1 X8.997 Y-9.137 E0.02956
G1 X8.889 Y-9.307 E0.01850
G1 X8.722 Y-9.506 E0.02385
G1 X8.528 Y-9.675 E0.02359
G1 X8.280 Y-9.839 E0.02730
G1 X8.020 Y-9.964 E0.02643
G1 X7.590 Y-10.108 E0.04164
G1 X6.762 Y-10.282 E0.07764
G1 X9.764 Y-12.015 E0.31809
G1 X15.539 Y-2.013 E1.05972
G1 X10.669 Y0.799 E0.51595 F900.000
G1 X10.271 Y0.629 F9000.000
G1 X13.568 Y-2.860 F9000.000
G1 X9.536 Y-6.891 E0.53637 F900.000
G1 X8.923 Y-6.438 E0.07176
G1 X13.325 Y-2.036 E0.58566
G1 X12.648 Y-1.646 E0.07347
G1 X8.159 Y-6.136 E0.59736
G1 X8.535 Y-4.692 E0.14037
G1 X11.972 Y-1.255 E0.45724
G1 X11.296 Y-0.865 E0.07347
G1 X8.532 Y-3.628 E0.36765
G1 X8.271 Y-2.823 E0.07964
G1 X10.619 Y-0.474 E0.31249
G1 X9.943 Y-0.084 E0.07347
G1 X7.846 Y-2.181 E0.27904
G1 X7.283 Y-1.677 E0.07107
G1 X9.267 Y0.306 E0.26389
G1 X8.590 Y0.697 E0.07347
G1 X6.592 Y-1.302 E0.26591
G1 X5.723 Y-1.103 E0.08381
G1 X7.914 Y1.087 E0.29147
G1 X7.238 Y1.478 E0.07347
G1 X4.473 Y-1.286 E0.36780
G1 X2.892 Y-2.868 F9000.000
G1 X0.434 Y-5.326 E0.32707 F900.000
G1 X1.110 Y-5.717 E0.07347
G1 X2.725 Y-4.101 E0.21493
G1 X2.907 Y-4.987 E0.08502
G1 X1.786 Y-6.107 E0.14909
G1 X2.463 Y-6.498 E0.07347
G1 X3.279 Y-5.681 E0.10866
G1 X3.787 Y-6.240 E0.07105
G1 X3.139 Y-6.888 E0.08617
G1 X-0.243 Y-4.936 F9000.000
G1 X6.561 Y1.868 E0.90531 F900.000
G1 X5.885 Y2.259 E0.07347
G1 X-0.919 Y-4.545 E0.90531
G1 X-1.595 Y-4.155 E0.07347
G1 X5.209 Y2.649 E0.90531
G1 X4.533 Y3.040 E0.07347
G1 X-2.272 Y-3.764 E0.90531
G1 X-2.948 Y-3.374 E0.07347
G1 X3.856 Y3.430 E0.90531
G1 X3.180 Y3.821 E0.07347
G1 X-3.624 Y-2.983 E0.90531
G1 X-4.300 Y-2.593 E0.07347
G1 X2.504 Y4.211 E0.90531
G1 X1.827 Y4.602 E0.07347
G1 X-4.977 Y-2.203 E0.90531
G1 X-5.653 Y-1.812 E0.07347
G1 X1.151 Y4.992 E0.90531
G1 X0.475 Y5.382 E0.07347
G1 X-6.329 Y-1.422 E0.90531
G1 X-7.006 Y-1.031 E0.07347
G1 X-5.927 Y0.048 E0.14358
G1 X-6.942 Y0.099 E0.09566
G1 X-7.682 Y-0.641 E0.09845
G1 X-10.046 Y4.463 F9000.000
G1 X-5.612 Y8.897 E0.58992 F900.000
G1 X-6.288 Y9.287 E0.07347
G1 X-10.730 Y4.845 E0.59097
G1 X-11.602 Y5.040 E0.08405
G1 X-6.965 Y9.678 E0.61699
G1 X-7.641 Y10.068 E0.07347
G1 X-12.289 Y5.420 E0.61848
G1 X-10.832 Y7.944 F9000.000
G1 X-8.317 Y10.459 E0.33461 F900.000
G1 X-8.993 Y10.849 E0.07347
G1 X-9.375 Y10.468 E0.05074
G1 X-4.936 Y8.506 F9000.000
G1 X-7.776 Y5.666 E0.37795 F900.000
G1 X-6.491 Y5.884 E0.12261
G1 X-4.259 Y8.116 E0.29698
G1 X-3.583 Y7.725 E0.07347
G1 X-5.602 Y5.706 E0.26865
G1 X-4.893 Y5.349 E0.07472
G1 X-2.907 Y7.335 E0.26428
G1 X-2.230 Y6.944 E0.07347
G1 X-4.326 Y4.849 E0.27880
G1 X-3.892 Y4.216 E0.07219
G1 X-1.554 Y6.554 E0.31105
G1 X-0.878 Y6.163 E0.07347
G1 X-2.883 Y4.159 E0.26676
G1 X-2.939 Y3.036 F9000.000
G1 X-0.202 Y5.773 E0.36419 F900.000
G1 X12.110 Y-5.384 F9000.000
G1 X9.996 Y-7.498 E0.28133 F900.000
G1 X10.269 Y-8.292 E0.07894
G1 X10.653 Y-7.908 E0.05104
G1 E-3.20000 F3000.00000
G1 Z0.700 F9000.000
G1 X1.764 Y13.015 F9000.000
G1 Z0.300 F9000.000
G1 E3.20000 F3000.00000
G1 X2.140 Y13.243 E0.04033 F900.000
G1 X2.448 Y13.557 E0.04033
G1 X3.068 Y14.631 E0.11378
G1 X2.835 Y14.631 E0.02139
G1 X2.695 Y15.228 E0.05631
G1 X2.491 Y15.618 E0.04033
G1 X2.197 Y15.945 E0.04033
G1 X1.845 Y16.179 E0.03878
G1 X1.418 Y16.332 E0.04164
G1 X0.978 Y16.369 E0.04052
G1 X0.544 Y16.296 E0.04033
G1 X0.143 Y16.117 E0.04033
G1 X-0.202 Y15.844 E0.04033
G1 X-0.457 Y15.507 E0.03878
G1 X-0.638 Y15.091 E0.04164
G1 X-0.702 Y14.654 E0.04052
G1 X-0.658 Y14.233 E0.03878
G1 X-0.504 Y13.806 E0.04164
G1 X-0.252 Y13.444 E0.04052
G1 X0.081 Y13.157 E0.04033
G1 X0.474 Y12.961 E0.04033
G1 X0.888 Y12.873 E0.03878 F900.000
G1 X1.342 Y12.888 E0.04164
G1 X1.707 Y12.998 E0.03502
G1 X2.098 Y12.794 F9000.000
G1 X11.559 Y8.297 F9000.000
G1 X11.440 Y7.871 E0.04052 F900.000
G1 X11.435 Y7.417 E0.04164
G1 X11.532 Y7.006 E0.03878
G1 X11.736 Y6.616 E0.04033
G1 X12.030 Y6.290 E0.04033
G1 X12.398 Y6.045 E0.04052
G1 X12.828 Y5.900 E0.04164
G1 X13.249 Y5.865 E0.03878 F900.000
G1 X13.682 Y5.938 E0.04033
G1 X14.084 Y6.117 E0.04033
G1 X14.428 Y6.390 E0.04033
G1 X14.694 Y6.740 E0.04033
G1 X14.865 Y7.146 E0.04033
G1 X14.929 Y7.580 E0.04033
G1 X14.883 Y8.018 E0.04033
G1 X14.730 Y8.430 E0.04033
G1 X14.477 Y8.792 E0.04052
G1 X14.131 Y9.085 E0.04164
G1 X13.752 Y9.273 E0.03878
G1 X13.322 Y9.365 E0.04033
G1 X12.883 Y9.346 E0.04033
G1 X12.462 Y9.219 E0.04033
G1 X12.086 Y8.991 E0.04033
G1 X11.779 Y8.677 E0.04033
G1 X11.589 Y8.349 E0.03483
G1 X11.165 Y8.230 F9000.000
G1 X12.207 Y15.064 F9000.000
G1 X-1.868 Y23.190 E1.49114 F900.000
G1 X-6.907 Y14.461 E0.92473
G1 X-6.025 Y13.952 E0.09347
G1 X-5.999 Y14.385 E0.03982
G1 X-5.929 Y14.741 E0.03329
G1 X-5.804 Y15.086 E0.03370
G1 X-5.649 Y15.381 E0.03057
G1 X-5.335 Y15.750 E0.04442
G1 X-5.094 Y15.932 E0.02768
G1 X-4.802 Y16.095 E0.03065
G1 X-4.431 Y16.214 E0.03583
G1 X-4.042 Y16.257 E0.03591
G1 X-3.529 Y16.208 E0.04730
G1 X-2.914 Y15.940 E0.06151
G1 X-2.244 Y15.407 E0.07859
G1 X-1.472 Y14.476 E0.11091
G1 X-1.351 Y15.294 E0.07583
G1 X-1.097 Y15.881 E0.05870
G1 X-0.731 Y16.363 E0.05548
G1 X-0.241 Y16.751 E0.05738
G1 X0.330 Y17.006 E0.05738
G1 X0.947 Y17.110 E0.05738
G1 X1.576 Y17.057 E0.05793
G1 X2.178 Y16.841 E0.05870
G1 X2.681 Y16.506 E0.05548
G1 X3.100 Y16.041 E0.05738
G1 X3.453 Y15.367 E0.06984
G1 X4.342 Y15.367 E0.08161
G1 X3.039 Y13.109 E0.23921
G1 X2.601 Y12.662 E0.05738
G1 X2.066 Y12.338 E0.05738
G1 X1.462 Y12.155 E0.05793
G1 X0.822 Y12.135 E0.05870
G1 X0.231 Y12.261 E0.05548
G1 X-0.716 Y12.731 E0.09693
G1 X-0.507 Y12.112 E0.05989
G1 X-1.090 Y11.102 E0.10698
G1 X11.202 Y4.006 E1.30227
G1 X11.785 Y5.015 E0.10698
G1 X12.425 Y5.144 E0.05989
G1 X11.545 Y5.728 E0.09693
G1 X11.127 Y6.193 E0.05738
G1 X10.837 Y6.747 E0.05738
G1 X10.699 Y7.336 E0.05548
G1 X10.706 Y7.976 E0.05870
G1 X10.875 Y8.584 E0.05793
G1 X11.188 Y9.126 E0.05738
G1 X11.626 Y9.572 E0.05738
G1 X12.161 Y9.896 E0.05738
G1 X12.759 Y10.077 E0.05738
G1 X13.384 Y10.103 E0.05738
G1 X13.996 Y9.973 E0.05738
G1 X14.538 Y9.705 E0.05548
G1 X15.026 Y9.292 E0.05870
G1 X15.387 Y8.773 E0.05793
G1 X15.605 Y8.187 E0.05738
G1 X15.670 Y7.565 E0.05738
G1 X15.579 Y6.946 E0.05738
G1 X15.336 Y6.370 E0.05738
G1 X14.958 Y5.871 E0.05738
G1 X14.315 Y5.362 E0.07528
G1 X15.507 Y5.158 E0.11090
G1 X16.304 Y4.845 E0.07859
G1 X16.843 Y4.446 E0.06151
G1 X17.142 Y4.027 E0.04729
G1 X17.300 Y3.668 E0.03591
G1 X17.382 Y3.287 E0.03583
G1 X17.387 Y2.953 E0.03065
G1 X17.349 Y2.653 E0.02768
G1 X17.187 Y2.197 E0.04442
G1 X17.009 Y1.915 E0.03057
G1 X16.773 Y1.634 E0.03370
G1 X16.499 Y1.395 E0.03335
G1 X16.137 Y1.156 E0.03979
G1 X17.020 Y0.647 E0.09351
G1 X22.059 Y9.375 E0.92473
G1 X12.259 Y15.034 E1.03830 F900.000
G1 X12.626 Y15.671 F9000.000
G1 X-2.137 Y24.195 E1.56414 F900.000
G1 X-7.912 Y14.192 E1.05972
G1 X-4.910 Y12.458 E0.31809
G1 X-5.174 Y13.264 E0.07774
G1 X-5.266 Y13.728 E0.04348
G1 X-5.284 Y14.025 E0.02725
G1 X-5.267 Y14.292 E0.02452
G1 X-5.218 Y14.544 E0.02357
G1 X-5.129 Y14.788 E0.02385
G1 X-5.036 Y14.967 E0.01850
G1 X-4.827 Y15.212 E0.02956
G1 X-4.691 Y15.315 E0.01560
G1 X-4.508 Y15.417 E0.01927
G1 X-4.276 Y15.491 E0.02232
G1 X-4.037 Y15.518 E0.02208
G1 X-3.716 Y15.487 E0.02962
G1 X-3.296 Y15.304 E0.04195
G1 X-2.761 Y14.878 E0.06274
G1 X-2.345 Y14.377 E0.05976
G1 X-2.219 Y14.192 E0.02056
G1 X-1.829 Y13.503 E0.07267
G1 X-1.720 Y13.273 E0.02331
G1 X-1.482 Y12.700 E0.05698
G1 X-1.310 Y12.192 E0.04917
G1 X-2.095 Y10.833 E0.14396
G1 X11.471 Y3.001 E1.43725
G1 X12.256 Y4.360 E0.14396
G1 X12.781 Y4.465 E0.04917
G1 X13.397 Y4.546 E0.05698
G1 X13.650 Y4.566 E0.02331
G1 X14.442 Y4.572 E0.07267
G1 X14.666 Y4.556 E0.02055
G1 X15.308 Y4.446 E0.05976
G1 X15.944 Y4.195 E0.06275
G1 X16.312 Y3.924 E0.04195
G1 X16.500 Y3.661 E0.02962
G1 X16.596 Y3.441 E0.02208
G1 X16.647 Y3.203 E0.02232
G1 X16.651 Y2.993 E0.01927
G1 X16.630 Y2.824 E0.01560
G1 X16.522 Y2.521 E0.02956
G1 X16.414 Y2.350 E0.01850
G1 X16.247 Y2.151 E0.02385
G1 X16.053 Y1.982 E0.02359
G1 X15.805 Y1.818 E0.02730
G1 X15.545 Y1.693 E0.02643
G1 X15.115 Y1.549 E0.04164
G1 X14.287 Y1.375 E0.07764
G1 X17.289 Y-0.358 E0.31809
G1 X23.064 Y9.645 E1.05972
G1 X12.678 Y15.641 E1.10029 F900.000
G1 X12.280 Y15.471 F9000.000
G1 X11.998 Y10.371 F9000.000
G1 X14.763 Y13.135 E0.36780 F900.000
G1 X15.439 Y12.745 E0.07347
G1 X13.248 Y10.554 E0.29147
G1 X14.117 Y10.356 E0.08381
G1 X16.115 Y12.354 E0.26591
G1 X16.792 Y11.964 E0.07347
G1 X14.808 Y9.980 E0.26389
G1 X15.371 Y9.476 E0.07107
G1 X17.468 Y11.573 E0.27904
G1 X18.144 Y11.183 E0.07347
G1 X15.796 Y8.834 E0.31249
G1 X16.057 Y8.029 E0.07964
G1 X18.821 Y10.792 E0.36765
G1 X19.497 Y10.402 E0.07347
G1 X16.060 Y6.965 E0.45724
G1 X15.683 Y5.522 E0.14037
G1 X20.173 Y10.011 E0.59736
G1 X20.849 Y9.621 E0.07347
G1 X16.448 Y5.219 E0.58566
G1 X17.061 Y4.766 E0.07176
G1 X21.092 Y8.797 E0.53637
G1 X19.635 Y6.273 F9000.000
G1 X17.521 Y4.159 E0.28133 F900.000
G1 X17.794 Y3.366 E0.07894
G1 X18.178 Y3.749 E0.05104
G1 E-3.20000 F3000.00000
G1 Z0.700 F9000.000
G1 X10.664 Y4.769 F9000.000
G1 Z0.300 F9000.000
G1 E3.20000 F3000.00000
G1 X11.311 Y5.417 E0.08617 F900.000
G1 X10.804 Y5.976 E0.07105
G1 X9.988 Y5.160 E0.10866
G1 X9.311 Y5.550 E0.07347
G1 X10.432 Y6.671 E0.14909
G1 X10.250 Y7.556 E0.08502
G1 X8.635 Y5.941 E0.21493
G1 X7.959 Y6.331 E0.07347
G1 X10.417 Y8.789 E0.32707
G1 X7.282 Y6.721 F9000.000
G1 X14.086 Y13.526 E0.90531 F900.000
G1 X13.410 Y13.916 E0.07347
G1 X6.606 Y7.112 E0.90531
G1 X5.930 Y7.502 E0.07347
G1 X12.734 Y14.306 E0.90531
G1 X12.058 Y14.697 E0.07347
G1 X5.253 Y7.893 E0.90531
G1 X4.577 Y8.283 E0.07347
G1 X11.381 Y15.087 E0.90531
G1 X10.705 Y15.478 E0.07347
G1 X3.901 Y8.674 E0.90531
G1 X3.224 Y9.064 E0.07347
G1 X10.029 Y15.868 E0.90531
G1 X9.352 Y16.259 E0.07347
G1 X2.548 Y9.455 E0.90531
G1 X1.872 Y9.845 E0.07347
G1 X8.676 Y16.649 E0.90531
G1 X8.000 Y17.040 E0.07347
