; generated by Slic3r 1.2.9 on 2017-03-13 at 18:46:40

; external perimeters extrusion width = 0.40mm
; perimeters extrusion width = 0.40mm
; infill extrusion width = 0.40mm
; solid infill extrusion width = 0.40mm
; top infill extrusion width = 0.40mm

M107
M83
T0
M116
G21 ; set units to millimeters
G90 ; use absolute coordinates
M83 ; use relative distances for extrusion
G1 E-3.20000 F3000.00000
G1 Z0.400 F15000.000
G1 X0.000 Y-9.736 F15000.000
G1 Z0.300 F15000.000
G1 E3.20000 F3000.00000
G1 X14.950 Y-9.736 E1.15213 F960.000
G1 X16.597 Y-9.341 E0.13052 F960.000
G1 X17.887 Y-8.243 E0.13052
G1 X18.586 Y-6.100 E0.17373
G1 X18.586 Y6.250 E0.95176
G1 X18.191 Y7.897 E0.13052
G1 X17.093 Y9.187 E0.13052
G1 X14.950 Y9.886 E0.17373
G1 X-14.950 Y9.886 E2.30426
G1 X-16.597 Y9.491 E0.13052
G1 X-17.887 Y8.393 E0.13052
G1 X-18.586 Y6.250 E0.17373
G1 X-18.586 Y-6.100 E0.95176
G1 X-18.191 Y-7.747 E0.13052
G1 X-17.093 Y-9.037 E0.13052
G1 X-14.950 Y-9.736 E0.17373
G1 X-0.060 Y-9.736 E1.14751
G1 E-3.20000 F3000.00000
G1 Z0.700 F15000.000
G1 X5.918 Y-0.315 F15000.000
G1 Z0.300 F15000.000
G1 E3.20000 F3000.00000
G1 X6.275 Y-0.541 E0.03253 F600.000
G1 X6.681 Y-0.673 E0.03290
G1 X7.090 Y-0.699 E0.03162 F600.000
G1 X7.525 Y-0.621 E0.03400
G1 X7.913 Y-0.438 E0.03304
G1 X8.242 Y-0.166 E0.03290
G1 X8.493 Y0.179 E0.03290
G1 X8.650 Y0.576 E0.03290
G1 X8.703 Y1.000 E0.03290
G1 X8.650 Y1.424 E0.03290
G1 X8.493 Y1.821 E0.03290
G1 X8.242 Y2.166 E0.03290
G1 X7.913 Y2.438 E0.03290
G1 X7.526 Y2.620 E0.03290
G1 X7.107 Y2.700 E0.03290
G1 X6.681 Y2.673 E0.03290
G1 X6.275 Y2.541 E0.03290
G1 X5.914 Y2.312 E0.03290
G1 X5.622 Y2.001 E0.03290
G1 X5.416 Y1.627 E0.03290
G1 X5.310 Y1.213 E0.03290
G1 X5.310 Y0.787 E0.03290
G1 X5.412 Y0.389 E0.03162
G1 X5.621 Y0.000 E0.03400
G1 X5.877 Y-0.272 E0.02880
G1 X5.869 Y-0.712 F15000.000
G1 X6.046 Y-5.114 F15000.000
G1 X13.964 Y-5.114 E0.61024 F720.000
G1 X13.964 Y5.264 E0.79984 F720.000
G1 X12.506 Y5.264 E0.11236
G1 X12.698 Y4.973 E0.02688
G1 X12.851 Y4.668 E0.02629
G1 X12.961 Y4.345 E0.02630
G1 X13.022 Y4.005 E0.02662
G1 X13.034 Y3.699 E0.02361
G1 X12.952 Y3.255 E0.03476
G1 X12.845 Y3.002 E0.02118
G1 X12.687 Y2.737 E0.02380
G1 X12.445 Y2.470 E0.02778
G1 X12.154 Y2.256 E0.02780
G1 X11.721 Y2.059 E0.03670
G1 X11.098 Y1.988 E0.04831
G1 X10.286 Y2.110 E0.06330
G1 X9.592 Y2.367 E0.05702
G1 X9.343 Y2.487 E0.02127
G1 X9.040 Y2.665 E0.02716
G1 X8.831 Y2.436 E0.02390
G1 X9.054 Y2.129 E0.02921
G1 X9.270 Y1.583 E0.04528
G1 X9.344 Y1.000 E0.04528
G1 X9.270 Y0.417 E0.04528
G1 X9.054 Y-0.129 E0.04528
G1 X8.709 Y-0.604 E0.04528
G1 X8.256 Y-0.979 E0.04528
G1 X7.720 Y-1.231 E0.04568
G1 X7.127 Y-1.338 E0.04638
G1 X6.561 Y-1.302 E0.04374
G1 X6.002 Y-1.121 E0.04528
G1 X5.506 Y-0.806 E0.04528
G1 X5.100 Y-0.374 E0.04568
G1 X4.816 Y0.156 E0.04638
G1 X4.675 Y0.706 E0.04374
G1 X4.675 Y1.294 E0.04528
G1 X4.821 Y1.863 E0.04528
G1 X5.104 Y2.378 E0.04528
G1 X5.506 Y2.806 E0.04528
G1 X6.002 Y3.121 E0.04528
G1 X6.561 Y3.302 E0.04528
G1 X7.147 Y3.339 E0.04528
G1 X7.714 Y3.231 E0.04445
G1 X7.842 Y3.493 E0.02244
G1 X7.247 Y4.016 E0.06107
G1 X7.247 Y5.264 E0.09619
G1 X-7.247 Y5.264 E1.11695
G1 X-7.247 Y4.016 E0.09619
G1 X-7.842 Y3.493 E0.06107
G1 X-7.714 Y3.231 E0.02244
G1 X-7.147 Y3.339 E0.04445
G1 X-6.561 Y3.302 E0.04528
G1 X-6.002 Y3.121 E0.04528
G1 X-5.506 Y2.806 E0.04528
G1 X-5.104 Y2.378 E0.04528
G1 X-4.821 Y1.863 E0.04528
G1 X-4.675 Y1.294 E0.04528
G1 X-4.675 Y0.706 E0.04528
G1 X-4.821 Y0.137 E0.04528
G1 X-5.104 Y-0.378 E0.04528
G1 X-5.506 Y-0.806 E0.04528
G1 X-6.002 Y-1.121 E0.04528
G1 X-6.561 Y-1.302 E0.04528
G1 X-7.147 Y-1.339 E0.04528
G1 X-7.705 Y-1.233 E0.04374
G1 X-8.252 Y-0.982 E0.04638
G1 X-8.709 Y-0.604 E0.04568
G1 X-9.054 Y-0.129 E0.04528
G1 X-9.270 Y0.417 E0.04528
G1 X-9.344 Y1.000 E0.04528
G1 X-9.270 Y1.583 E0.04528
G1 X-9.054 Y2.129 E0.04528
G1 X-8.831 Y2.436 E0.02921
G1 X-9.040 Y2.665 E0.02390
G1 X-9.343 Y2.487 E0.02716
G1 X-9.592 Y2.367 E0.02127
G1 X-10.286 Y2.110 E0.05702
G1 X-11.098 Y1.988 E0.06330
G1 X-11.721 Y2.059 E0.04831
G1 X-12.154 Y2.256 E0.03670
G1 X-12.445 Y2.470 E0.02780
G1 X-12.687 Y2.737 E0.02778
G1 X-12.845 Y3.002 E0.02380
G1 X-12.952 Y3.255 E0.02118
G1 X-13.034 Y3.699 E0.03477
G1 X-13.022 Y4.005 E0.02361
G1 X-12.961 Y4.345 E0.02662
G1 X-12.850 Y4.668 E0.02634
G1 X-12.553 Y5.264 E0.05135
G1 X-13.964 Y5.264 E0.10880
G1 X-13.964 Y-5.114 E0.79984
G1 X5.986 Y-5.114 E1.53748
G1 X-5.416 Y0.373 F15000.000
G1 X-5.310 Y0.787 E0.03290 F600.000
G1 X-5.310 Y1.213 E0.03290
G1 X-5.416 Y1.627 E0.03290
G1 X-5.622 Y2.001 E0.03290
G1 X-5.914 Y2.312 E0.03290
G1 X-6.275 Y2.541 E0.03290
G1 X-6.681 Y2.673 E0.03290
G1 X-7.107 Y2.700 E0.03290
G1 X-7.510 Y2.623 E0.03162
G1 X-7.911 Y2.439 E0.03400
G1 X-8.242 Y2.166 E0.03304
G1 X-8.493 Y1.821 E0.03290
G1 X-8.650 Y1.424 E0.03290
G1 X-8.703 Y1.000 E0.03290
G1 X-8.650 Y0.576 E0.03290
G1 X-8.493 Y0.179 E0.03290
G1 X-8.242 Y-0.166 E0.03290
G1 X-7.911 Y-0.439 E0.03304
G1 X-7.510 Y-0.623 E0.03400
G1 X-7.107 Y-0.700 E0.03162 F600.000
G1 X-6.681 Y-0.673 E0.03290
G1 X-6.275 Y-0.541 E0.03290
G1 X-5.914 Y-0.312 E0.03290
G1 X-5.622 Y-0.001 E0.03290
G1 X-5.445 Y0.320 E0.02828
G1 X-5.024 Y0.448 F15000.000
G1 E-3.20000 F3000.00000
G1 Z0.700 F15000.000
G1 X-8.266 Y3.966 F15000.000
G1 Z0.300 F15000.000
G1 E3.20000 F3000.00000
G1 X-8.964 Y3.447 E0.06696 F720.000
G1 X-9.643 Y3.048 E0.06074
G1 X-9.841 Y2.952 E0.01692
G1 X-10.445 Y2.729 E0.04961
G1 X-11.109 Y2.629 E0.05180
G1 X-11.549 Y2.679 E0.03412
G1 X-11.831 Y2.807 E0.02387
G1 X-12.017 Y2.944 E0.01776
G1 X-12.174 Y3.117 E0.01797
G1 X-12.340 Y3.438 E0.02789
G1 X-12.396 Y3.744 E0.02398
G1 X-12.388 Y3.937 E0.01485
G1 X-12.344 Y4.186 E0.01947
G1 X-12.263 Y4.422 E0.01926
G1 X-12.133 Y4.682 E0.02241
G1 X-11.975 Y4.915 E0.02170
G1 X-11.678 Y5.250 E0.03450
G1 X-11.453 Y5.452 E0.02329
G1 X-11.204 Y5.640 E0.02403
G1 X-11.291 Y5.900 E0.02114
G1 X-14.600 Y5.900 E0.25497
G1 X-14.600 Y-5.750 E0.89781
G1 X14.600 Y-5.750 E2.25031
G1 X14.600 Y5.900 E0.89781 F720.000
G1 X11.291 Y5.900 E0.25497
G1 X11.204 Y5.640 E0.02114
G1 X11.453 Y5.452 E0.02403
G1 X11.679 Y5.250 E0.02337
G1 X11.987 Y4.898 E0.03602
G1 X12.147 Y4.655 E0.02239
G1 X12.263 Y4.422 E0.02011
G1 X12.344 Y4.186 E0.01924
G1 X12.388 Y3.937 E0.01947
G1 X12.396 Y3.744 E0.01485
G1 X12.340 Y3.438 E0.02398
G1 X12.277 Y3.290 E0.01242
G1 X12.174 Y3.117 E0.01554
G1 X12.017 Y2.944 E0.01797
G1 X11.831 Y2.807 E0.01776
G1 X11.549 Y2.679 E0.02387
G1 X11.109 Y2.629 E0.03412
G1 X10.445 Y2.729 E0.05180
G1 X9.841 Y2.952 E0.04962
G1 X9.643 Y3.048 E0.01692
G1 X8.964 Y3.447 E0.06074
G1 X8.757 Y3.590 E0.01935
G1 X8.266 Y3.966 E0.04763
G1 X7.882 Y4.304 E0.03943
G1 X7.882 Y5.900 E0.12303
G1 X-7.882 Y5.900 E1.21492
G1 X-7.882 Y4.304 E0.12303
G1 X-8.221 Y4.005 E0.03480
G1 X-8.209 Y3.570 F15000.000
G1 E-3.20000 F3000.00000
G1 Z0.700 F15000.000
G1 X-13.058 Y2.702 F15000.000
G1 Z0.300 F15000.000
G1 E3.20000 F3000.00000
G1 X-13.344 Y3.128 E0.03950 F960.000
G1 X-13.475 Y3.390 E0.02260
G1 X-13.500 Y3.682 E0.02258
G1 X-13.491 Y4.066 E0.02960
G1 X-13.453 Y4.488 E0.03263
G1 X-13.376 Y4.947 E0.03585
G1 X-13.579 Y1.604 F15000.000
G1 X-13.194 Y1.990 E0.04305 F960.000
G1 X-12.306 Y1.956 E0.07021
G1 X-13.579 Y0.683 E0.14227
G1 X-13.579 Y-0.239 E0.07283
G1 X-11.661 Y1.679 E0.21431
G1 X-10.796 Y1.622 E0.06851
G1 X-13.579 Y-1.161 E0.31100
G1 X-13.579 Y-2.082 E0.07283
G1 X-9.643 Y1.854 E0.43990
G1 X-9.700 Y0.874 E0.07755
G1 X-13.579 Y-3.004 E0.43343
G1 X-13.579 Y-3.926 E0.07283
G1 X-9.527 Y0.127 E0.45287
G1 X-9.210 Y-0.479 E0.05397
G1 X-13.460 Y-4.729 E0.47497
G1 X-12.539 Y-4.729 E0.07283
G1 X-8.782 Y-0.972 E0.41980
G1 X-8.248 Y-1.360 E0.05215
G1 X-11.617 Y-4.729 E0.37651
G1 X-10.695 Y-4.729 E0.07283
G1 X-7.590 Y-1.624 E0.34701
G1 X-6.754 Y-1.709 E0.06642
G1 X-9.773 Y-4.729 E0.33744
G1 X-8.852 Y-4.729 E0.07283
G1 X0.756 Y4.879 E1.07371
G1 X1.678 Y4.879 E0.07283
G1 X-7.930 Y-4.729 E1.07371
G1 X-7.008 Y-4.729 E0.07283
G1 X2.600 Y4.879 E1.07371
G1 X3.521 Y4.879 E0.07283
G1 X-6.087 Y-4.729 E1.07371
G1 X-5.165 Y-4.729 E0.07283
G1 X4.443 Y4.879 E1.07371
G1 X5.365 Y4.879 E0.07283
G1 X-4.243 Y-4.729 E1.07371
G1 X-3.322 Y-4.729 E0.07283
G1 X6.286 Y4.879 E1.07371
G1 X6.861 Y4.532 E0.05306
G1 X5.860 Y3.531 E0.11194
G1 X4.450 Y2.121 F15000.000
G1 X-2.400 Y-4.729 E0.76549 F960.000
G1 X-1.478 Y-4.729 E0.07283
G1 X4.289 Y1.038 E0.64451
G1 X4.424 Y0.251 E0.06310
G1 X-0.556 Y-4.729 E0.55655
G1 X0.365 Y-4.729 E0.07283
G1 X4.718 Y-0.376 E0.48644
G1 X5.129 Y-0.887 E0.05180
G1 X1.287 Y-4.729 E0.42940
G1 X2.209 Y-4.729 E0.07283
G1 X5.647 Y-1.291 E0.38420
G1 X6.280 Y-1.579 E0.05499
G1 X3.130 Y-4.729 E0.35196
G1 X4.052 Y-4.729 E0.07283
G1 X7.069 Y-1.712 E0.33712
G1 X8.189 Y-1.514 E0.08986
G1 X4.974 Y-4.729 E0.35926
G1 X5.896 Y-4.729 E0.07283
G1 X12.593 Y1.969 E0.74851
G1 X13.500 Y1.953 E0.07161
G1 X6.817 Y-4.729 E0.74676
G1 X7.739 Y-4.729 E0.07283
G1 X13.579 Y1.111 E0.65263
G1 X13.579 Y0.189 E0.07283
G1 X8.661 Y-4.729 E0.54962
G1 X9.582 Y-4.729 E0.07283
G1 X13.579 Y-0.732 E0.44662
G1 X13.579 Y-1.654 E0.07283
G1 X10.504 Y-4.729 E0.34362
G1 X11.426 Y-4.729 E0.07283
G1 X13.579 Y-2.576 E0.24061
G1 X13.579 Y-3.498 E0.07283
G1 X12.348 Y-4.729 E0.13761
G1 X13.269 Y-4.729 E0.07283
G1 X13.579 Y-4.419 E0.03461
G1 X9.505 Y-0.198 F15000.000
G1 X11.311 Y1.609 E0.20190 F960.000
G1 X10.489 Y1.708 E0.06542
G1 X9.724 Y0.942 E0.08558
G1 E-3.20000 F3000.00000
G1 Z0.700 F15000.000
G1 X-0.166 Y4.879 F15000.000
G1 Z0.300 F15000.000
G1 E3.20000 F3000.00000
G1 X-4.289 Y0.755 E0.46083 F960.000
G1 X-4.382 Y1.585 E0.06594
G1 X-1.087 Y4.879 E0.36815
G1 X-2.009 Y4.879 E0.07283
G1 X-4.645 Y2.243 E0.29458
G1 X-5.030 Y2.780 E0.05220
G1 X-2.931 Y4.879 E0.23455
G1 X-3.852 Y4.879 E0.07283
G1 X-5.520 Y3.211 E0.18641
G1 X-6.124 Y3.529 E0.05392
G1 X-4.774 Y4.879 E0.15088
G1 X-5.696 Y4.879 E0.07283
G1 X-6.861 Y3.713 E0.13025
G1 E-3.20000 F3000.00000
G1 Z0.700 F15000.000
G1 X13.058 Y2.702 F15000.000
G1 Z0.300 F15000.000
G1 E3.20000 F3000.00000
G1 X13.344 Y3.128 E0.03951 F960.000
G1 X13.475 Y3.390 E0.02259
G1 X13.500 Y3.682 E0.02258
G1 X13.491 Y4.066 E0.02960
G1 X13.453 Y4.488 E0.03263
G1 X13.376 Y4.947 E0.03585
G1 E-3.20000 F3000.00000
G1 Z0.700 F15000.000
G1 X8.675 Y1.921 F15000.000
G1 Z0.500 F15000.000
G1 E3.20000 F3000.00000
G1 X8.394 Y2.309 E0.01383 F2400.000
G1 X8.024 Y2.614 E0.01383
G1 X7.591 Y2.818 E0.01383
G1 X7.120 Y2.908 E0.01383
G1 X6.642 Y2.878 E0.01383
G1 X6.186 Y2.730 E0.01383
G1 X5.781 Y2.473 E0.01383
G1 X5.453 Y2.124 E0.01383
G1 X5.222 Y1.704 E0.01383
G1 X5.103 Y1.240 E0.01383
G1 X5.103 Y0.760 E0.01383
G1 X5.214 Y0.329 E0.01284
G1 X5.449 Y-0.120 E0.01464
G1 X5.781 Y-0.473 E0.01399
G1 X6.186 Y-0.730 E0.01383
G1 X6.642 Y-0.878 E0.01383
G1 X7.086 Y-0.906 E0.01284 F2400.000
G1 X7.586 Y-0.821 E0.01464
G1 X8.024 Y-0.614 E0.01399
G1 X8.394 Y-0.309 E0.01383
G1 X8.675 Y0.079 E0.01383
G1 X8.852 Y0.525 E0.01383
G1 X8.912 Y1.000 E0.01383
G1 X8.852 Y1.475 E0.01383
G1 X8.697 Y1.865 E0.01210
G1 X8.365 Y1.734 F15000.000
G1 X8.131 Y2.062 E0.01165 F2400.000
G1 X7.832 Y2.310 E0.01123
G1 X7.480 Y2.476 E0.01123
G1 X7.097 Y2.549 E0.01123
G1 X6.709 Y2.524 E0.01123
G1 X6.339 Y2.404 E0.01123
G1 X6.011 Y2.196 E0.01123
G1 X5.744 Y1.912 E0.01123
G1 X5.557 Y1.571 E0.01123
G1 X5.460 Y1.195 E0.01123
G1 X5.460 Y0.805 E0.01123
G1 X5.549 Y0.458 E0.01034
G1 X5.743 Y0.089 E0.01204
G1 X6.011 Y-0.196 E0.01129
G1 X6.339 Y-0.404 E0.01123
G1 X6.709 Y-0.524 E0.01123
G1 X7.067 Y-0.547 E0.01034 F2400.000
G1 X7.478 Y-0.477 E0.01204
G1 X7.832 Y-0.310 E0.01129
G1 X8.131 Y-0.062 E0.01123
G1 X8.360 Y0.252 E0.01123
G1 X8.503 Y0.614 E0.01123
G1 X8.552 Y1.000 E0.01123
G1 X8.503 Y1.386 E0.01123
G1 X8.388 Y1.678 E0.00907
G1 X8.560 Y2.083 F15000.000
G1 E-3.20000 F3000.00000
G1 Z0.900 F15000.000
G1 X-5.103 Y1.240 F15000.000
G1 Z0.500 F15000.000
G1 E3.20000 F3000.00000
G1 X-5.222 Y1.704 E0.01383 F2400.000
G1 X-5.453 Y2.124 E0.01383
G1 X-5.781 Y2.473 E0.01383
G1 X-6.186 Y2.730 E0.01383
G1 X-6.642 Y2.878 E0.01383
G1 X-7.120 Y2.908 E0.01383
G1 X-7.591 Y2.818 E0.01383
G1 X-8.029 Y2.612 E0.01399
G1 X-8.414 Y2.281 E0.01464
G1 X-8.675 Y1.921 E0.01284
G1 X-8.852 Y1.475 E0.01383
G1 X-8.912 Y1.000 E0.01383
G1 X-8.852 Y0.525 E0.01383
G1 X-8.675 Y0.079 E0.01383
G1 X-8.394 Y-0.309 E0.01383
G1 X-8.020 Y-0.618 E0.01399
G1 X-7.557 Y-0.825 E0.01464
G1 X-7.120 Y-0.908 E0.01284 F2400.000
G1 X-6.642 Y-0.878 E0.01383
G1 X-6.186 Y-0.730 E0.01383
G1 X-5.777 Y-0.470 E0.01399
G1 X-5.437 Y-0.094 E0.01464
G1 X-5.222 Y0.296 E0.01284
G1 X-5.103 Y0.760 E0.01383
G1 X-5.103 Y1.180 E0.01210
G1 X-5.460 Y1.180 F15000.000
G1 X-5.557 Y1.571 E0.01165 F2400.000
G1 X-5.744 Y1.912 E0.01123
G1 X-6.011 Y2.196 E0.01123
G1 X-6.339 Y2.404 E0.01123
G1 X-6.709 Y2.524 E0.01123
G1 X-7.097 Y2.549 E0.01123
G1 X-7.480 Y2.476 E0.01123
G1 X-7.833 Y2.310 E0.01129
G1 X-8.149 Y2.038 E0.01204
G1 X-8.360 Y1.748 E0.01034
G1 X-8.503 Y1.386 E0.01123
G1 X-8.552 Y1.000 E0.01123
G1 X-8.503 Y0.614 E0.01123
G1 X-8.360 Y0.252 E0.01123
G1 X-8.131 Y-0.062 E0.01123
G1 X-7.830 Y-0.312 E0.01129
G1 X-7.449 Y-0.482 E0.01204
G1 X-7.097 Y-0.549 E0.01034 F2400.000
G1 X-6.709 Y-0.524 E0.01123
G1 X-6.339 Y-0.404 E0.01123
G1 X-6.009 Y-0.195 E0.01129
G1 X-5.730 Y0.115 E0.01204
G1 X-5.557 Y0.429 E0.01034
G1 X-5.460 Y0.805 E0.01123
G1 X-5.460 Y1.120 E0.00907
G1 X-5.150 Y1.433 F15000.000
G1 X-6.240 Y5.693 F15000.000
G1 X-7.388 Y5.693 E0.03314 F2400.000
G1 X-7.318 Y5.539 E0.00489
G1 X-7.401 Y5.011 E0.01543
G1 X-7.464 Y4.817 E0.00587
G1 X-7.743 Y4.330 E0.01620
G1 X-8.001 Y3.992 E0.01228
G1 X-8.273 Y3.685 E0.01184
G1 X-8.655 Y3.312 E0.01542
G1 X-8.951 Y3.059 E0.01124
G1 X-9.384 Y2.736 E0.01558
G1 X-10.185 Y2.283 E0.02658
G1 X-10.861 Y2.063 E0.02049
G1 X-11.529 Y2.034 E0.01932
G1 X-11.883 Y2.107 E0.01044
G1 X-12.187 Y2.237 E0.00952
G1 X-12.408 Y2.387 E0.00773
G1 X-12.612 Y2.591 E0.00831
G1 X-12.827 Y2.954 E0.01220
G1 X-12.917 Y3.354 E0.01181
G1 X-12.884 Y3.775 E0.01219
G1 X-12.808 Y4.049 E0.00822
G1 X-12.648 Y4.400 E0.01113
G1 X-12.410 Y4.734 E0.01184
G1 X-12.044 Y5.112 E0.01518
G1 X-11.736 Y5.357 E0.01135
G1 X-11.455 Y5.540 E0.00968
G1 X-11.501 Y5.693 E0.00461
G1 X-14.393 Y5.693 E0.08347
G1 X-14.393 Y-5.293 E0.31708
G1 X14.393 Y-5.293 E0.83084
G1 X14.393 Y5.693 E0.31708 F2400.000
G1 X11.496 Y5.693 E0.08361
G1 X11.450 Y5.542 E0.00457
G1 X11.879 Y5.250 E0.01499
G1 X12.242 Y4.923 E0.01409
G1 X12.574 Y4.513 E0.01523
G1 X12.805 Y4.061 E0.01465
G1 X12.882 Y3.783 E0.00832
G1 X12.913 Y3.336 E0.01295
G1 X12.827 Y2.954 E0.01128
G1 X12.612 Y2.591 E0.01220
G1 X12.408 Y2.387 E0.00831
G1 X12.187 Y2.237 E0.00772
G1 X11.886 Y2.108 E0.00943
G1 X11.581 Y2.041 E0.00903
G1 X11.298 Y2.033 E0.00816
G1 X10.782 Y2.080 E0.01496
G1 X10.202 Y2.278 E0.01769
G1 X10.002 Y2.372 E0.00639
G1 X9.380 Y2.739 E0.02085
G1 X8.947 Y3.062 E0.01560
G1 X8.457 Y3.498 E0.01892
G1 X8.134 Y3.837 E0.01350
G1 X7.856 Y4.175 E0.01265
G1 X7.658 Y4.464 E0.01009
G1 X7.463 Y4.823 E0.01180
G1 X7.401 Y5.011 E0.00571
G1 X7.318 Y5.539 E0.01543
G1 X7.388 Y5.693 E0.00489
G1 X-6.180 Y5.693 E0.39162
G1 X-6.180 Y6.050 F15000.000
G1 X-8.055 Y6.050 E0.05411 F2400.000
G1 X-7.818 Y5.774 E0.01048
G1 X-7.687 Y5.488 E0.00909
G1 X-7.749 Y5.095 E0.01150
G1 X-7.792 Y4.963 E0.00399
G1 X-8.041 Y4.528 E0.01447
G1 X-8.277 Y4.219 E0.01121
G1 X-8.532 Y3.932 E0.01110
G1 X-8.896 Y3.575 E0.01471
G1 X-9.174 Y3.338 E0.01055
G1 X-9.579 Y3.036 E0.01459
G1 X-10.330 Y2.611 E0.02490
G1 X-10.925 Y2.417 E0.01805
G1 X-11.500 Y2.393 E0.01663
G1 X-11.776 Y2.449 E0.00813
G1 X-12.014 Y2.551 E0.00748
G1 X-12.179 Y2.664 E0.00576
G1 X-12.328 Y2.812 E0.00604
G1 X-12.491 Y3.088 E0.00927
G1 X-12.557 Y3.380 E0.00863
G1 X-12.531 Y3.713 E0.00964
G1 X-12.472 Y3.927 E0.00641
G1 X-12.337 Y4.221 E0.00933
G1 X-12.135 Y4.505 E0.01008
G1 X-11.803 Y4.847 E0.01374
G1 X-11.527 Y5.067 E0.01019
G1 X-11.185 Y5.290 E0.01179
G1 X-10.781 Y5.502 E0.01316
G1 X-9.804 Y5.875 E0.03018
G1 X-9.837 Y6.050 E0.00515
G1 X-14.750 Y6.050 E0.14181
G1 X-14.750 Y-5.650 E0.33769
G1 X14.577 Y-5.650 E0.84646
G1 X14.750 Y-5.650 E0.00498 F2400.000
G1 X14.750 Y6.050 E0.33769
G1 X9.838 Y6.050 E0.14178
G1 X9.806 Y5.874 E0.00517
G1 X10.680 Y5.548 E0.02692
G1 X11.186 Y5.289 E0.01640
G1 X11.658 Y4.968 E0.01650
G1 X11.982 Y4.676 E0.01258
G1 X12.273 Y4.318 E0.01334
