; generated by Slic3r 1.2.9 on 2017-01-13 at 16:40:11

; external perimeters extrusion width = 0.50mm
; perimeters extrusion width = 0.50mm
; infill extrusion width = 0.50mm
; solid infill extrusion width = 0.50mm
; top infill extrusion width = 0.50mm

M107
;Basic settings: Layer height: {layer_height} Walls: {wall_thickness} Fill: {fill_density}
;Print time: {print_time}
;Filament used: {filament_amount}m {filament_weight}g
;Filament cost: {filament_cost}
;M190 S{print_bed_temperature} ;Uncomment to add your own bed temperature line
;M109 S{print_temperature} ;Uncomment to add your own temperature line
G21        ;metric values
G90        ;absolute positioning
M83
G10 P0 S200
T0
M116


G21 ; set units to millimeters
G90 ; use absolute coordinates
M83 ; use relative distances for extrusion
G1 E-3.20000 F3000.00000
G1 Z0.400 F9000.000
G1 X-0.666 Y-17.958 F9000.000
G1 Z0.300 F9000.000
G1 E3.20000 F3000.00000
G1 X9.325 Y-18.328 E0.91728 F1200.000
G1 X17.393 Y-18.331 E0.74021
G1 X19.064 Y-17.936 E0.15755
G1 X20.034 Y-17.237 E0.10974 F1200.000
G1 X28.005 Y-9.266 E1.03424
G1 X28.908 Y-7.805 E0.15755
G1 X29.099 Y-6.625 E0.10975
G1 X29.099 Y5.334 E1.09721
G1 X28.704 Y7.005 E0.15755
G1 X28.005 Y7.975 E0.10975
G1 X20.034 Y15.946 E1.03424
G1 X18.573 Y16.849 E0.15755
G1 X17.633 Y17.032 E0.08789
G1 X-0.210 Y18.184 E1.64053
G1 X-17.404 Y18.331 E1.57759
G1 X-25.363 Y18.331 E0.73032
G1 X-27.035 Y17.936 E0.15755
G1 X-28.353 Y16.836 E0.15755
G1 X-29.099 Y14.595 E0.21667
G1 X-29.099 Y-13.305 E2.55984
G1 X-28.704 Y-14.976 E0.15755
G1 X-27.604 Y-16.294 E0.15755
G1 X-25.502 Y-17.038 E0.20458
G1 X-0.726 Y-17.956 E2.27479
G1 E-3.20000 F3000.00000
G1 Z0.700 F9000.000
G1 X12.963 Y-8.095 F9000.000
G1 Z0.300 F9000.000
G1 E3.20000 F3000.00000
G1 X21.863 Y-8.095 E0.81658 F900.000
G1 X21.863 Y6.805 E1.36708
G1 X12.963 Y6.805 E0.81658
G1 X12.963 Y-8.035 E1.36158
G1 X12.963 Y-8.495 F9000.000
G1 X21.518 Y-8.831 F9000.000
G1 X12.228 Y-8.831 E0.85234 F900.000
G1 X12.228 Y7.540 E1.50207
G1 X16.191 Y7.540 E0.36363
G1 X15.395 Y8.388 E0.10671
G1 X15.094 Y8.936 E0.05738
G1 X14.938 Y9.542 E0.05738
G1 X14.938 Y10.167 E0.05738
G1 X15.094 Y10.773 E0.05738
G1 X15.395 Y11.321 E0.05738
G1 X16.191 Y12.169 E0.10671
G1 X10.599 Y12.169 E0.51307
G1 X10.599 Y-13.460 E2.35145
G1 X16.922 Y-13.460 E0.58016
G1 X21.532 Y-8.850 E0.59818
G1 X24.228 Y0.192 F9000.000
G1 X24.228 Y4.863 E0.42865 F900.000
G1 X22.599 Y6.492 E0.21134
G1 X22.599 Y-7.783 E1.30977
G1 X24.228 Y-6.154 E0.21134
G1 X24.228 Y0.132 E0.57673 F900.000
G1 X21.141 Y7.540 F9000.000
G1 X21.551 Y7.540 E0.03760 F900.000
G1 X19.838 Y9.254 E0.22231
G1 X19.600 Y8.653 E0.05930 F900.000
G1 X19.232 Y8.147 E0.05738
G1 X18.499 Y7.540 E0.08729
G1 X21.081 Y7.540 E0.23691
G1 X21.836 Y8.295 F9000.000
G1 X19.261 Y10.871 E0.33422 F900.000
G1 X18.960 Y10.674 E0.03297
G1 X19.112 Y10.291 E0.03780
G1 X19.167 Y9.855 E0.04033
G1 X19.112 Y9.418 E0.04033
G1 X18.950 Y9.010 E0.04033
G1 X18.692 Y8.654 E0.04033
G1 X18.353 Y8.374 E0.04033
G1 X17.955 Y8.187 E0.04033
G1 X17.524 Y8.104 E0.04033
G1 X17.085 Y8.132 E0.04033
G1 X16.667 Y8.268 E0.04033
G1 X16.296 Y8.503 E0.04033
G1 X15.995 Y8.824 E0.04033
G1 X15.783 Y9.209 E0.04033
G1 X15.674 Y9.635 E0.04033
G1 X15.674 Y10.074 E0.04033
G1 X15.783 Y10.500 E0.04033
G1 X15.995 Y10.885 E0.04033
G1 X16.296 Y11.206 E0.04033
G1 X16.667 Y11.441 E0.04033
G1 X17.085 Y11.577 E0.04033
G1 X17.524 Y11.605 E0.04033
G1 X17.955 Y11.522 E0.04033
G1 X18.214 Y11.400 E0.02626
G1 X18.428 Y11.704 E0.03404
G1 X17.227 Y12.905 E0.15578
G1 X9.863 Y12.905 E0.67561
G1 X9.863 Y-14.195 E2.48644
G1 X17.227 Y-14.195 E0.67561
G1 X24.963 Y-6.459 E1.00383
G1 X24.963 Y5.168 E1.06680 F900.000
G1 X21.879 Y8.253 E0.40025
G1 X21.450 Y8.192 F9000.000
G1 X20.198 Y8.322 F9000.000
G1 X19.874 Y7.998 E0.04197 F900.000
G1 X18.410 Y7.971 F9000.000
G1 X18.083 Y7.765 E0.03548 F600.000
G1 X17.586 Y7.531 E0.05044
G1 X17.375 Y7.459 E0.02047
G1 X17.168 Y7.465 E0.01899
G1 X16.951 Y7.571 E0.02209
G1 X16.487 Y7.865 E0.05044
G1 X16.188 Y8.111 E0.03548
G1 X14.975 Y8.336 F9000.000
G1 X14.628 Y7.989 E0.05016 F900.000
G1 X14.614 Y9.135 E0.11718
G1 X13.468 Y7.989 E0.16570
G1 X12.663 Y8.344 E0.08999
G1 X14.489 Y10.170 E0.26413
G1 X14.879 Y11.720 E0.16347
G1 X11.517 Y8.357 E0.48634
G1 X11.048 Y9.048 E0.08539
G1 X13.720 Y11.720 E0.38636
G1 X12.560 Y11.720 E0.11860
G1 X11.048 Y10.208 E0.21864
G1 X11.048 Y11.368 E0.11860
G1 X11.400 Y11.720 E0.05092
G1 X11.413 Y7.908 F9000.000
G1 X11.413 Y-9.199 E3.27649 F600.000
G1 X11.048 Y-10.000 F9000.000
G1 X11.400 Y-9.648 E0.04638 F900.000
G1 X12.457 Y-9.648 E0.09838
G1 X11.048 Y-11.056 E0.18552
G1 X11.048 Y-12.113 E0.09838
G1 X13.881 Y-9.280 E0.37310
G1 X14.937 Y-9.280 E0.09838
G1 X11.206 Y-13.011 E0.49141
G1 X12.263 Y-13.011 E0.09838
G1 X15.993 Y-9.280 E0.49141
G1 X17.049 Y-9.280 E0.09838
G1 X13.319 Y-13.011 E0.49141
G1 X14.375 Y-13.011 E0.09838
G1 X18.105 Y-9.280 E0.49141
G1 X19.161 Y-9.280 E0.09838
G1 X15.431 Y-13.011 E0.49141
G1 X16.487 Y-13.011 E0.09838
G1 X20.198 Y-9.300 E0.48878
G1 X23.413 Y-6.449 F9000.000
G1 X23.413 Y5.158 E2.22295 F600.000
G1 E-3.20000 F3000.00000
G1 Z0.700 F9000.000
G1 X4.020 Y5.158 F9000.000
G1 Z0.300 F9000.000
G1 E3.20000 F3000.00000
G1 X4.020 Y7.956 E0.25677 F900.000
G1 X-4.880 Y7.956 E0.81658
G1 X-4.880 Y-6.944 E1.36708
G1 X4.020 Y-6.944 E0.81658 F900.000
G1 X4.020 Y5.098 E1.10481
G1 X4.367 Y5.358 F9000.000
G1 E-3.20000 F3000.00000
G1 Z0.700 F9000.000
G1 X-4.851 Y-7.679 F9000.000
G1 Z0.300 F9000.000
G1 E3.20000 F3000.00000
G1 X-5.615 Y-7.679 E0.07011 F900.000
G1 X-5.615 Y8.692 E1.50207
G1 X-1.652 Y8.692 E0.36363
G1 X-2.448 Y9.540 E0.10671
G1 X-2.750 Y10.088 E0.05738
G1 X-2.905 Y10.694 E0.05738
G1 X-2.905 Y11.319 E0.05738
G1 X-2.750 Y11.925 E0.05738
G1 X-2.448 Y12.473 E0.05738
G1 X-1.652 Y13.321 E0.10671
G1 X-7.244 Y13.321 E0.51307
G1 X-7.244 Y-12.308 E2.35145
G1 X-0.921 Y-12.308 E0.58016
G1 X3.708 Y-7.679 E0.60060
G1 X-4.791 Y-7.679 E0.77980 F900.000
G1 E-3.20000 F3000.00000
G1 Z0.700 F9000.000
G1 X4.756 Y0.620 F9000.000
G1 Z0.300 F9000.000
G1 E3.20000 F3000.00000
G1 X4.756 Y-6.631 E0.66532 F900.000
G1 X6.385 Y-5.003 E0.21134
G1 X6.385 Y6.015 E1.01089 F900.000
G1 X4.756 Y7.644 E0.21134
G1 X4.756 Y0.680 E0.63895
G1 E-3.20000 F3000.00000
G1 Z0.700 F9000.000
G1 X2.478 Y9.922 F9000.000
G1 Z0.300 F9000.000
G1 E3.20000 F3000.00000
G1 X1.995 Y10.405 E0.06269 F900.000
G1 X1.757 Y9.804 E0.05930 F900.000
G1 X1.389 Y9.298 E0.05738
G1 X0.656 Y8.692 E0.08729
G1 X3.708 Y8.692 E0.28001
G1 X2.520 Y9.880 E0.15411
G1 X3.040 Y10.400 F9000.000
G1 X1.417 Y12.023 E0.21059 F900.000
G1 X1.117 Y11.825 E0.03297
G1 X1.269 Y11.442 E0.03780
G1 X1.324 Y11.006 E0.04033
G1 X1.269 Y10.570 E0.04033
G1 X1.107 Y10.161 E0.04033
G1 X0.849 Y9.806 E0.04033
G1 X0.510 Y9.526 E0.04033
G1 X0.112 Y9.339 E0.04033
G1 X-0.320 Y9.256 E0.04033
G1 X-0.758 Y9.284 E0.04033
G1 X-1.176 Y9.420 E0.04033
G1 X-1.548 Y9.655 E0.04033
G1 X-1.848 Y9.976 E0.04033
G1 X-2.060 Y10.361 E0.04033
G1 X-2.170 Y10.786 E0.04033
G1 X-2.170 Y11.226 E0.04033
G1 X-2.060 Y11.652 E0.04033
G1 X-1.848 Y12.037 E0.04033
G1 X-1.548 Y12.357 E0.04033
G1 X-1.176 Y12.593 E0.04033
G1 X-0.758 Y12.729 E0.04033
G1 X-0.320 Y12.756 E0.04033
G1 X0.112 Y12.674 E0.04033
G1 X0.371 Y12.552 E0.02626
G1 X0.584 Y12.856 E0.03404
G1 X-0.616 Y14.056 E0.15578
G1 X-7.980 Y14.056 E0.67561
G1 X-7.980 Y-13.044 E2.48644
G1 X-0.616 Y-13.044 E0.67561
G1 X7.120 Y-5.307 E1.00383
G1 X7.120 Y6.320 E1.06680 F900.000
G1 X3.083 Y10.357 E0.52388
G1 X2.654 Y10.296 F9000.000
G1 X2.354 Y9.473 F9000.000
G1 X2.031 Y9.150 E0.04197 F900.000
G1 X0.567 Y9.123 F9000.000
G1 X0.240 Y8.917 E0.03548 F600.000
G1 X-0.258 Y8.683 E0.05044
G1 X-0.469 Y8.610 E0.02047
G1 X-0.676 Y8.617 E0.01899
G1 X-0.892 Y8.722 E0.02209
G1 X-1.356 Y9.017 E0.05044
G1 X-1.655 Y9.263 E0.03548
G1 X-2.869 Y9.488 F9000.000
G1 X-3.216 Y9.141 E0.05016 F900.000
G1 X-3.229 Y10.287 E0.11718
G1 X-4.375 Y9.141 E0.16570
G1 X-5.181 Y9.495 E0.08999
G1 X-3.354 Y11.321 E0.26413
G1 X-2.964 Y12.871 E0.16347
G1 X-6.327 Y9.509 E0.48634
G1 X-6.795 Y10.200 E0.08539
G1 X-4.124 Y12.871 E0.38636
G1 X-5.283 Y12.871 E0.11860
G1 X-6.795 Y11.360 E0.21864
G1 X-6.795 Y12.519 E0.11860
G1 X-6.443 Y12.871 E0.05092
G1 X-6.430 Y9.060 F9000.000
G1 X-6.430 Y-8.047 E3.27649 F600.000
G1 X-6.795 Y-8.848 F9000.000
G1 X-6.443 Y-8.496 E0.04638 F900.000
G1 X-5.387 Y-8.496 E0.09838
G1 X-6.795 Y-9.905 E0.18552
G1 X-6.795 Y-10.961 E0.09838
G1 X-3.963 Y-8.129 E0.37310
G1 X-2.906 Y-8.129 E0.09838
G1 X-6.637 Y-11.859 E0.49141
G1 X-5.581 Y-11.859 E0.09838
G1 X-1.850 Y-8.129 E0.49141
G1 X-0.794 Y-8.129 E0.09838
G1 X-4.524 Y-11.859 E0.49141
G1 X-3.468 Y-11.859 E0.09838
G1 X0.262 Y-8.129 E0.49141
G1 X1.318 Y-8.129 E0.09838
G1 X-2.412 Y-11.859 E0.49141
G1 X-1.356 Y-11.859 E0.09838
G1 X2.354 Y-8.149 E0.48878
G1 X5.570 Y-5.297 F9000.000
G1 X5.570 Y6.309 E2.22295 F600.000
G1 E-3.20000 F3000.00000
G1 Z0.700 F9000.000
G1 X-12.963 Y6.309 F9000.000
G1 Z0.300 F9000.000
G1 E3.20000 F3000.00000
G1 X-12.963 Y8.095 E0.16387 F900.000
G1 X-21.863 Y8.095 E0.81658
G1 X-21.863 Y-6.805 E1.36708
G1 X-12.963 Y-6.805 E0.81658 F900.000
G1 X-12.963 Y6.249 E1.19771
G1 X-12.617 Y6.509 F9000.000
G1 X-13.289 Y-7.540 F9000.000
G1 X-22.599 Y-7.540 E0.85421 F900.000
G1 X-22.599 Y8.831 E1.50207
G1 X-18.636 Y8.831 E0.36363
G1 X-19.432 Y9.679 E0.10671
G1 X-19.733 Y10.227 E0.05738
G1 X-19.889 Y10.833 E0.05738
G1 X-19.889 Y11.458 E0.05738
G1 X-19.733 Y12.064 E0.05738
G1 X-19.432 Y12.612 E0.05738
G1 X-18.636 Y13.460 E0.10671
G1 X-24.228 Y13.460 E0.51307
G1 X-24.228 Y-12.169 E2.35145
G1 X-17.905 Y-12.169 E0.58016
G1 X-13.309 Y-7.573 E0.59631
G1 X-12.228 Y0.029 F9000.000
G1 X-12.228 Y-6.492 E0.59836 F900.000
G1 X-10.599 Y-4.863 E0.21134
G1 X-10.599 Y6.154 E1.01089 F900.000
G1 X-12.228 Y7.783 E0.21134
G1 X-12.228 Y0.089 E0.70590
G1 X-13.535 Y9.090 F9000.000
G1 X-14.989 Y10.544 E0.18872 F900.000
G1 X-15.227 Y9.943 E0.05930 F900.000
G1 X-15.595 Y9.437 E0.05738
G1 X-16.328 Y8.831 E0.08729
G1 X-13.276 Y8.831 E0.28001
G1 X-13.492 Y9.047 E0.02809
G1 X-12.972 Y9.568 F9000.000
G1 X-15.566 Y12.162 E0.33661 F900.000
G1 X-15.867 Y11.965 E0.03297
G1 X-15.715 Y11.582 E0.03780
G1 X-15.660 Y11.145 E0.04033
G1 X-15.715 Y10.709 E0.04033
G1 X-15.877 Y10.301 E0.04033
G1 X-16.135 Y9.945 E0.04033
G1 X-16.474 Y9.665 E0.04033
G1 X-16.872 Y9.478 E0.04033
G1 X-17.303 Y9.395 E0.04033
G1 X-17.742 Y9.423 E0.04033
G1 X-18.160 Y9.559 E0.04033
G1 X-18.531 Y9.794 E0.04033
G1 X-18.832 Y10.115 E0.04033
G1 X-19.044 Y10.500 E0.04033
G1 X-19.153 Y10.926 E0.04033
G1 X-19.153 Y11.365 E0.04033
G1 X-19.044 Y11.791 E0.04033
G1 X-18.832 Y12.176 E0.04033
G1 X-18.531 Y12.497 E0.04033
G1 X-18.160 Y12.732 E0.04033
G1 X-17.742 Y12.868 E0.04033
G1 X-17.303 Y12.896 E0.04033
G1 X-16.872 Y12.813 E0.04033
G1 X-16.613 Y12.691 E0.02626
G1 X-16.399 Y12.995 E0.03404
G1 X-17.600 Y14.195 E0.15578
G1 X-24.963 Y14.195 E0.67561
G1 X-24.963 Y-12.905 E2.48644
G1 X-17.600 Y-12.905 E0.67561
G1 X-9.863 Y-5.168 E1.00383
G1 X-9.863 Y6.459 E1.06680 F900.000
G1 X-12.930 Y9.525 E0.39786
G1 X-13.358 Y9.464 F9000.000
G1 X-14.629 Y9.612 F9000.000
G1 X-14.953 Y9.289 E0.04197 F900.000
G1 X-16.417 Y9.262 F9000.000
G1 X-16.744 Y9.056 E0.03548 F600.000
G1 X-17.241 Y8.822 E0.05044
G1 X-17.452 Y8.749 E0.02047
G1 X-17.659 Y8.756 E0.01899
G1 X-17.876 Y8.862 E0.02209
G1 X-18.340 Y9.156 E0.05044
G1 X-18.638 Y9.402 E0.03548
G1 X-19.852 Y9.627 F9000.000
G1 X-20.199 Y9.280 E0.05016 F900.000
G1 X-20.213 Y10.426 E0.11718
G1 X-21.359 Y9.280 E0.16570
G1 X-22.164 Y9.634 E0.08999
G1 X-20.338 Y11.461 E0.26413
G1 X-19.948 Y13.011 E0.16347
G1 X-23.310 Y9.648 E0.48634
G1 X-23.779 Y10.339 E0.08539
G1 X-21.107 Y13.011 E0.38636
G1 X-22.267 Y13.011 E0.11860
G1 X-23.779 Y11.499 E0.21864
G1 X-23.779 Y12.658 E0.11860
G1 X-23.427 Y13.011 E0.05092
G1 X-23.413 Y9.199 F9000.000
G1 X-23.413 Y-7.908 E3.27649 F600.000
G1 X-23.779 Y-8.709 F9000.000
G1 X-23.427 Y-8.357 E0.04638 F900.000
G1 X-22.370 Y-8.357 E0.09838
G1 X-23.779 Y-9.765 E0.18552
G1 X-23.779 Y-10.822 E0.09838
G1 X-20.946 Y-7.989 E0.37310
G1 X-19.890 Y-7.989 E0.09838
G1 X-23.620 Y-11.720 E0.49141
G1 X-22.564 Y-11.720 E0.09838
G1 X-18.834 Y-7.989 E0.49141
G1 X-17.778 Y-7.989 E0.09838
G1 X-21.508 Y-11.720 E0.49141
G1 X-20.452 Y-11.720 E0.09838
G1 X-16.722 Y-7.989 E0.49141
G1 X-15.665 Y-7.989 E0.09838
G1 X-19.396 Y-11.720 E0.49141
G1 X-18.340 Y-11.720 E0.09838
G1 X-14.629 Y-8.009 E0.48878
G1 X-11.413 Y-5.158 F9000.000
G1 X-11.413 Y6.449 E2.22295 F600.000
G1 E-3.20000 F3000.00000
G1 Z0.700 F9000.000
G1 X15.824 Y9.654 F9000.000
G1 Z0.600 F9000.000
G1 E3.20000 F3000.00000
G1 X15.924 Y9.265 E0.02182 F1800.000
G1 X16.117 Y8.913 E0.02182
G1 X16.392 Y8.620 E0.02182
G1 X16.733 Y8.404 E0.02192
G1 X17.136 Y8.279 E0.02293
G1 X17.514 Y8.255 E0.02058 F1800.000
G1 X17.909 Y8.331 E0.02182
G1 X18.272 Y8.502 E0.02182
G1 X18.582 Y8.758 E0.02182
G1 X18.818 Y9.083 E0.02182
G1 X18.965 Y9.456 E0.02182
G1 X19.016 Y9.855 E0.02182
G1 X18.965 Y10.253 E0.02182
G1 X18.818 Y10.627 E0.02182
G1 X18.582 Y10.951 E0.02182
G1 X18.272 Y11.208 E0.02182
G1 X17.909 Y11.379 E0.02182
G1 X17.514 Y11.454 E0.02182
G1 X17.113 Y11.429 E0.02182
G1 X16.731 Y11.304 E0.02182
G1 X16.392 Y11.089 E0.02182
G1 X16.117 Y10.796 E0.02182
G1 X15.924 Y10.444 E0.02182
G1 X15.824 Y10.055 E0.02182
G1 X15.824 Y9.714 E0.01856
G1 X15.515 Y9.399 F9000.000
G1 X15.824 Y7.090 F9000.000
G1 X12.677 Y7.090 E0.17099 F1800.000
G1 X12.692 Y-1.130 E0.44661
G1 X12.678 Y-1.189 E0.00330
G1 X12.678 Y-8.381 E0.39077
G1 X22.150 Y-8.381 E0.51467 F1800.000
G1 X22.135 Y-0.161 E0.44661
G1 X22.149 Y-0.102 E0.00330
G1 X22.149 Y7.090 E0.39077
G1 X15.884 Y7.090 E0.34042
G1 X15.884 Y6.655 F9000.000
G1 X13.113 Y6.655 E0.15054 F1800.000
G1 X13.128 Y-1.180 E0.42570
G1 X13.113 Y-1.240 E0.00332
G1 X13.113 Y-7.945 E0.36433
G1 X21.714 Y-7.945 E0.46729 F1800.000
G1 X21.699 Y-0.110 E0.42570
G1 X21.713 Y-0.051 E0.00332
G1 X21.713 Y6.655 E0.36433
G1 X15.944 Y6.655 E0.31349
G1 X15.684 Y7.001 F9000.000
G1 E-3.20000 F3000.00000
G1 Z1.000 F9000.000
G1 X10.149 Y-8.550 F9000.000
G1 Z0.600 F9000.000
G1 E3.20000 F3000.00000
G1 X10.149 Y-13.910 E0.29120 F1800.000
G1 X17.109 Y-13.910 E0.37814
G1 X24.678 Y-6.341 E0.58160
G1 X24.678 Y5.050 E0.61888 F1800.000
G1 X19.598 Y10.129 E0.39030
G1 X19.431 Y10.047 E0.01015
G1 X19.455 Y9.855 E0.01055
G1 X19.391 Y9.347 E0.02780
G1 X19.202 Y8.871 E0.02780
G1 X18.902 Y8.457 E0.02780
G1 X18.507 Y8.131 E0.02780
G1 X18.044 Y7.913 E0.02780
G1 X17.542 Y7.817 E0.02780
G1 X17.057 Y7.848 E0.02639
G1 X16.548 Y8.005 E0.02891
G1 X16.112 Y8.282 E0.02808
G1 X15.762 Y8.655 E0.02780
G1 X15.515 Y9.103 E0.02780
G1 X15.388 Y9.599 E0.02780
G1 X15.388 Y10.110 E0.02780
G1 X15.515 Y10.606 E0.02780
G1 X15.762 Y11.055 E0.02780
G1 X16.112 Y11.428 E0.02780
G1 X16.544 Y11.702 E0.02780
G1 X17.031 Y11.860 E0.02780
G1 X17.818 Y11.909 E0.04286
G1 X17.109 Y12.619 E0.05452
G1 X10.149 Y12.619 E0.37814
G1 X10.149 Y-8.490 E1.14693
G1 X9.713 Y-8.490 F9000.000
G1 X9.713 Y-14.345 E0.31813 F1800.000
G1 X17.289 Y-14.345 E0.41161
G1 X25.113 Y-6.521 E0.60120
G1 X25.113 Y5.230 E0.63849 F1800.000
G1 X17.289 Y13.055 E0.60120
G1 X9.713 Y13.055 E0.41161
G1 X9.713 Y-8.430 E1.16733
G1 X10.060 Y-8.690 F9000.000
G1 X10.632 Y-13.652 F9000.000
G1 X10.407 Y-13.427 E0.01753 F1800.000
G1 X10.407 Y-12.802 E0.03446
G1 X11.257 Y-13.652 E0.06626
G1 X11.882 Y-13.652 E0.03446
G1 X10.407 Y-12.177 E0.11499
G1 X10.407 Y-11.552 E0.03446
G1 X12.507 Y-13.652 E0.16373
G1 X13.132 Y-13.652 E0.03446
G1 X10.407 Y-10.927 E0.21246
G1 X10.407 Y-10.302 E0.03446
G1 X13.757 Y-13.652 E0.26119
G1 X14.382 Y-13.652 E0.03446
G1 X10.407 Y-9.677 E0.30993
G1 X10.407 Y-9.052 E0.03446
G1 X15.007 Y-13.652 E0.35866
G1 X15.632 Y-13.652 E0.03446
G1 X10.407 Y-8.427 E0.40739
G1 X10.407 Y-7.801 E0.03446
G1 X16.257 Y-13.652 E0.45613
G1 X21.246 Y-8.639 F9000.000
G1 X21.643 Y-9.037 E0.03100 F1800.000
G1 X21.331 Y-9.349 E0.02437
G1 X20.621 Y-8.639 E0.05537
G1 X19.995 Y-8.639 E0.03446
G1 X21.018 Y-9.662 E0.07973
G1 X20.706 Y-9.974 E0.02437
G1 X19.370 Y-8.639 E0.10410
G1 X18.745 Y-8.639 E0.03446
G1 X20.393 Y-10.287 E0.12847
G1 X20.081 Y-10.599 E0.02437
G1 X18.120 Y-8.639 E0.15283
G1 X17.495 Y-8.639 E0.03446
G1 X19.768 Y-10.912 E0.17720
