; generated by Slic3r 1.2.9 on 2016-12-18 at 12:05:53

; external perimeters extrusion width = 0.50mm
; perimeters extrusion width = 0.50mm
; infill extrusion width = 0.50mm
; solid infill extrusion width = 0.50mm
; top infill extrusion width = 0.50mm

M107
;Basic settings: Layer height: {layer_height} Walls: {wall_thickness} Fill: {fill_density}
;Print time: {print_time}
;Filament used: {filament_amount}m {filament_weight}g
;Filament cost: {filament_cost}
;M190 S{print_bed_temperature} ;Uncomment to add your own bed temperature line
;M109 S{print_temperature} ;Uncomment to add your own temperature line
G21        ;metric values
G90        ;absolute positioning
M83
G10 P0 S200
T0
M116


G21 ; set units to millimeters
G90 ; use absolute coordinates
M83 ; use relative distances for extrusion
G1 E-3.20000 F3000.00000
G1 Z0.400 F9000.000
G1 X0.000 Y19.686 F9000.000
G1 Z0.300 F9000.000
G1 E3.20000 F3000.00000
G1 X-23.950 Y19.686 E2.19742 F1200.000
G1 X-25.621 Y19.291 E0.15755
G1 X-26.939 Y18.190 E0.15755
G1 X-27.686 Y15.950 E0.21667
G1 X-27.686 Y-15.950 E2.92684
G1 X-27.291 Y-17.621 E0.15755
G1 X-26.190 Y-18.939 E0.15755
G1 X-23.950 Y-19.686 E0.21667
G1 X23.950 Y-19.686 E4.39485
G1 X25.621 Y-19.291 E0.15755
G1 X26.939 Y-18.190 E0.15755 F1200.000
G1 X27.686 Y-15.950 E0.21667
G1 X27.686 Y15.950 E2.92684
G1 X27.291 Y17.621 E0.15755
G1 X26.190 Y18.939 E0.15755
G1 X23.950 Y19.686 E0.21667
G1 X0.060 Y19.686 E2.19192
G1 E-3.20000 F3000.00000
G1 Z0.700 F9000.000
G1 X11.714 Y14.814 F9000.000
G1 Z0.300 F9000.000
G1 E3.20000 F3000.00000
G1 X-22.814 Y14.814 E3.16800 F900.000
G1 X-22.814 Y-14.814 E2.71845
G1 X22.814 Y-14.814 E4.18646
G1 X22.814 Y14.814 E2.71845
G1 X11.774 Y14.814 E1.01296 F900.000
G1 X11.774 Y15.550 F9000.000
G1 X-23.550 Y15.550 E3.24100 F900.000
G1 X-23.550 Y-15.550 E2.85344
G1 X23.550 Y-15.550 E4.32145
G1 X23.550 Y15.550 E2.85344
G1 X11.834 Y15.550 E1.07495 F900.000
G1 X11.574 Y15.204 F9000.000
G1 X22.365 Y-14.013 F9000.000
G1 X22.013 Y-14.365 E0.04631 F900.000
G1 X20.959 Y-14.365 E0.09806
G1 X22.365 Y-12.959 E0.18498
G1 X22.365 Y-11.904 E0.09806
G1 X19.904 Y-14.365 E0.32366
G1 X18.850 Y-14.365 E0.09806
G1 X22.365 Y-10.850 E0.46233
G1 X22.365 Y-9.795 E0.09806
G1 X17.795 Y-14.365 E0.60101
G1 X16.741 Y-14.365 E0.09806
G1 X22.365 Y-8.741 E0.73969
G1 X22.365 Y-7.686 E0.09806
G1 X15.686 Y-14.365 E0.87836
G1 X14.632 Y-14.365 E0.09806
G1 X22.365 Y-6.632 E1.01704
G1 X22.365 Y-5.578 E0.09806
G1 X13.578 Y-14.365 E1.15571
G1 X12.523 Y-14.365 E0.09806
G1 X22.365 Y-4.523 E1.29439
G1 X22.365 Y-3.469 E0.09806
G1 X11.469 Y-14.365 E1.43307
G1 X10.414 Y-14.365 E0.09806
G1 X22.365 Y-2.414 E1.57174
G1 X22.365 Y-1.360 E0.09806
G1 X9.360 Y-14.365 E1.71042
G1 X8.305 Y-14.365 E0.09806
G1 X22.365 Y-0.305 E1.84909
G1 X22.365 Y0.749 E0.09806
G1 X7.251 Y-14.365 E1.98777
G1 X6.196 Y-14.365 E0.09806
G1 X22.365 Y1.804 E2.12645
G1 X22.365 Y2.858 E0.09806
G1 X5.142 Y-14.365 E2.26512
G1 X4.088 Y-14.365 E0.09806
G1 X22.365 Y3.912 E2.40380
G1 X22.365 Y4.967 E0.09806
G1 X3.033 Y-14.365 E2.54247
G1 X1.979 Y-14.365 E0.09806
G1 X22.365 Y6.021 E2.68115
G1 X22.365 Y7.076 E0.09806
G1 X0.924 Y-14.365 E2.81983
G1 X-0.130 Y-14.365 E0.09806
G1 X22.365 Y8.130 E2.95850
G1 X22.365 Y9.185 E0.09806
G1 X-1.185 Y-14.365 E3.09718
G1 X-2.239 Y-14.365 E0.09806
G1 X22.365 Y10.239 E3.23585
G1 X22.365 Y11.294 E0.09806
G1 X-3.294 Y-14.365 E3.37453
G1 X-4.348 Y-14.365 E0.09806
G1 X22.365 Y12.348 E3.51321
G1 X22.365 Y13.402 E0.09806
G1 X-5.402 Y-14.365 E3.65188
G1 X-6.457 Y-14.365 E0.09806
G1 X22.273 Y14.365 E3.77850
G1 X21.219 Y14.365 E0.09806
G1 X-7.511 Y-14.365 E3.77850
G1 X-8.566 Y-14.365 E0.09806
G1 X20.165 Y14.365 E3.77850
G1 X19.110 Y14.365 E0.09806
G1 X-9.620 Y-14.365 E3.77850
G1 X-10.675 Y-14.365 E0.09806
G1 X18.056 Y14.365 E3.77850
G1 X17.001 Y14.365 E0.09806
G1 X-11.729 Y-14.365 E3.77850
G1 X-12.784 Y-14.365 E0.09806
G1 X15.947 Y14.365 E3.77850
G1 X14.892 Y14.365 E0.09806
G1 X-13.838 Y-14.365 E3.77850
G1 X-14.892 Y-14.365 E0.09806
G1 X13.838 Y14.365 E3.77850
G1 X12.783 Y14.365 E0.09806
G1 X-15.947 Y-14.365 E3.77850
G1 X-17.001 Y-14.365 E0.09806
G1 X11.729 Y14.365 E3.77850
G1 X10.675 Y14.365 E0.09806
G1 X-18.056 Y-14.365 E3.77850
G1 X-19.110 Y-14.365 E0.09806
G1 X9.620 Y14.365 E3.77850
G1 X8.566 Y14.365 E0.09806
G1 X-20.165 Y-14.365 E3.77850
G1 X-21.219 Y-14.365 E0.09806
G1 X7.511 Y14.365 E3.77850
G1 X6.457 Y14.365 E0.09806
G1 X-22.274 Y-14.365 E3.77850
G1 X-22.365 Y-13.402 E0.08994
G1 X5.402 Y14.365 E3.65188
G1 X4.348 Y14.365 E0.09806
G1 X-22.365 Y-12.348 E3.51320
G1 X-22.365 Y-11.294 E0.09806
G1 X3.293 Y14.365 E3.37452
G1 X2.239 Y14.365 E0.09806
G1 X-22.365 Y-10.239 E3.23585
G1 X-22.365 Y-9.185 E0.09806
G1 X1.185 Y14.365 E3.09717
G1 X0.130 Y14.365 E0.09806
G1 X-22.365 Y-8.130 E2.95850
G1 X-22.365 Y-7.076 E0.09806
G1 X-0.924 Y14.365 E2.81982
G1 X-1.979 Y14.365 E0.09806
G1 X-22.365 Y-6.021 E2.68114
G1 X-22.365 Y-4.967 E0.09806
G1 X-3.033 Y14.365 E2.54247
G1 X-4.088 Y14.365 E0.09806
G1 X-22.365 Y-3.912 E2.40379
G1 X-22.365 Y-2.858 E0.09806
G1 X-5.142 Y14.365 E2.26512
G1 X-6.196 Y14.365 E0.09806
G1 X-22.365 Y-1.804 E2.12644
G1 X-22.365 Y-0.749 E0.09806
G1 X-7.251 Y14.365 E1.98776
G1 X-8.305 Y14.365 E0.09806
G1 X-22.365 Y0.305 E1.84909
G1 X-22.365 Y1.360 E0.09806
G1 X-9.360 Y14.365 E1.71041
G1 X-10.414 Y14.365 E0.09806
G1 X-22.365 Y2.414 E1.57174
G1 X-22.365 Y3.469 E0.09806
G1 X-11.469 Y14.365 E1.43306
G1 X-12.523 Y14.365 E0.09806
G1 X-22.365 Y4.523 E1.29438
G1 X-22.365 Y5.578 E0.09806
G1 X-13.578 Y14.365 E1.15571
G1 X-14.632 Y14.365 E0.09806
G1 X-22.365 Y6.632 E1.01703
G1 X-22.365 Y7.686 E0.09806
G1 X-15.686 Y14.365 E0.87836
G1 X-16.741 Y14.365 E0.09806
G1 X-22.365 Y8.741 E0.73968
G1 X-22.365 Y9.795 E0.09806
G1 X-17.795 Y14.365 E0.60100
G1 X-18.850 Y14.365 E0.09806
G1 X-22.365 Y10.850 E0.46233
G1 X-22.365 Y11.904 E0.09806
G1 X-19.904 Y14.365 E0.32365
G1 X-20.959 Y14.365 E0.09806
G1 X-22.365 Y12.959 E0.18498
G1 X-22.365 Y14.013 E0.09806
G1 X-22.013 Y14.365 E0.04630
G1 E-3.20000 F3000.00000
G1 Z0.700 F9000.000
G1 X-23.264 Y4.241 F9000.000
G1 Z0.600 F9000.000
G1 E3.20000 F3000.00000
G1 X-23.264 Y-15.264 E1.05977 F1800.000
G1 X23.264 Y-15.264 E2.52804
G1 X23.264 Y15.264 E1.65871
G1 X-23.264 Y15.264 E2.52804 F1800.000
G1 X-23.264 Y4.301 E0.59569
G1 X-23.700 Y4.301 F9000.000
G1 X-23.700 Y-15.700 E1.08670 F1800.000
G1 X23.700 Y-15.700 E2.57538
G1 X23.700 Y15.700 E1.70605
G1 X-23.700 Y15.700 E2.57538 F1800.000
G1 X-23.700 Y4.361 E0.61609
G1 X-23.354 Y4.101 F9000.000
G1 X-22.782 Y-15.007 F9000.000
G1 X-23.007 Y-14.782 E0.01736 F1800.000
G1 X-23.007 Y-14.162 E0.03385
G1 X-22.162 Y-15.007 E0.06523
G1 X-21.543 Y-15.007 E0.03385
G1 X-23.007 Y-13.543 E0.11309
G1 X-23.007 Y-12.923 E0.03385
G1 X-20.923 Y-15.007 E0.16096
G1 X-20.304 Y-15.007 E0.03384
G1 X-23.007 Y-12.304 E0.20882
G1 X-23.007 Y-11.684 E0.03385
G1 X-19.684 Y-15.007 E0.25669
G1 X-19.065 Y-15.007 E0.03384
G1 X-23.007 Y-11.065 E0.30455
G1 X-23.007 Y-10.445 E0.03385
G1 X-18.445 Y-15.007 E0.35241
G1 X-17.826 Y-15.007 E0.03385
G1 X-23.007 Y-9.826 E0.40028
G1 X-23.007 Y-9.206 E0.03384
G1 X-17.206 Y-15.007 E0.44814
G1 X-16.587 Y-15.007 E0.03385
G1 X-23.007 Y-8.587 E0.49601
G1 X-23.007 Y-7.968 E0.03384
G1 X-15.968 Y-15.007 E0.54387
G1 X-15.348 Y-15.007 E0.03385
G1 X-23.007 Y-7.348 E0.59173
G1 X-23.007 Y-6.729 E0.03384
G1 X-14.729 Y-15.007 E0.63960
G1 X-14.109 Y-15.007 E0.03385
G1 X-23.007 Y-6.109 E0.68746
G1 X-23.007 Y-5.490 E0.03385
G1 X-13.490 Y-15.007 E0.73533
G1 X-12.870 Y-15.007 E0.03384
G1 X-23.007 Y-4.870 E0.78319
G1 X-23.007 Y-4.251 E0.03385
G1 X-12.251 Y-15.007 E0.83105
G1 X-11.631 Y-15.007 E0.03384
G1 X-23.007 Y-3.631 E0.87892
G1 X-23.007 Y-3.012 E0.03385
G1 X-11.012 Y-15.007 E0.92678
G1 X-10.392 Y-15.007 E0.03385
G1 X-23.007 Y-2.392 E0.97465
G1 X-23.007 Y-1.773 E0.03384
G1 X-9.773 Y-15.007 E1.02251
G1 X-9.153 Y-15.007 E0.03385
G1 X-23.007 Y-1.153 E1.07038
G1 X-23.007 Y-0.534 E0.03384
G1 X-8.534 Y-15.007 E1.11824
G1 X-7.914 Y-15.007 E0.03385
G1 X-23.007 Y0.086 E1.16610
G1 X-23.007 Y0.705 E0.03385
G1 X-7.295 Y-15.007 E1.21397
G1 X-6.675 Y-15.007 E0.03385
G1 X-23.007 Y1.325 E1.26183
G1 X-23.007 Y1.944 E0.03385
G1 X-6.056 Y-15.007 E1.30970
G1 X-5.436 Y-15.007 E0.03385
G1 X-23.007 Y2.564 E1.35756
G1 X-23.007 Y3.183 E0.03385
G1 X-4.817 Y-15.007 E1.40542
G1 X-4.197 Y-15.007 E0.03384
G1 X-23.007 Y3.803 E1.45329
G1 X-23.007 Y4.422 E0.03385
G1 X-3.578 Y-15.007 E1.50115
G1 X-2.958 Y-15.007 E0.03385
G1 X-23.007 Y5.042 E1.54902
G1 X-23.007 Y5.661 E0.03384
G1 X-2.339 Y-15.007 E1.59688
G1 X-1.719 Y-15.007 E0.03385
G1 X-23.007 Y6.281 E1.64474
G1 X-23.007 Y6.900 E0.03384
G1 X-1.100 Y-15.007 E1.69261
G1 X-0.481 Y-15.007 E0.03385
G1 X-23.007 Y7.519 E1.74047
G1 X-23.007 Y8.139 E0.03384
G1 X0.139 Y-15.007 E1.78834
G1 X0.758 Y-15.007 E0.03385
G1 X-23.007 Y8.758 E1.83620
G1 X-23.007 Y9.378 E0.03385
G1 X1.378 Y-15.007 E1.88406
G1 X1.997 Y-15.007 E0.03385
G1 X-23.007 Y9.997 E1.93193
G1 X-23.007 Y10.617 E0.03385
G1 X2.617 Y-15.007 E1.97979
G1 X3.236 Y-15.007 E0.03385
G1 X-23.007 Y11.236 E2.02766
G1 X-23.007 Y11.856 E0.03385
G1 X3.856 Y-15.007 E2.07552
G1 X4.475 Y-15.007 E0.03385
G1 X-23.007 Y12.475 E2.12339
G1 X-23.007 Y13.095 E0.03384
G1 X5.095 Y-15.007 E2.17125
G1 X5.714 Y-15.007 E0.03385
G1 X-23.007 Y13.714 E2.21911
G1 X-23.007 Y14.334 E0.03384
G1 X6.334 Y-15.007 E2.26698
G1 X6.953 Y-15.007 E0.03385
G1 X-23.007 Y14.953 E2.31484
G1 X-22.440 Y15.007 E0.03107
G1 X7.573 Y-15.007 E2.31896
G1 X8.192 Y-15.007 E0.03385
G1 X-21.821 Y15.007 E2.31896
G1 X-21.201 Y15.007 E0.03385
G1 X8.812 Y-15.007 E2.31896
G1 X9.431 Y-15.007 E0.03384
G1 X-20.582 Y15.007 E2.31896
G1 X-19.962 Y15.007 E0.03385
G1 X10.051 Y-15.007 E2.31896
G1 X10.670 Y-15.007 E0.03384
G1 X-19.343 Y15.007 E2.31896
G1 X-18.723 Y15.007 E0.03385
G1 X11.290 Y-15.007 E2.31896
G1 X11.909 Y-15.007 E0.03385
G1 X-18.104 Y15.007 E2.31896
G1 X-17.484 Y15.007 E0.03384
G1 X12.529 Y-15.007 E2.31896
G1 X13.148 Y-15.007 E0.03385
G1 X-16.865 Y15.007 E2.31896
G1 X-16.246 Y15.007 E0.03384
G1 X13.768 Y-15.007 E2.31896
G1 X14.387 Y-15.007 E0.03385
G1 X-15.626 Y15.007 E2.31896
G1 X-15.007 Y15.007 E0.03384
G1 X15.006 Y-15.007 E2.31896
G1 X15.626 Y-15.007 E0.03385
G1 X-14.387 Y15.007 E2.31896
G1 X-13.768 Y15.007 E0.03385
G1 X16.245 Y-15.007 E2.31896
G1 X16.865 Y-15.007 E0.03384
G1 X-13.148 Y15.007 E2.31896
G1 X-12.529 Y15.007 E0.03385
G1 X17.484 Y-15.007 E2.31896
G1 X18.104 Y-15.007 E0.03384
G1 X-11.909 Y15.007 E2.31896
G1 X-11.290 Y15.007 E0.03385
G1 X18.723 Y-15.007 E2.31896
G1 X19.343 Y-15.007 E0.03385
G1 X-10.670 Y15.007 E2.31896
G1 X-10.051 Y15.007 E0.03385
G1 X19.962 Y-15.007 E2.31896
G1 X20.582 Y-15.007 E0.03385
G1 X-9.431 Y15.007 E2.31896
G1 X-8.812 Y15.007 E0.03385
G1 X21.201 Y-15.007 E2.31896
G1 X21.821 Y-15.007 E0.03385
G1 X-8.192 Y15.007 E2.31896
G1 X-7.573 Y15.007 E0.03385
G1 X22.440 Y-15.007 E2.31896
G1 X23.007 Y-14.953 E0.03107
G1 X-6.953 Y15.007 E2.31485
G1 X-6.334 Y15.007 E0.03385
G1 X23.007 Y-14.334 E2.26698
G1 X23.007 Y-13.714 E0.03384
G1 X-5.714 Y15.007 E2.21912
G1 X-5.095 Y15.007 E0.03385
G1 X23.007 Y-13.095 E2.17126
G1 X23.007 Y-12.475 E0.03384
G1 X-4.475 Y15.007 E2.12339
G1 X-3.856 Y15.007 E0.03385
G1 X23.007 Y-11.856 E2.07553
G1 X23.007 Y-11.236 E0.03385
G1 X-3.236 Y15.007 E2.02766
G1 X-2.617 Y15.007 E0.03384
G1 X23.007 Y-10.617 E1.97980
G1 X23.007 Y-9.997 E0.03385
G1 X-1.997 Y15.007 E1.93193
G1 X-1.378 Y15.007 E0.03384
G1 X23.007 Y-9.378 E1.88407
G1 X23.007 Y-8.759 E0.03385
G1 X-0.759 Y15.007 E1.83621
G1 X-0.139 Y15.007 E0.03384
G1 X23.007 Y-8.139 E1.78834
G1 X23.007 Y-7.520 E0.03385
G1 X0.480 Y15.007 E1.74048
G1 X1.100 Y15.007 E0.03385
G1 X23.007 Y-6.900 E1.69261
G1 X23.007 Y-6.281 E0.03385
G1 X1.719 Y15.007 E1.64475
G1 X2.339 Y15.007 E0.03385
G1 X23.007 Y-5.661 E1.59689
G1 X23.007 Y-5.042 E0.03385
G1 X2.958 Y15.007 E1.54902
G1 X3.578 Y15.007 E0.03385
G1 X23.007 Y-4.422 E1.50116
G1 X23.007 Y-3.803 E0.03385
G1 X4.197 Y15.007 E1.45329
G1 X4.817 Y15.007 E0.03384
G1 X23.007 Y-3.183 E1.40543
G1 X23.007 Y-2.564 E0.03385
G1 X5.436 Y15.007 E1.35757
G1 X6.056 Y15.007 E0.03384
G1 X23.007 Y-1.944 E1.30970
G1 X23.007 Y-1.325 E0.03385
G1 X6.675 Y15.007 E1.26184
G1 X7.295 Y15.007 E0.03384
G1 X23.007 Y-0.705 E1.21397
G1 X23.007 Y-0.086 E0.03385
G1 X7.914 Y15.007 E1.16611
G1 X8.534 Y15.007 E0.03385
G1 X23.007 Y0.534 E1.11824
G1 X23.007 Y1.153 E0.03384
G1 X9.153 Y15.007 E1.07038
G1 X9.773 Y15.007 E0.03385
G1 X23.007 Y1.773 E1.02252
G1 X23.007 Y2.392 E0.03384
G1 X10.392 Y15.007 E0.97465
G1 X11.012 Y15.007 E0.03385
G1 X23.007 Y3.012 E0.92679
G1 X23.007 Y3.631 E0.03385
G1 X11.631 Y15.007 E0.87892
G1 X12.251 Y15.007 E0.03385
G1 X23.007 Y4.251 E0.83106
G1 X23.007 Y4.870 E0.03385
G1 X12.870 Y15.007 E0.78320
G1 X13.490 Y15.007 E0.03385
G1 X23.007 Y5.490 E0.73533
G1 X23.007 Y6.109 E0.03385
G1 X14.109 Y15.007 E0.68747
G1 X14.728 Y15.007 E0.03385
G1 X23.007 Y6.728 E0.63960
G1 X23.007 Y7.348 E0.03385
G1 X15.348 Y15.007 E0.59174
G1 X15.967 Y15.007 E0.03385
G1 X23.007 Y7.967 E0.54388
G1 X23.007 Y8.587 E0.03384
G1 X16.587 Y15.007 E0.49601
G1 X17.206 Y15.007 E0.03385
G1 X23.007 Y9.206 E0.44815
G1 X23.007 Y9.826 E0.03384
G1 X17.826 Y15.007 E0.40028
G1 X18.445 Y15.007 E0.03385
G1 X23.007 Y10.445 E0.35242
G1 X23.007 Y11.065 E0.03385
G1 X19.065 Y15.007 E0.30456
G1 X19.684 Y15.007 E0.03384
G1 X23.007 Y11.684 E0.25669
G1 X23.007 Y12.304 E0.03385
G1 X20.304 Y15.007 E0.20883
G1 X20.923 Y15.007 E0.03384
G1 X23.007 Y12.923 E0.16096
G1 X23.007 Y13.543 E0.03385
G1 X21.543 Y15.007 E0.11310
G1 X22.162 Y15.007 E0.03384
G1 X23.007 Y14.162 E0.06523
G1 X23.007 Y14.782 E0.03385
G1 X22.782 Y15.007 E0.01737
G1 E-3.20000 F3000.00000
G1 Z1.000 F9000.000
G1 X-1.751 Y15.264 F9000.000
G1 Z0.900 F9000.000
G1 E3.20000 F3000.00000
G1 X-23.264 Y15.264 E1.16888 F1800.000
G1 X-23.264 Y-15.264 E1.65871
G1 X23.264 Y-15.264 E2.52804
G1 X23.264 Y15.264 E1.65871
G1 X-1.691 Y15.264 E1.35591 F1800.000
G1 X-1.691 Y15.700 F9000.000
G1 X-23.700 Y15.700 E1.19580 F1800.000
G1 X-23.700 Y-15.700 E1.70605
G1 X23.700 Y-15.700 E2.57538
G1 X23.700 Y15.700 E1.70605
G1 X-1.631 Y15.700 E1.37631 F1800.000
G1 X-1.891 Y15.354 F9000.000
G1 X-23.007 Y14.782 F9000.000
G1 X-22.782 Y15.007 E0.01736 F1800.000
G1 X-22.162 Y15.007 E0.03384
G1 X-23.007 Y14.162 E0.06523
G1 X-23.007 Y13.543 E0.03385
G1 X-21.543 Y15.007 E0.11309
G1 X-20.923 Y15.007 E0.03385
G1 X-23.007 Y12.923 E0.16096
G1 X-23.007 Y12.304 E0.03384
G1 X-20.304 Y15.007 E0.20882
G1 X-19.684 Y15.007 E0.03385
G1 X-23.007 Y11.684 E0.25669
G1 X-23.007 Y11.065 E0.03384
G1 X-19.065 Y15.007 E0.30455
G1 X-18.445 Y15.007 E0.03385
G1 X-23.007 Y10.445 E0.35241
G1 X-23.007 Y9.826 E0.03384
G1 X-17.826 Y15.007 E0.40028
G1 X-17.206 Y15.007 E0.03385
G1 X-23.007 Y9.206 E0.44814
G1 X-23.007 Y8.587 E0.03385
G1 X-16.587 Y15.007 E0.49601
G1 X-15.968 Y15.007 E0.03384
G1 X-23.007 Y7.968 E0.54387
G1 X-23.007 Y7.348 E0.03385
G1 X-15.348 Y15.007 E0.59173
G1 X-14.729 Y15.007 E0.03384
G1 X-23.007 Y6.729 E0.63960
G1 X-23.007 Y6.109 E0.03385
G1 X-14.109 Y15.007 E0.68746
G1 X-13.490 Y15.007 E0.03384
G1 X-23.007 Y5.490 E0.73533
G1 X-23.007 Y4.870 E0.03385
G1 X-12.870 Y15.007 E0.78319
G1 X-12.251 Y15.007 E0.03385
G1 X-23.007 Y4.251 E0.83105
G1 X-23.007 Y3.631 E0.03384
G1 X-11.631 Y15.007 E0.87892
G1 X-11.012 Y15.007 E0.03385
G1 X-23.007 Y3.012 E0.92678
G1 X-23.007 Y2.392 E0.03384
G1 X-10.392 Y15.007 E0.97465
G1 X-9.773 Y15.007 E0.03385
G1 X-23.007 Y1.773 E1.02251
G1 X-23.007 Y1.153 E0.03385
G1 X-9.153 Y15.007 E1.07038
G1 X-8.534 Y15.007 E0.03385
G1 X-23.007 Y0.534 E1.11824
G1 X-23.007 Y-0.086 E0.03385
G1 X-7.914 Y15.007 E1.16610
G1 X-7.295 Y15.007 E0.03385
G1 X-23.007 Y-0.705 E1.21397
G1 X-23.007 Y-1.325 E0.03385
G1 X-6.675 Y15.007 E1.26183
G1 X-6.056 Y15.007 E0.03385
G1 X-23.007 Y-1.944 E1.30970
G1 X-23.007 Y-2.564 E0.03385
G1 X-5.436 Y15.007 E1.35756
G1 X-4.817 Y15.007 E0.03385
G1 X-23.007 Y-3.183 E1.40542
G1 X-23.007 Y-3.803 E0.03384
G1 X-4.197 Y15.007 E1.45329
G1 X-3.578 Y15.007 E0.03385
G1 X-23.007 Y-4.422 E1.50115
G1 X-23.007 Y-5.042 E0.03384
G1 X-2.958 Y15.007 E1.54902
G1 X-2.339 Y15.007 E0.03385
G1 X-23.007 Y-5.661 E1.59688
G1 X-23.007 Y-6.281 E0.03384
G1 X-1.719 Y15.007 E1.64474
G1 X-1.100 Y15.007 E0.03385
