; generated by Slic3r 1.2.9 on 2016-12-17 at 16:00:02

; external perimeters extrusion width = 0.50mm
; perimeters extrusion width = 0.50mm
; infill extrusion width = 0.50mm
; solid infill extrusion width = 0.50mm
; top infill extrusion width = 0.50mm

M107
;Basic settings: Layer height: {layer_height} Walls: {wall_thickness} Fill: {fill_density}
;Print time: {print_time}
;Filament used: {filament_amount}m {filament_weight}g
;Filament cost: {filament_cost}
;M190 S{print_bed_temperature} ;Uncomment to add your own bed temperature line
;M109 S{print_temperature} ;Uncomment to add your own temperature line
G21        ;metric values
G90        ;absolute positioning
M83
G10 P0 S200
T0
M116


G21 ; set units to millimeters
G90 ; use absolute coordinates
M83 ; use relative distances for extrusion
G1 E-3.20000 F3000.00000
G1 Z0.400 F9000.000
G1 X0.000 Y-28.606 F9000.000
G1 Z0.300 F9000.000
G1 E3.20000 F3000.00000
G1 X41.950 Y-28.606 E3.84893 F1200.000
G1 X43.621 Y-28.211 E0.15755
G1 X44.939 Y-27.111 E0.15755 F1200.000
G1 X45.686 Y-24.870 E0.21667
G1 X45.686 Y24.902 E4.56668
G1 X45.291 Y26.573 E0.15755
G1 X44.190 Y27.892 E0.15755
G1 X41.950 Y28.638 E0.21667
G1 X-41.950 Y28.638 E7.69787
G1 X-43.621 Y28.243 E0.15755
G1 X-44.939 Y27.143 E0.15755
G1 X-45.686 Y24.902 E0.21667
G1 X-45.686 Y-24.870 E4.56668
G1 X-45.291 Y-26.542 E0.15755
G1 X-44.190 Y-27.860 E0.15755
G1 X-41.950 Y-28.606 E0.21667
G1 X-0.060 Y-28.606 E3.84343
G1 E-3.20000 F3000.00000
G1 Z0.700 F9000.000
G1 X33.186 Y-23.735 F9000.000
G1 Z0.300 F9000.000
G1 E3.20000 F3000.00000
G1 X40.814 Y-23.735 E0.69994 F900.000
G1 X40.814 Y23.767 E4.35829
G1 X-40.814 Y23.767 E7.48948
G1 X-40.814 Y-23.735 E4.35829
G1 X-33.186 Y-23.735 E0.69994
G1 X-33.186 Y-21.755 E0.18164
G1 X-38.116 Y-21.755 E0.45236 F900.000
G1 X-37.895 Y14.753 E3.34973
G1 X37.849 Y14.753 E6.94956
G1 X38.071 Y-21.755 E3.34973
G1 X33.186 Y-21.755 E0.44823
G1 X33.186 Y-23.675 E0.17613
G1 X32.450 Y-23.675 F9000.000
G1 X32.450 Y-24.470 E0.07300 F900.000
G1 X41.550 Y-24.470 E0.83493
G1 X41.550 Y24.502 E4.49328
G1 X-41.550 Y24.502 E7.62447
G1 X-41.550 Y-24.470 E4.49328
G1 X-32.450 Y-24.470 E0.83493
G1 X-32.450 Y-21.019 E0.31663
G1 X-37.376 Y-21.019 E0.45195 F900.000
G1 X-37.163 Y14.018 E3.21474
G1 X37.118 Y14.018 E6.81539
G1 X37.331 Y-21.019 E3.21474
G1 X32.450 Y-21.019 E0.44782
G1 X32.450 Y-23.615 E0.23812
G1 X32.796 Y-23.875 F9000.000
G1 X33.734 Y-23.286 F9000.000
G1 X34.815 Y-22.204 E0.14114 F900.000
G1 X35.862 Y-22.204 E0.09659
G1 X34.780 Y-23.286 E0.14114
G1 X35.827 Y-23.286 E0.09659
G1 X36.908 Y-22.204 E0.14114
G1 X37.955 Y-22.204 F9000.000
G1 X36.874 Y-23.286 E0.14114 F900.000
G1 X37.920 Y-23.286 E0.09659
G1 X40.365 Y-20.840 E0.31916
G1 X40.365 Y-21.887 E0.09659
G1 X38.967 Y-23.286 E0.18256
G1 X40.013 Y-23.286 E0.09659
G1 X40.365 Y-22.934 E0.04596
G1 X38.518 Y-21.641 F9000.000
G1 X40.365 Y-19.794 E0.24105 F900.000
G1 X40.365 Y-18.747 E0.09659
G1 X38.512 Y-20.600 E0.24187
G1 X38.506 Y-19.560 E0.09601
G1 X40.365 Y-17.701 E0.24269
G1 X40.365 Y-16.654 E0.09659
G1 X38.500 Y-18.520 E0.24352
G1 X38.493 Y-17.480 E0.09601
G1 X40.365 Y-15.608 E0.24434
G1 X40.365 Y-14.561 E0.09659
G1 X38.487 Y-16.440 E0.24516
G1 X38.481 Y-15.399 E0.09601
G1 X40.365 Y-13.515 E0.24599
G1 X40.365 Y-12.468 E0.09659
G1 X38.474 Y-14.359 E0.24681
G1 X38.468 Y-13.319 E0.09601
G1 X40.365 Y-11.422 E0.24763
G1 X40.365 Y-10.375 E0.09659
G1 X38.462 Y-12.279 E0.24846
G1 X38.455 Y-11.239 E0.09601
G1 X40.365 Y-9.329 E0.24928
G1 X40.365 Y-8.282 E0.09659
G1 X38.449 Y-10.198 E0.25010
G1 X38.443 Y-9.158 E0.09601
G1 X40.365 Y-7.236 E0.25093
G1 X40.365 Y-6.189 E0.09659
G1 X38.436 Y-8.118 E0.25175
G1 X38.430 Y-7.078 E0.09601
G1 X40.365 Y-5.143 E0.25258
G1 X40.365 Y-4.096 E0.09659
G1 X38.424 Y-6.037 E0.25340
G1 X38.418 Y-4.997 E0.09601
G1 X40.365 Y-3.050 E0.25422
G1 X40.365 Y-2.003 E0.09659
G1 X38.411 Y-3.957 E0.25505
G1 X38.405 Y-2.917 E0.09601
G1 X40.365 Y-0.957 E0.25587
G1 X40.365 Y0.090 E0.09659
G1 X38.399 Y-1.877 E0.25669
G1 X38.392 Y-0.836 E0.09601
G1 X40.365 Y1.137 E0.25752
G1 X40.365 Y2.183 E0.09659
G1 X38.386 Y0.204 E0.25834
G1 X38.380 Y1.244 E0.09601
G1 X40.365 Y3.230 E0.25916
G1 X40.365 Y4.276 E0.09659
G1 X38.373 Y2.284 E0.25999
G1 X38.367 Y3.325 E0.09601
G1 X40.365 Y5.323 E0.26081
G1 X40.365 Y6.369 E0.09659
G1 X38.361 Y4.365 E0.26163
G1 X38.354 Y5.405 E0.09601
G1 X40.365 Y7.416 E0.26246
G1 X40.365 Y8.462 E0.09659
G1 X38.348 Y6.445 E0.26328
G1 X38.342 Y7.485 E0.09601
G1 X40.365 Y9.509 E0.26410
G1 X40.365 Y10.555 E0.09659
G1 X38.336 Y8.526 E0.26493
G1 X38.329 Y9.566 E0.09601
G1 X40.365 Y11.602 E0.26575
G1 X40.365 Y12.648 E0.09659
G1 X38.323 Y10.606 E0.26657
G1 X38.317 Y11.646 E0.09601
G1 X40.365 Y13.695 E0.26740
G1 X40.365 Y14.741 E0.09659
G1 X38.310 Y12.686 E0.26822
G1 X38.304 Y13.727 E0.09601
G1 X40.365 Y15.788 E0.26904
G1 X40.365 Y16.834 E0.09659
G1 X38.298 Y14.767 E0.26987
G1 X37.687 Y15.203 F9000.000
G1 X40.365 Y17.881 E0.34960 F900.000
G1 X40.365 Y18.927 E0.09659
G1 X36.640 Y15.203 E0.48620
G1 X35.594 Y15.203 E0.09659
G1 X40.365 Y19.974 E0.62280
G1 X40.365 Y21.020 E0.09659
G1 X34.547 Y15.203 E0.75940
G1 X33.501 Y15.203 E0.09659
G1 X40.365 Y22.067 E0.89600
G1 X40.365 Y23.114 E0.09659
G1 X32.454 Y15.203 E1.03260
G1 X31.408 Y15.203 E0.09659
G1 X39.523 Y23.318 E1.05923
G1 X38.476 Y23.318 E0.09659
G1 X30.361 Y15.203 E1.05923
G1 X29.315 Y15.203 E0.09659
G1 X37.430 Y23.318 E1.05923
G1 X36.383 Y23.318 E0.09659
G1 X28.268 Y15.203 E1.05923
G1 X27.222 Y15.203 E0.09659
G1 X35.337 Y23.318 E1.05923
G1 X34.290 Y23.318 E0.09659
G1 X26.175 Y15.203 E1.05923
G1 X25.129 Y15.203 E0.09659
G1 X33.243 Y23.318 E1.05923
G1 X32.197 Y23.318 E0.09659
G1 X24.082 Y15.203 E1.05923
G1 X23.035 Y15.203 E0.09659
G1 X31.150 Y23.318 E1.05923
G1 X30.104 Y23.318 E0.09659
G1 X21.989 Y15.203 E1.05923
G1 X20.942 Y15.203 E0.09659
G1 X29.057 Y23.318 E1.05923
G1 X28.011 Y23.318 E0.09659
G1 X19.896 Y15.203 E1.05923
G1 X18.849 Y15.203 E0.09659
G1 X26.964 Y23.318 E1.05923
G1 X25.918 Y23.318 E0.09659
G1 X17.803 Y15.203 E1.05923
G1 X16.756 Y15.203 E0.09659
G1 X24.871 Y23.318 E1.05923
G1 X23.825 Y23.318 E0.09659
G1 X15.710 Y15.203 E1.05923
G1 X14.663 Y15.203 E0.09659
G1 X22.778 Y23.318 E1.05923
G1 X21.732 Y23.318 E0.09659
G1 X13.617 Y15.203 E1.05923
G1 X12.570 Y15.203 E0.09659
G1 X20.685 Y23.318 E1.05923
G1 X19.639 Y23.318 E0.09659
G1 X11.524 Y15.203 E1.05923
G1 X10.477 Y15.203 E0.09659
G1 X18.592 Y23.318 E1.05923
G1 X17.546 Y23.318 E0.09659
G1 X9.431 Y15.203 E1.05923
G1 X8.384 Y15.203 E0.09659
G1 X16.499 Y23.318 E1.05923
G1 X15.453 Y23.318 E0.09659
G1 X7.338 Y15.203 E1.05923
G1 X6.291 Y15.203 E0.09659
G1 X14.406 Y23.318 E1.05923
G1 X13.360 Y23.318 E0.09659
G1 X5.245 Y15.203 E1.05923
G1 X4.198 Y15.203 E0.09659
G1 X12.313 Y23.318 E1.05923
G1 X11.267 Y23.318 E0.09659
G1 X3.152 Y15.203 E1.05923
G1 X2.105 Y15.203 E0.09659
G1 X10.220 Y23.318 E1.05923
G1 X9.173 Y23.318 E0.09659
G1 X1.058 Y15.203 E1.05923
G1 X0.012 Y15.203 E0.09659
G1 X8.127 Y23.318 E1.05923
G1 X7.080 Y23.318 E0.09659
G1 X-1.035 Y15.203 E1.05923
G1 X-2.081 Y15.203 E0.09659
G1 X6.034 Y23.318 E1.05923
G1 X4.987 Y23.318 E0.09659
G1 X-3.128 Y15.203 E1.05923
G1 X-4.174 Y15.203 E0.09659
G1 X3.941 Y23.318 E1.05923
G1 X2.894 Y23.318 E0.09659
G1 X-5.221 Y15.203 E1.05923
G1 X-6.267 Y15.203 E0.09659
G1 X1.848 Y23.318 E1.05923
G1 X0.801 Y23.318 E0.09659
G1 X-7.314 Y15.203 E1.05923
G1 X-8.360 Y15.203 E0.09659
G1 X-0.245 Y23.318 E1.05923
G1 X-1.292 Y23.318 E0.09659
G1 X-9.407 Y15.203 E1.05923
G1 X-10.453 Y15.203 E0.09659
G1 X-2.338 Y23.318 E1.05923
G1 X-3.385 Y23.318 E0.09659
G1 X-11.500 Y15.203 E1.05923
G1 X-12.546 Y15.203 E0.09659
G1 X-4.431 Y23.318 E1.05923
G1 X-5.478 Y23.318 E0.09659
G1 X-13.593 Y15.203 E1.05923
G1 X-14.639 Y15.203 E0.09659
G1 X-6.524 Y23.318 E1.05923
G1 X-7.571 Y23.318 E0.09659
G1 X-15.686 Y15.203 E1.05923
G1 X-16.732 Y15.203 E0.09659
G1 X-8.617 Y23.318 E1.05923
G1 X-9.664 Y23.318 E0.09659
G1 X-17.779 Y15.203 E1.05923
G1 X-18.825 Y15.203 E0.09659
G1 X-10.710 Y23.318 E1.05923
G1 X-11.757 Y23.318 E0.09659
G1 X-19.872 Y15.203 E1.05923
G1 X-20.919 Y15.203 E0.09659
G1 X-12.804 Y23.318 E1.05923
G1 X-13.850 Y23.318 E0.09659
G1 X-21.965 Y15.203 E1.05923
G1 X-23.012 Y15.203 E0.09659
G1 X-14.897 Y23.318 E1.05923
G1 X-15.943 Y23.318 E0.09659
G1 X-24.058 Y15.203 E1.05923
G1 X-25.105 Y15.203 E0.09659
G1 X-16.990 Y23.318 E1.05923
G1 X-18.036 Y23.318 E0.09659
G1 X-26.151 Y15.203 E1.05923
G1 X-27.198 Y15.203 E0.09659
G1 X-19.083 Y23.318 E1.05923
G1 X-20.129 Y23.318 E0.09659
G1 X-28.244 Y15.203 E1.05923
G1 X-29.291 Y15.203 E0.09659
G1 X-21.176 Y23.318 E1.05923
G1 X-22.222 Y23.318 E0.09659
G1 X-30.337 Y15.203 E1.05923
G1 X-31.384 Y15.203 E0.09659
G1 X-23.269 Y23.318 E1.05923
G1 X-24.315 Y23.318 E0.09659
G1 X-32.430 Y15.203 E1.05923
G1 X-33.477 Y15.203 E0.09659
G1 X-25.362 Y23.318 E1.05923
G1 X-26.408 Y23.318 E0.09659
G1 X-34.523 Y15.203 E1.05923
G1 X-35.570 Y15.203 E0.09659
G1 X-27.455 Y23.318 E1.05923
G1 X-28.501 Y23.318 E0.09659
G1 X-36.616 Y15.203 E1.05923
G1 X-37.663 Y15.203 E0.09659
G1 X-29.548 Y23.318 E1.05923
G1 X-30.594 Y23.318 E0.09659
G1 X-40.365 Y13.547 E1.27536
G1 X-40.365 Y14.593 E0.09659
G1 X-31.641 Y23.318 E1.13875
G1 X-32.687 Y23.318 E0.09659
G1 X-40.365 Y15.640 E1.00215
G1 X-40.365 Y16.686 E0.09659
G1 X-33.734 Y23.318 E0.86555
G1 X-34.781 Y23.318 E0.09659
G1 X-40.365 Y17.733 E0.72895
G1 X-40.365 Y18.779 E0.09659
G1 X-35.827 Y23.318 E0.59235
G1 X-36.874 Y23.318 E0.09659
G1 X-40.365 Y19.826 E0.45575
G1 X-40.365 Y20.872 E0.09659
G1 X-37.920 Y23.318 E0.31915
G1 X-38.967 Y23.318 E0.09659
G1 X-40.365 Y21.919 E0.18255
G1 X-40.365 Y22.965 E0.09659
G1 X-40.013 Y23.318 E0.04595
G1 X-38.346 Y14.519 F9000.000
G1 X-40.365 Y12.500 E0.26353 F900.000
G1 X-40.365 Y11.454 E0.09659
G1 X-38.353 Y13.466 E0.26270
G1 X-38.359 Y12.413 E0.09718
G1 X-40.365 Y10.407 E0.26187
G1 X-40.365 Y9.361 E0.09659
G1 X-38.365 Y11.361 E0.26103
G1 X-38.372 Y10.308 E0.09718
G1 X-40.365 Y8.314 E0.26020
G1 X-40.365 Y7.268 E0.09659
G1 X-38.378 Y9.255 E0.25937
G1 X-38.385 Y8.202 E0.09718
G1 X-40.365 Y6.221 E0.25853
G1 X-40.365 Y5.175 E0.09659
G1 X-38.391 Y7.149 E0.25770
G1 X-38.397 Y6.096 E0.09718
G1 X-40.365 Y4.128 E0.25687
G1 X-40.365 Y3.082 E0.09659
G1 X-38.404 Y5.043 E0.25603
G1 X-38.410 Y3.990 E0.09718
G1 X-40.365 Y2.035 E0.25520
G1 X-40.365 Y0.988 E0.09659
G1 X-38.416 Y2.937 E0.25437
G1 X-38.423 Y1.884 E0.09718
G1 X-40.365 Y-0.058 E0.25353
G1 X-40.365 Y-1.105 E0.09659
G1 X-38.429 Y0.831 E0.25270
G1 X-38.436 Y-0.221 E0.09718
G1 X-40.365 Y-2.151 E0.25187
G1 X-40.365 Y-3.198 E0.09659
G1 X-38.442 Y-1.274 E0.25103
G1 X-38.448 Y-2.327 E0.09718
G1 X-40.365 Y-4.244 E0.25020
G1 X-40.365 Y-5.291 E0.09659
G1 X-38.455 Y-3.380 E0.24937
G1 X-38.461 Y-4.433 E0.09718
G1 X-40.365 Y-6.337 E0.24853
G1 X-40.365 Y-7.384 E0.09659
G1 X-38.468 Y-5.486 E0.24770
G1 X-38.474 Y-6.539 E0.09718
G1 X-40.365 Y-8.430 E0.24687
G1 X-40.365 Y-9.477 E0.09659
G1 X-38.480 Y-7.592 E0.24603
G1 X-38.487 Y-8.645 E0.09718
G1 X-40.365 Y-10.523 E0.24520
G1 X-40.365 Y-11.570 E0.09659
G1 X-38.493 Y-9.698 E0.24437
G1 X-38.499 Y-10.751 E0.09718
G1 X-40.365 Y-12.616 E0.24353
G1 X-40.365 Y-13.663 E0.09659
G1 X-38.506 Y-11.803 E0.24270
G1 X-38.512 Y-12.856 E0.09718
G1 X-40.365 Y-14.709 E0.24187
G1 X-40.365 Y-15.756 E0.09659
G1 X-38.519 Y-13.909 E0.24103
G1 X-38.525 Y-14.962 E0.09718
G1 X-40.365 Y-16.802 E0.24020
G1 X-40.365 Y-17.849 E0.09659
G1 X-38.531 Y-16.015 E0.23937
G1 X-38.538 Y-17.068 E0.09718
G1 X-40.365 Y-18.895 E0.23853
G1 X-40.365 Y-19.942 E0.09659
G1 X-38.544 Y-18.121 E0.23770
G1 X-38.551 Y-19.174 E0.09718
G1 X-40.365 Y-20.989 E0.23687
G1 X-40.365 Y-22.035 E0.09659
G1 X-38.557 Y-20.227 E0.23603
G1 X-38.563 Y-21.280 E0.09718
G1 X-40.365 Y-23.082 E0.23520
G1 X-39.523 Y-23.286 E0.08000
G1 X-38.441 Y-22.204 E0.14114
G1 X-37.395 Y-22.204 E0.09659
G1 X-38.476 Y-23.286 E0.14114
G1 X-37.430 Y-23.286 E0.09659
G1 X-36.348 Y-22.204 E0.14114
G1 X-35.302 Y-22.204 E0.09659
G1 X-36.383 Y-23.286 E0.14114
G1 X-35.337 Y-23.286 E0.09659
G1 X-34.255 Y-22.204 E0.14114
G1 X-33.635 Y-22.630 E0.06947
G1 X-34.290 Y-23.286 E0.08553
G1 E-3.20000 F3000.00000
G1 Z0.700 F9000.000
G1 X-32.736 Y-21.241 F9000.000
G1 Z0.600 F9000.000
G1 E3.20000 F3000.00000
G1 X-37.653 Y-21.241 E0.26715 F1800.000
G1 X-37.437 Y14.346 E1.93357
G1 X37.392 Y14.346 E4.06564
G1 X37.607 Y-21.241 E1.93357
G1 X32.736 Y-21.241 E0.26470
G1 X32.736 Y-24.121 E0.15646
G1 X41.264 Y-24.121 E0.46339
G1 X41.264 Y24.217 E2.62633
G1 X-41.264 Y24.217 E4.48402
G1 X-41.264 Y-24.121 E2.62633
G1 X-32.736 Y-24.121 E0.46339
G1 X-32.736 Y-21.301 E0.15320
G1 X-32.300 Y-21.301 F9000.000
G1 X-32.300 Y-20.806 E0.02693 F1800.000
G1 X-37.214 Y-20.806 E0.26701 F1800.000
G1 X-37.004 Y13.910 E1.88623
G1 X36.959 Y13.910 E4.01859
G1 X37.169 Y-20.806 E1.88623
G1 X32.300 Y-20.806 E0.26456
G1 X32.300 Y-24.557 E0.20380
G1 X41.700 Y-24.557 E0.51073
G1 X41.700 Y24.652 E2.67367
G1 X-41.700 Y24.652 E4.53136
G1 X-41.700 Y-24.557 E2.67367
G1 X-32.300 Y-24.557 E0.51073
G1 X-32.300 Y-21.361 E0.17361
G1 X-32.646 Y-21.101 F9000.000
G1 X-32.993 Y-21.794 F9000.000
G1 X-33.288 Y-21.499 E0.02263 F1800.000
G1 X-33.904 Y-21.499 E0.03348
G1 X-32.993 Y-22.410 E0.06997
G1 X-32.993 Y-23.026 E0.03348
G1 X-34.520 Y-21.499 E0.11732
G1 X-35.136 Y-21.499 E0.03348
G1 X-32.993 Y-23.642 E0.16467
G1 X-33.388 Y-23.863 E0.02460
G1 X-35.752 Y-21.499 E0.18167
G1 X-36.369 Y-21.499 E0.03348
G1 X-34.005 Y-23.863 E0.18167
G1 X-34.621 Y-23.863 E0.03348
G1 X-36.985 Y-21.499 E0.18167
G1 X-37.601 Y-21.499 F9000.000
G1 X-35.237 Y-23.863 E0.18167 F1800.000
G1 X-35.853 Y-23.863 E0.03348
G1 X-41.007 Y-18.710 E0.39604
G1 X-41.007 Y-19.326 E0.03348
G1 X-36.469 Y-23.863 E0.34869
G1 X-37.085 Y-23.863 E0.03348
G1 X-41.007 Y-19.942 E0.30135
G1 X-41.007 Y-20.558 E0.03348
G1 X-37.701 Y-23.863 E0.25400
G1 X-38.317 Y-23.863 E0.03348
G1 X-41.007 Y-21.174 E0.20665
G1 X-41.007 Y-21.790 E0.03348
G1 X-38.933 Y-23.863 E0.15931
G1 X-39.550 Y-23.863 E0.03348
G1 X-41.007 Y-22.406 E0.11196
G1 X-41.007 Y-23.022 E0.03348
G1 X-40.166 Y-23.863 E0.06461
G1 X-40.782 Y-23.863 E0.03348
G1 X-41.007 Y-23.639 E0.01727
G1 X-37.910 Y-21.190 F9000.000
G1 X-41.007 Y-18.093 E0.23799 F1800.000
G1 X-41.007 Y-17.477 E0.03348
G1 X-37.906 Y-20.578 E0.23828
G1 X-37.902 Y-19.966 E0.03328
G1 X-41.007 Y-16.861 E0.23856
G1 X-41.007 Y-16.245 E0.03348
G1 X-37.898 Y-19.353 E0.23885
G1 X-37.895 Y-18.741 E0.03328
G1 X-41.007 Y-15.629 E0.23913
G1 X-41.007 Y-15.013 E0.03348
G1 X-37.891 Y-18.128 E0.23942
G1 X-37.887 Y-17.516 E0.03328
G1 X-41.007 Y-14.397 E0.23970
G1 X-41.007 Y-13.781 E0.03348
G1 X-37.884 Y-16.904 E0.23999
G1 X-37.880 Y-16.291 E0.03328
G1 X-41.007 Y-13.164 E0.24028
G1 X-41.007 Y-12.548 E0.03348
G1 X-37.876 Y-15.679 E0.24056
G1 X-37.872 Y-15.066 E0.03328
G1 X-41.007 Y-11.932 E0.24085
G1 X-41.007 Y-11.316 E0.03348
G1 X-37.869 Y-14.454 E0.24113
G1 X-37.865 Y-13.842 E0.03328
G1 X-41.007 Y-10.700 E0.24142
G1 X-41.007 Y-10.084 E0.03348
G1 X-37.861 Y-13.229 E0.24170
G1 X-37.858 Y-12.617 E0.03328
G1 X-41.007 Y-9.468 E0.24199
G1 X-41.007 Y-8.852 E0.03348
G1 X-37.854 Y-12.004 E0.24227
G1 X-37.850 Y-11.392 E0.03328
G1 X-41.007 Y-8.235 E0.24256
G1 X-41.007 Y-7.619 E0.03348
G1 X-37.846 Y-10.779 E0.24284
G1 X-37.843 Y-10.167 E0.03328
G1 X-41.007 Y-7.003 E0.24313
G1 X-41.007 Y-6.387 E0.03348
G1 X-37.839 Y-9.555 E0.24341
G1 X-37.835 Y-8.942 E0.03328
G1 X-41.007 Y-5.771 E0.24370
G1 X-41.007 Y-5.155 E0.03348
G1 X-37.832 Y-8.330 E0.24399
G1 X-37.828 Y-7.717 E0.03328
G1 X-41.007 Y-4.539 E0.24427
G1 X-41.007 Y-3.923 E0.03348
G1 X-37.824 Y-7.105 E0.24456
G1 X-37.820 Y-6.493 E0.03328
G1 X-41.007 Y-3.307 E0.24484
G1 X-41.007 Y-2.690 E0.03348
G1 X-37.817 Y-5.880 E0.24513
G1 X-37.813 Y-5.268 E0.03328
G1 X-41.007 Y-2.074 E0.24541
G1 X-41.007 Y-1.458 E0.03348
G1 X-37.809 Y-4.655 E0.24570
G1 X-37.806 Y-4.043 E0.03328
G1 X-41.007 Y-0.842 E0.24598
G1 X-41.007 Y-0.226 E0.03348
G1 X-37.802 Y-3.431 E0.24627
G1 X-37.798 Y-2.818 E0.03328
G1 X-41.007 Y0.390 E0.24655
G1 X-41.007 Y1.006 E0.03348
G1 X-37.794 Y-2.206 E0.24684
G1 X-37.791 Y-1.593 E0.03328
G1 X-41.007 Y1.622 E0.24712
G1 X-41.007 Y2.239 E0.03348
G1 X-37.787 Y-0.981 E0.24741
G1 X-37.783 Y-0.369 E0.03328
G1 X-41.007 Y2.855 E0.24769
